; generated by Slic3r 1.2.9 on 2016-05-24 at 13:21:00

; external perimeters extrusion width = 0.40mm
; perimeters extrusion width = 0.67mm
; infill extrusion width = 0.67mm
; solid infill extrusion width = 0.67mm
; top infill extrusion width = 0.67mm
; support material extrusion width = 0.40mm

M107
M190 S60 ; set bed temperature
M104 S200 ; set temperature
G28 ; home all axes

M109 S200 ; wait for temperature to be reached
G21 ; set units to millimeters
G90 ; use absolute coordinates
M82 ; use absolute distances for extrusion
G92 E0
G1 E-4.00000 F4800.00000
G92 E0
G1 Z1.000 F3600.000
G1 X31.257 Y0.000 F3600.000
G1 Z0.300 F3600.000
G1 E4.00000 F4800.00000
G1 X31.257 Y25.000 E5.30612 F1200.000
G1 X30.860 Y27.193 E5.42254
G1 X29.720 Y29.107 E5.53896
G1 X27.981 Y30.501 E5.65537
G1 X25.000 Y31.257 E5.81604
G1 X-25.000 Y31.257 E8.42829
G1 X-27.193 Y30.860 E8.54471
G1 X-29.107 Y29.720 E8.66112
G1 X-30.501 Y27.981 E8.77754
G1 X-31.257 Y25.000 E8.93821
G1 X-31.257 Y-25.000 E11.55046
G1 X-30.860 Y-27.193 E11.66687
G1 X-29.720 Y-29.107 E11.78329
G1 X-27.981 Y-30.501 E11.89971
G1 X-25.000 Y-31.257 E12.06038
G1 X25.000 Y-31.257 E14.67262
G1 X27.193 Y-30.860 E14.78904
G1 X29.107 Y-29.720 E14.90546 F1200.000
G1 X30.501 Y-27.981 E15.02188
G1 X31.257 Y-25.000 E15.18255
G1 X31.257 Y-0.060 E16.48553
G1 X30.838 Y0.000 F3600.000
G1 X30.838 Y25.000 E17.79166 F1200.000
G1 X30.441 Y27.115 E17.90408
G1 X29.305 Y28.943 E18.01650
G1 X27.585 Y30.234 E18.12892
G1 X25.000 Y30.838 E18.26758
G1 X-25.000 Y30.838 E20.87982
G1 X-27.115 Y30.441 E20.99224
G1 X-28.943 Y29.305 E21.10466
G1 X-30.234 Y27.585 E21.21708
G1 X-30.838 Y25.000 E21.35574
G1 X-30.838 Y-25.000 E23.96799
G1 X-30.441 Y-27.115 E24.08041
G1 X-29.305 Y-28.943 E24.19283
G1 X-27.585 Y-30.234 E24.30525
G1 X-25.000 Y-30.838 E24.44391
G1 X25.000 Y-30.838 E27.05615
G1 X27.115 Y-30.441 E27.16857
G1 X28.943 Y-29.305 E27.28099 F1200.000
G1 X30.234 Y-27.585 E27.39341
G1 X30.838 Y-25.000 E27.53207
G1 X30.838 Y-0.060 E28.83506
G1 X30.419 Y0.000 F3600.000
G1 X30.419 Y25.000 E30.14118 F1200.000
G1 X30.023 Y27.034 E30.24946
G1 X28.892 Y28.771 E30.35773
G1 X27.191 Y29.956 E30.46601
G1 X25.000 Y30.419 E30.58303
G1 X-25.000 Y30.419 E33.19527
G1 X-27.034 Y30.023 E33.30355
G1 X-28.771 Y28.892 E33.41182
G1 X-29.956 Y27.191 E33.52010
G1 X-30.419 Y25.000 E33.63712
G1 X-30.419 Y-25.000 E36.24936
G1 X-30.023 Y-27.034 E36.35764
G1 X-28.892 Y-28.771 E36.46591
G1 X-27.191 Y-29.956 E36.57419
G1 X-25.000 Y-30.419 E36.69121
G1 X25.000 Y-30.419 E39.30345
G1 X27.034 Y-30.023 E39.41173
G1 X28.771 Y-28.892 E39.52000 F1200.000
G1 X29.956 Y-27.191 E39.62828
G1 X30.419 Y-25.000 E39.74529
G1 X30.419 Y-0.060 E41.04828
G1 F2880
G1 X30.419 Y2.340 E37.24828
G1 E37.04828 F4800.00000
G92 E0
G1 Z1.300 F3600.000
G1 X24.004 Y-24.004 F3600.000
G1 Z0.300 F3600.000
G1 E4.00000 F4800.00000
G1 X24.004 Y24.004 E6.50816 F1200.000
G1 X-24.004 Y24.004 E9.01632
G1 X-24.004 Y-24.004 E11.52448
G1 X23.944 Y-24.004 E14.02950
G1 X24.423 Y-24.423 F3600.000
G1 X24.423 Y24.423 E16.58143 F1200.000
G1 X-24.423 Y24.423 E19.13336
G1 X-24.423 Y-24.423 E21.68529
G1 X24.363 Y-24.423 E24.23408
G1 X24.800 Y-24.800 F3600.000
G1 X24.800 Y24.800 E26.31035 F1200.000
G1 X-24.800 Y24.800 E28.38663
G1 X-24.800 Y-24.800 E30.46290
G1 X24.740 Y-24.800 E32.53666
G1 X24.600 Y-24.454 F3600.000
G1 X23.757 Y-23.539 F3600.000
G1 X23.539 Y-23.757 E32.55281 F1200.000
G1 X22.944 Y-23.757 E32.58403
G1 X23.757 Y-22.944 E32.64432
G1 X23.757 Y-22.349 E32.67554
G1 X22.349 Y-23.757 E32.77998
G1 X21.754 Y-23.757 E32.81119
G1 X23.757 Y-21.754 E32.95978
G1 X23.757 Y-21.159 E32.99099
G1 X21.159 Y-23.757 E33.18372
G1 X20.564 Y-23.757 E33.21493
G1 X23.757 Y-20.564 E33.45180
G1 X23.757 Y-19.970 E33.48302
G1 X19.969 Y-23.757 E33.76403
G1 X19.375 Y-23.757 E33.79525
G1 X23.757 Y-19.375 E34.12040
G1 X23.757 Y-18.780 E34.15162
G1 X18.780 Y-23.757 E34.52092
G1 X18.185 Y-23.757 E34.55213
G1 X23.757 Y-18.185 E34.96558
G1 X23.757 Y-17.590 E34.99679
G1 X17.590 Y-23.757 E35.45438
G1 X16.995 Y-23.757 E35.48559
G1 X23.757 Y-16.995 E35.98732
G1 X23.757 Y-16.400 E36.01854
G1 X16.400 Y-23.757 E36.56441
G1 X15.805 Y-23.757 E36.59562
G1 X23.757 Y-15.805 E37.18564
G1 X23.757 Y-15.210 E37.21685
G1 X15.210 Y-23.757 E37.85101
G1 X14.615 Y-23.757 E37.88223
G1 X23.757 Y-14.615 E38.56053
G1 X23.757 Y-14.020 E38.59175
G1 X14.020 Y-23.757 E39.31419
G1 X13.425 Y-23.757 E39.34541
G1 X23.757 Y-13.425 E40.11200
G1 X23.757 Y-12.831 E40.14321
G1 X12.831 Y-23.757 E40.95394
G1 X12.236 Y-23.757 E40.98516
G1 X23.757 Y-12.236 E41.84003
G1 X23.757 Y-11.641 E41.87125
G1 X11.641 Y-23.757 E42.77027
G1 X11.046 Y-23.757 E42.80148
G1 X23.757 Y-11.046 E43.74464
G1 X23.757 Y-10.451 E43.77586
G1 X10.451 Y-23.757 E44.76316
G1 X9.856 Y-23.757 E44.79438
G1 X23.757 Y-9.856 E45.82583
G1 X23.757 Y-9.261 E45.85704
G1 X9.261 Y-23.757 E46.93263
G1 X8.666 Y-23.757 E46.96385
G1 X23.757 Y-8.666 E48.08358
G1 X23.757 Y-8.071 E48.11480
G1 X8.071 Y-23.757 E49.27868
G1 X7.476 Y-23.757 E49.30989
G1 X23.757 Y-7.476 E50.51791
G1 X23.757 Y-6.881 E50.54913
G1 X6.881 Y-23.757 E51.80129
G1 X6.286 Y-23.757 E51.83251
G1 X23.757 Y-6.286 E53.12881
G1 X23.757 Y-5.692 E53.16003
G1 X5.692 Y-23.757 E54.50048
G1 X5.097 Y-23.757 E54.53169
G1 X23.757 Y-5.097 E55.91629
G1 X23.757 Y-4.502 E55.94750
G1 X4.502 Y-23.757 E57.37624
G1 X3.907 Y-23.757 E57.40746
G1 X23.757 Y-3.907 E58.88034
G1 X23.757 Y-3.312 E58.91155
G1 X3.312 Y-23.757 E60.42858
G1 X2.717 Y-23.757 E60.45979
G1 X23.757 Y-2.717 E62.02096
G1 X23.757 Y-2.122 E62.05217
G1 X2.122 Y-23.757 E63.65748
G1 X1.527 Y-23.757 E63.68870
G1 X23.757 Y-1.527 E65.33815
G1 X23.757 Y-0.932 E65.36937
G1 X0.932 Y-23.757 E67.06296
G1 X0.337 Y-23.757 E67.09418
G1 X23.757 Y-0.337 E68.83192
G1 X23.757 Y0.258 E68.86313
G1 X-0.258 Y-23.757 E70.64502
G1 X-0.853 Y-23.757 E70.67623
G1 X23.757 Y0.853 E72.50226
G1 X23.757 Y1.447 E72.53347
G1 X-1.447 Y-23.757 E74.40364
G1 X-2.042 Y-23.757 E74.43486
G1 X23.757 Y2.042 E76.34917
G1 X23.757 Y2.637 E76.38039
G1 X-2.637 Y-23.757 E78.33884
G1 X-3.232 Y-23.757 E78.37006
G1 X23.757 Y3.232 E80.37266
G1 X23.757 Y3.827 E80.40387
G1 X-3.827 Y-23.757 E82.45062
G1 X-4.422 Y-23.757 E82.48183
G1 X23.757 Y4.422 E84.57272
G1 X23.757 Y5.017 E84.60393
G1 X-5.017 Y-23.757 E86.73896
G1 X-5.612 Y-23.757 E86.77017
G1 X23.757 Y5.612 E88.94935
G1 X23.757 Y6.207 E88.98056
G1 X-6.207 Y-23.757 E91.20388
G1 X-6.802 Y-23.757 E91.23509
G1 X23.757 Y6.802 E93.50255
G1 X23.757 Y7.397 E93.53377
G1 X-7.397 Y-23.757 E95.84537
G1 X-7.991 Y-23.757 E95.87658
G1 X23.757 Y7.991 E98.23233
G1 X23.757 Y8.586 E98.26354
G1 X-8.586 Y-23.757 E100.66343
G1 X-9.181 Y-23.757 E100.69465
G1 X23.757 Y9.181 E103.13868
G1 X23.757 Y9.776 E103.16989
G1 X-9.776 Y-23.757 E105.65807
G1 X-10.371 Y-23.757 E105.68928
G1 X23.757 Y10.371 E108.22160
G1 X23.757 Y10.966 E108.25282
G1 X-10.966 Y-23.757 E110.82928
G1 X-11.561 Y-23.757 E110.86049
G1 X23.757 Y11.561 E113.48110
G1 X23.757 Y12.156 E113.51231
G1 X-12.156 Y-23.757 E116.17706
G1 X-12.751 Y-23.757 E116.20828
G1 X23.757 Y12.751 E118.91717
G1 X23.757 Y13.346 E118.94838
G1 X-13.346 Y-23.757 E121.70142
G1 X-13.941 Y-23.757 E121.73263
G1 X23.757 Y13.941 E124.52981
G1 X23.757 Y14.536 E124.56103
G1 X-14.536 Y-23.757 E127.40235
G1 X-15.130 Y-23.757 E127.43356
G1 X23.757 Y15.130 E130.31903
G1 X23.757 Y15.725 E130.35024
G1 X-15.725 Y-23.757 E133.27985
G1 X-16.320 Y-23.757 E133.31106
G1 X23.757 Y16.320 E136.28482
G1 X23.757 Y16.915 E136.31603
G1 X-16.915 Y-23.757 E139.33392
G1 X-17.510 Y-23.757 E139.36514
G1 X23.757 Y17.510 E142.42718
G1 X23.757 Y18.105 E142.45839
G1 X-18.105 Y-23.757 E145.56457
G1 X-18.700 Y-23.757 E145.59579
G1 X23.757 Y18.700 E148.74611
G1 X23.757 Y19.295 E148.77732
G1 X-19.295 Y-23.757 E151.97179
G1 X-19.890 Y-23.757 E152.00301
G1 X23.757 Y19.890 E155.24162
G1 X23.757 Y20.485 E155.27283
G1 X-20.485 Y-23.757 E158.55559
G1 X-21.080 Y-23.757 E158.58680
G1 X23.757 Y21.080 E161.91370
G1 X23.757 Y21.675 E161.94491
G1 X-21.675 Y-23.757 E165.31595
G1 X-22.269 Y-23.757 E165.34717
G1 X23.757 Y22.269 E168.76235
G1 X23.757 Y22.864 E168.79356
G1 X-22.864 Y-23.757 E172.25289
G1 X-23.459 Y-23.757 E172.28411
G1 X23.757 Y23.459 E175.78758
G1 X23.459 Y23.757 E175.80965
G1 X-23.757 Y-23.459 E179.31312
G1 X-23.757 Y-22.864 E179.34433
G1 X22.864 Y23.757 E182.80366
G1 X22.269 Y23.757 E182.83487
G1 X-23.757 Y-22.269 E186.25006
G1 X-23.757 Y-21.675 E186.28127
G1 X21.674 Y23.757 E189.65231
G1 X21.080 Y23.757 E189.68352
G1 X-23.757 Y-21.080 E193.01042
G1 X-23.757 Y-20.485 E193.04164
G1 X20.485 Y23.757 E196.32439
G1 X19.890 Y23.757 E196.35560
G1 X-23.757 Y-19.890 E199.59421
G1 X-23.757 Y-19.295 E199.62543
G1 X19.295 Y23.757 E202.81990
G1 X18.700 Y23.757 E202.85111
G1 X-23.757 Y-18.700 E206.00143
G1 X-23.757 Y-18.105 E206.03265
G1 X18.105 Y23.757 E209.13883
G1 X17.510 Y23.757 E209.17004
G1 X-23.757 Y-17.510 E212.23208
G1 X-23.757 Y-16.915 E212.26329
G1 X16.915 Y23.757 E215.28119
G1 X16.320 Y23.757 E215.31240
G1 X-23.757 Y-16.320 E218.28615
G1 X-23.757 Y-15.725 E218.31737
G1 X15.725 Y23.757 E221.24698
G1 X15.130 Y23.757 E221.27819
G1 X-23.757 Y-15.130 E224.16366
G1 X-23.757 Y-14.536 E224.19487
G1 X14.536 Y23.757 E227.03619
G1 X13.941 Y23.757 E227.06740
G1 X-23.757 Y-13.941 E229.86458
G1 X-23.757 Y-13.346 E229.89580
G1 X13.346 Y23.757 E232.64883
G1 X12.751 Y23.757 E232.68005
G1 X-23.757 Y-12.751 E235.38894
G1 X-23.757 Y-12.156 E235.42015
G1 X12.156 Y23.757 E238.08490
G1 X11.561 Y23.757 E238.11611
G1 X-23.757 Y-11.561 E240.73672
G1 X-23.757 Y-10.966 E240.76793
G1 X10.966 Y23.757 E243.34440
G1 X10.371 Y23.757 E243.37561
G1 X-23.757 Y-10.371 E245.90793
G1 X-23.757 Y-9.776 E245.93914
G1 X9.776 Y23.757 E248.42732
G1 X9.181 Y23.757 E248.45853
G1 X-23.757 Y-9.181 E250.90256
G1 X-23.757 Y-8.586 E250.93378
G1 X8.586 Y23.757 E253.33367
G1 X7.991 Y23.757 E253.36488
G1 X-23.757 Y-7.991 E255.72063
G1 X-23.757 Y-7.397 E255.75184
G1 X7.397 Y23.757 E258.06344
G1 X6.802 Y23.757 E258.09466
G1 X-23.757 Y-6.802 E260.36212
G1 X-23.757 Y-6.207 E260.39333
G1 X6.207 Y23.757 E262.61665
G1 X5.612 Y23.757 E262.64786
G1 X-23.757 Y-5.612 E264.82703
G1 X-23.757 Y-5.017 E264.85825
G1 X5.017 Y23.757 E266.99328
G1 X4.422 Y23.757 E267.02449
G1 X-23.757 Y-4.422 E269.11538
G1 X-23.757 Y-3.827 E269.14659
G1 X3.827 Y23.757 E271.19334
G1 X3.232 Y23.757 E271.22455
G1 X-23.757 Y-3.232 E273.22715
G1 X-23.757 Y-2.637 E273.25836
G1 X2.637 Y23.757 E275.21682
G1 X2.042 Y23.757 E275.24803
G1 X-23.757 Y-2.042 E277.16235
G1 X-23.757 Y-1.447 E277.19356
G1 X1.447 Y23.757 E279.06373
G1 X0.852 Y23.757 E279.09495
G1 X-23.757 Y-0.852 E280.92097
G1 X-23.757 Y-0.258 E280.95219
G1 X0.258 Y23.757 E282.73407
G1 X-0.337 Y23.757 E282.76528
G1 X-23.757 Y0.337 E284.50302
G1 X-23.757 Y0.932 E284.53424
G1 X-0.932 Y23.757 E286.22784
G1 X-1.527 Y23.757 E286.25905
G1 X-23.757 Y1.527 E287.90850
G1 X-23.757 Y2.122 E287.93972
G1 X-2.122 Y23.757 E289.54503
G1 X-2.717 Y23.757 E289.57624
G1 X-23.757 Y2.717 E291.13741
G1 X-23.757 Y3.312 E291.16862
G1 X-3.312 Y23.757 E292.68565
G1 X-3.907 Y23.757 E292.71686
G1 X-23.757 Y3.907 E294.18974
G1 X-23.757 Y4.502 E294.22096
G1 X-4.502 Y23.757 E295.64969
G1 X-5.097 Y23.757 E295.68091
G1 X-23.757 Y5.097 E297.06550
G1 X-23.757 Y5.692 E297.09672
G1 X-5.692 Y23.757 E298.43717
G1 X-6.286 Y23.757 E298.46838
G1 X-23.757 Y6.286 E299.76469
G1 X-23.757 Y6.881 E299.79590
G1 X-6.881 Y23.757 E301.04807
G1 X-7.476 Y23.757 E301.07928
G1 X-23.757 Y7.476 E302.28731
G1 X-23.757 Y8.071 E302.31852
G1 X-8.071 Y23.757 E303.48240
G1 X-8.666 Y23.757 E303.51361
G1 X-23.757 Y8.666 E304.63335
G1 X-23.757 Y9.261 E304.66456
G1 X-9.261 Y23.757 E305.74015
G1 X-9.856 Y23.757 E305.77137
G1 X-23.757 Y9.856 E306.80281
G1 X-23.757 Y10.451 E306.83403
G1 X-10.451 Y23.757 E307.82133
G1 X-11.046 Y23.757 E307.85255
G1 X-23.757 Y11.046 E308.79571
G1 X-23.757 Y11.641 E308.82692
G1 X-11.641 Y23.757 E309.72594
G1 X-12.236 Y23.757 E309.75716
G1 X-23.757 Y12.236 E310.61203
G1 X-23.757 Y12.831 E310.64325
G1 X-12.831 Y23.757 E311.45398
G1 X-13.425 Y23.757 E311.48519
G1 X-23.757 Y13.425 E312.25178
G1 X-23.757 Y14.020 E312.28300
G1 X-14.020 Y23.757 E313.00544
G1 X-14.615 Y23.757 E313.03666
G1 X-23.757 Y14.615 E313.71496
G1 X-23.757 Y15.210 E313.74617
G1 X-15.210 Y23.757 E314.38033
G1 X-15.805 Y23.757 E314.41155
G1 X-23.757 Y15.805 E315.00156
G1 X-23.757 Y16.400 E315.03278
G1 X-16.400 Y23.757 E315.57865
G1 X-16.995 Y23.757 E315.60986
G1 X-23.757 Y16.995 E316.11159
G1 X-23.757 Y17.590 E316.14281
G1 X-17.590 Y23.757 E316.60039
G1 X-18.185 Y23.757 E316.63161
G1 X-23.757 Y18.185 E317.04505
G1 X-23.757 Y18.780 E317.07627
G1 X-18.780 Y23.757 E317.44557
G1 X-19.375 Y23.757 E317.47678
G1 X-23.757 Y19.375 E317.80194
G1 X-23.757 Y19.970 E317.83315
G1 X-19.970 Y23.757 E318.11416
G1 X-20.564 Y23.757 E318.14538
G1 X-23.757 Y20.564 E318.38225
G1 X-23.757 Y21.159 E318.41346
G1 X-21.159 Y23.757 E318.60619
G1 X-21.754 Y23.757 E318.63740
G1 X-23.757 Y21.754 E318.78599
G1 X-23.757 Y22.349 E318.81720
G1 X-22.349 Y23.757 E318.92164
G1 X-22.944 Y23.757 E318.95286
G1 X-23.757 Y22.944 E319.01315
G1 X-23.757 Y23.539 E319.04437
G1 X-23.539 Y23.757 E319.06052
G1 F2880
G1 X-23.757 Y23.539 E318.57304
G1 F2880
G1 X-23.757 Y22.944 E317.63109
G1 F2880
G1 X-22.944 Y23.757 E315.81149
G1 F2880
G1 X-22.596 Y23.757 E315.26052
G1 E315.06052 F4800.00000
G92 E0
G1 Z1.300 F3600.000
G1 Z0.300 F3600.000
G1 Z1.300 F3600.000
G1 X23.679 Y-23.679 F3600.000
G1 Z0.500 F3600.000
G1 E4.00000 F4800.00000
G1 X23.679 Y23.679 E6.47421 F2045.915
G1 X-23.679 Y23.679 E8.94842
G1 X-23.679 Y-23.679 E11.42264
G1 X23.619 Y-23.679 E13.89371
G1 X24.307 Y-24.307 F3600.000
G1 X24.307 Y24.307 E16.43358 F2045.915
G1 X-24.307 Y24.307 E18.97344
G1 X-24.307 Y-24.307 E21.51331
G1 X24.247 Y-24.307 E24.05004
G1 X24.800 Y-24.800 F3600.000
G1 X24.800 Y24.800 E25.52273 F2400.000
G1 X-24.800 Y24.800 E26.99542
G1 X-24.800 Y-24.800 E28.46810
G1 X24.740 Y-24.800 E29.93901
G1 X24.600 Y-24.454 F3600.000
G1 F2880
G1 X24.743 Y-22.400 E26.13901
G1 E25.93901 F4800.00000
G92 E0
G1 Z1.500 F3600.000
G1 X-22.992 Y-23.298 F3600.000
G1 Z0.500 F3600.000
G1 E4.00000 F4800.00000
G1 X-23.298 Y-22.992 E4.02269 F2042.207
G1 X-23.298 Y-22.102 E4.06928
G1 X-22.102 Y-23.298 E4.15786
G1 X-21.211 Y-23.298 E4.20445
G1 X-23.298 Y-21.211 E4.35892
G1 X-23.298 Y-20.321 E4.40551
G1 X-20.321 Y-23.298 E4.62587
G1 X-19.431 Y-23.298 E4.67246
G1 X-23.298 Y-19.431 E4.95871
G1 X-23.298 Y-18.541 E5.00531
G1 X-18.541 Y-23.298 E5.35745
G1 X-17.651 Y-23.298 E5.40404
G1 X-23.298 Y-17.651 E5.82208
G1 X-23.298 Y-16.760 E5.86867
G1 X-16.760 Y-23.298 E6.35260
G1 X-15.870 Y-23.298 E6.39919
G1 X-23.298 Y-15.870 E6.94901
G1 X-23.298 Y-14.980 E6.99560
G1 X-14.980 Y-23.298 E7.61131
G1 X-14.090 Y-23.298 E7.65790
G1 X-23.298 Y-14.090 E8.33950
G1 X-23.298 Y-13.200 E8.38610
G1 X-13.200 Y-23.298 E9.13359
G1 X-12.309 Y-23.298 E9.18018
G1 X-23.298 Y-12.309 E9.99357
G1 X-23.298 Y-11.419 E10.04016
G1 X-11.419 Y-23.298 E10.91944
G1 X-10.529 Y-23.298 E10.96603
G1 X-23.298 Y-10.529 E11.91120
G1 X-23.298 Y-9.639 E11.95779
G1 X-9.639 Y-23.298 E12.96885
G1 X-8.749 Y-23.298 E13.01544
G1 X-23.298 Y-8.749 E14.09239
G1 X-23.298 Y-7.858 E14.13898
G1 X-7.858 Y-23.298 E15.28183
G1 X-6.968 Y-23.298 E15.32842
G1 X-23.298 Y-6.968 E16.53715
G1 X-23.298 Y-6.078 E16.58375
G1 X-6.078 Y-23.298 E17.85837
G1 X-5.188 Y-23.298 E17.90496
G1 X-23.298 Y-5.188 E19.24548
G1 X-23.298 Y-4.298 E19.29207
G1 X-4.298 Y-23.298 E20.69848
G1 X-3.408 Y-23.298 E20.74507
G1 X-23.298 Y-3.408 E22.21738
G1 X-23.298 Y-2.517 E22.26397
G1 X-2.517 Y-23.298 E23.80216
G1 X-1.627 Y-23.298 E23.84875
G1 X-23.298 Y-1.627 E25.45284
G1 X-23.298 Y-0.737 E25.49943
G1 X-0.737 Y-23.298 E27.16940
G1 X0.153 Y-23.298 E27.21600
G1 X-23.298 Y0.153 E28.95186
G1 X-23.298 Y1.043 E28.99846
G1 X1.043 Y-23.298 E30.80021
G1 X1.934 Y-23.298 E30.84681
G1 X-23.298 Y1.934 E32.71446
G1 X-23.298 Y2.824 E32.76105
G1 X2.824 Y-23.298 E34.69459
G1 X3.714 Y-23.298 E34.74118
G1 X-23.298 Y3.714 E36.74062
G1 X-23.298 Y4.604 E36.78721
G1 X4.604 Y-23.298 E38.85253
G1 X5.494 Y-23.298 E38.89913
G1 X-23.298 Y5.494 E41.03034
G1 X-23.298 Y6.385 E41.07694
G1 X6.385 Y-23.298 E43.27404
G1 X7.275 Y-23.298 E43.32064
