; generated by Slic3r 1.2.9 on 2016-02-02 at 13:04:38

; external perimeters extrusion width = 0.40mm
; perimeters extrusion width = 0.67mm
; infill extrusion width = 0.67mm
; solid infill extrusion width = 0.67mm
; top infill extrusion width = 0.67mm
; support material extrusion width = 0.40mm

M107
M104 S190 ; set temperature
G28 ; home all axes
G1 X70Y70Z5 F5000 
M109 S190 ; wait for temperature to be reached
G21 ; set units to millimeters
G90 ; use absolute coordinates
M82 ; use absolute distances for extrusion
G92 E0
G1 E-3.50000 F1800.00000
G92 E0
G1 Z0.300 F6000.000
G1 X-35.576 Y54.424 F6000.000
G1 E3.50000 F1800.00000
G1 X-37.407 Y55.694 E3.61642 F1363.944
G1 X-40.000 Y56.257 E3.75504
G1 X-50.000 Y56.257 E4.27749
G1 X-52.193 Y55.860 E4.39391
G1 X-54.107 Y54.720 E4.51033
G1 X-55.501 Y52.981 E4.62674
G1 X-56.257 Y50.000 E4.78742
G1 X-56.257 Y-50.000 E10.01191
G1 X-55.860 Y-52.193 E10.12832
G1 X-54.720 Y-54.107 E10.24474
G1 X-52.981 Y-55.501 E10.36116
G1 X-50.000 Y-56.257 E10.52183
G1 X50.000 Y-56.257 E15.74632
G1 X52.193 Y-55.860 E15.86274
G1 X54.107 Y-54.720 E15.97915
G1 X55.501 Y-52.981 E16.09557
G1 X56.257 Y-50.000 E16.25624
G1 X56.257 Y-40.000 E16.77869
G1 X55.860 Y-37.807 E16.89511
G1 X54.424 Y-35.576 E17.03373
G1 X-35.533 Y54.382 E23.68029
G1 X-35.872 Y54.128 F6000.000
G1 X-37.648 Y55.343 E23.79271 F1363.944
G1 X-40.000 Y55.838 E23.91828
G1 X-50.000 Y55.838 E24.44073
G1 X-52.115 Y55.441 E24.55315
G1 X-53.943 Y54.305 E24.66557
G1 X-55.234 Y52.585 E24.77799
G1 X-55.838 Y50.000 E24.91665
G1 X-55.838 Y-50.000 E30.14114
G1 X-55.441 Y-52.115 E30.25356
G1 X-54.305 Y-53.943 E30.36598
G1 X-52.585 Y-55.234 E30.47840
G1 X-50.000 Y-55.838 E30.61706
G1 X50.000 Y-55.838 E35.84155
G1 X52.115 Y-55.441 E35.95397
G1 X53.943 Y-54.305 E36.06639
G1 X55.234 Y-52.585 E36.17881
G1 X55.838 Y-50.000 E36.31747
G1 X55.838 Y-40.000 E36.83992
G1 X55.441 Y-37.885 E36.95234
G1 X54.128 Y-35.872 E37.07791
G1 X-35.830 Y54.085 E43.72446
G1 X-36.168 Y53.832 F6000.000
G1 X-37.887 Y54.990 E43.83274 F1363.944
G1 X-40.000 Y55.419 E43.94539
G1 X-50.000 Y55.419 E44.46784
G1 X-52.034 Y55.023 E44.57611
G1 X-53.771 Y53.892 E44.68439
G1 X-54.956 Y52.191 E44.79267
G1 X-55.419 Y50.000 E44.90968
G1 X-55.419 Y-50.000 E50.13417
G1 X-55.023 Y-52.034 E50.24245
G1 X-53.892 Y-53.771 E50.35072
G1 X-52.191 Y-54.956 E50.45900
G1 X-50.000 Y-55.419 E50.57602
G1 X50.000 Y-55.419 E55.80051
G1 X52.034 Y-55.023 E55.90878
G1 X53.771 Y-53.892 E56.01706
G1 X54.956 Y-52.191 E56.12533
G1 X55.419 Y-50.000 E56.24235
G1 X55.419 Y-40.000 E56.76480
G1 X55.023 Y-37.966 E56.87308
G1 X53.832 Y-36.168 E56.98573
G1 X-36.126 Y53.789 E63.63228
G1 E60.13228 F1800.00000
G92 E0
G1 X-40.996 Y39.004 F6000.000
G1 E3.50000 F1800.00000
G1 X-40.996 Y49.004 E4.02245 F1363.944
G1 X-49.004 Y49.004 E4.44081
G1 X-49.004 Y-49.004 E9.56122
G1 X49.004 Y-49.004 E14.68162
G1 X49.004 Y-40.996 E15.09999
G1 X39.004 Y-40.996 E15.62244
G1 X39.004 Y-30.996 E16.14488
G1 X29.004 Y-30.996 E16.66733
G1 X29.004 Y-20.996 E17.18978
G1 X19.004 Y-20.996 E17.71223
G1 X19.004 Y-10.996 E18.23468
G1 X9.004 Y-10.996 E18.75713
G1 X9.004 Y-0.996 E19.27958
G1 X-0.996 Y-0.996 E19.80203
G1 X-0.996 Y9.004 E20.32448
G1 X-10.996 Y9.004 E20.84693
G1 X-10.996 Y19.004 E21.36937
G1 X-20.996 Y19.004 E21.89182
G1 X-20.996 Y29.004 E22.41427
G1 X-30.996 Y29.004 E22.93672
G1 X-30.996 Y39.004 E23.45917
G1 X-40.936 Y39.004 E23.97849
G1 X-40.577 Y39.423 F6000.000
G1 X-40.577 Y49.423 E24.50093 F1363.944
G1 X-49.423 Y49.423 E24.96307
G1 X-49.423 Y-49.423 E30.12724
G1 X49.423 Y-49.423 E35.29141
G1 X49.423 Y-40.577 E35.75355
G1 X39.423 Y-40.577 E36.27599
G1 X39.423 Y-30.577 E36.79844
G1 X29.423 Y-30.577 E37.32089
G1 X29.423 Y-20.577 E37.84334
G1 X19.423 Y-20.577 E38.36579
G1 X19.423 Y-10.577 E38.88824
G1 X9.423 Y-10.577 E39.41069
G1 X9.423 Y-0.577 E39.93314
G1 X-0.577 Y-0.577 E40.45559
G1 X-0.577 Y9.423 E40.97804
G1 X-10.577 Y9.423 E41.50048
G1 X-10.577 Y19.423 E42.02293
G1 X-20.577 Y19.423 E42.54538
G1 X-20.577 Y29.423 E43.06783
G1 X-30.577 Y29.423 E43.59028
G1 X-30.577 Y39.423 E44.11273
G1 X-40.517 Y39.423 E44.63204
G1 X-40.200 Y39.800 F6000.000
G1 X-40.200 Y49.800 E45.05065 F600.000
G1 X-49.800 Y49.800 E45.45251
G1 X-49.800 Y-49.800 E49.62179
G1 X49.800 Y-49.800 E53.79108
G1 X49.800 Y-40.200 E54.19294
G1 X39.800 Y-40.200 E54.61154
G1 X39.800 Y-30.200 E55.03014
G1 X29.800 Y-30.200 E55.44875
G1 X29.800 Y-20.200 E55.86735
G1 X19.800 Y-20.200 E56.28595
G1 X19.800 Y-10.200 E56.70456
G1 X9.800 Y-10.200 E57.12316
G1 X9.800 Y-0.200 E57.54176
G1 X-0.200 Y-0.200 E57.96037
G1 X-0.200 Y9.800 E58.37897
G1 X-10.200 Y9.800 E58.79757
G1 X-10.200 Y19.800 E59.21618
G1 X-20.200 Y19.800 E59.63478
G1 X-20.200 Y29.800 E60.05338
G1 X-30.200 Y29.800 E60.47198
G1 X-30.200 Y39.800 E60.89059
G1 X-40.140 Y39.800 E61.30668
G1 X-40.600 Y39.800 F6000.000
G1 E57.80668 F1800.00000
G92 E0
G1 X-48.757 Y48.539 F6000.000
G1 E3.50000 F1800.00000
G1 X-48.539 Y48.757 E3.51611 F1361.916
G1 X-47.946 Y48.757 E3.54715
G1 X-48.757 Y47.946 E3.60716
G1 X-48.757 Y47.352 E3.63820
G1 X-47.352 Y48.757 E3.74211
G1 X-46.759 Y48.757 E3.77315
G1 X-48.757 Y46.759 E3.92095
G1 X-48.757 Y46.166 E3.95199
G1 X-46.166 Y48.757 E4.14370
G1 X-45.573 Y48.757 E4.17474
G1 X-48.757 Y45.573 E4.41034
G1 X-48.757 Y44.979 E4.44139
G1 X-44.979 Y48.757 E4.72089
G1 X-44.386 Y48.757 E4.75193
G1 X-48.757 Y44.386 E5.07533
G1 X-48.757 Y43.793 E5.10637
G1 X-43.793 Y48.757 E5.47367
G1 X-43.200 Y48.757 E5.50472
G1 X-48.757 Y43.200 E5.91592
G1 X-48.757 Y42.606 E5.94696
G1 X-42.606 Y48.757 E6.40206
G1 X-42.013 Y48.757 E6.43310
G1 X-48.757 Y42.013 E6.93210
G1 X-48.757 Y41.420 E6.96314
G1 X-41.420 Y48.757 E7.50603
G1 X-41.243 Y48.340 E7.52972
G1 X-48.757 Y40.827 E8.08567
G1 X-48.757 Y40.233 E8.11671
G1 X-41.243 Y47.747 E8.67267
G1 X-41.243 Y47.153 E8.70371
G1 X-48.757 Y39.640 E9.25967
G1 X-48.757 Y39.047 E9.29071
G1 X-41.243 Y46.560 E9.84667
G1 X-41.243 Y45.967 E9.87771
G1 X-48.757 Y38.453 E10.43367
G1 X-48.757 Y37.860 E10.46471
G1 X-41.243 Y45.374 E11.02067
G1 X-41.243 Y44.780 E11.05171
G1 X-48.757 Y37.267 E11.60767
G1 X-48.757 Y36.674 E11.63871
G1 X-41.243 Y44.187 E12.19467
G1 X-41.243 Y43.594 E12.22571
G1 X-48.757 Y36.080 E12.78167
G1 X-48.757 Y35.487 E12.81271
G1 X-41.243 Y43.001 E13.36867
G1 X-41.243 Y42.407 E13.39971
G1 X-48.757 Y34.894 E13.95567
G1 X-48.757 Y34.301 E13.98671
G1 X-41.243 Y41.814 E14.54266
G1 X-41.243 Y41.221 E14.57371
G1 X-48.757 Y33.707 E15.12966
G1 X-48.757 Y33.114 E15.16071
G1 X-41.243 Y40.627 E15.71666
G1 X-41.243 Y40.034 E15.74770
G1 X-48.757 Y32.521 E16.30366
G1 X-48.757 Y31.928 E16.33470
G1 X-41.243 Y39.441 E16.89066
G1 X-41.243 Y38.848 E16.92170
G1 X-48.757 Y31.334 E17.47766
G1 X-48.757 Y30.741 E17.50870
G1 X-40.741 Y38.757 E18.10183
G1 X-40.148 Y38.757 E18.13287
G1 X-48.757 Y30.148 E18.76989
G1 X-48.757 Y29.554 E18.80093
G1 X-39.554 Y38.757 E19.48186
G1 X-38.961 Y38.757 E19.51290
G1 X-48.757 Y28.961 E20.23772
G1 X-48.757 Y28.368 E20.26876
G1 X-38.368 Y38.757 E21.03748
G1 X-37.775 Y38.757 E21.06852
G1 X-48.757 Y27.775 E21.88114
G1 X-48.757 Y27.181 E21.91219
G1 X-37.181 Y38.757 E22.76870
G1 X-36.588 Y38.757 E22.79975
G1 X-48.757 Y26.588 E23.70016
G1 X-48.757 Y25.995 E23.73121
G1 X-35.995 Y38.757 E24.67552
G1 X-35.402 Y38.757 E24.70656
G1 X-48.757 Y25.402 E25.69478
G1 X-48.757 Y24.808 E25.72582
G1 X-34.808 Y38.757 E26.75794
G1 X-34.215 Y38.757 E26.78898
G1 X-48.757 Y24.215 E27.86499
G1 X-48.757 Y23.622 E27.89603
G1 X-33.622 Y38.757 E29.01595
G1 X-33.029 Y38.757 E29.04699
G1 X-48.757 Y23.029 E30.21080
G1 X-48.757 Y22.435 E30.24184
G1 X-32.435 Y38.757 E31.44955
G1 X-31.842 Y38.757 E31.48059
G1 X-48.757 Y21.842 E32.73221
G1 X-48.757 Y21.249 E32.76325
G1 X-31.266 Y38.739 E34.05748
G1 X-31.243 Y38.169 E34.08735
G1 X-48.757 Y20.655 E35.38327
G1 X-48.757 Y20.062 E35.41431
G1 X-31.243 Y37.576 E36.71022
G1 X-31.243 Y36.982 E36.74126
G1 X-48.757 Y19.469 E38.03717
G1 X-48.757 Y18.876 E38.06821
G1 X-31.243 Y36.389 E39.36413
G1 X-31.243 Y35.796 E39.39517
G1 X-48.757 Y18.282 E40.69108
G1 X-48.757 Y17.689 E40.72212
G1 X-31.243 Y35.203 E42.01803
G1 X-31.243 Y34.609 E42.04908
G1 X-48.757 Y17.096 E43.34499
G1 X-48.757 Y16.503 E43.37603
G1 X-31.243 Y34.016 E44.67194
G1 X-31.243 Y33.423 E44.70298
G1 X-48.757 Y15.909 E45.99890
G1 X-48.757 Y15.316 E46.02994
G1 X-31.243 Y32.829 E47.32585
G1 X-31.243 Y32.236 E47.35689
G1 X-48.757 Y14.723 E48.65280
G1 X-48.757 Y14.130 E48.68385
G1 X-31.243 Y31.643 E49.97976
G1 X-31.243 Y31.050 E50.01080
G1 X-48.757 Y13.536 E51.30671
G1 X-48.757 Y12.943 E51.33775
G1 X-31.243 Y30.456 E52.63367
G1 X-31.243 Y29.863 E52.66471
G1 X-48.757 Y12.350 E53.96062
G1 X-48.757 Y11.756 E53.99166
G1 X-31.243 Y29.270 E55.28757
G1 X-31.163 Y28.757 E55.31475
G1 X-48.757 Y11.163 E56.61659
G1 X-48.757 Y10.570 E56.64763
G1 X-30.570 Y28.757 E57.99337
G1 X-29.977 Y28.757 E58.02441
G1 X-48.757 Y9.977 E59.41404
G1 X-48.757 Y9.383 E59.44508
G1 X-29.383 Y28.757 E60.87862
G1 X-28.790 Y28.757 E60.90966
G1 X-48.757 Y8.790 E62.38710
G1 X-48.757 Y8.197 E62.41814
G1 X-28.197 Y28.757 E63.93947
G1 X-27.604 Y28.757 E63.97051
G1 X-48.757 Y7.604 E65.53574
G1 X-48.757 Y7.010 E65.56679
G1 X-27.010 Y28.757 E67.17592
G1 X-26.417 Y28.757 E67.20696
G1 X-48.757 Y6.417 E68.85999
G1 X-48.757 Y5.824 E68.89103
G1 X-25.824 Y28.757 E70.58796
G1 X-25.231 Y28.757 E70.61900
G1 X-48.757 Y5.231 E72.35983
G1 X-48.757 Y4.637 E72.39087
G1 X-24.637 Y28.757 E74.17560
G1 X-24.044 Y28.757 E74.20664
G1 X-48.757 Y4.044 E76.03527
G1 X-48.757 Y3.451 E76.06631
G1 X-23.451 Y28.757 E77.93883
G1 X-22.857 Y28.757 E77.96987
G1 X-48.757 Y2.857 E79.88630
G1 X-48.757 Y2.264 E79.91734
G1 X-22.264 Y28.757 E81.87766
G1 X-21.671 Y28.757 E81.90871
G1 X-48.757 Y1.671 E83.91293
G1 X-48.757 Y1.078 E83.94397
G1 X-21.243 Y28.591 E85.97984
G1 X-21.243 Y27.998 E86.01088
G1 X-48.757 Y0.484 E88.04674
G1 X-48.757 Y-0.109 E88.07779
G1 X-21.243 Y27.405 E90.11365
G1 X-21.243 Y26.811 E90.14469
G1 X-48.757 Y-0.702 E92.18056
G1 X-48.757 Y-1.295 E92.21160
G1 X-21.243 Y26.218 E94.24747
G1 X-21.243 Y25.625 E94.27851
G1 X-48.757 Y-1.889 E96.31438
G1 X-48.757 Y-2.482 E96.34542
G1 X-21.243 Y25.031 E98.38129
G1 X-21.243 Y24.438 E98.41233
G1 X-48.757 Y-3.075 E100.44820
G1 X-48.757 Y-3.668 E100.47924
G1 X-21.243 Y23.845 E102.51510
G1 X-21.243 Y23.252 E102.54615
G1 X-48.757 Y-4.262 E104.58201
G1 X-48.757 Y-4.855 E104.61305
G1 X-21.243 Y22.658 E106.64892
G1 X-21.243 Y22.065 E106.67996
G1 X-48.757 Y-5.448 E108.71583
G1 X-48.757 Y-6.042 E108.74687
G1 X-21.243 Y21.472 E110.78274
G1 X-21.243 Y20.879 E110.81378
G1 X-48.757 Y-6.635 E112.84965
G1 X-48.757 Y-7.228 E112.88069
G1 X-21.243 Y20.285 E114.91655
G1 X-21.243 Y19.692 E114.94760
G1 X-48.757 Y-7.821 E116.98346
G1 X-48.757 Y-8.415 E117.01450
G1 X-21.243 Y19.099 E119.05037
G1 X-20.992 Y18.757 F6000.000
G1 X-48.757 Y-9.008 E121.10482 F1361.916
G1 X-48.757 Y-9.601 E121.13586
G1 X-20.399 Y18.757 E123.23421
G1 X-19.806 Y18.757 E123.26525
G1 X-48.757 Y-10.194 E125.40750
G1 X-48.757 Y-10.788 E125.43854
G1 X-19.212 Y18.757 E127.62469
G1 X-18.619 Y18.757 E127.65573
G1 X-48.757 Y-11.381 E129.88578
G1 X-48.757 Y-11.974 E129.91682
G1 X-18.026 Y18.757 E132.19077
G1 X-17.433 Y18.757 E132.22181
G1 X-48.757 Y-12.567 E134.53965
G1 X-48.757 Y-13.161 E134.57069
G1 X-16.839 Y18.757 E136.93244
G1 X-16.246 Y18.757 E136.96348
G1 X-48.757 Y-13.754 E139.36912
G1 X-48.757 Y-14.347 E139.40016
G1 X-15.653 Y18.757 E141.84970
G1 X-15.059 Y18.757 E141.88075
G1 X-48.757 Y-14.941 E144.37419
G1 X-48.757 Y-15.534 E144.40523
G1 X-14.466 Y18.757 E146.94257
G1 X-13.873 Y18.757 E146.97361
G1 X-48.757 Y-16.127 E149.55485
G1 X-48.757 Y-16.720 E149.58589
G1 X-13.280 Y18.757 E152.21103
G1 X-12.686 Y18.757 E152.24207
G1 X-48.757 Y-17.314 E154.91110
G1 X-48.757 Y-17.907 E154.94215
G1 X-12.093 Y18.757 E157.65508
G1 X-11.500 Y18.757 E157.68612
G1 X-48.757 Y-18.500 E160.44296
G1 X-48.757 Y-19.093 E160.47400
G1 X-11.243 Y18.420 E163.24982
G1 X-11.243 Y17.827 E163.28086
G1 X-48.757 Y-19.687 E166.05668
G1 X-48.757 Y-20.280 E166.08773
G1 X-11.243 Y17.233 E168.86355
G1 X-11.243 Y16.640 E168.89459
G1 X-48.757 Y-20.873 E171.67041
G1 X-48.757 Y-21.466 E171.70145
G1 X-11.243 Y16.047 E174.47727
G1 X-11.243 Y15.454 E174.50832
G1 X-48.757 Y-22.060 E177.28414
G1 X-48.757 Y-22.653 E177.31518
G1 X-11.243 Y14.860 E180.09100
G1 X-11.243 Y14.267 E180.12204
G1 X-48.757 Y-23.246 E182.89786
G1 X-48.757 Y-23.840 E182.92890
G1 X-11.243 Y13.674 E185.70473
G1 X-11.243 Y13.081 E185.73577
G1 X-48.757 Y-24.433 E188.51159
G1 X-48.757 Y-25.026 E188.54263
G1 X-11.243 Y12.487 E191.31845
G1 X-11.243 Y11.894 E191.34949
G1 X-48.757 Y-25.619 E194.12532
G1 X-48.757 Y-26.213 E194.15636
G1 X-11.243 Y11.301 E196.93218
G1 X-11.243 Y10.708 E196.96322
G1 X-48.757 Y-26.806 E199.73904
G1 X-48.757 Y-27.399 E199.77008
G1 X-11.243 Y10.114 E202.54591
G1 X-11.243 Y9.521 E202.57695
G1 X-48.757 Y-27.992 E205.35277
G1 X-48.757 Y-28.586 E205.38381
G1 X-11.243 Y8.928 E208.15963
G1 X-10.821 Y8.757 F6000.000
G1 X-48.757 Y-29.179 E210.96669 F1361.916
G1 X-48.757 Y-29.772 E210.99774
G1 X-10.228 Y8.757 E213.84870
G1 X-9.635 Y8.757 E213.87974
G1 X-48.757 Y-30.365 E216.77460
G1 X-48.757 Y-30.959 E216.80564
G1 X-9.041 Y8.757 E219.74440
G1 X-8.448 Y8.757 E219.77544
G1 X-48.757 Y-31.552 E222.75810
G1 X-48.757 Y-32.145 E222.78914
G1 X-7.855 Y8.757 E225.81570
G1 X-7.262 Y8.757 E225.84674
G1 X-48.757 Y-32.739 E228.91720
G1 X-48.757 Y-33.332 E228.94824
G1 X-6.668 Y8.757 E232.06259
G1 X-6.075 Y8.757 E232.09364
G1 X-48.757 Y-33.925 E235.25189
G1 X-48.757 Y-34.518 E235.28293
G1 X-5.482 Y8.757 E238.48509
G1 X-4.888 Y8.757 E238.51613
G1 X-48.757 Y-35.112 E241.76218
G1 X-48.757 Y-35.705 E241.79322
G1 X-4.295 Y8.757 E245.08317
G1 X-3.702 Y8.757 E245.11422
G1 X-48.757 Y-36.298 E248.44807
G1 X-48.757 Y-36.891 E248.47911
G1 X-3.109 Y8.757 E251.85686
G1 X-2.515 Y8.757 E251.88790
G1 X-48.757 Y-37.485 E255.30955
G1 X-48.757 Y-38.078 E255.34059
G1 X-1.922 Y8.757 E258.80614
G1 X-1.329 Y8.757 E258.83718
G1 X-48.757 Y-38.671 E262.34663
G1 X-48.757 Y-39.264 E262.37767
G1 X-1.243 Y8.249 E265.89344
G1 X-1.243 Y7.656 E265.92448
G1 X-48.757 Y-39.858 E269.44026
G1 X-48.757 Y-40.451 E269.47130
G1 X-1.243 Y7.062 E272.98708
G1 X-1.243 Y6.469 E273.01812
G1 X-48.757 Y-41.044 E276.53390
G1 X-48.757 Y-41.637 E276.56494
G1 X-1.243 Y5.876 E280.08071
G1 X-1.243 Y5.283 E280.11176
G1 X-48.757 Y-42.231 E283.62753
G1 X-48.757 Y-42.824 E283.65857
G1 X-1.243 Y4.689 E287.17435
G1 X-1.243 Y4.096 E287.20539
G1 X-48.757 Y-43.417 E290.72117
G1 X-48.757 Y-44.011 E290.75221
G1 X-1.243 Y3.503 E294.26799
G1 X-1.243 Y2.910 E294.29903
G1 X-48.757 Y-44.604 E297.81480
G1 X-48.757 Y-45.197 E297.84584
G1 X-1.243 Y2.316 E301.36162
G1 X-1.243 Y1.723 E301.39266
G1 X-48.757 Y-45.790 E304.90844
G1 X-48.757 Y-46.384 E304.93948
G1 X-1.243 Y1.130 E308.45526
G1 X-1.243 Y0.537 E308.48630
G1 X-48.757 Y-46.977 E312.00207
G1 X-48.757 Y-47.570 E312.03312
G1 X-1.243 Y-0.057 E315.54889
G1 X-1.243 Y-0.650 E315.57993
G1 X-48.757 Y-48.163 E319.09571
G1 X-48.737 Y-48.737 E319.12572
G1 X-1.243 Y-1.243 E322.64002
G1 X-0.650 Y-1.243 E322.67106
G1 X-48.163 Y-48.757 E326.18684
G1 X-47.570 Y-48.757 E326.21788
G1 X-0.057 Y-1.243 E329.73366
G1 X0.536 Y-1.243 E329.76470
G1 X-46.977 Y-48.757 E333.28047
G1 X-46.384 Y-48.757 E333.31151
G1 X1.130 Y-1.243 E336.82729
G1 X1.723 Y-1.243 E336.85833
G1 X-45.790 Y-48.757 E340.37411
G1 X-45.197 Y-48.757 E340.40515
G1 X2.316 Y-1.243 E343.92093
G1 X2.910 Y-1.243 E343.95197
G1 X-44.604 Y-48.757 E347.46774
G1 X-44.011 Y-48.757 E347.49879
G1 X3.503 Y-1.243 E351.01456
G1 X4.096 Y-1.243 E351.04560
G1 X-43.417 Y-48.757 E354.56138
G1 X-42.824 Y-48.757 E354.59242
G1 X4.689 Y-1.243 E358.10820
G1 X5.283 Y-1.243 E358.13924
G1 X-42.231 Y-48.757 E361.65502
G1 X-41.638 Y-48.757 E361.68606
G1 X5.876 Y-1.243 E365.20183
G1 X6.469 Y-1.243 E365.23287
G1 X-41.044 Y-48.757 E368.74865
G1 X-40.451 Y-48.757 E368.77969
G1 X7.062 Y-1.243 E372.29547
G1 X7.656 Y-1.243 E372.32651
G1 X-39.858 Y-48.757 E375.84229
G1 X-39.264 Y-48.757 E375.87333
G1 X8.249 Y-1.243 E379.38910
G1 X8.757 Y-1.329 E379.41605
G1 X-38.671 Y-48.757 E382.92549
G1 X-38.078 Y-48.757 E382.95653
G1 X8.757 Y-1.922 E386.42208
