; GCode generated by CraftWare

G28 X0 Y0
G28 Z0

M190 S60 ;set bed temp (wait)
M109 S215 ;set head temp (wait)
; ------------------------------------
; Layer #0
; ------------------------------------
G21 ; mm
G90 ; abs
G92 E0 ; reset extr
M106 S0
;segType:Skirt
G0 F4800 E-1.0000
G0 F300 Z0.200
G0 X-2.189 Y-6.348 F10800
G0 F4800 E0.0000
G1 X-1.818 Y-6.223 E0.0130 F600
G1 X-1.570 Y-6.223 E0.0213
G1 X-1.446 Y-6.099 E0.0271
G1 X-0.579 Y-5.974 E0.0562
G1 X-0.456 Y-5.850 E0.0621
G1 X1.030 Y-5.850 E0.1115
G1 X1.340 Y-5.663 E0.1235
G1 X1.588 Y-5.414 E0.1352
G1 X1.897 Y-5.227 E0.1472
G1 X2.145 Y-5.227 E0.1555
G1 X2.269 Y-5.102 E0.1613
G1 X3.135 Y-4.978 E0.1904
G1 X3.259 Y-4.853 E0.1963
G1 X3.693 Y-4.791 E0.2108
G1 X4.064 Y-4.666 E0.2239
G1 X4.497 Y-4.604 E0.2384
G1 X4.621 Y-4.480 E0.2443
G1 X5.055 Y-4.417 E0.2588
G1 X5.426 Y-4.292 E0.2719
G1 X5.859 Y-4.230 E0.2864
G1 X5.983 Y-4.106 E0.2923
G1 X6.850 Y-3.981 E0.3214
G1 X6.974 Y-3.857 E0.3272
G1 X7.222 Y-3.857 E0.3355
G1 X7.345 Y-3.732 E0.3413
G1 X8.212 Y-3.608 E0.3704
G1 X8.336 Y-3.483 E0.3763
G1 X8.584 Y-3.483 E0.3845
G1 X8.707 Y-3.358 E0.3904
G1 X9.574 Y-3.234 E0.4195
G1 X9.698 Y-3.109 E0.4253
G1 X10.132 Y-3.047 E0.4399
G1 X10.503 Y-2.922 E0.4529
G1 X10.936 Y-2.860 E0.4675
G1 X11.060 Y-2.736 E0.4733
G1 X11.927 Y-2.611 E0.5025
G1 X13.413 Y-2.611 E0.5519
G1 X13.722 Y-2.798 E0.5639
G1 X16.198 Y-5.289 E0.6807
G1 X16.508 Y-5.476 E0.6928
G1 X16.570 Y-5.040 E0.7074
G1 X16.570 Y-3.545 E0.7571
G1 X16.756 Y-3.234 E0.7692
G1 X19.480 Y-0.493 E0.8977
G1 X19.914 Y-0.431 E0.9123
G1 X20.285 Y-0.306 E0.9253
G1 X20.718 Y-0.244 E0.9399
G1 X20.842 Y-0.120 E0.9457
G1 X21.709 Y0.005 E0.9748
G1 X21.833 Y0.129 E0.9807
G1 X22.080 Y0.129 E0.9889
G1 X22.204 Y0.254 E0.9947
G1 X23.071 Y0.378 E1.0239
G1 X23.195 Y0.503 E1.0297
G1 X23.628 Y0.566 E1.0443
G1 X24.000 Y0.690 E1.0573
G1 X24.433 Y0.752 E1.0719
G1 X24.557 Y0.877 E1.0777
G1 X25.424 Y1.001 E1.1068
G1 X25.547 Y1.126 E1.1127
G1 X25.981 Y1.188 E1.1272
G1 X26.352 Y1.313 E1.1403
G1 X26.786 Y1.375 E1.1548
G1 X26.909 Y1.500 E1.1607
G1 X27.343 Y1.562 E1.1752
G1 X27.715 Y1.687 E1.1883
G1 X28.148 Y1.749 E1.2028
G1 X28.271 Y1.873 E1.2087
G1 X29.138 Y1.998 E1.2378
G1 X29.262 Y2.122 E1.2436
G1 X30.253 Y2.122 E1.2766
G1 X30.686 Y2.185 E1.2912
G1 X30.934 Y2.434 E1.3028
G1 X31.243 Y2.621 E1.3149
G1 X31.491 Y2.745 E1.3241
G1 X31.862 Y2.745 E1.3364
G1 X31.986 Y2.870 E1.3423
G1 X32.853 Y2.994 E1.3714
G1 X32.977 Y3.119 E1.3772
G1 X34.958 Y3.119 E1.4431
G1 X37.682 Y0.378 E1.5716
G1 X37.744 Y-0.057 E1.5863
G1 X37.744 Y-1.552 E1.6360
G1 X37.682 Y-1.988 E1.6506
G1 X36.444 Y-3.233 E1.7091
G1 X36.258 Y-3.545 E1.7211
G1 X36.382 Y-3.670 E1.7270
G1 X36.382 Y-5.663 E1.7933
G1 X36.258 Y-6.036 E1.8064
G1 X35.886 Y-6.659 E1.8305
G1 X33.781 Y-8.777 E1.9298
G1 X33.781 Y-9.773 E1.9629
G1 X33.658 Y-10.147 E1.9760
G1 X30.438 Y-13.386 E2.1279
G1 X30.067 Y-13.510 E2.1409
G1 X27.095 Y-16.500 E2.2811
G1 X26.662 Y-16.811 E2.2989
G1 X25.176 Y-16.811 E2.3483
G1 X24.866 Y-16.998 E2.3603
G1 X23.133 Y-18.742 E2.4421
G1 X22.823 Y-18.929 E2.4541
G1 X22.576 Y-18.929 E2.4624
G1 X22.452 Y-19.053 E2.4682
G1 X20.471 Y-19.053 E2.5341
G1 X20.037 Y-18.991 E2.5487
G1 X19.790 Y-18.742 E2.5603
G1 X19.542 Y-18.867 E2.5696
G1 X18.303 Y-20.112 E2.6280
G1 X17.932 Y-20.237 E2.6410
G1 X17.499 Y-20.299 E2.6556
G1 X15.270 Y-20.299 E2.7297
G1 X14.403 Y-19.427 E2.7706
G1 X14.093 Y-19.614 E2.7826
G1 X13.351 Y-20.361 E2.8177
G1 X12.917 Y-20.423 E2.8322
G1 X11.432 Y-20.423 E2.8817
G1 X10.565 Y-20.299 E2.9108
G1 X10.317 Y-20.299 E2.9190
G1 X8.955 Y-18.929 E2.9833
G1 X8.645 Y-19.116 E2.9953
G1 X8.398 Y-19.365 E3.0070
G1 X7.964 Y-19.427 E3.0216
G1 X6.479 Y-19.427 E3.0710
G1 X6.107 Y-19.302 E3.0840
G1 X5.983 Y-19.178 E3.0899
G1 X5.736 Y-19.178 E3.0981
G1 X5.426 Y-18.991 E3.1101
G1 X3.693 Y-17.247 E3.1919
G1 X3.259 Y-17.185 E3.2065
G1 X1.773 Y-17.185 E3.2559
G1 X1.464 Y-16.998 E3.2679
G1 X1.216 Y-16.749 E3.2796
G1 X0.907 Y-16.562 E3.2916
G1 X-1.570 Y-14.071 E3.4085
G1 X-2.065 Y-14.071 E3.4249
G1 X-4.789 Y-11.330 E3.5534
G1 X-4.975 Y-11.019 E3.5655
G1 X-4.975 Y-9.524 E3.6152
G1 X-4.913 Y-9.089 E3.6298
G1 X-2.189 Y-6.348 E3.7584
G1 X-2.375 Y-6.161 E3.7671
G1 X-1.941 Y-5.850 E3.7849
G1 X-1.075 Y-5.725 E3.8140
G1 X-0.951 Y-5.601 E3.8198
G1 X-0.084 Y-5.476 E3.8490
G1 X1.154 Y-5.476 E3.8901
G1 X1.773 Y-4.853 E3.9194
G1 X2.640 Y-4.729 E3.9485
G1 X2.764 Y-4.604 E3.9543
G1 X3.631 Y-4.480 E3.9834
G1 X3.754 Y-4.355 E3.9893
G1 X4.002 Y-4.355 E3.9975
G1 X4.126 Y-4.230 E4.0034
G1 X4.993 Y-4.106 E4.0325
G1 X5.117 Y-3.981 E4.0383
G1 X5.364 Y-3.981 E4.0466
G1 X5.488 Y-3.857 E4.0524
G1 X6.355 Y-3.732 E4.0815
G1 X6.479 Y-3.608 E4.0874
G1 X6.912 Y-3.545 E4.1019
G1 X7.284 Y-3.421 E4.1150
G1 X7.717 Y-3.358 E4.1295
G1 X7.841 Y-3.234 E4.1354
G1 X8.274 Y-3.171 E4.1499
G1 X8.646 Y-3.047 E4.1630
G1 X9.079 Y-2.985 E4.1775
G1 X9.203 Y-2.860 E4.1834
G1 X10.069 Y-2.736 E4.2125
G1 X10.193 Y-2.611 E4.2183
G1 X10.441 Y-2.611 E4.2266
G1 X10.565 Y-2.487 E4.2324
G1 X11.432 Y-2.362 E4.2615
G1 X11.555 Y-2.237 E4.2674
G1 X13.537 Y-2.237 E4.3333
G1 X16.137 Y-4.853 E4.4560
G1 X16.199 Y-4.417 E4.4706
G1 X16.199 Y-3.421 E4.5038
G1 X19.418 Y-0.182 E4.6556
G1 X19.851 Y-0.120 E4.6702
G1 X19.975 Y0.005 E4.6760
G1 X20.223 Y0.005 E4.6843
G1 X20.347 Y0.129 E4.6901
G1 X21.214 Y0.254 E4.7192
G1 X21.337 Y0.378 E4.7251
G1 X21.771 Y0.441 E4.7396
G1 X22.142 Y0.566 E4.7527
G1 X22.576 Y0.628 E4.7672
G1 X22.699 Y0.752 E4.7731
G1 X23.566 Y0.877 E4.8022
G1 X23.690 Y1.001 E4.8080
G1 X23.938 Y1.001 E4.8163
G1 X24.061 Y1.126 E4.8221
G1 X24.928 Y1.250 E4.8512
G1 X25.052 Y1.375 E4.8571
G1 X25.919 Y1.500 E4.8862
G1 X26.043 Y1.624 E4.8921
G1 X26.290 Y1.624 E4.9003
G1 X26.414 Y1.749 E4.9061
G1 X27.281 Y1.873 E4.9353
G1 X27.405 Y1.998 E4.9411
G1 X27.652 Y1.998 E4.9493
G1 X27.776 Y2.122 E4.9552
G1 X28.643 Y2.247 E4.9843
G1 X28.767 Y2.372 E4.9901
G1 X29.014 Y2.372 E4.9984
G1 X29.262 Y2.496 E5.0076
G1 X30.624 Y2.496 E5.0529
G1 X31.119 Y2.994 E5.0763
G1 X31.367 Y2.994 E5.0845
G1 X31.491 Y3.119 E5.0903
G1 X32.358 Y3.243 E5.1195
G1 X32.481 Y3.368 E5.1253
G1 X33.348 Y3.493 E5.1544
G1 X34.834 Y3.493 E5.2039
G1 X35.143 Y3.306 E5.2159
G1 X38.115 Y0.316 E5.3561
G1 X38.115 Y-1.926 E5.4307
G1 X36.629 Y-3.421 E5.5008
G1 X36.753 Y-3.794 E5.5138
G1 X36.753 Y-5.787 E5.5801
G1 X36.196 Y-6.721 E5.6163
G1 X34.215 Y-8.714 E5.7098
G1 X34.153 Y-9.151 E5.7244
G1 X34.153 Y-9.898 E5.7493
G1 X33.967 Y-10.209 E5.7613
G1 X30.376 Y-13.822 E5.9307
G1 X30.129 Y-13.822 E5.9390
G1 X27.157 Y-16.811 E6.0792
G1 X26.538 Y-17.185 E6.1032
G1 X25.052 Y-17.185 E6.1527
G1 X23.071 Y-19.178 E6.2461
G1 X22.328 Y-19.427 E6.2722
G1 X20.099 Y-19.427 E6.3463
G1 X19.728 Y-19.053 E6.3638
G1 X18.242 Y-20.548 E6.4339
G1 X17.994 Y-20.548 E6.4422
G1 X17.870 Y-20.673 E6.4480
G1 X15.394 Y-20.673 E6.5304
G1 X15.085 Y-20.486 E6.5424
G1 X14.589 Y-19.988 E6.5658
G1 X14.279 Y-19.801 E6.5778
G1 X13.289 Y-20.797 E6.6245
G1 X11.060 Y-20.797 E6.6987
G1 X10.936 Y-20.673 E6.7045
G1 X10.441 Y-20.673 E6.7210
G1 X10.132 Y-20.486 E6.7330
G1 X9.141 Y-19.489 E6.7797
G1 X8.831 Y-19.302 E6.7918
G1 X8.336 Y-19.801 E6.8151
G1 X6.355 Y-19.801 E6.8810
G1 X6.045 Y-19.614 E6.8931
G1 X5.674 Y-19.489 E6.9061
G1 X5.364 Y-19.302 E6.9181
G1 X3.631 Y-17.558 E6.9999
G1 X2.145 Y-17.558 E7.0493
G1 X1.712 Y-17.496 E7.0639
G1 X1.402 Y-17.309 E7.0759
G1 X1.154 Y-17.060 E7.0876
G1 X0.845 Y-16.874 E7.0996
G1 X-1.384 Y-14.631 E7.2048
G1 X-1.694 Y-14.444 E7.2168
G1 X-2.127 Y-14.382 E7.2314
G1 X-5.346 Y-11.144 E7.3832
G1 X-5.346 Y-9.151 E7.4495
G1 X-2.375 Y-6.161 E7.5897
G1 X-2.189 Y-5.601 E7.6094
G0 F4800 E6.6094
G0 X12.342 Y-7.698 F10800
G0 X14.790 Y-7.999
G0 X17.238 Y-8.301
G0 X19.686 Y-8.602
G0 X24.582 Y-9.205
G0 F4800 E7.6094
;segType:HShell
G1 X21.227 Y-5.830 E7.7677 F600
G1 X21.241 Y-5.315
G1 X24.711 Y-8.806 E7.9314
G1 X24.908 Y-8.475
G1 X21.380 Y-4.926 E8.0978
;segType:Perimeter
G0 X21.205 Y-4.681 F10800
G1 X20.542 Y-4.584 E8.1201 F359
G1 X20.601 Y-4.860 E8.1295
G1 X20.643 Y-5.364 E8.1463
G1 X20.625 Y-5.869 E8.1631
G1 X20.546 Y-6.367 E8.1799
G1 X20.408 Y-6.852 E8.1967
G1 X20.214 Y-7.317 E8.2134
G1 X19.955 Y-7.770 E8.2308
G1 X19.660 Y-8.167 E8.2472
G1 X19.312 Y-8.532 E8.2640
G1 X18.924 Y-8.851 E8.2807
G1 X18.500 Y-9.121 E8.2974
G1 X18.047 Y-9.337 E8.3141
G1 X17.570 Y-9.497 E8.3308
G1 X17.079 Y-9.596 E8.3475
G1 X16.578 Y-9.636 E8.3642
G1 X16.076 Y-9.614 E8.3810
G1 X15.580 Y-9.532 E8.3977
G1 X15.097 Y-9.390 E8.4144
G1 X14.635 Y-9.190 E8.4312
G1 X14.199 Y-8.935 E8.4479
G1 X13.797 Y-8.630 E8.4647
G1 X13.434 Y-8.279 E8.4815
G1 X13.116 Y-7.885 E8.4984
G1 X12.846 Y-7.457 E8.5152
G1 X12.630 Y-6.998 E8.5321
G1 X12.525 Y-6.673 E8.5434
G1 X2.992 Y-9.227 E8.8717
G1 X3.092 Y-9.319 E8.8762
G1 X3.225 Y-9.666 E8.8886
G1 X3.222 Y-9.889 E8.8960
G1 X3.087 Y-10.209 E8.9075
G1 X2.977 Y-10.356 E8.9137
G1 X2.682 Y-10.954 E8.9358
G1 X2.431 Y-11.772 E8.9643
G1 X2.255 Y-12.853 E9.0007
G1 X2.936 Y-13.308 E9.0279
G1 X3.849 Y-12.721 E9.0640
G1 X4.495 Y-12.168 E9.0924
G1 X4.924 Y-11.659 E9.1145
G1 X5.107 Y-11.371 E9.1258
G1 X5.278 Y-11.233 E9.1331
G1 X5.631 Y-11.126 E9.1454
G1 X5.984 Y-11.205 E9.1574
G1 X6.626 Y-11.549 E9.1817
G1 X6.839 Y-11.854 E9.1940
G1 X6.890 Y-12.077 E9.2016
G1 X6.837 Y-12.414 E9.2130
G1 X6.761 Y-12.594 E9.2195
G1 X6.619 Y-13.239 E9.2414
G1 X6.570 Y-14.096 E9.2700
G1 X6.655 Y-15.189 E9.3065
G1 X7.423 Y-15.466 E9.3336
G1 X8.169 Y-14.676 E9.3697
G1 X8.665 Y-13.982 E9.3981
G1 X8.957 Y-13.391 E9.4201
G1 X9.072 Y-13.050 E9.4320
G1 X9.337 Y-12.775 E9.4447
G1 X9.705 Y-12.667 E9.4575
G1 X10.428 Y-12.813 E9.4820
G1 X10.731 Y-12.966 E9.4933
G1 X10.883 Y-13.141 E9.5010
G1 X11.002 Y-13.479 E9.5129
G1 X10.965 Y-13.825 E9.5245
G1 X10.979 Y-14.511 E9.5473
G1 X11.135 Y-15.355 E9.5759
G1 X11.477 Y-16.397 E9.6123
G1 X12.286 Y-16.482 E9.6394
G1 X12.822 Y-15.533 E9.6757
G1 X13.138 Y-14.738 E9.7041
G1 X13.280 Y-14.103 E9.7258
G1 X13.290 Y-13.894 E9.7327
G1 X13.385 Y-13.560 E9.7443
G1 X13.657 Y-13.285 E9.7572
G1 X14.006 Y-13.187 E9.7692
G1 X14.720 Y-13.191 E9.7929
G1 X14.936 Y-13.271 E9.8006
G1 X15.210 Y-13.527 E9.8131
G1 X15.320 Y-13.856 E9.8246
G1 X15.339 Y-14.065 E9.8316
G1 X15.509 Y-14.695 E9.8533
G1 X15.860 Y-15.478 E9.8819
G1 X16.439 Y-16.408 E9.9183
G1 X17.244 Y-16.295 E9.9453
G1 X17.539 Y-15.244 E9.9817
G1 X17.657 Y-14.394 E10.0102
G1 X17.643 Y-13.743 E10.0318
G1 X17.603 Y-13.536 E10.0388
G1 X17.616 Y-13.189 E10.0504
G1 X17.825 Y-12.846 E10.0638
G1 X18.131 Y-12.677 E10.0754
G1 X18.835 Y-12.505 E10.0995
G1 X19.195 Y-12.589 E10.1118
G1 X19.386 Y-12.728 E10.1196
G1 X19.563 Y-13.010 E10.1307
G1 X19.631 Y-13.210 E10.1377
G1 X19.945 Y-13.780 E10.1594
G1 X20.472 Y-14.457 E10.1879
G1 X21.254 Y-15.221 E10.2243
G1 X22.007 Y-14.917 E10.2513
G1 X22.044 Y-13.823 E10.2877
G1 X21.956 Y-12.969 E10.3162
G1 X21.789 Y-12.339 E10.3379
G1 X21.700 Y-12.148 E10.3449
G1 X21.631 Y-11.808 E10.3565
G1 X21.741 Y-11.448 E10.3690
G1 X21.888 Y-11.271 E10.3767
G1 X22.505 Y-10.911 E10.4004
G1 X22.855 Y-10.821 E10.4124
G1 X23.216 Y-10.916 E10.4248
G1 X23.477 Y-11.163 E10.4368
G1 X23.590 Y-11.340 E10.4438
G1 X24.031 Y-11.820 E10.4654
G1 X24.702 Y-12.351 E10.4939
G1 X25.641 Y-12.905 E10.5302
G1 X26.299 Y-12.427 E10.5572
G1 X26.075 Y-11.354 E10.5937
G1 X25.788 Y-10.545 E10.6222
G1 X25.472 Y-9.966 E10.6442
G1 X25.257 Y-9.674 E10.6562
G1 X25.183 Y-9.299 E10.6689
G1 X25.302 Y-8.931 E10.6818
G1 X25.829 Y-8.414 E10.7063
G1 X26.137 Y-8.244 E10.7180
G1 X26.511 Y-8.245 E10.7305
G1 X26.718 Y-8.333 E10.7380
G1 X26.979 Y-8.563 E10.7495
G1 X27.528 Y-8.928 E10.7715
G1 X28.304 Y-9.282 E10.7998
G1 X29.346 Y-9.594 E10.8360
G1 X29.871 Y-8.970 E10.8631
G1 X29.399 Y-7.982 E10.8996
G1 X28.928 Y-7.264 E10.9281
G1 X28.479 Y-6.773 E10.9502
G1 X28.206 Y-6.544 E10.9621
G1 X28.045 Y-6.196 E10.9748
G1 X28.075 Y-5.811 E10.9877
G1 X28.358 Y-5.345 E11.0058
G1 X28.562 Y-5.063 E11.0174
G1 X28.741 Y-4.936 E11.0247
G1 X29.100 Y-4.852 E11.0369
G1 X29.445 Y-4.952 E11.0489
G1 X29.611 Y-5.048 E11.0553
G1 X30.232 Y-5.273 E11.0773
G1 X31.069 Y-5.429 E11.1056
G1 X32.153 Y-5.481 E11.1417
G1 X32.514 Y-4.748 E11.1689
G1 X31.833 Y-3.914 E11.2047
G1 X31.187 Y-3.311 E11.2341
G1 X30.633 Y-2.941 E11.2562
G1 X30.320 Y-2.788 E11.2678
G1 X30.083 Y-2.487 E11.2805
G1 X30.023 Y-2.107 E11.2934
G1 X30.064 Y-1.975 E11.2980
G1 X20.584 Y-4.514 E11.6244
G1 X20.972 Y-5.064
;segType:Loop
G0 X21.036 Y-5.563 F10800
G1 X21.023 Y-5.908 E11.6359 F600
G1 X20.937 Y-6.454 E11.6543
G1 X20.786 Y-6.986 E11.6726
G1 X20.573 Y-7.496 E11.6910
G1 X20.290 Y-7.991 E11.7100
G1 X19.965 Y-8.428 E11.7281
G1 X19.584 Y-8.828 E11.7465
G1 X19.159 Y-9.178 E11.7648
G1 X18.694 Y-9.474 E11.7831
G1 X18.196 Y-9.711 E11.8015
G1 X17.673 Y-9.886 E11.8198
G1 X17.134 Y-9.996 E11.8381
G1 X16.585 Y-10.039 E11.8564
G1 X16.034 Y-10.015 E11.8748
G1 X15.491 Y-9.925 E11.8931
G1 X14.962 Y-9.769 E11.9114
G1 X14.455 Y-9.550 E11.9298
G1 X13.978 Y-9.271 E11.9482
G1 X13.537 Y-8.937 E11.9666
G1 X13.139 Y-8.552 E11.9850
G1 X12.790 Y-8.121 E12.0034
G1 X12.495 Y-7.651 E12.0219
G1 X12.263 Y-7.160 E12.0399
G1 X3.585 Y-9.485 E12.3388
G1 X3.627 Y-9.594 E12.3427
G1 X3.621 Y-9.974 E12.3553
G1 X3.436 Y-10.412 E12.3711
G1 X3.319 Y-10.569 E12.3776
G1 X3.055 Y-11.104 E12.3975
G1 X2.821 Y-11.865 E12.4240
G1 X2.691 Y-12.661 E12.4508
G1 X2.940 Y-12.827 E12.4607
G1 X3.610 Y-12.397 E12.4872
G1 X4.211 Y-11.882 E12.5136
G1 X4.601 Y-11.419 E12.5337
G1 X4.806 Y-11.098 E12.5464
G1 X5.088 Y-10.870 E12.5584
G1 X5.616 Y-10.711 E12.5768
G1 X6.124 Y-10.824 E12.5941
G1 X6.898 Y-11.239 E12.6233
G1 X7.212 Y-11.687 E12.6415
G1 X7.297 Y-12.063 E12.6543
G1 X7.224 Y-12.525 E12.6699
G1 X7.143 Y-12.717 E12.6768
G1 X7.016 Y-13.295 E12.6965
G1 X6.971 Y-14.092 E12.7230
G1 X7.034 Y-14.898 E12.7499
G1 X7.312 Y-14.999 E12.7598
G1 X7.860 Y-14.419 E12.7863
G1 X8.321 Y-13.773 E12.8127
G1 X8.587 Y-13.236 E12.8326
G1 X8.723 Y-12.834 E12.8467
G1 X9.123 Y-12.419 E12.8659
G1 X9.688 Y-12.253 E12.8855
G1 X10.560 Y-12.429 E12.9151
G1 X10.980 Y-12.642 E12.9308
G1 X11.235 Y-12.933 E12.9436
G1 X11.409 Y-13.431 E12.9612
G1 X11.366 Y-13.842 E12.9749
G1 X11.378 Y-14.470 E12.9958
G1 X11.523 Y-15.255 E13.0224
G1 X11.776 Y-16.024 E13.0493
G1 X12.068 Y-16.055 E13.0590
G1 X12.461 Y-15.358 E13.0856
G1 X12.755 Y-14.619 E13.1121
G1 X12.882 Y-14.049 E13.1315
G1 X12.892 Y-13.828 E13.1389
G1 X13.029 Y-13.350 E13.1554
G1 X13.448 Y-12.926 E13.1753
G1 X13.953 Y-12.784 E13.1927
G1 X14.792 Y-12.789 E13.2206
G1 X15.149 Y-12.921 E13.2333
G1 X15.557 Y-13.302 E13.2518
G1 X15.714 Y-13.772 E13.2683
G1 X15.734 Y-13.994 E13.2757
G1 X15.886 Y-14.558 E13.2952
G1 X16.214 Y-15.288 E13.3218
G1 X16.641 Y-15.974 E13.3486
G1 X16.930 Y-15.933 E13.3583
G1 X17.146 Y-15.161 E13.3850
G1 X17.256 Y-14.370 E13.4116
G1 X17.244 Y-13.786 E13.4310
G1 X17.201 Y-13.568 E13.4384
G1 X17.220 Y-13.069 E13.4550
G1 X17.540 Y-12.545 E13.4754
G1 X17.984 Y-12.298 E13.4923
G1 X18.833 Y-12.092 E13.5214
G1 X19.364 Y-12.216 E13.5395
G1 X19.682 Y-12.447 E13.5526
G1 X19.926 Y-12.834 E13.5678
G1 X19.998 Y-13.045 E13.5752
G1 X20.280 Y-13.557 E13.5947
G1 X20.770 Y-14.187 E13.6212
G1 X21.346 Y-14.750 E13.6480
G1 X21.616 Y-14.641 E13.6577
G1 X21.643 Y-13.837 E13.6845
G1 X21.562 Y-13.042 E13.7110
G1 X21.411 Y-12.477 E13.7305
G1 X21.318 Y-12.275 E13.7379
G1 X21.219 Y-11.789 E13.7544
G1 X21.382 Y-11.253 E13.7730
G1 X21.627 Y-10.958 E13.7858
G1 X22.352 Y-10.534 E13.8137
G1 X22.856 Y-10.405 E13.8310
G1 X23.416 Y-10.552 E13.8503
G1 X23.787 Y-10.904 E13.8673
G1 X23.907 Y-11.092 E13.8747
G1 X24.303 Y-11.523 E13.8942
G1 X24.928 Y-12.017 E13.9207
G1 X25.618 Y-12.425 E13.9473
G1 X25.854 Y-12.254 E13.9570
G1 X25.689 Y-11.464 E13.9838
G1 X25.422 Y-10.711 E14.0104
G1 X25.134 Y-10.183 E14.0304
G1 X24.883 Y-9.841 E14.0445
G1 X24.770 Y-9.275 E14.0637
G1 X24.952 Y-8.712 E14.0834
G1 X25.588 Y-8.088 E14.1131
G1 X26.035 Y-7.841 E14.1300
G1 X26.592 Y-7.844 E14.1486
G1 X26.932 Y-7.987 E14.1608
G1 X27.222 Y-8.242 E14.1737
G1 X27.722 Y-8.575 E14.1936
G1 X28.444 Y-8.904 E14.2201
G1 X29.210 Y-9.133 E14.2466
G1 X29.398 Y-8.909 E14.2564
G1 X29.050 Y-8.180 E14.2832
G1 X28.612 Y-7.513 E14.3098
G1 X28.203 Y-7.065 E14.3300
G1 X27.881 Y-6.795 E14.3439
G1 X27.638 Y-6.270 E14.3632
G1 X27.683 Y-5.684 E14.3827
G1 X28.026 Y-5.121 E14.4046
G1 X28.277 Y-4.773 E14.4189
G1 X28.574 Y-4.562 E14.4310
G1 X29.110 Y-4.436 E14.4493
G1 X29.604 Y-4.579 E14.4664
G1 X29.781 Y-4.682 E14.4732
G1 X30.337 Y-4.883 E14.4929
G1 X31.115 Y-5.029 E14.5193
G1 X31.911 Y-5.066 E14.5457
G1 X32.041 Y-4.802 E14.5555
G1 X31.541 Y-4.191 E14.5818
G1 X30.939 Y-3.628 E14.6092
G1 X30.434 Y-3.291 E14.6294
G1 X30.063 Y-3.110 E14.6431
G1 X29.705 Y-2.655 E14.6624
G1 X29.679 Y-2.494 E14.6678
G1 X20.999 Y-4.820 E14.9667
G1 X21.044 Y-5.355 E14.9845
G1 X21.043 Y-5.376 E14.9852
;segType:HShell
G0 X21.795 Y-4.815 F10800
G1 X25.174 Y-8.213 E15.1446 F600
G1 X25.440 Y-7.952
G1 X22.211 Y-4.703 E15.2970
G1 X22.626 Y-4.592
G1 X25.772 Y-7.757 E15.4454
G1 X26.182 Y-7.640
G1 X23.041 Y-4.481 E15.5936
G1 X23.456 Y-4.370
G1 X26.765 Y-7.698 E15.7497
G0 X28.788 Y-8.146 F10800
G1 X24.702 Y-4.036 E15.9424 F600
G1 X25.118 Y-3.925
G1 X27.439 Y-6.260 E16.0519
G1 X27.476 Y-5.769
G1 X25.533 Y-3.813 E16.1436
G1 X25.948 Y-3.702
G1 X27.627 Y-5.391 E16.2228
G1 X27.827 Y-5.063
G1 X26.363 Y-3.591 E16.2918
G1 X26.779 Y-3.480
G1 X28.044 Y-4.753 E16.3515
G1 X28.317 Y-4.498
G1 X27.194 Y-3.368 E16.4045
G1 X27.609 Y-3.257
G1 X28.677 Y-4.331 E16.4549
G1 X29.103 Y-4.231
G1 X28.025 Y-3.146 E16.5058
G1 X28.440 Y-3.035
G1 X29.912 Y-4.516 E16.5752
G0 X30.666 Y-3.688 F10800
G1 X31.801 Y-4.829 E16.6288 F600
G1 X31.275 Y-4.829
G1 X29.270 Y-2.812 E16.7233
G1 X28.855 Y-2.924
G1 X30.660 Y-4.739 E16.8085
G0 X29.104 Y-4.665 F10800
G0 X28.431 Y-4.930
G0 X27.898 Y-5.754
G0 X27.862 Y-6.229
G0 X28.933 Y-8.821
G1 X24.287 Y-4.147 E17.0276 F600
G1 X23.872 Y-4.258
G1 X28.126 Y-8.538 E17.2283
G0 X26.548 Y-8.062 F10800
G0 X26.091 Y-8.062
G0 X25.144 Y-8.832
G0 X24.997 Y-9.288
G0 X25.311 Y-10.996
G1 X21.068 Y-6.728 E17.4285 F600
G1 X21.165 Y-6.296
G1 X24.676 Y-9.829 E17.5942
G0 X25.547 Y-11.763 F10800
G1 X20.943 Y-7.131 E17.8114 F600
G1 X20.787 Y-7.503
G1 X25.185 Y-11.928 E18.0189
G0 X22.968 Y-10.227 F10800
G1 X20.603 Y-7.847 E18.1305 F600
G1 X20.403 Y-8.175
G1 X22.503 Y-10.288 E18.2296
G1 X22.124 Y-10.435
G1 X20.178 Y-8.478 E18.3214
G1 X19.929 Y-8.757
G1 X21.791 Y-10.630 E18.4092
G1 X21.469 Y-10.834
G1 X19.666 Y-9.021 E18.4943
G1 X19.377 Y-9.259
G1 X21.229 Y-11.122 E18.5817
G1 X21.093 Y-11.514
G1 X19.066 Y-9.475 E18.6773
G1 X18.739 Y-9.675
G1 X21.060 Y-12.010 E18.7868
G1 X21.280 Y-12.760
G1 X18.382 Y-9.845 E18.9235
G1 X17.999 Y-9.989
G1 X21.398 Y-13.408 E19.0838
G1 X21.438 Y-13.978
G1 X19.923 Y-12.453 E19.1553
G1 X19.638 Y-12.167
G1 X17.592 Y-10.108 E19.2518
G1 X17.153 Y-10.196
G1 X18.832 Y-11.885 E19.3310
G1 X18.409 Y-11.988
G1 X16.666 Y-10.234 E19.4133
G1 X16.126 Y-10.221
G1 X17.985 Y-12.091 E19.5010
G1 X17.632 Y-12.264
G1 X15.512 Y-10.132 E19.6010
G0 X14.798 Y-12.588 F10800
G1 X10.167 Y-7.930 E19.8194 F600
G1 X9.752 Y-8.041
G1 X14.269 Y-12.585 E20.0325
G1 X13.782 Y-12.623
G1 X9.337 Y-8.152 E20.2422
G1 X8.922 Y-8.263
G1 X13.370 Y-12.739 E20.4521
G1 X13.098 Y-12.994
G1 X8.506 Y-8.375 E20.6688
G1 X8.091 Y-8.486
G1 X12.844 Y-13.268 E20.8930
G1 X12.727 Y-13.678
G1 X7.676 Y-8.597 E21.1313
G1 X7.260 Y-8.708
G1 X10.913 Y-12.383 E21.3036
G1 X10.146 Y-12.140
G1 X6.845 Y-8.820 E21.4594
G1 X6.430 Y-8.931
G1 X9.561 Y-12.080 E21.6071
G1 X9.154 Y-12.200
G1 X6.015 Y-9.042 E21.7552
G1 X5.599 Y-9.153
G1 X8.845 Y-12.418 E21.9083
G1 X8.586 Y-12.687
G1 X7.132 Y-11.224 E21.9769
G1 X6.946 Y-11.037
G1 X5.184 Y-9.264 E22.0601
G1 X4.769 Y-9.376
G1 X5.970 Y-10.584 E22.1167
G1 X5.420 Y-10.560
G1 X4.354 Y-9.487 E22.1670
G1 X3.938 Y-9.598
G1 X5.015 Y-10.682 E22.2178
G1 X4.718 Y-10.911
G1 X3.820 Y-10.008 E22.2602
G1 X3.666 Y-10.383
G1 X4.494 Y-11.215 E22.2992
G1 X4.262 Y-11.511
G1 X3.470 Y-10.714 E22.3366
G1 X3.296 Y-11.068
G1 X4.012 Y-11.789 E22.3704
G1 X3.728 Y-12.032
G1 X3.156 Y-11.456 E22.3974
G1 X3.032 Y-11.861
G1 X3.438 Y-12.269 E22.4165
G1 X3.117 Y-12.475
G1 X2.971 Y-12.328 E22.4234
G0 X5.624 Y-10.939 F10800
G0 X6.749 Y-11.409
G0 X7.492 Y-12.115
G1 X8.434 Y-13.063 E22.4679 F600
G1 X8.269 Y-13.426
G1 X7.419 Y-12.571 E22.5080
G1 X7.292 Y-12.972
G1 X8.080 Y-13.765 E22.5452
G1 X7.861 Y-14.073
G1 X7.210 Y-13.418 E22.5759
G1 X7.181 Y-13.918
G1 X7.630 Y-14.370 E22.5971
G1 X7.374 Y-14.642
G1 X7.222 Y-14.489 E22.6042
G0 X9.241 Y-12.615 F10800
G0 X9.697 Y-12.480
G0 X10.845 Y-12.818
G0 X11.186 Y-13.457
G0 X11.780 Y-15.371
G1 X12.063 Y-15.656 E22.6176 F600
G0 X11.620 Y-14.681 F10800
G1 X12.254 Y-15.318 E22.6474 F600
G1 X12.410 Y-14.946
G1 X11.571 Y-14.103 E22.6870
G1 X11.593 Y-13.595
G1 X12.560 Y-14.568 E22.7326
G1 X12.657 Y-14.138
G1 X11.439 Y-12.912 E22.7901
G0 X14.754 Y-9.898 F10800
G1 X17.335 Y-12.495 E22.9119 F600
G1 X17.135 Y-12.823
G1 X13.479 Y-9.145 E23.0844
G1 X12.846 Y-8.508
G1 X11.829 Y-7.485 E23.1324
G1 X11.413 Y-7.596
G1 X17.014 Y-13.230 E23.3966
G1 X17.040 Y-13.785
G1 X10.998 Y-7.707 E23.6817
G1 X10.583 Y-7.818
G1 X17.055 Y-14.330 E23.9870
G1 X16.995 Y-14.798
G1 X15.899 Y-13.696 E24.0387
G1 X16.043 Y-14.369
G1 X16.915 Y-15.246 E24.0799
G1 X16.799 Y-15.659
G1 X16.511 Y-15.369 E24.0934
G0 X17.697 Y-12.711 F10800
G0 X18.834 Y-12.318
G0 X19.521 Y-12.600
G0 X21.421 Y-14.489
G1 X20.677 Y-13.741 E24.1286 F600
; ------------------------------------
; Layer #1
; ------------------------------------
G21 ; mm
G90 ; abs
G92 E0 ; reset extr
M106 S0
G0 F4800 E-1.0000
G0 F300 Z0.400
G0 X21.468 Y-10.909 F10800
G0 X30.369 Y6.860
G0 X30.826 Y7.990
G0 X32.735 Y9.626
G0 F4800 E0.0000
;segType:Loop
G1 X25.795 Y7.767 E0.2390 F3600
G1 X26.107 Y7.604 E0.2507
G1 X26.563 Y7.292 E0.2691
G1 X26.978 Y6.926 E0.2875
G1 X27.347 Y6.513 E0.3059
G1 X27.664 Y6.058 E0.3243
G1 X27.925 Y5.568 E0.3428
G1 X28.126 Y5.051 E0.3613
G1 X28.263 Y4.512 E0.3797
G1 X28.335 Y3.962 E0.3982
G1 X28.340 Y3.407 E0.4166
G1 X28.282 Y2.872 E0.4345
G1 X28.148 Y2.299 E0.4541
G1 X27.964 Y1.795 E0.4720
G1 X27.713 Y1.302 E0.4904
G1 X27.405 Y0.843 E0.5088
G1 X27.044 Y0.425 E0.5271
G1 X26.635 Y0.054 E0.5455
G1 X26.185 Y-0.265 E0.5638
G1 X25.699 Y-0.526 E0.5822
G1 X25.187 Y-0.726 E0.6005
G1 X24.653 Y-0.862 E0.6188
G1 X24.106 Y-0.931 E0.6371
G1 X23.556 Y-0.934 E0.6554
G1 X23.008 Y-0.871 E0.6738
G1 X22.472 Y-0.741 E0.6921
G1 X21.956 Y-0.547 E0.7105
G1 X21.466 Y-0.292 E0.7288
G1 X21.010 Y0.021 E0.7472
G1 X20.594 Y0.387 E0.7656
G1 X20.225 Y0.800 E0.7841
G1 X19.908 Y1.255 E0.8025
G1 X19.647 Y1.745 E0.8210
G1 X19.447 Y2.262 E0.8394
G1 X19.310 Y2.800 E0.8579
G1 X19.237 Y3.351 E0.8764
G1 X19.232 Y3.905 E0.8948
G1 X19.292 Y4.457 E0.9133
G1 X19.418 Y4.997 E0.9317
G1 X19.608 Y5.518 E0.9501
G1 X19.859 Y6.011 E0.9685
G1 X19.995 Y6.213 E0.9767
G1 X8.777 Y3.208 E1.3629
G1 X7.621 Y2.899 E1.4027
G1 X7.838 Y2.792 E1.4108
G1 X8.302 Y2.490 E1.4292
G1 X8.726 Y2.135 E1.4476
G1 X9.105 Y1.731 E1.4660
G1 X9.433 Y1.284 E1.4844
G1 X9.705 Y0.800 E1.5029
G1 X9.918 Y0.288 E1.5213
G1 X10.068 Y-0.247 E1.5398
G1 X10.153 Y-0.796 E1.5583
G1 X10.171 Y-1.367 E1.5773
G1 X10.125 Y-1.903 E1.5952
G1 X10.011 Y-2.446 E1.6136
G1 X9.834 Y-2.971 E1.6321
G1 X9.595 Y-3.470 E1.6505
G1 X9.298 Y-3.937 E1.6689
G1 X8.947 Y-4.363 E1.6872
G1 X8.548 Y-4.744 E1.7056
G1 X8.105 Y-5.074 E1.7240
G1 X7.626 Y-5.346 E1.7423
G1 X7.118 Y-5.559 E1.7606
G1 X6.588 Y-5.708 E1.7789
G1 X6.044 Y-5.791 E1.7972
G1 X5.493 Y-5.807 E1.8156
G1 X4.944 Y-5.757 E1.8339
G1 X4.406 Y-5.640 E1.8522
G1 X3.884 Y-5.459 E1.8706
G1 X3.389 Y-5.216 E1.8889
G1 X2.925 Y-4.914 E1.9073
G1 X2.501 Y-4.559 E1.9257
G1 X2.122 Y-4.154 E1.9442
G1 X1.794 Y-3.707 E1.9626
G1 X1.522 Y-3.224 E1.9811
G1 X1.309 Y-2.711 E1.9995
G1 X1.159 Y-2.177 E2.0180
G1 X1.074 Y-1.628 E2.0365
G1 X1.055 Y-1.073 E2.0549
G1 X1.102 Y-0.520 E2.0734
G1 X1.215 Y0.022 E2.0918
G1 X1.392 Y0.547 E2.1102
G1 X1.632 Y1.047 E2.1287
G1 X1.822 Y1.345 E2.1404
G1 X-5.215 Y-0.540 E2.3827
G1 X-5.617 Y-0.868 E2.3999
G1 X-5.539 Y-1.159 E2.4100
G1 X-4.748 Y-1.287 E2.4366
G1 X-3.957 Y-1.305 E2.4629
G1 X-3.357 Y-1.221 E2.4831
G1 X-2.957 Y-1.108 E2.4969
G1 X-2.390 Y-1.209 E2.5161
G1 X-1.938 Y-1.581 E2.5355
G1 X-1.674 Y-2.184 E2.5574
G1 X-1.533 Y-2.590 E2.5717
G1 X-1.528 Y-2.956 E2.5839
G1 X-1.726 Y-3.471 E2.6022
G1 X-2.121 Y-3.800 E2.6193
G1 X-2.309 Y-3.890 E2.6262
G1 X-2.784 Y-4.235 E2.6458
G1 X-3.341 Y-4.797 E2.6721
G1 X-3.822 Y-5.438 E2.6988
G1 X-3.678 Y-5.702 E2.7088
G1 X-2.882 Y-5.636 E2.7354
G1 X-2.110 Y-5.463 E2.7616
G1 X-1.559 Y-5.241 E2.7814
G1 X-1.193 Y-5.033 E2.7954
G1 X-0.657 Y-4.993 E2.8133
G1 X-0.286 Y-5.117 E2.8263
G1 X0.070 Y-5.423 E2.8419
G1 X0.564 Y-6.148 E2.8711
G1 X0.645 Y-6.730 E2.8906
G1 X0.422 Y-7.284 E2.9105
G1 X0.105 Y-7.573 E2.9248
G1 X-0.276 Y-8.026 E2.9444
G1 X-0.683 Y-8.708 E2.9709
G1 X-0.998 Y-9.448 E2.9976
G1 X-0.795 Y-9.670 E3.0076
G1 X-0.041 Y-9.414 E3.0341
G1 X0.667 Y-9.059 E3.0604
G1 X1.131 Y-8.724 E3.0795
G1 X1.292 Y-8.560 E3.0871
G1 X1.703 Y-8.298 E3.1033
G1 X2.294 Y-8.260 E3.1230
G1 X2.766 Y-8.489 E3.1405
G1 X3.421 Y-9.076 E3.1697
G1 X3.625 Y-9.583 E3.1879
G1 X3.619 Y-9.987 E3.2013
G1 X3.445 Y-10.401 E3.2163
G1 X3.307 Y-10.593 E3.2241
G1 X3.056 Y-11.106 E3.2432
G1 X2.822 Y-11.868 E3.2697
G1 X2.692 Y-12.665 E3.2965
G1 X2.941 Y-12.831 E3.3065
G1 X3.611 Y-12.401 E3.3330
G1 X4.213 Y-11.885 E3.3593
G1 X4.585 Y-11.446 E3.3784
G1 X4.802 Y-11.109 E3.3918
G1 X5.098 Y-10.869 E3.4045
G1 X5.603 Y-10.717 E3.4220
G1 X6.111 Y-10.822 E3.4392
G1 X6.886 Y-11.234 E3.4684
G1 X7.207 Y-11.677 E3.4866
G1 X7.298 Y-12.076 E3.5002
G1 X7.228 Y-12.514 E3.5150
G1 X7.137 Y-12.744 E3.5232
G1 X7.017 Y-13.297 E3.5420
G1 X6.972 Y-14.095 E3.5686
G1 X7.035 Y-14.902 E3.5955
G1 X7.313 Y-15.003 E3.6054
G1 X7.861 Y-14.423 E3.6319
G1 X8.322 Y-13.776 E3.6583
G1 X8.577 Y-13.266 E3.6773
G1 X8.719 Y-12.851 E3.6919
G1 X9.108 Y-12.434 E3.7108
G1 X9.645 Y-12.266 E3.7296
G1 X9.977 Y-12.300 E3.7407
G1 X10.578 Y-12.440 E3.7612
G1 X10.973 Y-12.640 E3.7759
G1 X11.240 Y-12.946 E3.7894
G1 X11.406 Y-13.422 E3.8062
G1 X11.368 Y-13.832 E3.8199
G1 X11.379 Y-14.475 E3.8413
G1 X11.524 Y-15.259 E3.8678
G1 X11.776 Y-16.028 E3.8947
G1 X12.069 Y-16.058 E3.9045
G1 X12.462 Y-15.362 E3.9311
G1 X12.756 Y-14.621 E3.9576
G1 X12.880 Y-14.077 E3.9761
G1 X12.896 Y-13.818 E3.9848
G1 X13.024 Y-13.368 E4.0004
G1 X13.432 Y-12.941 E4.0200
G1 X13.938 Y-12.789 E4.0375
G1 X14.783 Y-12.791 E4.0657
G1 X15.164 Y-12.933 E4.0792
G1 X15.564 Y-13.320 E4.0977
G1 X15.711 Y-13.762 E4.1132
G1 X15.739 Y-14.022 E4.1219
G1 X15.887 Y-14.561 E4.1405
G1 X16.215 Y-15.291 E4.1671
G1 X16.642 Y-15.977 E4.1940
G1 X16.931 Y-15.937 E4.2037
G1 X17.147 Y-15.164 E4.2304
G1 X17.257 Y-14.373 E4.2569
G1 X17.248 Y-13.815 E4.2755
G1 X17.201 Y-13.556 E4.2842
G1 X17.218 Y-13.123 E4.2987
G1 X17.373 Y-12.776 E4.3113
G1 X17.592 Y-12.519 E4.3226
G1 X17.975 Y-12.306 E4.3371
G1 X18.818 Y-12.098 E4.3660
G1 X19.351 Y-12.213 E4.3842
G1 X19.689 Y-12.457 E4.3980
G1 X19.920 Y-12.824 E4.4125
G1 X20.010 Y-13.072 E4.4212
G1 X20.280 Y-13.560 E4.4398
G1 X20.771 Y-14.191 E4.4663
G1 X21.347 Y-14.754 E4.4931
G1 X21.617 Y-14.645 E4.5028
G1 X21.644 Y-13.840 E4.5296
G1 X21.563 Y-13.044 E4.5562
G1 X21.421 Y-12.504 E4.5748
G1 X21.315 Y-12.264 E4.5835
G1 X21.222 Y-11.807 E4.5990
G1 X21.376 Y-11.269 E4.6176
G1 X21.635 Y-10.956 E4.6312
G1 X22.367 Y-10.531 E4.6593
G1 X22.872 Y-10.412 E4.6766
G1 X23.403 Y-10.551 E4.6948
G1 X23.775 Y-10.892 E4.7116
G1 X23.924 Y-11.116 E4.7205
G1 X24.303 Y-11.526 E4.7391
G1 X24.929 Y-12.021 E4.7657
G1 X25.619 Y-12.428 E4.7923
G1 X25.855 Y-12.257 E4.8020
G1 X25.690 Y-11.467 E4.8289
G1 X25.422 Y-10.713 E4.8555
G1 X25.150 Y-10.211 E4.8745
G1 X24.892 Y-9.855 E4.8891
G1 X24.771 Y-9.298 E4.9081
G1 X24.936 Y-8.758 E4.9268
G1 X25.151 Y-8.501 E4.9380
G1 X25.605 Y-8.081 E4.9586
G1 X26.023 Y-7.851 E4.9744
G1 X26.579 Y-7.844 E4.9929
G1 X26.940 Y-7.996 E5.0060
G1 X27.246 Y-8.263 E5.0195
G1 X27.722 Y-8.578 E5.0384
G1 X28.445 Y-8.907 E5.0649
G1 X29.211 Y-9.136 E5.0915
G1 X29.399 Y-8.913 E5.1012
G1 X29.051 Y-8.184 E5.1280
G1 X28.612 Y-7.515 E5.1547
G1 X28.225 Y-7.088 E5.1738
G1 X27.892 Y-6.807 E5.1883
G1 X27.644 Y-6.293 E5.2073
G1 X27.678 Y-5.730 E5.2261
G1 X27.826 Y-5.428 E5.2373
G1 X28.266 Y-4.788 E5.2631
G1 X28.584 Y-4.562 E5.2761
G1 X29.096 Y-4.442 E5.2936
G1 X29.585 Y-4.574 E5.3104
G1 X29.803 Y-4.696 E5.3187
G1 X30.337 Y-4.887 E5.3376
G1 X31.116 Y-5.032 E5.3639
G1 X31.912 Y-5.070 E5.3904
G1 X32.042 Y-4.806 E5.4002
G1 X31.531 Y-4.180 E5.4271
G1 X30.947 Y-3.636 E5.4536
G1 X30.463 Y-3.311 E5.4730
G1 X30.072 Y-3.118 E5.4875
G1 X29.699 Y-2.644 E5.5076
G1 X29.618 Y-2.063 E5.5271
G1 X29.807 Y-1.470 E5.5478
G1 X29.982 Y-1.031 E5.5635
G1 X30.404 Y-0.638 E5.5827
G1 X30.969 Y-0.505 E5.6020
G1 X31.374 Y-0.599 E5.6158
G1 X31.998 Y-0.666 E5.6367
G1 X32.786 Y-0.620 E5.6630
G1 X33.566 Y-0.465 E5.6894
G1 X33.631 Y-0.175 E5.6993
G1 X32.986 Y0.310 E5.7261
G1 X32.292 Y0.698 E5.7526
G1 X31.735 Y0.900 E5.7723
G1 X31.321 Y0.990 E5.7864
G1 X30.865 Y1.339 E5.8055
G1 X30.630 Y1.880 E5.8251
G1 X30.691 Y2.764 E5.8546
G1 X30.872 Y3.274 E5.8726
G1 X31.326 Y3.663 E5.8925
G1 X31.814 Y3.763 E5.9090
G1 X32.029 Y3.755 E5.9162
G1 X32.604 Y3.837 E5.9355
G1 X33.359 Y4.072 E5.9618
G1 X34.079 Y4.411 E5.9883
G1 X34.072 Y4.702 E5.9979
G1 X33.307 Y5.033 E6.0256
G1 X32.545 Y5.238 E6.0519
G1 X31.959 Y5.299 E6.0715
G1 X31.546 Y5.285 E6.0852
G1 X31.018 Y5.523 E6.1045
G1 X30.670 Y5.995 E6.1240
G1 X30.523 Y6.865 E6.1534
G1 X30.574 Y7.387 E6.1708
G1 X30.919 Y7.879 E6.1908
G1 X31.385 Y8.102 E6.2080
G1 X31.573 Y8.138 E6.2143
G1 X32.114 Y8.356 E6.2337
G1 X32.791 Y8.767 E6.2601
G1 X33.415 Y9.273 E6.2868
G1 X33.340 Y9.566 E6.2969
G1 X32.917 Y9.635 E6.3111
G0 F4800 E5.3111
G0 X33.445 Y9.277 F10800
G0 F4800 E6.3111
;segType:Perimeter
G1 X33.607 Y9.930 E6.3335 F2159
G1 X32.804 Y10.061 E6.3606
G1 X24.369 Y7.801 E6.6510
G1 X24.494 Y7.787 E6.6552
G1 X24.983 Y7.668 E6.6720
G1 X25.454 Y7.491 E6.6887
G1 X25.901 Y7.258 E6.7055
G1 X26.318 Y6.973 E6.7223
G1 X26.697 Y6.639 E6.7391
G1 X27.033 Y6.262 E6.7559
G1 X27.323 Y5.847 E6.7727
G1 X27.561 Y5.400 E6.7895
G1 X27.744 Y4.927 E6.8064
G1 X27.869 Y4.436 E6.8233
G1 X27.935 Y3.934 E6.8401
G1 X27.940 Y3.427 E6.8570
G1 X27.887 Y2.941 E6.8732
G1 X27.764 Y2.415 E6.8912
G1 X27.597 Y1.957 E6.9074
G1 X27.368 Y1.507 E6.9242
G1 X27.087 Y1.088 E6.9410
G1 X26.758 Y0.707 E6.9577
G1 X26.385 Y0.369 E6.9745
G1 X25.975 Y0.079 E6.9912
G1 X25.532 Y-0.159 E7.0079
G1 X25.065 Y-0.341 E7.0246
G1 X24.578 Y-0.466 E7.0413
G1 X24.080 Y-0.529 E7.0580
G1 X23.578 Y-0.532 E7.0747
G1 X23.078 Y-0.474 E7.0914
G1 X22.590 Y-0.355 E7.1081
G1 X22.118 Y-0.178 E7.1249
G1 X21.671 Y0.055 E7.1417
G1 X21.255 Y0.340 E7.1584
G1 X20.875 Y0.674 E7.1752
G1 X20.539 Y1.051 E7.1921
G1 X20.249 Y1.466 E7.2089
G1 X20.011 Y1.913 E7.2257
G1 X19.828 Y2.386 E7.2426
G1 X19.703 Y2.877 E7.2594
G1 X19.637 Y3.379 E7.2763
G1 X19.632 Y3.886 E7.2931
G1 X19.687 Y4.389 E7.3100
G1 X19.802 Y4.881 E7.3268
G1 X19.976 Y5.356 E7.3436
G1 X20.204 Y5.806 E7.3604
G1 X20.485 Y6.224 E7.3772
G1 X20.815 Y6.606 E7.3939
G1 X21.187 Y6.944 E7.4107
G1 X21.198 Y6.952 E7.4111
G1 X12.782 Y4.697 E7.7009
G1 X8.674 Y3.597 E7.8424
G1 X6.208 Y2.936 E7.9273
G1 X6.222 Y2.935 E7.9278
G1 X6.713 Y2.828 E7.9445
G1 X7.189 Y2.663 E7.9613
G1 X7.641 Y2.441 E7.9780
G1 X8.064 Y2.166 E7.9948
G1 X8.452 Y1.841 E8.0116
G1 X8.797 Y1.472 E8.0284
G1 X9.097 Y1.064 E8.0452
G1 X9.345 Y0.623 E8.0621
G1 X9.539 Y0.155 E8.0789
G1 X9.676 Y-0.333 E8.0958
G1 X9.754 Y-0.834 E8.1127
G1 X9.770 Y-1.355 E8.1300
G1 X9.728 Y-1.844 E8.1463
G1 X9.625 Y-2.339 E8.1632
G1 X9.463 Y-2.818 E8.1800
G1 X9.245 Y-3.274 E8.1968
G1 X8.974 Y-3.699 E8.2135
G1 X8.654 Y-4.088 E8.2303
G1 X8.290 Y-4.435 E8.2470
G1 X7.887 Y-4.736 E8.2637
G1 X7.450 Y-4.984 E8.2805
G1 X6.987 Y-5.178 E8.2972
G1 X6.503 Y-5.314 E8.3139
G1 X6.007 Y-5.389 E8.3306
G1 X5.505 Y-5.405 E8.3473
G1 X5.005 Y-5.359 E8.3640
G1 X4.513 Y-5.252 E8.3807
G1 X4.038 Y-5.086 E8.3975
G1 X3.585 Y-4.865 E8.4142
G1 X3.162 Y-4.589 E8.4310
G1 X2.775 Y-4.265 E8.4478
G1 X2.429 Y-3.896 E8.4646
G1 X2.130 Y-3.488 E8.4814
G1 X1.882 Y-3.047 E8.4983
G1 X1.687 Y-2.579 E8.5151
G1 X1.551 Y-2.091 E8.5320
G1 X1.473 Y-1.590 E8.5489
G1 X1.455 Y-1.084 E8.5657
G1 X1.499 Y-0.579 E8.5825
G1 X1.602 Y-0.085 E8.5994
G1 X1.763 Y0.395 E8.6162
G1 X1.982 Y0.850 E8.6330
G1 X2.252 Y1.275 E8.6497
G1 X2.572 Y1.665 E8.6665
G1 X2.937 Y2.012 E8.6832
G1 X3.038 Y2.087 E8.6874
G1 X-0.417 Y1.162 E8.8064
G1 X-5.400 Y-0.173 E8.9780
G1 X-6.070 Y-0.720 E9.0067
G1 X-5.858 Y-1.515 E9.0341
G1 X-4.784 Y-1.688 E9.0703
G1 X-3.934 Y-1.708 E9.0986
G1 X-3.275 Y-1.616 E9.1207
G1 X-2.937 Y-1.520 E9.1324
G1 X-2.562 Y-1.587 E9.1450
G1 X-2.266 Y-1.831 E9.1578
G1 X-2.047 Y-2.332 E9.1760
G1 X-1.932 Y-2.661 E9.1876
G1 X-1.929 Y-2.883 E9.1950
G1 X-2.062 Y-3.228 E9.2072
G1 X-2.338 Y-3.458 E9.2192
G1 X-2.513 Y-3.542 E9.2257
G1 X-3.045 Y-3.927 E9.2475
G1 X-3.644 Y-4.533 E9.2759
G1 X-4.298 Y-5.404 E9.3121
G1 X-3.903 Y-6.125 E9.3394
G1 X-2.821 Y-6.034 E9.3755
G1 X-1.992 Y-5.849 E9.4038
G1 X-1.386 Y-5.605 E9.4255
G1 X-1.074 Y-5.427 E9.4375
G1 X-0.708 Y-5.400 E9.4497
G1 X-0.487 Y-5.474 E9.4574
G1 X-0.230 Y-5.694 E9.4687
G1 X0.181 Y-6.297 E9.4929
G1 X0.234 Y-6.679 E9.5058
G1 X0.085 Y-7.047 E9.5190
G1 X-0.184 Y-7.292 E9.5311
G1 X-0.602 Y-7.791 E9.5527
G1 X-1.040 Y-8.524 E9.5811
G1 X-1.468 Y-9.529 E9.6174
G1 X-0.914 Y-10.135 E9.6447
G1 X0.113 Y-9.786 E9.6808
G1 X0.874 Y-9.405 E9.7091
G1 X1.392 Y-9.031 E9.7304
G1 X1.545 Y-8.875 E9.7376
G1 X1.830 Y-8.693 E9.7489
G1 X2.215 Y-8.669 E9.7617
G1 X2.542 Y-8.827 E9.7738
G1 X3.085 Y-9.314 E9.7980
G1 X3.224 Y-9.659 E9.8104
G1 X3.220 Y-9.902 E9.8185
G1 X3.094 Y-10.202 E9.8293
G1 X2.963 Y-10.384 E9.8368
G1 X2.683 Y-10.957 E9.8580
G1 X2.432 Y-11.776 E9.8865
G1 X2.256 Y-12.857 E9.9229
G1 X2.936 Y-13.311 E9.9501
G1 X3.850 Y-12.725 E9.9862
G1 X4.496 Y-12.171 E10.0146
G1 X4.907 Y-11.687 E10.0357
G1 X5.103 Y-11.382 E10.0477
G1 X5.288 Y-11.232 E10.0556
G1 X5.621 Y-11.132 E10.0672
G1 X5.974 Y-11.205 E10.0792
G1 X6.617 Y-11.546 E10.1034
G1 X6.835 Y-11.847 E10.1158
G1 X6.890 Y-12.090 E10.1241
G1 X6.840 Y-12.406 E10.1347
G1 X6.753 Y-12.626 E10.1426
G1 X6.620 Y-13.243 E10.1636
G1 X6.571 Y-14.099 E10.1921
G1 X6.656 Y-15.192 E10.2286
G1 X7.424 Y-15.470 E10.2557
G1 X8.170 Y-14.680 E10.2919
G1 X8.666 Y-13.985 E10.3203
G1 X8.946 Y-13.423 E10.3412
G1 X9.069 Y-13.063 E10.3538
G1 X9.327 Y-12.787 E10.3664
G1 X9.685 Y-12.674 E10.3789
G1 X9.911 Y-12.698 E10.3864
G1 X10.441 Y-12.821 E10.4045
G1 X10.724 Y-12.964 E10.4150
G1 X10.888 Y-13.153 E10.4234
G1 X11.000 Y-13.472 E10.4346
G1 X10.968 Y-13.817 E10.4461
G1 X10.980 Y-14.515 E10.4694
G1 X11.135 Y-15.359 E10.4979
G1 X11.478 Y-16.401 E10.5344
G1 X12.287 Y-16.485 E10.5614
G1 X12.823 Y-15.537 E10.5977
G1 X13.139 Y-14.742 E10.6261
G1 X13.277 Y-14.135 E10.6468
G1 X13.292 Y-13.887 E10.6551
G1 X13.381 Y-13.575 E10.6659
G1 X13.648 Y-13.296 E10.6787
G1 X13.996 Y-13.192 E10.6908
G1 X14.711 Y-13.193 E10.7146
G1 X14.947 Y-13.281 E10.7230
G1 X15.216 Y-13.541 E10.7354
G1 X15.318 Y-13.849 E10.7462
G1 X15.345 Y-14.097 E10.7545
G1 X15.509 Y-14.698 E10.7752
G1 X15.861 Y-15.482 E10.8038
G1 X16.440 Y-16.412 E10.8402
G1 X17.245 Y-16.299 E10.8673
G1 X17.540 Y-15.247 E10.9036
G1 X17.657 Y-14.398 E10.9321
G1 X17.647 Y-13.776 E10.9528
G1 X17.603 Y-13.528 E10.9612
G1 X17.615 Y-13.216 E10.9716
G1 X17.714 Y-12.994 E10.9796
G1 X17.849 Y-12.836 E10.9865
G1 X18.122 Y-12.684 E10.9969
G1 X18.824 Y-12.510 E11.0210
G1 X19.185 Y-12.589 E11.0333
G1 X19.392 Y-12.739 E11.0418
G1 X19.559 Y-13.003 E11.0522
G1 X19.645 Y-13.240 E11.0606
G1 X19.946 Y-13.783 E11.0812
G1 X20.473 Y-14.460 E11.1098
G1 X21.255 Y-15.225 E11.1461
G1 X22.008 Y-14.921 E11.1732
G1 X22.045 Y-13.826 E11.2096
G1 X21.957 Y-12.972 E11.2381
G1 X21.799 Y-12.370 E11.2588
G1 X21.698 Y-12.141 E11.2672
G1 X21.633 Y-11.823 E11.2780
G1 X21.737 Y-11.462 E11.2904
G1 X21.897 Y-11.268 E11.2988
G1 X22.516 Y-10.910 E11.3226
G1 X22.867 Y-10.826 E11.3346
G1 X23.206 Y-10.915 E11.3463
G1 X23.470 Y-11.157 E11.3582
G1 X23.609 Y-11.366 E11.3665
G1 X24.031 Y-11.823 E11.3872
G1 X24.703 Y-12.354 E11.4157
G1 X25.642 Y-12.908 E11.4520
G1 X26.300 Y-12.431 E11.4790
G1 X26.076 Y-11.358 E11.5155
G1 X25.788 Y-10.548 E11.5440
G1 X25.489 Y-9.995 E11.5650
G1 X25.265 Y-9.687 E11.5776
G1 X25.184 Y-9.315 E11.5903
G1 X25.294 Y-8.954 E11.6028
G1 X25.441 Y-8.780 E11.6104
G1 X25.840 Y-8.410 E11.6285
G1 X26.128 Y-8.252 E11.6394
G1 X26.501 Y-8.247 E11.6518
G1 X26.726 Y-8.342 E11.6600
G1 X27.003 Y-8.585 E11.6722
G1 X27.528 Y-8.932 E11.6931
G1 X28.305 Y-9.285 E11.7215
G1 X29.347 Y-9.597 E11.7577
G1 X29.872 Y-8.974 E11.7848
G1 X29.400 Y-7.985 E11.8213
G1 X28.929 Y-7.267 E11.8498
G1 X28.502 Y-6.797 E11.8709
G1 X28.215 Y-6.554 E11.8834
G1 X28.050 Y-6.212 E11.8961
G1 X28.072 Y-5.835 E11.9086
G1 X28.172 Y-5.633 E11.9161
G1 X28.555 Y-5.075 E11.9386
G1 X28.751 Y-4.936 E11.9466
G1 X29.089 Y-4.856 E11.9582
G1 X29.434 Y-4.950 E11.9701
G1 X29.638 Y-5.064 E11.9779
G1 X30.233 Y-5.276 E11.9988
G1 X31.070 Y-5.433 E12.0272
G1 X32.154 Y-5.484 E12.0633
G1 X32.515 Y-4.751 E12.0905
G1 X31.823 Y-3.904 E12.1269
G1 X31.196 Y-3.320 E12.1554
G1 X30.663 Y-2.961 E12.1767
G1 X30.330 Y-2.797 E12.1891
G1 X30.080 Y-2.480 E12.2025
G1 X30.027 Y-2.098 E12.2153
G1 X30.183 Y-1.606 E12.2325
G1 X30.320 Y-1.265 E12.2447
G1 X30.598 Y-1.006 E12.2574
G1 X30.969 Y-0.918 E12.2701
G1 X31.308 Y-0.997 E12.2816
G1 X31.989 Y-1.070 E12.3044
G1 X32.837 Y-1.020 E12.3327
G1 X33.900 Y-0.809 E12.3687
G1 X34.077 Y-0.008 E12.3960
G1 X33.204 Y0.649 E12.4323
G1 X32.458 Y1.065 E12.4607
G1 X31.846 Y1.288 E12.4824
G1 X31.492 Y1.365 E12.4944
G1 X31.189 Y1.596 E12.5071
G1 X31.035 Y1.950 E12.5200
G1 X31.086 Y2.681 E12.5443
G1 X31.212 Y3.037 E12.5569
G1 X31.507 Y3.290 E12.5698
G1 X31.846 Y3.359 E12.5813
G1 X32.050 Y3.351 E12.5881
G1 X32.692 Y3.443 E12.6097
G1 X33.503 Y3.696 E12.6379
G1 X34.484 Y4.158 E12.6740
G1 X34.466 Y4.969 E12.7010
G1 X33.439 Y5.414 E12.7382
G1 X32.618 Y5.636 E12.7665
G1 X31.973 Y5.702 E12.7881
G1 X31.625 Y5.691 E12.7996
G1 X31.277 Y5.847 E12.8123
G1 X31.048 Y6.157 E12.8251
G1 X30.926 Y6.879 E12.8495
G1 X30.962 Y7.242 E12.8616
G1 X31.185 Y7.561 E12.8746
G1 X31.510 Y7.716 E12.8866
G1 X31.686 Y7.750 E12.8925
G1 X32.293 Y7.994 E12.9143
G1 X33.021 Y8.436 E12.9426
G1 X33.866 Y9.123 E12.9788
G1 X33.676 Y9.867 E13.0044
G1 X33.044 Y9.646
G0 X27.234 Y0.975 F10800
G0 X25.191 Y-0.932
;segType:HShell
G1 X21.211 Y-4.936 E13.1922 F3600
;segType:Loop
G0 X20.480 Y-3.245 F10800
G1 X20.475 Y-3.236 E13.1925 F3600
G1 X20.180 Y-2.766 E13.2109
G1 X19.832 Y-2.336 E13.2293
G1 X19.434 Y-1.950 E13.2478
G1 X18.993 Y-1.616 E13.2662
G1 X18.516 Y-1.337 E13.2846
G1 X18.009 Y-1.118 E13.3029
G1 X17.480 Y-0.962 E13.3213
G1 X16.936 Y-0.872 E13.3396
G1 X16.386 Y-0.848 E13.3579
G1 X15.837 Y-0.891 E13.3762
G1 X15.297 Y-1.001 E13.3945
G1 X14.775 Y-1.176 E13.4129
G1 X14.278 Y-1.413 E13.4312
G1 X13.812 Y-1.709 E13.4495
G1 X13.386 Y-2.059 E13.4679
G1 X13.005 Y-2.459 E13.4863
G1 X12.676 Y-2.903 E13.5046
G1 X12.401 Y-3.383 E13.5230
G1 X12.187 Y-3.894 E13.5415
G1 X12.035 Y-4.427 E13.5599
G1 X11.948 Y-4.975 E13.5783
G1 X11.927 Y-5.529 E13.5968
G1 X11.973 Y-6.082 E13.6153
G1 X12.084 Y-6.626 E13.6337
G1 X12.259 Y-7.153 E13.6522
G1 X12.496 Y-7.655 E13.6707
G1 X12.791 Y-8.125 E13.6891
G1 X13.140 Y-8.555 E13.7075
G1 X13.538 Y-8.940 E13.7259
G1 X13.979 Y-9.275 E13.7444
G1 X14.456 Y-9.554 E13.7627
G1 X14.963 Y-9.772 E13.7811
G1 X15.492 Y-9.928 E13.7994
G1 X16.036 Y-10.019 E13.8178
G1 X16.586 Y-10.042 E13.8361
G1 X17.135 Y-9.999 E13.8544
G1 X17.674 Y-9.889 E13.8727
G1 X18.197 Y-9.715 E13.8910
G1 X18.695 Y-9.478 E13.9094
G1 X19.159 Y-9.182 E13.9277
G1 X19.585 Y-8.831 E13.9461
G1 X19.966 Y-8.431 E13.9644
G1 X20.272 Y-8.021 E13.9814
G1 X20.587 Y-7.468 E14.0026
G1 X20.798 Y-6.954 E14.0211
G1 X20.944 Y-6.421 E14.0395
G1 X21.025 Y-5.877 E14.0578
G1 X21.045 Y-5.362 E14.0749
G1 X20.999 Y-4.808 E14.0934
G1 X20.888 Y-4.264 E14.1119
G1 X20.712 Y-3.738 E14.1303
G1 X20.559 Y-3.413 E14.1422
;segType:Perimeter
G0 X21.053 Y-4.669 F10800
G1 X20.483 Y-4.316 E14.1645 F2159
G1 X20.341 Y-3.888 E14.1795
G1 X20.125 Y-3.430 E14.1964
G1 X19.855 Y-3.002 E14.2132
G1 X19.537 Y-2.609 E14.2300
G1 X19.174 Y-2.257 E14.2469
G1 X18.771 Y-1.952 E14.2637
G1 X18.336 Y-1.697 E14.2804
G1 X17.874 Y-1.498 E14.2972
G1 X17.391 Y-1.355 E14.3139
G1 X16.895 Y-1.273 E14.3306
G1 X16.393 Y-1.251 E14.3474
G1 X15.892 Y-1.291 E14.3641
G1 X15.400 Y-1.391 E14.3808
G1 X14.924 Y-1.550 E14.3975
G1 X14.471 Y-1.766 E14.4142
G1 X14.047 Y-2.036 E14.4309
G1 X13.658 Y-2.355 E14.4476
G1 X13.311 Y-2.720 E14.4643
G1 X13.011 Y-3.124 E14.4811
G1 X12.760 Y-3.563 E14.4979
G1 X12.565 Y-4.028 E14.5147
G1 X12.426 Y-4.514 E14.5315
G1 X12.347 Y-5.014 E14.5483
G1 X12.328 Y-5.520 E14.5652
G1 X12.369 Y-6.025 E14.5820
G1 X12.471 Y-6.522 E14.5989
G1 X12.631 Y-7.002 E14.6157
G1 X12.847 Y-7.460 E14.6326
G1 X13.117 Y-7.889 E14.6494
G1 X13.435 Y-8.282 E14.6662
G1 X13.798 Y-8.634 E14.6831
G1 X14.200 Y-8.939 E14.6999
G1 X14.636 Y-9.193 E14.7166
G1 X15.098 Y-9.393 E14.7334
G1 X15.581 Y-9.535 E14.7501
G1 X16.077 Y-9.618 E14.7669
G1 X16.579 Y-9.639 E14.7836
G1 X17.079 Y-9.600 E14.8003
G1 X17.571 Y-9.500 E14.8170
G1 X18.048 Y-9.341 E14.8337
G1 X18.501 Y-9.125 E14.8504
G1 X18.925 Y-8.855 E14.8671
G1 X19.313 Y-8.535 E14.8838
G1 X19.661 Y-8.171 E14.9005
G1 X19.937 Y-7.799 E14.9160
G1 X20.228 Y-7.291 E14.9354
G1 X20.419 Y-6.823 E14.9522
G1 X20.552 Y-6.337 E14.9690
G1 X20.627 Y-5.839 E14.9857
G1 X20.644 Y-5.371 E15.0013
G1 X20.603 Y-4.866 E15.0182
G1 X20.512 Y-4.424 E15.0332
G1 X20.828 Y-3.831
;segType:HShell
G0 X21.137 Y-4.482 F10800
G1 X24.516 Y-1.082 E15.1926 F3600
G1 X23.939 Y-1.134
G1 X21.031 Y-4.059 E15.3298
G1 X20.899 Y-3.663
G1 X23.425 Y-1.122 E15.4490
G1 X22.956 Y-1.065
G1 X20.729 Y-3.304 E15.5541
G1 X20.542 Y-2.964
G1 X22.532 Y-0.962 E15.6479
G1 X22.138 Y-0.830
G1 X20.337 Y-2.641 E15.7329
G1 X20.101 Y-2.350
G1 X21.766 Y-0.675 E15.8114
G1 X21.420 Y-0.494
G1 X19.849 Y-2.074 E15.8855
G1 X19.582 Y-1.814
G1 X21.101 Y-0.285 E15.9572
G1 X20.799 Y-0.061
G1 X19.284 Y-1.584 E16.0287
G1 X18.971 Y-1.370
G1 X20.518 Y0.186 E16.1017
G1 X20.262 Y0.457
G1 X18.638 Y-1.176 E16.1783
G1 X18.274 Y-1.014
G1 X20.020 Y0.743 E16.2606
G1 X19.803 Y1.054
G1 X17.888 Y-0.873 E16.3510
G1 X17.476 Y-0.758
G1 X19.610 Y1.388 E16.4517
G1 X19.434 Y1.741
G1 X17.025 Y-0.683 E16.5653
G1 X16.529 Y-0.653
G1 X19.287 Y2.121 E16.6954
G1 X19.171 Y2.534
G1 X15.978 Y-0.678 E16.8461
G1 X15.345 Y-0.786
G1 X19.085 Y2.976 E17.0225
G1 X19.036 Y3.457
G1 X14.543 Y-1.064 E17.2345
G0 X12.145 Y-3.476 F10800
G1 X4.865 Y-10.799 E17.5780 F3600
G1 X4.575 Y-11.091
G1 X3.334 Y-12.340 E17.6365
G1 X2.991 Y-12.156
G1 X19.040 Y3.989 E18.3937
G1 X19.120 Y4.598
G1 X3.157 Y-11.460 E19.1468
G0 X3.646 Y-10.439 F10800
G1 X19.330 Y5.339 E19.8867 F3600
G1 X19.274 Y5.812
G1 X9.433 Y-4.088 E20.3511
G0 X7.307 Y-5.697 F10800
G1 X3.727 Y-9.300 E20.5200 F3600
G1 X3.823 Y-9.732
G1 X8.488 Y-5.039 E20.7401
G0 X10.060 Y-2.929 F10800
G1 X18.558 Y5.620 E21.1410 F3600
G1 X17.841 Y5.428
G1 X10.269 Y-2.189 E21.4982
G1 X10.353 Y-1.575
G1 X17.124 Y5.236 E21.8176
G1 X16.407 Y5.044
G1 X10.361 Y-1.039 E22.1029
G1 X10.318 Y-0.553
G1 X15.691 Y4.852 E22.3564
G1 X14.974 Y4.660
G1 X10.236 Y-0.106 E22.5799
G1 X10.120 Y0.306
G1 X14.257 Y4.468 E22.7751
G1 X13.541 Y4.276
G1 X9.970 Y0.684 E22.9436
G1 X9.799 Y1.041
G1 X12.824 Y4.084 E23.0863
G1 X12.107 Y3.892
G1 X9.609 Y1.379 E23.2041
G1 X9.387 Y1.685
G1 X11.390 Y3.700 E23.2987
G1 X10.674 Y3.508
G1 X9.150 Y1.976 E23.3705
G1 X8.895 Y2.248
G1 X9.957 Y3.316 E23.4206
G1 X9.240 Y3.124
G1 X8.612 Y2.492 E23.4503
G1 X8.314 Y2.722
G1 X8.524 Y2.932 E23.4601
G0 X9.858 Y-0.293 F10800
G0 X9.912 Y-1.872
G0 X9.408 Y-3.365
G0 X8.410 Y-4.579
G0 X7.048 Y-5.355
G0 X5.500 Y-5.592
G0 X3.966 Y-5.259
G0 X2.648 Y-4.401
G0 X1.715 Y-3.129
G0 X1.288 Y-1.608
G0 X1.356 Y1.012
G1 X-1.567 Y-1.929 E23.5981 F3600
G1 X-1.419 Y-2.309
G1 X1.059 Y0.184 E23.7150
G1 X0.640 Y0.820
G1 X-1.728 Y-1.562 E23.8267
G1 X-1.980 Y-1.286
G1 X-0.077 Y0.628 E23.9165
G1 X-0.794 Y0.436
G1 X-2.269 Y-1.048 E23.9861
G1 X-2.697 Y-0.950
G1 X-1.511 Y0.244 E24.0421
G1 X-2.227 Y0.052
G1 X-3.257 Y-0.984 E24.0906
G1 X-3.891 Y-1.092
G1 X-2.944 Y-0.140 E24.1353
G1 X-3.661 Y-0.332
G1 X-4.417 Y-1.093 E24.1710
G1 X-4.907 Y-1.057
G1 X-4.377 Y-0.524 E24.1960
G1 X-5.094 Y-0.716
G1 X-5.360 Y-0.984 E24.2086
G0 X0.903 Y-0.502 F10800
G1 X-1.331 Y-2.749 E24.3140 F3600
G1 X-1.505 Y-3.454
G1 X0.855 Y-1.079 E24.4253
G1 X0.872 Y-1.591
G1 X-2.954 Y-5.440 E24.6058
G1 X-3.527 Y-5.487
G1 X-2.026 Y-3.977 E24.6766
G0 X-2.285 Y-5.296 F10800
G1 X0.938 Y-2.054 E24.8287 F3600
G1 X1.037 Y-2.483
G1 X-1.365 Y-4.900 E24.9420
G1 X-0.737 Y-4.797
G1 X1.164 Y-2.884 E25.0317
G1 X1.319 Y-3.258
G1 X-0.311 Y-4.897 E25.1086
G1 X0.008 Y-5.105
G1 X1.504 Y-3.601 E25.1791
G1 X1.706 Y-3.926
G1 X0.274 Y-5.367 E25.2467
G1 X0.488 Y-5.681
G1 X1.929 Y-4.231 E25.3147
G1 X2.179 Y-4.509
G1 X0.702 Y-5.994 E25.3844
G1 X0.804 Y-6.421
G1 X2.443 Y-4.772 E25.4617
G1 X2.730 Y-5.012
G1 X0.751 Y-7.003 E25.5551
G0 X-0.557 Y-9.377 F10800
G1 X3.367 Y-5.429 E25.7402 F3600
G1 X3.040 Y-5.229
G1 X-0.498 Y-8.789 E25.9072
G1 X0.351 Y-8.993
G1 X3.721 Y-5.602 E26.0662
G1 X4.102 Y-5.748
G1 X1.772 Y-8.092 E26.1761
G1 X2.333 Y-8.056
G1 X4.508 Y-5.868 E26.2787
G1 X4.944 Y-5.959
G1 X2.689 Y-8.228 E26.3851
G1 X3.008 Y-8.436
G1 X5.426 Y-6.003 E26.4992
G1 X5.960 Y-5.995
G1 X3.286 Y-8.685 E26.6254
G1 X3.564 Y-8.935
G1 X6.566 Y-5.915 E26.7670
G0 X7.719 Y-14.277 F10800
G1 X7.255 Y-14.743 E26.7889 F3600
G1 X7.195 Y-14.274
G1 X8.453 Y-13.009 E26.8482
G0 X9.667 Y-12.488 F10800
G0 X13.475 Y-12.718
G1 X15.967 Y-10.211 E26.9658 F3600
G1 X16.466 Y-10.239
G1 X14.130 Y-12.589 E27.0760
G1 X14.655 Y-12.589
G1 X17.020 Y-10.210 E27.1876
G0 X14.552 Y-9.360 F10800
G0 X13.298 Y-8.409
G0 X12.459 Y-7.072
G0 X11.867 Y-4.285
G1 X5.664 Y-10.525 E27.4802 F3600
G1 X6.100 Y-10.615
G1 X11.753 Y-4.929 E27.7469
G1 X11.729 Y-5.482
G1 X6.461 Y-10.781 E27.9954
G1 X6.805 Y-10.964
G1 X11.763 Y-5.976 E28.2293
G1 X11.839 Y-6.429
G1 X7.103 Y-11.193 E28.4527
G1 X7.325 Y-11.499
G1 X11.947 Y-6.849 E28.6708
G1 X12.081 Y-7.244
G1 X7.461 Y-11.891 E28.8887
G1 X7.443 Y-12.439
G1 X12.250 Y-7.602 E29.1155
G1 X12.439 Y-7.941
G1 X7.252 Y-13.159 E29.3603
G1 X7.192 Y-13.749
G1 X12.645 Y-8.263 E29.6176
G1 X12.881 Y-8.554
G1 X9.292 Y-12.165 E29.7869
G1 X9.894 Y-12.089
G1 X13.134 Y-8.829 E29.9398
G1 X13.402 Y-9.088
G1 X10.333 Y-12.176 E30.0846
G1 X10.739 Y-12.296
G1 X13.701 Y-9.316 E30.2244
G1 X14.016 Y-9.529
G1 X11.089 Y-12.474 E30.3625
G1 X11.337 Y-12.753
G1 X14.348 Y-9.724 E30.5045
G1 X14.715 Y-9.884
G1 X11.509 Y-13.109 E30.6557
G1 X11.595 Y-13.551
G1 X15.102 Y-10.023 E30.8212
G1 X15.516 Y-10.136
G1 X11.573 Y-14.103 E31.0072
G1 X11.606 Y-14.599
G1 X12.811 Y-13.386 E31.0641
G1 X12.682 Y-14.046
G1 X11.688 Y-15.045 E31.1109
G1 X11.810 Y-15.451
G1 X12.478 Y-14.779 E31.1425
G0 X13.551 Y-13.137 F10800
G0 X14.744 Y-13.009
G0 X15.373 Y-13.441
G0 X16.556 Y-15.438
G1 X16.964 Y-15.027 E31.1617 F3600
G1 X17.050 Y-14.412
G1 X16.354 Y-15.112 E31.1945
G1 X16.190 Y-14.748
G1 X17.049 Y-13.884 E31.2350
G1 X17.007 Y-13.397
G1 X16.042 Y-14.368 E31.2806
G1 X15.933 Y-13.949
G1 X17.198 Y-12.676 E31.3403
G1 X17.572 Y-12.300
G1 X30.872 Y1.080 E31.9678
G1 X30.633 Y1.369
G1 X15.840 Y-13.514 E32.6657
G1 X15.676 Y-13.149
G1 X30.473 Y1.737 E33.3638
G1 X30.455 Y2.247
G1 X20.808 Y-7.457 E33.8189
G0 X21.949 Y-10.541 F10800
G1 X29.601 Y-2.844 E34.1799 F3600
G1 X29.834 Y-3.139
G1 X28.637 Y-4.343 E34.2364
G1 X29.234 Y-4.271
G1 X30.129 Y-3.370 E34.2786
G1 X30.469 Y-3.557
G1 X29.649 Y-4.383 E34.3173
G1 X30.004 Y-4.554
G1 X30.785 Y-3.769 E34.3542
G1 X31.063 Y-4.018
G1 X30.393 Y-4.692 E34.3858
G1 X30.836 Y-4.775
G1 X31.336 Y-4.273 E34.4093
G1 X31.580 Y-4.557
G1 X31.305 Y-4.832 E34.4223
G0 X29.093 Y-4.669 F10800
G0 X27.647 Y-5.339
G1 X22.790 Y-10.224 E34.6514 F3600
G1 X23.241 Y-10.300
G1 X24.706 Y-8.827 E34.7205
G1 X24.602 Y-9.460
G1 X23.604 Y-10.463 E34.7675
G1 X23.880 Y-10.716
G1 X24.696 Y-9.895 E34.8061
G1 X24.904 Y-10.214
G1 X24.106 Y-11.017 E34.8437
G1 X24.359 Y-11.291
G1 X25.103 Y-10.543 E34.8788
G1 X25.276 Y-10.898
G1 X24.641 Y-11.537 E34.9088
G1 X24.935 Y-11.770
G1 X25.414 Y-11.288 E34.9314
G1 X25.534 Y-11.697
G1 X25.261 Y-11.971 E34.9443
G0 X24.998 Y-9.308 F10800
G0 X25.306 Y-8.650
G0 X26.080 Y-8.071
G0 X26.824 Y-8.184
G0 X29.064 Y-8.675
G1 X28.919 Y-8.820 E34.9511 F3600
G1 X28.501 Y-8.712
G1 X28.893 Y-8.318 E34.9696
G1 X28.687 Y-7.995
G1 X28.139 Y-8.547 E34.9955
G1 X27.782 Y-8.377
G1 X28.478 Y-7.677 E35.0283
G1 X28.232 Y-7.395
G1 X27.464 Y-8.167 E35.0645
G1 X27.172 Y-7.933
G1 X27.967 Y-7.133 E35.1020
G1 X27.701 Y-6.872
G1 X26.841 Y-7.736 E35.1426
G1 X26.406 Y-7.645
G1 X27.529 Y-6.515 E35.1955
G1 X27.458 Y-6.058
G1 X25.759 Y-7.766 E35.2757
G0 X26.118 Y-0.529 F10800
G1 X21.242 Y-5.433 E35.5057 F3600
G1 X21.210 Y-5.995
G1 X32.210 Y5.071 E36.0246
G1 X32.664 Y4.998
G1 X31.595 Y3.923 E36.0750
G1 X32.176 Y3.979
G1 X33.078 Y4.887 E36.1176
G1 X33.465 Y4.746
G1 X32.845 Y4.122 E36.1468
G0 X33.747 Y4.501 F10800
G1 X33.832 Y4.587 E36.1508 F3600
G0 X31.161 Y5.701 F10800
G0 X29.308 Y8.500
G1 X27.482 Y6.663 E36.2370 F3600
G1 X27.233 Y6.942
G1 X28.591 Y8.308 E36.3011
G1 X27.875 Y8.116
G1 X26.967 Y7.203 E36.3439
G1 X26.687 Y7.450
G1 X27.158 Y7.924 E36.3661
G1 X26.441 Y7.732
G1 X26.374 Y7.664 E36.3693
G0 F4800 E35.3693
G0 X23.269 Y7.715 F10800
G0 F4800 E36.3693
G1 X23.150 Y7.595 E36.3749 F3600
G1 X23.723 Y7.642
G1 X23.986 Y7.907 E36.3873
G1 X24.578 Y7.973
G1 X24.223 Y7.616 E36.4040
G1 X24.855 Y7.724
G1 X25.001 Y7.870 E36.4109
G0 X30.741 Y8.884 F10800
G1 X27.906 Y6.031 E36.5447 F3600
G1 X27.702 Y6.355
G1 X30.025 Y8.692 E36.6543
G0 X31.104 Y8.190 F10800
G1 X32.175 Y9.268 E36.7048 F3600
G1 X32.868 Y9.436
G1 X31.940 Y8.503 E36.7486
G1 X31.458 Y9.076
G1 X28.089 Y5.686 E36.9075
G1 X28.240 Y5.309
G1 X30.387 Y7.469 E37.0088
G1 X30.323 Y6.876
G1 X28.368 Y4.909 E37.1010
G1 X28.468 Y4.481
G1 X30.395 Y6.419 E37.1919
G1 X30.472 Y5.967
G1 X28.530 Y4.014 E37.2835
G1 X28.539 Y3.494
G1 X30.678 Y5.646 E37.3845
G1 X30.911 Y5.351
G1 X28.487 Y2.913 E37.4988
G1 X28.337 Y2.232
G1 X31.274 Y5.187 E37.6374
G1 X31.702 Y5.089
G1 X27.937 Y1.302 E37.8150
G0 X29.727 Y-1.130 F10800
G1 X18.992 Y-11.929 E38.3214 F3600
G1 X19.425 Y-12.023
G1 X29.447 Y-1.941 E38.7943
G1 X29.470 Y-2.447
G1 X19.733 Y-12.242 E39.2536
G1 X19.972 Y-12.531
G1 X21.144 Y-11.352 E39.3089
G1 X21.051 Y-11.974
G1 X20.152 Y-12.878 E39.3513
G1 X20.327 Y-13.231
G1 X21.155 Y-12.398 E39.3904
G1 X21.290 Y-12.792
G1 X20.531 Y-13.555 E39.4261
G1 X20.762 Y-13.852
G1 X21.380 Y-13.230 E39.4553
G1 X21.429 Y-13.709
G1 X21.007 Y-14.134 E39.4753
G1 X21.285 Y-14.384
G1 X21.430 Y-14.238 E39.4821
G0 X18.474 Y-9.806 F10800
G1 X15.408 Y-12.890 E39.6268 F3600
G1 X15.083 Y-12.688
G1 X17.657 Y-10.098 E39.7482
G0 X18.403 Y-11.993 F10800
G1 X31.171 Y0.852 E40.3506 F3600
G1 X31.575 Y0.729
G1 X30.427 Y-0.426 E40.4048
G1 X31.059 Y-0.319
G1 X31.973 Y0.600 E40.4479
G1 X32.340 Y0.441
G1 X31.495 Y-0.410 E40.4877
G1 X31.970 Y-0.461
G1 X32.678 Y0.252 E40.5212
G1 X33.001 Y0.048
G1 X32.522 Y-0.434 E40.5438
G1 X33.162 Y-0.319
G1 X33.302 Y-0.179 E40.5504
G0 X31.043 Y1.480 F10800
G0 X30.498 Y2.820
G1 X21.090 Y-6.644 E40.9942 F3600
; ------------------------------------
; Layer #2
; ------------------------------------
G21 ; mm
G90 ; abs
G92 E0 ; reset extr
M106 S0
G0 F4800 E-1.0000
G0 F300 Z0.600
G0 X20.485 Y0.271 F10800
G0 X19.156 Y2.767
G0 X19.465 Y5.577
G0 X22.143 Y13.484
G0 X21.493 Y17.708
G0 F4800 E0.0000
;segType:HShell
G1 X31.007 Y8.137 E0.4489 F3600
G1 X31.373 Y8.298
G1 X30.286 Y9.391 E0.5002
G1 X30.869 Y9.334
G1 X31.769 Y8.429 E0.5426
G1 X32.130 Y8.595
G1 X31.288 Y9.442 E0.5823
G1 X31.750 Y9.505
G1 X32.457 Y8.794 E0.6157
G1 X32.769 Y9.009
G1 X32.285 Y9.496 E0.6385
G1 X32.871 Y9.436
G1 X33.045 Y9.261 E0.6467
;segType:Perimeter
G0 X33.449 Y9.274 F10800
G1 X33.605 Y9.928 E0.6691 F2159
G1 X32.587 Y10.093 E0.7034
G1 X31.737 Y10.113 E0.7317
G1 X31.100 Y10.025 E0.7531
G1 X30.748 Y9.927 E0.7653
G1 X30.374 Y9.989 E0.7779
G1 X30.074 Y10.230 E0.7907
G1 X29.847 Y10.744 E0.8094
G1 X29.733 Y11.080 E0.8212
G1 X29.733 Y11.294 E0.8283
G1 X29.858 Y11.616 E0.8398
G1 X30.015 Y11.784 E0.8474
G1 X30.324 Y11.951 E0.8591
G1 X30.847 Y12.332 E0.8806
G1 X31.447 Y12.938 E0.9090
G1 X32.101 Y13.808 E0.9452
G1 X31.706 Y14.529 E0.9725
G1 X30.624 Y14.439 E1.0086
G1 X29.795 Y14.253 E1.0369
G1 X29.188 Y14.009 E1.0587
G1 X28.876 Y13.832 E1.0706
G1 X28.498 Y13.804 E1.0832
G1 X28.151 Y13.969 E1.0960
G1 X27.814 Y14.407 E1.1144
G1 X27.617 Y14.716 E1.1266
G1 X27.569 Y15.088 E1.1390
G1 X27.715 Y15.450 E1.1520
G1 X27.980 Y15.690 E1.1639
G1 X28.405 Y16.196 E1.1859
G1 X28.843 Y16.929 E1.2143
G1 X29.271 Y17.934 E1.2506
G1 X28.716 Y18.540 E1.2779
G1 X27.689 Y18.191 E1.3140
G1 X26.929 Y17.810 E1.3423
G1 X26.390 Y17.419 E1.3644
G1 X26.145 Y17.185 E1.3757
G1 X25.947 Y17.092 E1.3830
G1 X25.587 Y17.076 E1.3950
G1 X25.383 Y17.148 E1.4021
G1 X24.978 Y17.477 E1.4195
G1 X24.710 Y17.728 E1.4317
G1 X24.572 Y18.086 E1.4445
G1 X24.626 Y18.467 E1.4572
G1 X24.820 Y18.756 E1.4689
G1 X25.087 Y19.296 E1.4889
G1 X18.540 Y17.542 E1.7143
G1 X18.909 Y17.424 E1.7272
G1 X19.366 Y17.213 E1.7439
G1 X19.795 Y16.948 E1.7607
G1 X20.190 Y16.633 E1.7775
G1 X20.545 Y16.273 E1.7943
G1 X20.853 Y15.872 E1.8112
G1 X21.112 Y15.437 E1.8280
G1 X21.318 Y14.974 E1.8449
G1 X21.467 Y14.489 E1.8617
G1 X21.556 Y13.991 E1.8786
G1 X21.585 Y13.485 E1.8954
G1 X21.555 Y12.980 E1.9122
G1 X21.463 Y12.482 E1.9291
G1 X21.313 Y11.999 E1.9459
G1 X21.106 Y11.539 E1.9627
G1 X20.846 Y11.107 E1.9795
G1 X20.535 Y10.710 E1.9962
G1 X20.179 Y10.354 E2.0130
G1 X19.783 Y10.044 E2.0297
G1 X19.353 Y9.785 E2.0464
G1 X18.895 Y9.580 E2.0631
G1 X18.415 Y9.432 E2.0798
G1 X17.920 Y9.344 E2.0965
G1 X17.419 Y9.317 E2.1132
G1 X16.917 Y9.351 E2.1299
G1 X16.423 Y9.445 E2.1466
G1 X15.944 Y9.599 E2.1634
G1 X15.487 Y9.810 E2.1801
G1 X15.057 Y10.075 E2.1969
G1 X14.663 Y10.390 E2.2137
G1 X14.308 Y10.750 E2.2305
G1 X13.999 Y11.151 E2.2474
G1 X13.740 Y11.586 E2.2642
G1 X13.535 Y12.049 E2.2811
G1 X13.386 Y12.534 E2.2979
G1 X13.296 Y13.033 E2.3148
G1 X13.267 Y13.538 E2.3316
G1 X13.298 Y14.043 E2.3484
G1 X13.389 Y14.541 E2.3653
G1 X13.540 Y15.024 E2.3821
G1 X13.746 Y15.484 E2.3989
G1 X14.007 Y15.916 E2.4157
G1 X14.317 Y16.313 E2.4324
G1 X14.451 Y16.447 E2.4387
G1 X7.305 Y14.533 E2.6847
G1 X7.486 Y14.484 E2.6909
G1 X7.953 Y14.296 E2.7077
G1 X8.393 Y14.053 E2.7244
G1 X8.802 Y13.759 E2.7411
G1 X9.172 Y13.417 E2.7579
G1 X9.500 Y13.034 E2.7747
G1 X9.779 Y12.613 E2.7915
G1 X10.007 Y12.162 E2.8083
G1 X10.179 Y11.688 E2.8251
G1 X10.293 Y11.195 E2.8419
G1 X10.348 Y10.693 E2.8587
G1 X10.343 Y10.188 E2.8755
G1 X10.278 Y9.688 E2.8923
G1 X10.142 Y9.164 E2.9102
G1 X9.955 Y8.694 E2.9271
G1 X9.725 Y8.267 E2.9432
G1 X9.434 Y7.856 E2.9600
G1 X9.095 Y7.483 E2.9767
G1 X8.715 Y7.153 E2.9934
G1 X8.297 Y6.873 E3.0102
G1 X7.849 Y6.646 E3.0269
G1 X7.377 Y6.476 E3.0436
G1 X6.888 Y6.363 E3.0603
G1 X6.388 Y6.312 E3.0770
G1 X5.886 Y6.321 E3.0937
G1 X5.388 Y6.392 E3.1104
G1 X4.902 Y6.522 E3.1271
G1 X4.435 Y6.710 E3.1439
G1 X3.994 Y6.954 E3.1607
G1 X3.584 Y7.250 E3.1775
G1 X3.213 Y7.592 E3.1943
G1 X2.886 Y7.978 E3.2111
G1 X2.606 Y8.400 E3.2279
G1 X2.379 Y8.852 E3.2448
G1 X2.207 Y9.329 E3.2616
G1 X2.094 Y9.823 E3.2785
G1 X2.040 Y10.327 E3.2953
G1 X2.047 Y10.833 E3.3122
G1 X2.114 Y11.335 E3.3290
G1 X2.241 Y11.824 E3.3458
G1 X2.426 Y12.295 E3.3626
G1 X2.665 Y12.739 E3.3794
G1 X2.956 Y13.150 E3.3962
G1 X3.216 Y13.437 E3.4090
G1 X-2.701 Y11.852 E3.6128
G1 X-3.331 Y11.683 E3.6345
G1 X-2.837 Y11.354 E3.6542
G1 X-2.669 Y11.282 E3.6603
G1 X-2.392 Y11.071 E3.6719
G1 X-2.279 Y10.881 E3.6793
G1 X-2.221 Y10.513 E3.6916
G1 X-2.384 Y10.002 E3.7095
G1 X-2.521 Y9.662 E3.7217
G1 X-2.804 Y9.405 E3.7344
G1 X-3.176 Y9.322 E3.7471
G1 X-3.514 Y9.404 E3.7586
G1 X-4.185 Y9.475 E3.7811
G1 X-5.034 Y9.425 E3.8094
G1 X-6.097 Y9.214 E3.8454
G1 X-6.274 Y8.413 E3.8727
G1 X-5.401 Y7.756 E3.9090
G1 X-4.655 Y7.340 E3.9374
G1 X-4.033 Y7.115 E3.9594
G1 X-3.686 Y7.039 E3.9713
G1 X-3.383 Y6.806 E3.9840
G1 X-3.231 Y6.442 E3.9971
G1 X-3.267 Y5.913 E4.0147
G1 X-3.319 Y5.549 E4.0269
G1 X-3.530 Y5.231 E4.0396
G1 X-3.870 Y5.059 E4.0523
G1 X-4.217 Y5.055 E4.0639
G1 X-4.890 Y4.962 E4.0864
G1 X-5.701 Y4.709 E4.1147
G1 X-6.681 Y4.246 E4.1508
G1 X-6.663 Y3.425 E4.1781
G1 X-5.661 Y2.997 E4.2144
G1 X-4.838 Y2.772 E4.2427
G1 X-4.198 Y2.704 E4.2641
G1 X-3.987 Y2.719 E4.2712
G1 X-3.650 Y2.663 E4.2825
G1 X-3.346 Y2.424 E4.2954
G1 X-3.205 Y2.088 E4.3075
G1 X-3.117 Y1.361 E4.3319
G1 X-3.244 Y0.999 E4.3446
G1 X-3.531 Y0.748 E4.3573
G1 X-3.867 Y0.659 E4.3688
G1 X-4.502 Y0.405 E4.3916
G1 X-5.228 Y-0.037 E4.4198
G1 X-6.069 Y-0.723 E4.4560
G1 X-5.857 Y-1.518 E4.4833
G1 X-4.783 Y-1.692 E4.5195
G1 X-3.933 Y-1.712 E4.5478
G1 X-3.304 Y-1.625 E4.5689
G1 X-2.947 Y-1.526 E4.5812
G1 X-2.574 Y-1.586 E4.5938
G1 X-2.279 Y-1.820 E4.6063
G1 X-2.172 Y-2.017 E4.6138
G1 X-1.933 Y-2.654 E4.6364
G1 X-1.930 Y-2.896 E4.6445
G1 X-2.056 Y-3.221 E4.6560
G1 X-2.326 Y-3.454 E4.6679
G1 X-2.537 Y-3.560 E4.6758
G1 X-3.043 Y-3.931 E4.6966
G1 X-3.643 Y-4.536 E4.7250
G1 X-4.297 Y-5.407 E4.7612
G1 X-3.902 Y-6.128 E4.7886
G1 X-2.820 Y-6.038 E4.8247
G1 X-1.991 Y-5.852 E4.8529
G1 X-1.412 Y-5.622 E4.8737
G1 X-1.083 Y-5.436 E4.8862
G1 X-0.718 Y-5.403 E4.8984
G1 X-0.478 Y-5.483 E4.9068
G1 X-0.236 Y-5.690 E4.9174
G1 X0.176 Y-6.290 E4.9417
G1 X0.233 Y-6.658 E4.9540
G1 X0.171 Y-6.896 E4.9622
G1 X0.068 Y-7.069 E4.9689
G1 X-0.204 Y-7.318 E4.9812
G1 X-0.601 Y-7.794 E5.0018
G1 X-1.039 Y-8.528 E5.0302
G1 X-1.467 Y-9.533 E5.0665
G1 X-0.913 Y-10.138 E5.0938
G1 X0.114 Y-9.790 E5.1299
G1 X0.875 Y-9.409 E5.1582
G1 X1.371 Y-9.054 E5.1785
G1 X1.554 Y-8.872 E5.1871
G1 X1.821 Y-8.702 E5.1976
G1 X2.203 Y-8.671 E5.2103
G1 X2.534 Y-8.824 E5.2225
G1 X3.078 Y-9.309 E5.2467
G1 X3.223 Y-9.651 E5.2591
G1 X3.219 Y-9.915 E5.2679
G1 X3.100 Y-10.196 E5.2780
G1 X2.949 Y-10.413 E5.2868
G1 X2.684 Y-10.960 E5.3070
G1 X2.433 Y-11.780 E5.3355
G1 X2.257 Y-12.860 E5.3719
G1 X2.937 Y-13.315 E5.3992
G1 X3.850 Y-12.728 E5.4353
G1 X4.498 Y-12.174 E5.4636
G1 X4.890 Y-11.716 E5.4837
G1 X5.098 Y-11.393 E5.4964
G1 X5.297 Y-11.232 E5.5050
G1 X5.611 Y-11.137 E5.5158
G1 X5.964 Y-11.204 E5.5278
G1 X6.608 Y-11.544 E5.5520
G1 X6.831 Y-11.841 E5.5644
G1 X6.891 Y-12.103 E5.5733
G1 X6.844 Y-12.399 E5.5833
G1 X6.746 Y-12.658 E5.5925
G1 X6.621 Y-13.246 E5.6125
G1 X6.572 Y-14.103 E5.6411
G1 X6.657 Y-15.196 E5.6775
G1 X7.425 Y-15.474 E5.7047
G1 X8.171 Y-14.683 E5.7408
G1 X8.667 Y-13.988 E5.7692
G1 X8.936 Y-13.455 E5.7891
G1 X9.066 Y-13.077 E5.8024
G1 X9.318 Y-12.798 E5.8149
G1 X9.675 Y-12.679 E5.8274
G1 X9.922 Y-12.704 E5.8357
G1 X10.451 Y-12.828 E5.8537
G1 X10.717 Y-12.963 E5.8636
G1 X10.894 Y-13.165 E5.8726
G1 X10.999 Y-13.465 E5.8832
G1 X10.962 Y-13.918 E5.8983
G1 X10.981 Y-14.517 E5.9182
G1 X11.136 Y-15.363 E5.9468
G1 X11.479 Y-16.404 E5.9833
G1 X12.288 Y-16.489 E6.0103
G1 X12.824 Y-15.541 E6.0466
G1 X13.141 Y-14.745 E6.0751
G1 X13.274 Y-14.168 E6.0948
G1 X13.295 Y-13.880 E6.1044
G1 X13.378 Y-13.589 E6.1144
G1 X13.638 Y-13.307 E6.1272
G1 X13.985 Y-13.197 E6.1393
G1 X14.702 Y-13.196 E6.1632
G1 X14.957 Y-13.290 E6.1722
G1 X15.222 Y-13.555 E6.1846
G1 X15.317 Y-13.841 E6.1947
G1 X15.352 Y-14.130 E6.2043
G1 X15.510 Y-14.701 E6.2241
G1 X15.862 Y-15.485 E6.2526
G1 X16.441 Y-16.415 E6.2891
G1 X17.246 Y-16.302 E6.3161
G1 X17.541 Y-15.251 E6.3524
G1 X17.658 Y-14.401 E6.3810
G1 X17.651 Y-13.810 E6.4006
G1 X17.603 Y-13.521 E6.4104
G1 X17.614 Y-13.229 E6.4201
G1 X17.722 Y-12.988 E6.4288
G1 X17.859 Y-12.833 E6.4357
G1 X18.114 Y-12.691 E6.4455
G1 X18.814 Y-12.516 E6.4694
G1 X19.176 Y-12.588 E6.4817
G1 X19.399 Y-12.750 E6.4909
G1 X19.555 Y-12.997 E6.5006
G1 X19.658 Y-13.271 E6.5104
G1 X19.947 Y-13.787 E6.5300
G1 X20.474 Y-14.464 E6.5586
G1 X21.256 Y-15.228 E6.5949
G1 X22.009 Y-14.924 E6.6219
G1 X22.045 Y-13.830 E6.6583
G1 X21.958 Y-12.975 E6.6869
G1 X21.810 Y-12.401 E6.7066
G1 X21.696 Y-12.134 E6.7163
G1 X21.635 Y-11.838 E6.7264
G1 X21.732 Y-11.476 E6.7388
G1 X21.906 Y-11.266 E6.7479
G1 X22.528 Y-10.908 E6.7718
G1 X22.879 Y-10.831 E6.7837
G1 X23.197 Y-10.915 E6.7946
G1 X23.463 Y-11.150 E6.8065
G1 X23.628 Y-11.393 E6.8162
G1 X24.032 Y-11.826 E6.8359
G1 X24.704 Y-12.358 E6.8644
G1 X25.643 Y-12.912 E6.9007
G1 X26.301 Y-12.434 E6.9277
G1 X26.077 Y-11.361 E6.9642
G1 X25.789 Y-10.551 E6.9928
G1 X25.506 Y-10.024 E7.0127
G1 X25.272 Y-9.699 E7.0260
G1 X25.186 Y-9.332 E7.0385
G1 X25.290 Y-8.968 E7.0511
G1 X25.450 Y-8.776 E7.0595
G1 X25.849 Y-8.409 E7.0775
G1 X26.118 Y-8.260 E7.0877
G1 X26.491 Y-8.248 E7.1001
G1 X26.734 Y-8.351 E7.1089
G1 X27.029 Y-8.607 E7.1219
G1 X27.529 Y-8.935 E7.1418
G1 X28.306 Y-9.289 E7.1702
G1 X29.348 Y-9.601 E7.2064
G1 X29.873 Y-8.978 E7.2335
G1 X29.401 Y-7.989 E7.2699
G1 X28.930 Y-7.270 E7.2985
G1 X28.526 Y-6.822 E7.3186
G1 X28.224 Y-6.565 E7.3317
G1 X28.054 Y-6.228 E7.3443
G1 X28.070 Y-5.850 E7.3569
G1 X28.178 Y-5.627 E7.3651
G1 X28.550 Y-5.087 E7.3869
G1 X28.760 Y-4.936 E7.3955
G1 X29.079 Y-4.861 E7.4064
G1 X29.423 Y-4.948 E7.4182
G1 X29.666 Y-5.080 E7.4274
G1 X30.233 Y-5.280 E7.4474
G1 X31.071 Y-5.436 E7.4757
G1 X32.155 Y-5.488 E7.5118
G1 X32.516 Y-4.755 E7.5390
G1 X31.824 Y-3.907 E7.5754
G1 X31.197 Y-3.323 E7.6039
G1 X30.691 Y-2.980 E7.6243
G1 X30.351 Y-2.811 E7.6369
G1 X30.177 Y-2.640 E7.6450
G1 X30.075 Y-2.455 E7.6520
G1 X30.030 Y-2.091 E7.6642
G1 X30.180 Y-1.621 E7.6806
G1 X30.316 Y-1.279 E7.6929
G1 X30.589 Y-1.016 E7.7055
G1 X30.958 Y-0.922 E7.7181
G1 X31.297 Y-0.997 E7.7297
G1 X31.990 Y-1.073 E7.7529
G1 X32.838 Y-1.024 E7.7811
G1 X33.901 Y-0.812 E7.8172
G1 X34.078 Y-0.012 E7.8444
G1 X33.205 Y0.645 E7.8808
G1 X32.458 Y1.062 E7.9092
G1 X31.876 Y1.276 E7.9299
G1 X31.503 Y1.359 E7.9426
G1 X31.199 Y1.583 E7.9551
G1 X31.039 Y1.936 E7.9680
G1 X31.086 Y2.666 E7.9923
G1 X31.220 Y3.043 E8.0057
G1 X31.519 Y3.290 E8.0185
G1 X31.836 Y3.354 E8.0293
G1 X32.080 Y3.350 E8.0374
G1 X32.693 Y3.439 E8.0580
G1 X33.504 Y3.693 E8.0863
G1 X34.485 Y4.155 E8.1224
G1 X34.468 Y4.944 E8.1486
G1 X33.563 Y5.362 E8.1818
G1 X33.389 Y5.425 E8.1879
G1 X32.642 Y5.629 E8.2137
G1 X32.015 Y5.697 E8.2347
G1 X31.641 Y5.687 E8.2471
G1 X31.293 Y5.834 E8.2597
G1 X31.056 Y6.140 E8.2726
G1 X30.930 Y6.859 E8.2968
G1 X30.959 Y7.223 E8.3090
G1 X31.175 Y7.546 E8.3219
G1 X31.496 Y7.707 E8.3339
G1 X31.720 Y7.757 E8.3415
G1 X32.305 Y7.996 E8.3625
G1 X33.031 Y8.438 E8.3908
G1 X33.873 Y9.125 E8.4269
G1 X33.675 Y9.865 E8.4524
G1 X33.044 Y9.641
;segType:Loop
G0 X32.587 Y9.686 F10800
G1 X32.551 Y9.691 E8.4537 F3600
G1 X31.760 Y9.710 E8.4800
G1 X31.181 Y9.630 E8.4994
G1 X30.770 Y9.515 E8.5136
G1 X30.206 Y9.608 E8.5326
G1 X29.748 Y9.977 E8.5522
G1 X29.474 Y10.597 E8.5747
G1 X29.333 Y11.014 E8.5893
G1 X29.333 Y11.370 E8.6012
G1 X29.513 Y11.835 E8.6178
G1 X29.769 Y12.107 E8.6302
G1 X30.111 Y12.292 E8.6431
G1 X30.587 Y12.639 E8.6627
G1 X31.144 Y13.202 E8.6891
G1 X31.625 Y13.843 E8.7157
G1 X31.481 Y14.107 E8.7257
G1 X30.685 Y14.041 E8.7523
G1 X29.913 Y13.868 E8.7786
G1 X29.361 Y13.646 E8.7984
G1 X28.995 Y13.437 E8.8124
G1 X28.422 Y13.395 E8.8315
G1 X27.893 Y13.646 E8.8510
G1 X27.487 Y14.175 E8.8732
G1 X27.231 Y14.575 E8.8890
G1 X27.159 Y15.141 E8.9079
G1 X27.379 Y15.687 E8.9275
G1 X27.692 Y15.971 E8.9415
G1 X28.079 Y16.431 E8.9615
G1 X28.486 Y17.113 E8.9880
G1 X28.801 Y17.853 E9.0147
G1 X28.598 Y18.075 E9.0247
G1 X27.843 Y17.819 E9.0512
G1 X27.137 Y17.465 E9.0775
G1 X26.646 Y17.108 E9.0977
G1 X26.373 Y16.848 E9.1102
G1 X26.044 Y16.694 E9.1223
G1 X25.527 Y16.671 E9.1395
G1 X25.186 Y16.792 E9.1515
G1 X24.715 Y17.172 E9.1717
G1 X24.370 Y17.497 E9.1875
G1 X24.161 Y18.039 E9.2068
G1 X24.243 Y18.615 E9.2261
G1 X24.274 Y18.662 E9.2280
G1 X19.748 Y17.449 E9.3838
G1 X20.025 Y17.279 E9.3946
G1 X20.458 Y16.934 E9.4130
G1 X20.846 Y16.538 E9.4315
G1 X21.184 Y16.100 E9.4499
G1 X21.468 Y15.623 E9.4683
G1 X21.693 Y15.116 E9.4868
G1 X21.856 Y14.585 E9.5053
G1 X21.954 Y14.038 E9.5237
G1 X21.986 Y13.484 E9.5422
G1 X21.952 Y12.931 E9.5606
G1 X21.852 Y12.385 E9.5791
G1 X21.687 Y11.856 E9.5975
G1 X21.461 Y11.351 E9.6159
G1 X21.175 Y10.877 E9.6343
G1 X20.835 Y10.442 E9.6527
G1 X20.444 Y10.051 E9.6711
G1 X20.010 Y9.711 E9.6894
G1 X19.538 Y9.427 E9.7078
G1 X19.035 Y9.202 E9.7261
G1 X18.508 Y9.040 E9.7444
G1 X17.966 Y8.944 E9.7627
G1 X17.416 Y8.914 E9.7810
G1 X16.866 Y8.951 E9.7994
G1 X16.325 Y9.055 E9.8177
G1 X15.800 Y9.223 E9.8360
G1 X15.298 Y9.454 E9.8544
G1 X14.827 Y9.745 E9.8728
G1 X14.395 Y10.090 E9.8912
G1 X14.007 Y10.485 E9.9096
G1 X13.668 Y10.923 E9.9281
G1 X13.385 Y11.400 E9.9465
G1 X13.160 Y11.908 E9.9650
G1 X12.997 Y12.438 E9.9834
G1 X12.899 Y12.985 E10.0019
G1 X12.866 Y13.539 E10.0204
G1 X12.900 Y14.093 E10.0388
G1 X13.001 Y14.638 E10.0573
G1 X13.165 Y15.167 E10.0757
G1 X13.445 Y15.761 E10.0975
G1 X8.521 Y14.442 E10.2671
G1 X9.054 Y14.072 E10.2887
G1 X9.460 Y13.698 E10.3070
G1 X9.819 Y13.277 E10.3254
G1 X10.125 Y12.817 E10.3438
G1 X10.374 Y12.323 E10.3622
G1 X10.563 Y11.803 E10.3806
G1 X10.688 Y11.264 E10.3990
G1 X10.748 Y10.713 E10.4174
G1 X10.743 Y10.160 E10.4358
G1 X10.671 Y9.610 E10.4543
G1 X10.523 Y9.038 E10.4739
G1 X10.318 Y8.523 E10.4924
G1 X10.065 Y8.054 E10.5101
G1 X9.745 Y7.602 E10.5285
G1 X9.374 Y7.193 E10.5469
G1 X8.957 Y6.832 E10.5652
G1 X8.499 Y6.525 E10.5836
G1 X8.008 Y6.276 E10.6019
G1 X7.490 Y6.089 E10.6202
G1 X6.953 Y5.965 E10.6385
G1 X6.405 Y5.909 E10.6568
G1 X5.854 Y5.919 E10.6752
G1 X5.308 Y5.997 E10.6935
G1 X4.776 Y6.140 E10.7118
G1 X4.264 Y6.346 E10.7302
G1 X3.780 Y6.613 E10.7486
G1 X3.332 Y6.937 E10.7670
G1 X2.925 Y7.312 E10.7854
G1 X2.566 Y7.734 E10.8038
G1 X2.260 Y8.197 E10.8223
G1 X2.011 Y8.693 E10.8407
G1 X1.823 Y9.215 E10.8592
G1 X1.699 Y9.756 E10.8776
G1 X1.640 Y10.308 E10.8961
G1 X1.648 Y10.863 E10.9146
G1 X1.721 Y11.412 E10.9330
G1 X1.860 Y11.949 E10.9515
G1 X2.062 Y12.465 E10.9699
G1 X2.218 Y12.753 E10.9808
G1 X-2.336 Y11.533 E11.1376
G1 X-2.089 Y11.345 E11.1479
G1 X-1.896 Y11.020 E11.1605
G1 X-1.812 Y10.482 E11.1786
G1 X-2.007 Y9.865 E11.2001
G1 X-2.185 Y9.425 E11.2159
G1 X-2.614 Y9.036 E11.2352
G1 X-3.179 Y8.909 E11.2544
G1 X-3.582 Y9.006 E11.2682
G1 X-4.195 Y9.071 E11.2887
G1 X-4.983 Y9.025 E11.3150
G1 X-5.764 Y8.870 E11.3415
G1 X-5.828 Y8.579 E11.3513
G1 X-5.183 Y8.095 E11.3782
G1 X-4.489 Y7.707 E11.4046
G1 X-3.923 Y7.502 E11.4246
G1 X-3.514 Y7.414 E11.4386
G1 X-3.056 Y7.060 E11.4578
G1 X-2.826 Y6.510 E11.4776
G1 X-2.869 Y5.871 E11.4989
G1 X-2.936 Y5.402 E11.5147
G1 X-3.256 Y4.920 E11.5339
G1 X-3.773 Y4.657 E11.5532
G1 X-4.188 Y4.653 E11.5670
G1 X-4.802 Y4.568 E11.5877
G1 X-5.556 Y4.332 E11.6139
G1 X-6.276 Y3.993 E11.6404
G1 X-6.269 Y3.694 E11.6504
G1 X-5.530 Y3.378 E11.6771
G1 X-4.764 Y3.169 E11.7035
G1 X-4.191 Y3.108 E11.7227
G1 X-3.968 Y3.124 E11.7301
G1 X-3.484 Y3.043 E11.7464
G1 X-3.018 Y2.677 E11.7661
G1 X-2.815 Y2.192 E11.7836
G1 X-2.709 Y1.316 E11.8129
G1 X-2.902 Y0.766 E11.8324
G1 X-3.339 Y0.383 E11.8517
G1 X-3.741 Y0.276 E11.8655
G1 X-4.323 Y0.043 E11.8864
G1 X-4.997 Y-0.367 E11.9126
G1 X-5.616 Y-0.871 E11.9391
G1 X-5.538 Y-1.162 E11.9492
G1 X-4.747 Y-1.290 E11.9758
G1 X-3.955 Y-1.309 E12.0021
G1 X-3.384 Y-1.230 E12.0213
G1 X-2.969 Y-1.115 E12.0356
G1 X-2.407 Y-1.205 E12.0546
G1 X-1.968 Y-1.555 E12.0733
G1 X-1.807 Y-1.848 E12.0844
G1 X-1.534 Y-2.578 E12.1103
G1 X-1.529 Y-2.969 E12.1233
G1 X-1.719 Y-3.461 E12.1408
G1 X-2.103 Y-3.792 E12.1577
G1 X-2.328 Y-3.905 E12.1661
G1 X-2.783 Y-4.237 E12.1848
G1 X-3.340 Y-4.801 E12.2112
G1 X-3.822 Y-5.442 E12.2378
G1 X-3.677 Y-5.706 E12.2478
G1 X-2.881 Y-5.639 E12.2744
G1 X-2.109 Y-5.466 E12.3007
G1 X-1.585 Y-5.258 E12.3195
G1 X-1.204 Y-5.043 E12.3340
G1 X-0.671 Y-4.994 E12.3518
G1 X-0.278 Y-5.126 E12.3656
G1 X0.063 Y-5.418 E12.3806
G1 X0.557 Y-6.137 E12.4096
G1 X0.642 Y-6.679 E12.4278
G1 X0.544 Y-7.055 E12.4407
G1 X0.380 Y-7.327 E12.4513
G1 X0.085 Y-7.597 E12.4646
G1 X-0.275 Y-8.028 E12.4833
G1 X-0.682 Y-8.711 E12.5097
G1 X-0.997 Y-9.452 E12.5365
G1 X-0.795 Y-9.673 E12.5465
G1 X-0.040 Y-9.417 E12.5730
G1 X0.669 Y-9.062 E12.5993
G1 X1.113 Y-8.745 E12.6175
G1 X1.304 Y-8.555 E12.6265
G1 X1.690 Y-8.309 E12.6417
G1 X2.275 Y-8.261 E12.6612
G1 X2.755 Y-8.483 E12.6788
G1 X3.411 Y-9.068 E12.7080
G1 X3.624 Y-9.572 E12.7262
G1 X3.617 Y-10.000 E12.7405
G1 X3.452 Y-10.392 E12.7546
G1 X3.295 Y-10.618 E12.7638
G1 X3.057 Y-11.109 E12.7819
G1 X2.823 Y-11.872 E12.8085
G1 X2.693 Y-12.669 E12.8353
G1 X2.942 Y-12.834 E12.8452
G1 X3.612 Y-12.404 E12.8717
G1 X4.215 Y-11.888 E12.8981
G1 X4.569 Y-11.474 E12.9163
G1 X4.798 Y-11.120 E12.9303
G1 X5.107 Y-10.869 E12.9435
G1 X5.589 Y-10.724 E12.9603
G1 X6.097 Y-10.820 E12.9775
G1 X6.873 Y-11.229 E13.0066
G1 X7.202 Y-11.667 E13.0249
G1 X7.298 Y-12.090 E13.0393
G1 X7.233 Y-12.505 E13.0533
G1 X7.130 Y-12.772 E13.0628
G1 X7.018 Y-13.300 E13.0807
G1 X6.973 Y-14.099 E13.1073
G1 X7.036 Y-14.905 E13.1342
G1 X7.314 Y-15.006 E13.1441
G1 X7.862 Y-14.426 E13.1706
G1 X8.324 Y-13.778 E13.1971
G1 X8.567 Y-13.297 E13.2150
G1 X8.715 Y-12.868 E13.2301
G1 X9.092 Y-12.449 E13.2489
G1 X9.629 Y-12.271 E13.2677
G1 X9.987 Y-12.306 E13.2797
G1 X10.588 Y-12.447 E13.3002
G1 X10.966 Y-12.638 E13.3143
G1 X11.245 Y-12.957 E13.3284
G1 X11.404 Y-13.413 E13.3444
G1 X11.362 Y-13.928 E13.3616
G1 X11.380 Y-14.474 E13.3798
G1 X11.525 Y-15.262 E13.4064
G1 X11.777 Y-16.031 E13.4334
G1 X12.070 Y-16.062 E13.4431
G1 X12.463 Y-15.366 E13.4697
G1 X12.758 Y-14.624 E13.4963
G1 X12.877 Y-14.107 E13.5139
G1 X12.899 Y-13.808 E13.5239
G1 X13.020 Y-13.385 E13.5385
G1 X13.417 Y-12.956 E13.5580
G1 X13.923 Y-12.794 E13.5756
G1 X14.774 Y-12.793 E13.6039
G1 X15.177 Y-12.943 E13.6182
G1 X15.571 Y-13.336 E13.6367
G1 X15.709 Y-13.752 E13.6513
G1 X15.745 Y-14.052 E13.6614
G1 X15.887 Y-14.564 E13.6790
G1 X16.216 Y-15.295 E13.7057
G1 X16.643 Y-15.981 E13.7326
G1 X16.932 Y-15.940 E13.7423
G1 X17.148 Y-15.168 E13.7689
G1 X17.258 Y-14.375 E13.7956
G1 X17.251 Y-13.846 E13.8132
G1 X17.202 Y-13.547 E13.8232
G1 X17.218 Y-13.135 E13.8370
G1 X17.382 Y-12.768 E13.8504
G1 X17.605 Y-12.514 E13.8616
G1 X17.967 Y-12.314 E13.8753
G1 X18.803 Y-12.104 E13.9040
G1 X19.339 Y-12.210 E13.9222
G1 X19.696 Y-12.469 E13.9369
G1 X19.915 Y-12.816 E13.9505
G1 X20.021 Y-13.100 E13.9606
G1 X20.281 Y-13.563 E13.9782
G1 X20.772 Y-14.194 E14.0049
G1 X21.348 Y-14.757 E14.0316
G1 X21.618 Y-14.648 E14.0413
G1 X21.645 Y-13.844 E14.0681
G1 X21.563 Y-13.047 E14.0947
G1 X21.430 Y-12.532 E14.1124
G1 X21.312 Y-12.255 E14.1224
G1 X21.224 Y-11.826 E14.1370
G1 X21.369 Y-11.286 E14.1556
G1 X21.645 Y-10.953 E14.1700
G1 X22.383 Y-10.528 E14.1983
G1 X22.887 Y-10.418 E14.2155
G1 X23.389 Y-10.549 E14.2328
G1 X23.765 Y-10.881 E14.2494
G1 X23.941 Y-11.141 E14.2599
G1 X24.303 Y-11.529 E14.2775
G1 X24.930 Y-12.024 E14.3041
G1 X25.620 Y-12.432 E14.3307
G1 X25.856 Y-12.261 E14.3404
G1 X25.691 Y-11.471 E14.3673
G1 X25.423 Y-10.716 E14.3939
G1 X25.167 Y-10.239 E14.4119
G1 X24.901 Y-9.870 E14.4270
G1 X24.772 Y-9.322 E14.4458
G1 X24.929 Y-8.775 E14.4647
G1 X25.160 Y-8.497 E14.4767
G1 X25.614 Y-8.079 E14.4973
G1 X26.010 Y-7.860 E14.5123
G1 X26.566 Y-7.844 E14.5308
G1 X26.948 Y-8.005 E14.5446
G1 X27.270 Y-8.285 E14.5588
G1 X27.722 Y-8.581 E14.5767
G1 X28.446 Y-8.911 E14.6032
G1 X29.212 Y-9.140 E14.6298
G1 X29.400 Y-8.916 E14.6395
G1 X29.052 Y-8.187 E14.6664
G1 X28.613 Y-7.518 E14.6930
G1 X28.247 Y-7.112 E14.7112
G1 X27.904 Y-6.820 E14.7262
G1 X27.650 Y-6.316 E14.7450
G1 X27.674 Y-5.749 E14.7638
G1 X27.832 Y-5.424 E14.7759
G1 X28.261 Y-4.800 E14.8010
G1 X28.593 Y-4.562 E14.8146
G1 X29.083 Y-4.447 E14.8314
G1 X29.569 Y-4.570 E14.8480
G1 X29.828 Y-4.710 E14.8578
G1 X30.337 Y-4.890 E14.8758
G1 X31.117 Y-5.036 E14.9022
G1 X31.912 Y-5.073 E14.9287
G1 X32.043 Y-4.809 E14.9385
G1 X31.532 Y-4.184 E14.9653
G1 X30.947 Y-3.639 E14.9919
G1 X30.489 Y-3.329 E15.0103
G1 X30.116 Y-3.143 E15.0242
G1 X29.856 Y-2.887 E15.0363
G1 X29.688 Y-2.582 E15.0479
G1 X29.622 Y-2.052 E15.0656
G1 X29.804 Y-1.485 E15.0855
G1 X29.976 Y-1.049 E15.1011
G1 X30.388 Y-0.652 E15.1201
G1 X30.951 Y-0.509 E15.1394
G1 X31.361 Y-0.599 E15.1534
G1 X32.000 Y-0.670 E15.1747
G1 X32.787 Y-0.623 E15.2010
G1 X33.567 Y-0.468 E15.2274
G1 X33.631 Y-0.178 E15.2373
G1 X32.987 Y0.306 E15.2641
G1 X32.292 Y0.695 E15.2906
G1 X31.764 Y0.889 E15.3093
G1 X31.335 Y0.984 E15.3239
G1 X30.879 Y1.320 E15.3428
G1 X30.634 Y1.860 E15.3625
G1 X30.690 Y2.748 E15.3921
G1 X30.881 Y3.283 E15.4110
G1 X31.342 Y3.664 E15.4309
G1 X31.800 Y3.758 E15.4464
G1 X32.055 Y3.752 E15.4549
G1 X32.604 Y3.833 E15.4734
G1 X33.360 Y4.069 E15.4997
G1 X34.080 Y4.408 E15.5262
G1 X34.074 Y4.683 E15.5353
G1 X33.412 Y4.989 E15.5596
G1 X33.269 Y5.040 E15.5646
G1 X32.568 Y5.232 E15.5888
G1 X31.998 Y5.294 E15.6079
G1 X31.566 Y5.283 E15.6223
G1 X31.042 Y5.504 E15.6412
G1 X30.679 Y5.971 E15.6608
G1 X30.527 Y6.840 E15.6902
G1 X30.569 Y7.360 E15.7076
G1 X30.902 Y7.859 E15.7275
G1 X31.362 Y8.090 E15.7446
G1 X31.601 Y8.143 E15.7528
G1 X32.125 Y8.357 E15.7716
G1 X32.801 Y8.768 E15.7979
G1 X33.419 Y9.272 E15.8244
G1 X33.342 Y9.563 E15.8345
G1 X32.771 Y9.656 E15.8537
G0 F4800 E14.8537
G0 X31.902 Y9.922 F10800
G0 X31.650 Y7.931
G0 X31.470 Y5.557
G0 X31.207 Y3.274
G0 X31.027 Y1.511
G0 X31.026 Y-0.746
G0 X30.847 Y-2.747
G0 X30.668 Y-4.747
G0 F4800 E15.8537
;segType:HShell
G1 X26.347 Y-0.400 E16.0576 F3600
;segType:Loop
G0 X27.402 Y0.835 F10800
G1 X27.406 Y0.840 E16.0577 F3600
G1 X27.714 Y1.298 E16.0761
G1 X27.965 Y1.792 E16.0945
G1 X28.137 Y2.265 E16.1113
G1 X28.286 Y2.901 E16.1330
G1 X28.341 Y3.404 E16.1498
G1 X28.336 Y3.959 E16.1683
G1 X28.264 Y4.509 E16.1867
G1 X28.127 Y5.047 E16.2052
G1 X27.926 Y5.565 E16.2237
G1 X27.665 Y6.054 E16.2421
G1 X27.348 Y6.509 E16.2606
G1 X26.979 Y6.923 E16.2790
G1 X26.564 Y7.288 E16.2974
G1 X26.108 Y7.601 E16.3158
G1 X25.618 Y7.856 E16.3342
G1 X25.101 Y8.050 E16.3525
G1 X24.565 Y8.180 E16.3709
G1 X24.018 Y8.244 E16.3892
G1 X23.467 Y8.241 E16.4075
G1 X22.921 Y8.171 E16.4258
G1 X22.387 Y8.035 E16.4442
G1 X21.874 Y7.835 E16.4625
G1 X21.388 Y7.574 E16.4808
G1 X20.938 Y7.255 E16.4992
G1 X20.529 Y6.884 E16.5175
G1 X20.168 Y6.466 E16.5359
G1 X19.860 Y6.007 E16.5543
G1 X19.609 Y5.514 E16.5727
G1 X19.419 Y4.993 E16.5911
G1 X19.293 Y4.453 E16.6096
G1 X19.233 Y3.902 E16.6280
G1 X19.238 Y3.347 E16.6465
G1 X19.310 Y2.797 E16.6649
G1 X19.448 Y2.258 E16.6834
G1 X19.648 Y1.741 E16.7019
G1 X19.909 Y1.251 E16.7203
G1 X20.226 Y0.796 E16.7388
G1 X20.595 Y0.383 E16.7572
G1 X21.010 Y0.018 E16.7756
G1 X21.467 Y-0.295 E16.7940
G1 X21.956 Y-0.550 E16.8124
G1 X22.473 Y-0.744 E16.8307
G1 X23.009 Y-0.874 E16.8491
G1 X23.557 Y-0.938 E16.8674
G1 X24.107 Y-0.935 E16.8857
G1 X24.654 Y-0.865 E16.9040
G1 X25.187 Y-0.729 E16.9223
G1 X25.700 Y-0.529 E16.9407
G1 X26.186 Y-0.268 E16.9590
G1 X26.636 Y0.050 E16.9773
G1 X27.045 Y0.422 E16.9957
G1 X27.280 Y0.694 E17.0077
;segType:Perimeter
G0 X26.333 Y-0.264 F10800
G1 X26.428 Y0.403 E17.0301 F2159
G1 X26.759 Y0.704 E17.0449
G1 X27.088 Y1.085 E17.0617
G1 X27.369 Y1.503 E17.0785
G1 X27.598 Y1.953 E17.0952
G1 X27.754 Y2.381 E17.1104
G1 X27.891 Y2.969 E17.1305
G1 X27.941 Y3.424 E17.1457
G1 X27.936 Y3.930 E17.1625
G1 X27.870 Y4.432 E17.1794
G1 X27.745 Y4.924 E17.1962
G1 X27.562 Y5.396 E17.2131
G1 X27.324 Y5.843 E17.2299
G1 X27.035 Y6.258 E17.2468
G1 X26.698 Y6.636 E17.2636
G1 X26.319 Y6.969 E17.2804
G1 X25.902 Y7.255 E17.2972
G1 X25.455 Y7.487 E17.3140
G1 X24.984 Y7.665 E17.3307
G1 X24.495 Y7.783 E17.3474
G1 X23.996 Y7.841 E17.3641
G1 X23.493 Y7.839 E17.3809
G1 X22.995 Y7.775 E17.3976
G1 X22.509 Y7.651 E17.4143
G1 X22.041 Y7.468 E17.4310
G1 X21.599 Y7.231 E17.4477
G1 X21.188 Y6.940 E17.4644
G1 X20.815 Y6.602 E17.4811
G1 X20.486 Y6.221 E17.4979
G1 X20.205 Y5.802 E17.5146
G1 X19.977 Y5.352 E17.5314
G1 X19.803 Y4.878 E17.5482
G1 X19.688 Y4.385 E17.5651
G1 X19.633 Y3.882 E17.5819
G1 X19.638 Y3.376 E17.5987
G1 X19.704 Y2.873 E17.6156
G1 X19.829 Y2.382 E17.6325
G1 X20.012 Y1.910 E17.6493
G1 X20.250 Y1.463 E17.6661
G1 X20.540 Y1.047 E17.6830
G1 X20.876 Y0.670 E17.6998
G1 X21.256 Y0.337 E17.7166
G1 X21.672 Y0.051 E17.7334
G1 X22.119 Y-0.182 E17.7502
G1 X22.591 Y-0.359 E17.7669
G1 X23.079 Y-0.477 E17.7836
G1 X23.579 Y-0.536 E17.8003
G1 X24.081 Y-0.533 E17.8171
G1 X24.579 Y-0.469 E17.8338
G1 X25.065 Y-0.345 E17.8505
G1 X25.533 Y-0.163 E17.8672
G1 X25.976 Y0.075 E17.8839
G1 X26.341 Y0.333 E17.8987
G1 X27.008 Y0.278
;segType:HShell
G0 X21.243 Y-5.317 F10800
G1 X24.712 Y-8.807 E18.0624 F3600
G1 X24.913 Y-8.480
G1 X21.188 Y-4.733 E18.2381
;segType:Perimeter
G0 X21.054 Y-4.673 F10800
G1 X20.484 Y-4.319 E18.2604 F2159
G1 X20.342 Y-3.892 E18.2754
G1 X20.125 Y-3.434 E18.2923
G1 X19.856 Y-3.005 E18.3091
G1 X19.538 Y-2.612 E18.3259
G1 X19.175 Y-2.261 E18.3427
G1 X18.772 Y-1.955 E18.3595
G1 X18.337 Y-1.701 E18.3763
G1 X17.874 Y-1.501 E18.3931
G1 X17.392 Y-1.359 E18.4098
G1 X16.896 Y-1.276 E18.4265
G1 X16.394 Y-1.255 E18.4432
G1 X15.893 Y-1.294 E18.4599
G1 X15.401 Y-1.394 E18.4766
G1 X14.925 Y-1.554 E18.4933
G1 X14.472 Y-1.770 E18.5100
G1 X14.048 Y-2.039 E18.5268
G1 X13.659 Y-2.359 E18.5435
G1 X13.312 Y-2.723 E18.5602
G1 X13.011 Y-3.128 E18.5770
G1 X12.761 Y-3.566 E18.5938
G1 X12.566 Y-4.032 E18.6106
G1 X12.427 Y-4.518 E18.6274
G1 X12.348 Y-5.018 E18.6442
G1 X12.329 Y-5.524 E18.6611
G1 X12.370 Y-6.029 E18.6779
G1 X12.472 Y-6.525 E18.6948
G1 X12.632 Y-7.006 E18.7116
G1 X12.848 Y-7.464 E18.7285
G1 X13.117 Y-7.892 E18.7453
G1 X13.436 Y-8.286 E18.7621
G1 X13.799 Y-8.637 E18.7789
G1 X14.201 Y-8.943 E18.7957
G1 X14.637 Y-9.197 E18.8125
G1 X15.099 Y-9.397 E18.8293
G1 X15.582 Y-9.539 E18.8460
G1 X16.078 Y-9.621 E18.8627
G1 X16.580 Y-9.643 E18.8794
G1 X17.080 Y-9.604 E18.8961
G1 X17.572 Y-9.504 E18.9128
G1 X18.049 Y-9.344 E18.9295
G1 X18.502 Y-9.128 E18.9462
G1 X18.926 Y-8.858 E18.9630
G1 X19.314 Y-8.539 E18.9797
G1 X19.662 Y-8.174 E18.9964
G1 X19.919 Y-7.828 E19.0108
G1 X20.241 Y-7.264 E19.0324
G1 X20.429 Y-6.795 E19.0492
G1 X20.559 Y-6.308 E19.0660
G1 X20.629 Y-5.810 E19.0827
G1 X20.645 Y-5.374 E19.0972
G1 X20.604 Y-4.869 E19.1140
G1 X20.513 Y-4.427 E19.1290
G1 X20.829 Y-3.834
;segType:Loop
G0 X20.480 Y-3.248 F10800
G1 X20.476 Y-3.240 E19.1293 F3600
G1 X20.182 Y-2.770 E19.1478
G1 X19.833 Y-2.339 E19.1662
G1 X19.435 Y-1.954 E19.1846
G1 X18.994 Y-1.619 E19.2030
G1 X18.517 Y-1.341 E19.2214
G1 X18.010 Y-1.122 E19.2398
G1 X17.481 Y-0.966 E19.2581
G1 X16.937 Y-0.875 E19.2765
G1 X16.387 Y-0.852 E19.2948
G1 X15.838 Y-0.895 E19.3131
G1 X15.298 Y-1.005 E19.3314
G1 X14.776 Y-1.179 E19.3497
G1 X14.279 Y-1.416 E19.3680
G1 X13.813 Y-1.712 E19.3864
G1 X13.387 Y-2.063 E19.4047
G1 X13.006 Y-2.463 E19.4231
G1 X12.677 Y-2.906 E19.4415
G1 X12.402 Y-3.387 E19.4599
G1 X12.188 Y-3.897 E19.4783
G1 X12.036 Y-4.430 E19.4967
G1 X11.949 Y-4.978 E19.5152
G1 X11.928 Y-5.533 E19.5337
G1 X11.973 Y-6.086 E19.5521
G1 X12.085 Y-6.630 E19.5706
G1 X12.260 Y-7.157 E19.5891
G1 X12.497 Y-7.658 E19.6075
G1 X12.792 Y-8.128 E19.6260
G1 X13.141 Y-8.559 E19.6444
G1 X13.539 Y-8.944 E19.6628
G1 X13.980 Y-9.278 E19.6812
G1 X14.456 Y-9.557 E19.6996
G1 X14.964 Y-9.776 E19.7180
G1 X15.493 Y-9.932 E19.7363
G1 X16.036 Y-10.022 E19.7546
G1 X16.587 Y-10.046 E19.7730
G1 X17.136 Y-10.003 E19.7913
G1 X17.676 Y-9.893 E19.8096
G1 X18.198 Y-9.718 E19.8279
G1 X18.695 Y-9.481 E19.8462
G1 X19.161 Y-9.185 E19.8646
G1 X19.586 Y-8.835 E19.8829
G1 X19.967 Y-8.435 E19.9013
G1 X20.253 Y-8.050 E19.9172
G1 X20.602 Y-7.440 E19.9406
G1 X20.809 Y-6.922 E19.9592
G1 X20.951 Y-6.388 E19.9775
G1 X21.028 Y-5.846 E19.9958
G1 X21.046 Y-5.365 E20.0118
G1 X21.000 Y-4.812 E20.0302
G1 X20.889 Y-4.268 E20.0487
G1 X20.713 Y-3.741 E20.0672
G1 X20.560 Y-3.417 E20.0791
G0 X17.433 Y-1.176 F10800
G0 X15.868 Y-1.109
G0 X10.161 Y-2.633
;segType:HShell
G1 X11.854 Y-4.336 E20.1589 F3600
G1 X11.972 Y-3.925
G1 X10.267 Y-2.210 E20.2394
G1 X10.339 Y-1.754
G1 X12.119 Y-3.545 E20.3233
G1 X12.287 Y-3.185
G1 X10.365 Y-1.251 E20.4140
;segType:Perimeter
G0 X10.246 Y-1.231 F10800
G1 X9.746 Y-0.783 E20.4363 F2159
G1 X9.677 Y-0.336 E20.4514
G1 X9.540 Y0.152 E20.4682
G1 X9.346 Y0.620 E20.4851
G1 X9.097 Y1.061 E20.5019
G1 X8.798 Y1.469 E20.5187
G1 X8.452 Y1.838 E20.5356
G1 X8.065 Y2.162 E20.5524
G1 X7.642 Y2.437 E20.5691
G1 X7.190 Y2.659 E20.5859
G1 X6.714 Y2.825 E20.6026
G1 X6.223 Y2.931 E20.6194
G1 X5.723 Y2.978 E20.6361
G1 X5.220 Y2.962 E20.6528
G1 X4.724 Y2.887 E20.6695
G1 X4.241 Y2.751 E20.6862
G1 X3.777 Y2.557 E20.7029
G1 X3.341 Y2.308 E20.7196
G1 X2.938 Y2.008 E20.7363
G1 X2.573 Y1.661 E20.7531
G1 X2.253 Y1.272 E20.7698
G1 X1.982 Y0.847 E20.7866
G1 X1.764 Y0.391 E20.8034
G1 X1.603 Y-0.088 E20.8202
G1 X1.499 Y-0.583 E20.8370
G1 X1.456 Y-1.088 E20.8539
G1 X1.474 Y-1.594 E20.8707
G1 X1.552 Y-2.094 E20.8876
G1 X1.688 Y-2.582 E20.9044
G1 X1.883 Y-3.050 E20.9213
G1 X2.131 Y-3.491 E20.9381
G1 X2.430 Y-3.900 E20.9549
G1 X2.776 Y-4.268 E20.9718
G1 X3.163 Y-4.593 E20.9886
G1 X3.586 Y-4.868 E21.0053
G1 X4.039 Y-5.090 E21.0221
G1 X4.514 Y-5.255 E21.0388
G1 X5.006 Y-5.362 E21.0556
G1 X5.506 Y-5.408 E21.0723
G1 X6.008 Y-5.393 E21.0890
G1 X6.504 Y-5.317 E21.1057
G1 X6.988 Y-5.181 E21.1224
G1 X7.451 Y-4.988 E21.1391
G1 X7.888 Y-4.739 E21.1558
G1 X8.291 Y-4.439 E21.1725
G1 X8.655 Y-4.092 E21.1893
G1 X8.975 Y-3.703 E21.2060
G1 X9.246 Y-3.277 E21.2228
G1 X9.464 Y-2.822 E21.2396
G1 X9.626 Y-2.343 E21.2564
G1 X9.729 Y-1.848 E21.2732
G1 X9.768 Y-1.392 E21.2884
G1 X9.756 Y-0.894 E21.3050
G1 X10.168 Y-0.364
;segType:Loop
G0 X9.921 Y0.274 F10800
G1 X9.919 Y0.284 E21.3053 F3600
G1 X9.706 Y0.797 E21.3238
G1 X9.434 Y1.280 E21.3423
G1 X9.106 Y1.727 E21.3607
G1 X8.727 Y2.131 E21.3791
G1 X8.303 Y2.487 E21.3975
G1 X7.839 Y2.788 E21.4159
G1 X7.343 Y3.032 E21.4343
G1 X6.822 Y3.213 E21.4526
G1 X6.283 Y3.330 E21.4710
G1 X5.735 Y3.380 E21.4893
G1 X5.184 Y3.364 E21.5076
G1 X4.640 Y3.281 E21.5259
G1 X4.109 Y3.132 E21.5443
G1 X3.601 Y2.919 E21.5626
G1 X3.123 Y2.646 E21.5809
G1 X2.680 Y2.317 E21.5992
G1 X2.281 Y1.937 E21.6176
G1 X1.930 Y1.510 E21.6360
G1 X1.633 Y1.043 E21.6544
G1 X1.393 Y0.544 E21.6728
G1 X1.216 Y0.019 E21.6912
G1 X1.103 Y-0.524 E21.7097
G1 X1.056 Y-1.077 E21.7281
G1 X1.075 Y-1.632 E21.7466
G1 X1.160 Y-2.180 E21.7650
G1 X1.310 Y-2.715 E21.7835
G1 X1.523 Y-3.228 E21.8020
G1 X1.795 Y-3.711 E21.8204
G1 X2.123 Y-4.158 E21.8389
G1 X2.502 Y-4.562 E21.8573
G1 X2.926 Y-4.918 E21.8757
G1 X3.389 Y-5.219 E21.8941
G1 X3.885 Y-5.462 E21.9124
G1 X4.406 Y-5.644 E21.9308
G1 X4.945 Y-5.761 E21.9491
G1 X5.494 Y-5.811 E21.9675
G1 X6.044 Y-5.795 E21.9858
G1 X6.589 Y-5.711 E22.0041
G1 X7.119 Y-5.562 E22.0224
G1 X7.627 Y-5.350 E22.0407
G1 X8.106 Y-5.077 E22.0591
G1 X8.548 Y-4.748 E22.0774
G1 X8.948 Y-4.367 E22.0958
G1 X9.299 Y-3.940 E22.1141
G1 X9.596 Y-3.474 E22.1325
G1 X9.835 Y-2.974 E22.1510
G1 X10.012 Y-2.449 E22.1694
G1 X10.126 Y-1.906 E22.1878
G1 X10.169 Y-1.404 E22.2046
G1 X10.154 Y-0.802 E22.2246
G1 X10.068 Y-0.250 E22.2432
G1 X9.972 Y0.094 E22.2551
;segType:HShell
G0 X10.219 Y-0.046 F10800
G1 X12.699 Y-2.541 E22.3721 F3600
G1 X12.479 Y-2.849
G1 X10.340 Y-0.697 E22.4730
G0 X10.028 Y-3.028 F10800
G1 X11.777 Y-4.787 E22.5555 F3600
G1 X11.737 Y-5.277
G1 X9.859 Y-3.387 E22.6441
G1 X9.672 Y-3.728
G1 X11.751 Y-5.819 E22.7422
G1 X11.842 Y-6.440
G1 X9.466 Y-4.050 E22.8542
G1 X9.229 Y-4.341
G1 X12.060 Y-7.188 E22.9878
G0 X12.825 Y-8.487 F10800
G1 X8.977 Y-4.616 E23.1693 F3600
G1 X8.707 Y-4.873
G1 X17.014 Y-13.230 E23.5612
G1 X17.038 Y-13.784
G1 X8.409 Y-5.102 E23.9683
G1 X8.094 Y-5.315
G1 X17.058 Y-14.332 E24.3912
G1 X16.997 Y-14.800
G1 X15.903 Y-13.699 E24.4429
G1 X16.041 Y-14.367
G1 X16.918 Y-15.249 E24.4842
G1 X16.802 Y-15.662
G1 X16.502 Y-15.360 E24.4984
G0 X15.380 Y-13.456 F10800
G0 X14.735 Y-13.012
G0 X13.538 Y-13.149
G0 X13.216 Y-13.497
G0 X12.067 Y-15.660
G1 X11.779 Y-15.370 E24.5120 F3600
G1 X11.621 Y-14.682
G1 X12.257 Y-15.322 E24.5420
G1 X12.413 Y-14.950
G1 X11.568 Y-14.099 E24.5818
G1 X11.590 Y-13.593
G1 X12.563 Y-14.572 E24.6277
G1 X12.663 Y-14.143
G1 X11.443 Y-12.916 E24.6853
G0 X9.654 Y-12.494 F10800
G0 X9.216 Y-12.641
G0 X7.223 Y-14.490
G1 X7.378 Y-14.646 E24.6927 F3600
G1 X7.635 Y-14.375
G1 X7.183 Y-13.921 E24.7139
G1 X7.212 Y-13.420
G1 X7.865 Y-14.077 E24.7447
G1 X8.084 Y-13.769
G1 X7.292 Y-12.972 E24.7821
G1 X7.421 Y-12.573
G1 X8.275 Y-13.432 E24.8224
G1 X8.435 Y-13.064
G1 X7.496 Y-12.120 E24.8667
G0 X7.083 Y-11.175 F10800
G1 X8.598 Y-12.699 E24.9382 F3600
G1 X8.848 Y-12.421
G1 X-1.552 Y-1.959 E25.4288
G0 X-1.904 Y-3.329 F10800
G0 X-3.317 Y-5.474
G1 X-3.457 Y-5.333 E25.4354 F3600
G1 X-3.245 Y-5.017
G1 X-2.840 Y-5.424 E25.4545
G1 X-2.410 Y-5.328
G1 X-2.996 Y-4.738 E25.4822
G1 X-2.734 Y-4.473
G1 X-2.003 Y-5.208 E25.5166
G1 X-1.631 Y-5.053
G1 X-2.442 Y-4.237 E25.5549
G1 X-2.125 Y-4.028
G1 X-1.294 Y-4.863 E25.5941
G1 X-0.825 Y-4.806
G1 X-1.816 Y-3.810 E25.6408
G1 X-1.541 Y-3.557
G1 X-0.054 Y-5.053 E25.7110
G1 X0.301 Y-5.410
G1 X5.424 Y-10.563 E25.9527
G1 X5.978 Y-10.593
G1 X-1.394 Y-3.176 E26.3005
G1 X-1.333 Y-2.709
G1 X6.953 Y-11.044 E26.6915
G0 X3.789 Y-9.448 F10800
G1 X5.019 Y-10.685 E26.7495 F3600
G1 X4.726 Y-10.920
G1 X3.817 Y-10.005 E26.7924
G1 X3.671 Y-10.388
G1 X4.496 Y-11.218 E26.8313
G1 X4.268 Y-11.517
G1 X3.471 Y-10.715 E26.8689
G1 X3.298 Y-11.070
G1 X4.017 Y-11.793 E26.9028
G1 X3.733 Y-12.036
G1 X3.159 Y-11.459 E26.9299
G1 X3.035 Y-11.864
G1 X3.443 Y-12.274 E26.9491
G1 X3.122 Y-12.480
G1 X2.973 Y-12.330 E26.9561
G0 X3.405 Y-9.615 F10800
G0 X3.229 Y-9.200
G0 X2.235 Y-8.486
G0 X1.762 Y-8.525
G0 X-0.503 Y-9.362
G1 X-0.652 Y-9.212 E26.9631 F3600
G1 X-0.512 Y-8.825
G1 X-0.111 Y-9.228 E26.9821
G1 X0.240 Y-9.052
G1 X-0.318 Y-8.491 E27.0084
G1 X-0.120 Y-8.161
G1 X0.588 Y-8.873 E27.0418
G1 X0.895 Y-8.653
G1 X0.118 Y-7.871 E27.0785
G1 X0.377 Y-7.602
G1 X1.172 Y-8.403 E27.1160
G1 X1.493 Y-8.196
G1 X0.619 Y-7.318 E27.1573
G1 X0.778 Y-6.948
G1 X1.912 Y-8.089 E27.2107
G1 X2.486 Y-8.137
G1 X0.808 Y-6.450 E27.2899
G0 X3.583 Y-5.538 F10800
G1 X10.141 Y-12.135 E27.5993 F3600
G1 X10.920 Y-12.390
G1 X4.422 Y-5.853 E27.9058
G1 X5.068 Y-5.974
G1 X12.728 Y-13.680 E28.2672
G1 X12.850 Y-13.274
G1 X5.628 Y-6.008 E28.6079
G1 X6.131 Y-5.985
G1 X13.103 Y-12.999 E28.9368
G1 X13.386 Y-12.754
G1 X6.587 Y-5.915 E29.2576
G1 X7.003 Y-5.804
G1 X13.785 Y-12.627 E29.5776
G1 X14.277 Y-12.593
G1 X7.392 Y-5.666 E29.9024
G1 X7.759 Y-5.506
G1 X14.802 Y-12.592 E30.2347
G0 X13.502 Y-9.168 F10800
G1 X17.137 Y-12.825 E30.4062 F3600
G1 X17.345 Y-12.505
G1 X14.764 Y-9.909 E30.5280
G1 X15.520 Y-10.141
G1 X17.635 Y-12.268 E30.6278
G1 X17.994 Y-12.100
G1 X16.133 Y-10.228 E30.7155
G1 X16.672 Y-10.241
G1 X18.415 Y-11.994 E30.7977
G1 X18.856 Y-11.909
G1 X17.160 Y-10.203 E30.8778
G1 X17.598 Y-10.114
G1 X19.680 Y-12.209 E30.9760
G1 X19.923 Y-12.454
G1 X21.440 Y-13.980 E31.0476
G1 X21.400 Y-13.410
G1 X18.005 Y-9.995 E31.2077
G1 X18.387 Y-9.851
G1 X21.284 Y-12.764 E31.3444
G0 X21.423 Y-14.491 F10800
G1 X20.660 Y-13.724 E31.3803 F3600
G0 X21.057 Y-12.007 F10800
G1 X18.744 Y-9.681 E31.4895 F3600
G1 X19.071 Y-9.480
G1 X21.099 Y-11.520 E31.5851
G1 X21.237 Y-11.130
G1 X19.381 Y-9.264 E31.6727
G1 X19.671 Y-9.025
G1 X21.476 Y-10.842 E31.7579
G1 X21.796 Y-10.634
G1 X19.934 Y-8.761 E31.8457
G1 X20.182 Y-8.482
G1 X22.130 Y-10.442 E31.9376
G1 X22.510 Y-10.295
G1 X20.407 Y-8.179 E32.0368
G1 X20.601 Y-7.845
G1 X22.974 Y-10.233 E32.1488
G0 X25.198 Y-11.941 F10800
G1 X20.791 Y-7.507 E32.3567 F3600
G1 X20.942 Y-7.130
G1 X25.548 Y-11.764 E32.5740
G1 X25.310 Y-10.995
G1 X21.068 Y-6.728 E32.7741
G1 X21.166 Y-6.298
G1 X24.688 Y-9.841 E32.9403
G1 X24.594 Y-9.217
G1 X21.229 Y-5.832 E33.0991
G0 X21.023 Y-4.038 F10800
G1 X25.173 Y-8.213 E33.2948 F3600
G1 X25.447 Y-7.960
G1 X20.641 Y-3.124 E33.5216
G0 X28.137 Y-8.549 F10800
G1 X10.714 Y8.978 E34.3436 F3600
G1 X10.823 Y9.398
G1 X28.942 Y-8.830 E35.1984
G1 X28.780 Y-8.138
G1 X10.903 Y9.846 E36.0418
G1 X10.944 Y10.333
G1 X19.400 Y1.827 E36.4408
G1 X19.153 Y2.605
G1 X10.932 Y10.875 E36.8286
G1 X10.840 Y11.497
G1 X19.051 Y3.236 E37.2161
G1 X19.034 Y3.782
G1 X10.612 Y12.255 E37.6134
G0 X12.772 Y15.372 F10800
G1 X12.960 Y15.183 E37.6223 F3600
G1 X12.835 Y14.780
G1 X12.357 Y15.261 E37.6449
G1 X11.941 Y15.150
G1 X12.743 Y14.343 E37.6827
G1 X12.686 Y13.871
G1 X11.526 Y15.039 E37.7375
G1 X11.111 Y14.927
G1 X12.677 Y13.352 E37.8113
G1 X12.735 Y12.764
G1 X10.695 Y14.816 E37.9076
G1 X10.280 Y14.705
G1 X12.901 Y12.068 E38.0312
G0 X13.319 Y11.118 F10800
G1 X9.865 Y14.593 E38.1942 F3600
G1 X9.450 Y14.482
G1 X19.151 Y4.723 E38.6519
G1 X19.072 Y4.273
G1 X9.846 Y13.555 E39.0872
G0 X9.165 Y14.239 F10800
G1 X9.034 Y14.371 E39.0933 F3600
G0 X10.357 Y11.741 F10800
G0 X10.528 Y10.175
G0 X10.123 Y8.615
G0 X9.225 Y7.348
G0 X7.923 Y6.475
G0 X6.396 Y6.125
G0 X4.844 Y6.345
G0 X3.467 Y7.104
G0 X2.445 Y8.305
G0 X1.910 Y9.792
G0 X1.739 Y12.188
G1 X1.559 Y12.369 E39.1018 F3600
G1 X1.144 Y12.257
G1 X1.611 Y11.787 E39.1238
G1 X1.512 Y11.358
G1 X0.729 Y12.146 E39.1608
G1 X0.313 Y12.035
G1 X1.450 Y10.892 E39.2144
G1 X1.441 Y10.372
G1 X-0.102 Y11.924 E39.2872
G1 X-0.517 Y11.812
G1 X1.494 Y9.789 E39.3821
G1 X1.651 Y9.102
G1 X-0.933 Y11.701 E39.5039
G1 X-1.348 Y11.590
G1 X2.046 Y8.176 E39.6641
G0 X-2.652 Y2.322 F10800
G1 X0.860 Y-1.212 E39.8298 F3600
G1 X0.894 Y-1.775
G1 X-2.553 Y1.693 E39.9924
G1 X-2.551 Y1.162
G1 X1.023 Y-2.434 E40.1610
G1 X1.320 Y-3.261
G1 X-2.688 Y0.771 E40.3501
G1 X-2.924 Y0.479
G1 X9.562 Y-12.081 E40.9392
G1 X9.166 Y-12.213
G1 X-3.205 Y0.233 E41.5228
G1 X-3.603 Y0.104
G1 X-2.522 Y-0.983 E41.5738
G1 X-3.091 Y-0.940
G1 X-3.987 Y-0.039 E41.6161
G1 X-4.347 Y-0.206
G1 X-3.513 Y-1.045 E41.6554
G1 X-3.977 Y-1.107
G1 X-4.674 Y-0.405 E41.6883
G1 X-4.983 Y-0.624
G1 X-4.515 Y-1.094 E41.7104
G1 X-5.107 Y-1.028
G1 X-5.259 Y-0.875 E41.7176
G0 X-3.090 Y0.894 F10800
G0 X-2.932 Y1.341
G0 X-3.198 Y2.538
G0 X-3.575 Y2.834
G0 X-5.473 Y3.573
G1 X-5.847 Y3.949 E41.7352 F3600
G0 X-4.749 Y3.374 F10800
G1 X-5.504 Y4.133 E41.7708 F3600
G1 X-5.107 Y4.262
G1 X-4.162 Y3.312 E41.8154
G1 X-3.589 Y3.264
G1 X-4.697 Y4.379 E41.8677
G1 X-4.235 Y4.444
G1 X0.886 Y-0.709 E42.1093
G1 X0.956 Y-0.250
G1 X-3.723 Y4.457 E42.3301
G1 X-3.374 Y4.635
G1 X1.058 Y0.176 E42.5392
G1 X1.191 Y0.571
G1 X-3.062 Y4.850 E42.7398
G1 X-2.851 Y5.167
G1 X1.358 Y0.933 E42.9384
G1 X1.543 Y1.276
G1 X-2.712 Y5.556 E43.1391
G1 X-2.658 Y6.030
G1 X1.748 Y1.598 E43.3470
G1 X1.983 Y1.891
G1 X-2.624 Y6.526 E43.5644
G0 X-3.766 Y7.674 F10800
G1 X-4.912 Y8.828 E43.6185 F3600
G1 X-4.415 Y8.857
G1 X2.233 Y2.168 E43.9321
G1 X2.503 Y2.426
G1 X-3.867 Y8.834 E44.2327
G0 X-4.633 Y8.018 F10800
G1 X-5.340 Y8.729 E44.2660 F3600
G0 X-3.220 Y8.712 F10800
G1 X2.800 Y2.656 E44.5500 F3600
G1 X3.112 Y2.871
G1 X-2.775 Y8.793 E44.8277
G1 X-2.407 Y8.952
G1 X3.448 Y3.063 E45.1039
G1 X3.812 Y3.225
G1 X-2.131 Y9.203 E45.3843
G1 X-1.927 Y9.528
G1 X4.198 Y3.365 E45.6733
G1 X4.611 Y3.480
G1 X-1.783 Y9.911 E45.9749
G1 X-1.655 Y10.312
G1 X5.067 Y3.550 E46.2921
G1 X5.566 Y3.577
G1 X-1.667 Y10.853 E46.6333
G1 X-1.763 Y11.479
G1 X6.122 Y3.547 E47.0053
G1 X6.761 Y3.432
G1 X3.885 Y6.325 E47.1410
G0 X4.813 Y5.922 F10800
G1 X7.577 Y3.141 E47.2714 F3600
G0 X16.004 Y8.946 F10800
G1 X19.402 Y5.529 E47.4317 F3600
G1 X19.260 Y5.142
G1 X15.065 Y9.362 E47.6296
G0 X16.697 Y8.778 F10800
G1 X19.573 Y5.885 E47.7653 F3600
G1 X19.764 Y6.223
G1 X17.279 Y8.722 E47.8825
G1 X17.794 Y8.733
G1 X19.975 Y6.538 E47.9854
G1 X20.215 Y6.827
G1 X18.261 Y8.792 E48.0776
G1 X18.693 Y8.887
G1 X20.469 Y7.100 E48.1614
G1 X20.745 Y7.351
G1 X19.096 Y9.011 E48.2392
G1 X19.461 Y9.172
G1 X21.046 Y7.578 E48.3140
G1 X21.362 Y7.788
G1 X19.806 Y9.354 E48.3874
G1 X20.134 Y9.553
G1 X21.705 Y7.972 E48.4616
G1 X22.075 Y8.129
G1 X20.429 Y9.785 E48.5392
G1 X20.709 Y10.033
G1 X22.468 Y8.263 E48.6222
G1 X22.888 Y8.369
G1 X20.973 Y10.296 E48.7126
G1 X21.206 Y10.591
G1 X23.354 Y8.429 E48.8139
G1 X23.865 Y8.444
G1 X21.423 Y10.901 E48.9292
G1 X21.622 Y11.230
G1 X24.438 Y8.397 E49.0620
G1 X25.104 Y8.256
G1 X21.788 Y11.592 E49.2184
G1 X21.934 Y11.974
G1 X26.001 Y7.883 E49.4103
G0 X27.660 Y13.620 F10800
G1 X23.154 Y18.154 E49.6229 F3600
G1 X22.738 Y18.042
G1 X29.189 Y11.553 E49.9273
G1 X29.133 Y11.080
G1 X22.323 Y17.931 E50.2486
G1 X21.908 Y17.820
G1 X29.389 Y10.294 E50.6015
G0 X29.701 Y11.716 F10800
G0 X31.090 Y13.872
G1 X31.247 Y13.715 E50.6089 F3600
G1 X31.036 Y13.398
G1 X30.617 Y13.819 E50.6287
G1 X30.187 Y13.723
G1 X30.783 Y13.123 E50.6568
G1 X30.521 Y12.858
G1 X29.784 Y13.599 E50.6916
G1 X29.413 Y13.444
G1 X30.227 Y12.625 E50.7300
G1 X29.912 Y12.413
G1 X29.077 Y13.253 E50.7693
G1 X28.597 Y13.206
G1 X29.589 Y12.209 E50.8161
G1 X29.337 Y11.934
G1 X27.822 Y13.457 E50.8876
G0 X27.385 Y15.112 F10800
G0 X28.282 Y17.755
G1 X28.447 Y17.589 E50.8954 F3600
G1 X28.306 Y17.202
G1 X27.892 Y17.619 E50.9149
G1 X27.541 Y17.443
G1 X28.109 Y16.872 E50.9417
G1 X27.911 Y16.542
G1 X27.197 Y17.260 E50.9753
G1 X26.891 Y17.039
G1 X27.669 Y16.256 E51.0120
G1 X27.411 Y15.987
G1 X26.608 Y16.795 E51.0499
G1 X26.289 Y16.587
G1 X27.169 Y15.701 E51.0915
G1 X27.017 Y15.325
G1 X25.865 Y16.484 E51.1459
G1 X25.278 Y16.546
G1 X26.999 Y14.814 E51.2271
G0 X24.044 Y17.787 F10800
G1 X23.569 Y18.265 E51.2495 F3600
G0 X21.077 Y17.597 F10800
G1 X30.700 Y7.917 E51.7035 F3600
G1 X30.488 Y7.601
G1 X20.662 Y17.486 E52.1670
G1 X20.247 Y17.375
G1 X20.324 Y17.297 E52.1707
G0 X21.172 Y16.444 F10800
G1 X30.356 Y7.205 E52.6040 F3600
G1 X30.352 Y6.680
G1 X21.868 Y15.214 E53.0042
G1 X22.079 Y14.473
G1 X30.464 Y6.038 E53.3998
G0 X33.233 Y4.839 F10800
G1 X33.637 Y4.433 E53.4189 F3600
G0 X32.512 Y5.036 F10800
G1 X33.287 Y4.257 E53.4554 F3600
G1 X32.885 Y4.131
G1 X31.932 Y5.091 E53.5004
G1 X31.335 Y5.162
G1 X32.473 Y4.017 E53.5541
G1 X32.009 Y3.955
G1 X22.165 Y13.858 E54.0185
G1 X22.176 Y13.318
G1 X31.530 Y3.908 E54.4598
G1 X31.147 Y3.764
G1 X22.137 Y12.828 E54.8849
G1 X22.055 Y12.382
G1 X30.859 Y3.525 E55.3003
G1 X30.643 Y3.213
G1 X27.977 Y5.895 E55.4261
G0 X28.347 Y4.994 F10800
G1 X30.504 Y2.823 E55.5279 F3600
G1 X30.463 Y2.336
G1 X28.490 Y4.321 E55.6210
G1 X28.538 Y3.744
G1 X30.432 Y1.839 E55.7103
G0 X31.529 Y0.735 F10800
G1 X32.685 Y-0.428 E55.7648 F3600
G1 X32.188 Y-0.457
G1 X28.523 Y3.229 E55.9377
G1 X28.460 Y2.764
G1 X31.632 Y-0.426 E56.0874
G0 X33.117 Y-0.334 F10800
G1 X32.363 Y0.425 E56.1230 F3600
G0 X30.992 Y-0.312 F10800
G1 X28.360 Y2.336 E56.2472 F3600
G1 X28.231 Y1.937
G1 X30.556 Y-0.402 E56.3569
G1 X30.191 Y-0.564
G1 X28.074 Y1.565 E56.4567
G1 X27.896 Y1.215
G1 X29.922 Y-0.823 E56.5523
G1 X29.721 Y-1.150
G1 X27.686 Y0.898 E56.6483
G1 X27.460 Y0.596
G1 X29.578 Y-1.534 E56.7482
G1 X29.450 Y-1.935
G1 X27.216 Y0.313 E56.8536
G1 X26.943 Y0.058
G1 X29.475 Y-2.489 E56.9730
G0 X30.677 Y-3.699 F10800
G1 X31.796 Y-4.824 E57.0258 F3600
G1 X31.282 Y-4.836
G1 X26.656 Y-0.182 E57.2440
G0 X24.038 Y-0.546 F10800
G0 X21.420 Y-0.911
G0 X18.803 Y-1.275
G1 X9.986 Y7.595 E57.6600 F3600
G1 X10.204 Y7.904
G1 X25.775 Y-7.760 E58.3946
G1 X26.195 Y-7.653
G1 X10.394 Y8.242 E59.1401
G1 X10.564 Y8.600
G1 X26.785 Y-7.718 E59.9053
G0 X28.417 Y-4.955 F10800
G0 X29.081 Y-4.674
G0 X29.929 Y-4.533
G1 X26.010 Y-0.591 E60.0902 F3600
G1 X25.655 Y-0.762
G1 X29.122 Y-4.250 E60.2538
G1 X28.681 Y-4.335
G1 X25.276 Y-0.910 E60.4144
G1 X24.859 Y-1.020
G1 X28.325 Y-4.507 E60.5779
G1 X28.047 Y-4.756
G1 X24.412 Y-1.099 E60.7494
G1 X23.924 Y-1.137
G1 X27.833 Y-5.069 E60.9338
G1 X27.626 Y-5.390
G1 X23.381 Y-1.120 E61.1340
G1 X22.756 Y-1.020
G1 X27.473 Y-5.765 E61.3566
G1 X27.452 Y-6.273
G1 X21.989 Y-0.777 E61.6143
G0 X17.877 Y-0.873 F10800
G1 X9.747 Y7.306 E61.9979 F3600
G1 X9.494 Y7.031
G1 X17.193 Y-0.714 E62.3611
G1 X16.614 Y-0.660
G1 X9.211 Y6.787 E62.7104
G1 X8.911 Y6.560
G1 X16.100 Y-0.672 E63.0495
G1 X15.633 Y-0.731
G1 X8.595 Y6.348 E63.3815
G1 X8.245 Y6.171
G1 X15.200 Y-0.825 E63.7097
G1 X14.806 Y-0.957
G1 X7.875 Y6.015 E64.0366
G1 X7.483 Y5.881
G1 X14.439 Y-1.117 E64.3648
G1 X14.092 Y-1.297
G1 X7.054 Y5.782 E64.6968
G1 X6.586 Y5.725
G1 X13.770 Y-1.502 E65.0357
G1 X13.473 Y-1.733
G1 X6.071 Y5.714 E65.3850
G1 X5.492 Y5.767
G1 X13.191 Y-1.978 E65.7482
G1 X12.934 Y-2.248
G1 X9.934 Y0.770 E65.8897
; ------------------------------------
; Layer #3
; ------------------------------------
G21 ; mm
G90 ; abs
G92 E0 ; reset extr
M106 S255
G0 F4800 E-1.0000
G0 F300 Z0.800
G0 X22.892 Y8.322 F10800
G0 X32.589 Y9.682
G0 F4800 E0.0000
;segType:Loop
G1 X32.552 Y9.688 E0.0012 F3600
G1 X31.759 Y9.707 E0.0276
G1 X31.210 Y9.633 E0.0460
G1 X30.785 Y9.515 E0.0607
G1 X30.225 Y9.598 E0.0795
G1 X29.780 Y9.944 E0.0983
G1 X29.608 Y10.255 E0.1101
G1 X29.332 Y11.018 E0.1371
G1 X29.338 Y11.381 E0.1491
G1 X29.510 Y11.823 E0.1649
G1 X29.776 Y12.108 E0.1779
G1 X30.137 Y12.304 E0.1915
G1 X30.587 Y12.635 E0.2101
G1 X31.145 Y13.199 E0.2365
G1 X31.626 Y13.839 E0.2632
G1 X31.482 Y14.103 E0.2732
G1 X30.686 Y14.037 E0.2997
G1 X29.913 Y13.864 E0.3261
G1 X29.388 Y13.655 E0.3449
G1 X29.008 Y13.440 E0.3594
G1 X28.443 Y13.389 E0.3783
G1 X27.931 Y13.621 E0.3970
G1 X27.698 Y13.875 E0.4084
G1 X27.231 Y14.575 E0.4364
G1 X27.160 Y15.128 E0.4550
G1 X27.386 Y15.689 E0.4751
G1 X27.713 Y15.988 E0.4898
G1 X28.079 Y16.426 E0.5088
G1 X28.487 Y17.109 E0.5353
G1 X28.802 Y17.850 E0.5620
G1 X28.599 Y18.071 E0.5720
G1 X27.844 Y17.815 E0.5985
G1 X27.137 Y17.460 E0.6248
G1 X26.669 Y17.124 E0.6440
G1 X26.380 Y16.850 E0.6573
G1 X26.031 Y16.686 E0.6701
G1 X25.508 Y16.672 E0.6875
G1 X25.174 Y16.797 E0.6993
G1 X24.725 Y17.161 E0.7186
G1 X24.382 Y17.482 E0.7342
G1 X24.166 Y18.015 E0.7533
G1 X24.238 Y18.594 E0.7727
G1 X24.467 Y18.944 E0.7866
G1 X24.749 Y19.509 E0.8077
G1 X24.981 Y20.270 E0.8341
G1 X25.111 Y21.066 E0.8609
G1 X24.863 Y21.232 E0.8709
G1 X24.193 Y20.802 E0.8974
G1 X23.591 Y20.287 E0.9237
G1 X23.219 Y19.847 E0.9429
G1 X23.101 Y19.647 E0.9506
G1 X22.769 Y19.308 E0.9664
G1 X22.422 Y19.159 E0.9789
G1 X21.884 Y19.149 E0.9968
G1 X21.319 Y19.414 E1.0176
G1 X20.939 Y19.628 E1.0321
G1 X20.685 Y19.910 E1.0447
G1 X20.500 Y20.437 E1.0633
G1 X20.578 Y20.924 E1.0797
G1 X20.662 Y21.130 E1.0871
G1 X20.786 Y21.699 E1.1065
G1 X20.832 Y22.496 E1.1331
G1 X20.769 Y23.303 E1.1600
G1 X20.491 Y23.404 E1.1698
G1 X19.943 Y22.824 E1.1963
G1 X19.482 Y22.178 E1.2227
G1 X19.217 Y21.643 E1.2426
G1 X19.081 Y21.241 E1.2567
G1 X18.683 Y20.826 E1.2758
G1 X18.118 Y20.658 E1.2954
G1 X17.242 Y20.834 E1.3251
G1 X16.824 Y21.046 E1.3408
G1 X16.568 Y21.339 E1.3537
G1 X16.394 Y21.836 E1.3712
G1 X16.437 Y22.248 E1.3850
G1 X16.425 Y22.875 E1.4058
G1 X16.280 Y23.660 E1.4324
G1 X16.027 Y24.429 E1.4593
G1 X15.735 Y24.459 E1.4691
G1 X15.342 Y23.763 E1.4957
G1 X15.048 Y23.024 E1.5221
G1 X14.920 Y22.448 E1.5417
G1 X14.911 Y22.237 E1.5488
G1 X14.774 Y21.753 E1.5655
G1 X14.353 Y21.329 E1.5854
G1 X13.848 Y21.189 E1.6028
G1 X13.009 Y21.194 E1.6307
G1 X12.655 Y21.325 E1.6433
G1 X12.247 Y21.704 E1.6618
G1 X12.088 Y22.181 E1.6785
G1 X12.070 Y22.391 E1.6855
G1 X11.916 Y22.964 E1.7052
G1 X11.589 Y23.693 E1.7318
G1 X11.162 Y24.379 E1.7587
G1 X10.873 Y24.338 E1.7684
G1 X10.657 Y23.566 E1.7951
G1 X10.547 Y22.776 E1.8216
G1 X10.560 Y22.169 E1.8418
G1 X10.625 Y21.750 E1.8559
G1 X10.454 Y21.184 E1.8756
G1 X10.029 Y20.781 E1.8950
G1 X9.420 Y20.599 E1.9162
G1 X8.960 Y20.498 E1.9318
G1 X8.436 Y20.622 E1.9498
G1 X8.123 Y20.849 E1.9626
G1 X7.874 Y21.244 E1.9781
G1 X7.808 Y21.443 E1.9851
G1 X7.523 Y21.962 E2.0048
G1 X7.032 Y22.592 E2.0314
G1 X6.457 Y23.155 E2.0582
G1 X6.187 Y23.046 E2.0678
G1 X6.160 Y22.242 E2.0946
G1 X6.241 Y21.447 E2.1212
G1 X6.398 Y20.861 E2.1413
G1 X6.559 Y20.472 E2.1553
G1 X6.534 Y19.895 E2.1746
G1 X6.224 Y19.395 E2.1941
G1 X5.654 Y19.054 E2.2162
G1 X5.226 Y18.846 E2.2320
G1 X4.647 Y18.850 E2.2513
G1 X4.149 Y19.137 E2.2704
G1 X3.908 Y19.483 E2.2844
G1 X3.500 Y19.928 E2.3045
G1 X2.875 Y20.422 E2.3310
G1 X2.184 Y20.829 E2.3577
G1 X1.949 Y20.659 E2.3674
G1 X2.114 Y19.869 E2.3942
G1 X2.381 Y19.116 E2.4208
G1 X2.664 Y18.598 E2.4404
G1 X2.800 Y18.428 E2.4476
G1 X3.015 Y17.961 E2.4647
G1 X2.976 Y17.380 E2.4841
G1 X2.695 Y16.940 E2.5014
G1 X2.038 Y16.357 E2.5307
G1 X1.511 Y16.218 E2.5488
G1 X1.122 Y16.273 E2.5619
G1 X0.726 Y16.505 E2.5771
G1 X0.568 Y16.655 E2.5844
G1 X0.081 Y16.980 E2.6038
G1 X-0.641 Y17.309 E2.6303
G1 X-1.407 Y17.538 E2.6568
G1 X-1.595 Y17.314 E2.6666
G1 X-1.247 Y16.585 E2.6934
G1 X-0.809 Y15.917 E2.7200
G1 X-0.408 Y15.477 E2.7398
G1 X-0.082 Y15.204 E2.7539
G1 X0.147 Y14.716 E2.7719
G1 X0.164 Y14.319 E2.7851
G1 X0.011 Y13.880 E2.8006
G1 X-0.464 Y13.187 E2.8285
G1 X-0.776 Y12.965 E2.8412
G1 X-1.298 Y12.842 E2.8591
G1 X-1.789 Y12.979 E2.8760
G1 X-1.990 Y13.093 E2.8837
G1 X-2.533 Y13.288 E2.9029
G1 X-3.312 Y13.434 E2.9293
G1 X-4.108 Y13.471 E2.9557
G1 X-4.238 Y13.207 E2.9655
G1 X-3.727 Y12.582 E2.9924
G1 X-3.143 Y12.038 E3.0189
G1 X-2.667 Y11.717 E3.0380
G1 X-2.449 Y11.619 E3.0460
G1 X-2.077 Y11.326 E3.0618
G1 X-1.889 Y10.998 E3.0743
G1 X-1.814 Y10.463 E3.0923
G1 X-2.002 Y9.873 E3.1129
G1 X-2.177 Y9.436 E3.1285
G1 X-2.596 Y9.042 E3.1477
G1 X-3.160 Y8.906 E3.1670
G1 X-3.567 Y9.000 E3.1809
G1 X-4.195 Y9.068 E3.2018
G1 X-4.982 Y9.021 E3.2281
G1 X-5.763 Y8.866 E3.2546
G1 X-5.827 Y8.576 E3.2644
G1 X-5.183 Y8.091 E3.2912
G1 X-4.488 Y7.704 E3.3177
G1 X-3.950 Y7.506 E3.3368
G1 X-3.526 Y7.413 E3.3512
G1 X-3.064 Y7.069 E3.3704
G1 X-2.824 Y6.497 E3.3910
G1 X-2.867 Y5.880 E3.4116
G1 X-2.931 Y5.413 E3.4272
G1 X-3.240 Y4.931 E3.4463
G1 X-3.754 Y4.658 E3.4656
G1 X-4.173 Y4.649 E3.4796
G1 X-4.802 Y4.564 E3.5007
G1 X-5.555 Y4.329 E3.5269
G1 X-6.275 Y3.990 E3.5534
G1 X-6.268 Y3.690 E3.5633
G1 X-5.529 Y3.375 E3.5901
G1 X-4.762 Y3.166 E3.6165
G1 X-4.215 Y3.105 E3.6348
G1 X-3.953 Y3.119 E3.6435
G1 X-3.498 Y3.043 E3.6589
G1 X-3.030 Y2.689 E3.6784
G1 X-2.817 Y2.204 E3.6960
G1 X-2.708 Y1.329 E3.7254
G1 X-2.891 Y0.779 E3.7446
G1 X-3.322 Y0.388 E3.7640
G1 X-3.727 Y0.276 E3.7779
G1 X-4.323 Y0.039 E3.7993
