; generated by Slic3r 1.2.9 on 2016-02-02 at 13:44:37

; external perimeters extrusion width = 0.40mm
; perimeters extrusion width = 0.67mm
; infill extrusion width = 0.67mm
; solid infill extrusion width = 0.67mm
; top infill extrusion width = 0.67mm
; support material extrusion width = 0.40mm

M107
M104 S220 ; set temperature
G28 ; home all axes
G1 X70Y70Z5 F5000 
M109 S220 ; wait for temperature to be reached
G21 ; set units to millimeters
G90 ; use absolute coordinates
M82 ; use absolute distances for extrusion
G92 E0
G1 E-3.50000 F1800.00000
G92 E0
G1 Z0.300 F6000.000
G1 X23.832 Y-14.029 F6000.000
G1 E3.50000 F1800.00000
G1 X24.194 Y-13.440 E3.53612 F1363.944
G1 X24.582 Y-12.718 E3.57895
G1 X24.805 Y-12.277 E3.60479
G1 X25.083 Y-11.644 E3.64091
G1 X26.496 Y-7.918 E3.84909
G1 X26.708 Y-7.260 E3.88520
G1 X26.829 Y-6.799 E3.91011
G1 X27.022 Y-5.984 E3.95388
G1 X27.141 Y-5.302 E3.99000
G1 X27.621 Y-1.347 E4.19818
G1 X27.669 Y-0.657 E4.23430
G1 X27.669 Y0.657 E4.30298
G1 X27.621 Y1.347 E4.33909
G1 X27.141 Y5.302 E4.54726
G1 X27.022 Y5.984 E4.58339
G1 X26.829 Y6.799 E4.62716
G1 X26.708 Y7.260 E4.65206
G1 X26.496 Y7.918 E4.68818
G1 X25.083 Y11.644 E4.89635
G1 X24.805 Y12.277 E4.93248
G1 X24.194 Y13.441 E5.00116
G1 X23.832 Y14.029 E5.03726
G1 X21.568 Y17.308 E5.24544
G1 X21.146 Y17.856 E5.28156
G1 X20.836 Y18.217 E5.30645
G1 X20.275 Y18.840 E5.35023
G1 X19.782 Y19.325 E5.38635
G1 X16.799 Y21.967 E5.59453
G1 X16.259 Y22.398 E5.63065
G1 X15.573 Y22.880 E5.67443
G1 X15.177 Y23.144 E5.69932
G1 X14.582 Y23.497 E5.73544
G1 X11.054 Y25.349 E5.94362
G1 X10.426 Y25.638 E5.97975
G1 X9.197 Y26.104 E6.04843
G1 X8.535 Y26.304 E6.08453
G1 X4.666 Y27.258 E6.29271
G1 X3.987 Y27.388 E6.32883
G1 X3.157 Y27.496 E6.37260
G1 X2.682 Y27.547 E6.39753
G1 X1.992 Y27.582 E6.43362
G1 X-1.992 Y27.582 E6.64180
G1 X-2.683 Y27.547 E6.67792
G1 X-3.987 Y27.388 E6.74658
G1 X-4.666 Y27.258 E6.78270
G1 X-8.535 Y26.304 E6.99088
G1 X-9.196 Y26.104 E7.02696
G1 X-9.645 Y25.942 E7.05190
G1 X-10.426 Y25.638 E7.09567
G1 X-11.054 Y25.349 E7.13179
G1 X-14.582 Y23.497 E7.33997
G1 X-15.177 Y23.144 E7.37610
G1 X-15.573 Y22.880 E7.40098
G1 X-16.259 Y22.398 E7.44477
G1 X-16.799 Y21.967 E7.48088
G1 X-19.782 Y19.325 E7.68906
G1 X-20.275 Y18.840 E7.72518
G1 X-20.911 Y18.131 E7.77496
G1 X-21.568 Y17.308 E7.82996
G1 X-23.832 Y14.029 E8.03813
G1 X-24.194 Y13.440 E8.07425
G1 X-24.805 Y12.276 E8.14293
G1 X-25.083 Y11.644 E8.17904
G1 X-26.496 Y7.918 E8.38722
G1 X-26.708 Y7.260 E8.42334
G1 X-26.915 Y6.448 E8.46712
G1 X-27.022 Y5.983 E8.49202
G1 X-27.141 Y5.302 E8.52813
G1 X-27.621 Y1.347 E8.73631
G1 X-27.669 Y0.657 E8.77243
G1 X-27.669 Y-0.657 E8.84110
G1 X-27.621 Y-1.347 E8.87722
G1 X-27.141 Y-5.302 E9.08539
G1 X-27.022 Y-5.984 E9.12151
G1 X-26.800 Y-6.910 E9.17130
G1 X-26.496 Y-7.918 E9.22629
G1 X-25.083 Y-11.644 E9.43447
G1 X-24.643 Y-12.600 E9.48946
G1 X-24.194 Y-13.441 E9.53926
G1 X-23.832 Y-14.029 E9.57536
G1 X-21.568 Y-17.308 E9.78354
G1 X-21.146 Y-17.856 E9.81966
G1 X-20.608 Y-18.475 E9.86250
G1 X-20.275 Y-18.840 E9.88833
G1 X-19.782 Y-19.325 E9.92445
G1 X-16.799 Y-21.967 E10.13263
G1 X-16.259 Y-22.398 E10.16875
G1 X-15.588 Y-22.870 E10.21159
G1 X-15.177 Y-23.145 E10.23744
G1 X-14.582 Y-23.497 E10.27354
G1 X-11.054 Y-25.349 E10.48172
G1 X-10.426 Y-25.638 E10.51784
G1 X-9.645 Y-25.942 E10.56162
G1 X-9.197 Y-26.104 E10.58652
G1 X-8.535 Y-26.304 E10.62263
G1 X-4.666 Y-27.258 E10.83081
G1 X-3.987 Y-27.388 E10.86693
G1 X-3.157 Y-27.496 E10.91071
G1 X-2.682 Y-27.547 E10.93563
G1 X-1.992 Y-27.582 E10.97172
G1 X1.992 Y-27.582 E11.17990
G1 X2.683 Y-27.547 E11.21602
G1 X3.157 Y-27.496 E11.24091
G1 X3.988 Y-27.388 E11.28472
G1 X4.666 Y-27.258 E11.32081
G1 X8.535 Y-26.304 E11.52899
G1 X9.197 Y-26.104 E11.56511
G1 X10.426 Y-25.638 E11.63378
G1 X11.054 Y-25.349 E11.66990
G1 X14.582 Y-23.497 E11.87808
G1 X15.177 Y-23.145 E11.91420
G1 X15.573 Y-22.880 E11.93909
G1 X16.259 Y-22.398 E11.98287
G1 X16.799 Y-21.967 E12.01899
G1 X19.782 Y-19.325 E12.22717
G1 X20.275 Y-18.840 E12.26329
G1 X21.146 Y-17.856 E12.33196
G1 X21.568 Y-17.308 E12.36807
G1 X23.798 Y-14.078 E12.57312
G1 X23.487 Y-13.791 F6000.000
G1 X23.827 Y-13.239 E12.60697 F1363.944
G1 X24.211 Y-12.523 E12.64943
G1 X24.431 Y-12.088 E12.67489
G1 X24.692 Y-11.495 E12.70874
G1 X26.105 Y-7.769 E12.91692
G1 X26.303 Y-7.153 E12.95077
G1 X26.422 Y-6.699 E12.97529
G1 X26.614 Y-5.890 E13.01869
G1 X26.725 Y-5.252 E13.05255
G1 X27.206 Y-1.296 E13.26072
G1 X27.250 Y-0.650 E13.29458
G1 X27.250 Y0.650 E13.36250
G1 X27.206 Y1.296 E13.39634
G1 X26.725 Y5.252 E13.60452
G1 X26.614 Y5.890 E13.63838
G1 X26.422 Y6.699 E13.68178
G1 X26.303 Y7.153 E13.70630
G1 X26.105 Y7.769 E13.74015
G1 X24.692 Y11.495 E13.94833
G1 X24.431 Y12.088 E13.98218
G1 X23.827 Y13.240 E14.05011
G1 X23.487 Y13.791 E14.08395
G1 X21.223 Y17.070 E14.29212
G1 X20.828 Y17.584 E14.32598
G1 X20.522 Y17.940 E14.35050
G1 X19.966 Y18.557 E14.39390
G1 X19.504 Y19.011 E14.42775
G1 X16.521 Y21.653 E14.63593
G1 X16.015 Y22.057 E14.66978
G1 X15.335 Y22.535 E14.71318
G1 X14.945 Y22.796 E14.73770
G1 X14.388 Y23.126 E14.77155
G1 X10.859 Y24.978 E14.97973
G1 X10.271 Y25.249 E15.01359
G1 X9.055 Y25.710 E15.08152
G1 X8.435 Y25.897 E15.11535
G1 X4.566 Y26.851 E15.32353
G1 X3.930 Y26.973 E15.35739
G1 X3.106 Y27.080 E15.40078
G1 X2.639 Y27.130 E15.42533
G1 X1.992 Y27.163 E15.45916
G1 X-1.992 Y27.163 E15.66733
G1 X-2.639 Y27.130 E15.70119
G1 X-3.930 Y26.973 E15.76910
G1 X-4.566 Y26.851 E15.80295
G1 X-8.435 Y25.897 E16.01113
G1 X-9.055 Y25.710 E16.04495
G1 X-9.497 Y25.550 E16.06950
G1 X-10.271 Y25.249 E16.11290
G1 X-10.859 Y24.978 E16.14676
G1 X-14.388 Y23.126 E16.35494
G1 X-14.945 Y22.796 E16.38879
G1 X-15.335 Y22.535 E16.41331
G1 X-16.015 Y22.057 E16.45671
G1 X-16.521 Y21.653 E16.49056
G1 X-19.504 Y19.011 E16.69874
G1 X-19.966 Y18.557 E16.73259
G1 X-20.593 Y17.858 E16.78162
G1 X-21.223 Y17.070 E16.83435
G1 X-23.487 Y13.791 E17.04253
G1 X-23.827 Y13.239 E17.07638
G1 X-24.431 Y12.088 E17.14430
G1 X-24.692 Y11.495 E17.17815
G1 X-26.105 Y7.769 E17.38633
G1 X-26.303 Y7.152 E17.42018
G1 X-26.509 Y6.348 E17.46358
G1 X-26.614 Y5.890 E17.48811
G1 X-26.725 Y5.252 E17.52195
G1 X-27.206 Y1.296 E17.73013
G1 X-27.250 Y0.650 E17.76398
G1 X-27.250 Y-0.650 E17.83190
G1 X-27.206 Y-1.296 E17.86575
G1 X-26.725 Y-5.252 E18.07393
G1 X-26.614 Y-5.890 E18.10778
G1 X-26.395 Y-6.803 E18.15681
G1 X-26.105 Y-7.769 E18.20954
G1 X-24.692 Y-11.495 E18.41771
G1 X-24.268 Y-12.411 E18.47044
G1 X-23.827 Y-13.240 E18.51949
G1 X-23.487 Y-13.791 E18.55332
G1 X-21.223 Y-17.070 E18.76150
G1 X-20.828 Y-17.584 E18.79536
G1 X-20.294 Y-18.197 E18.83782
G1 X-19.966 Y-18.557 E18.86327
G1 X-19.504 Y-19.011 E18.89713
G1 X-16.521 Y-21.653 E19.10530
G1 X-16.015 Y-22.057 E19.13916
G1 X-15.350 Y-22.525 E19.18161
G1 X-14.945 Y-22.796 E19.20709
G1 X-14.388 Y-23.126 E19.24093
G1 X-10.859 Y-24.978 E19.44911
G1 X-10.271 Y-25.249 E19.48296
G1 X-9.497 Y-25.550 E19.52636
G1 X-9.055 Y-25.710 E19.55089
G1 X-8.435 Y-25.897 E19.58473
G1 X-4.566 Y-26.851 E19.79291
G1 X-3.930 Y-26.973 E19.82677
G1 X-3.106 Y-27.080 E19.87017
G1 X-2.639 Y-27.130 E19.89471
G1 X-1.992 Y-27.163 E19.92854
G1 X1.992 Y-27.163 E20.13671
G1 X2.639 Y-27.130 E20.17057
G1 X3.106 Y-27.080 E20.19508
G1 X3.930 Y-26.973 E20.23851
G1 X4.566 Y-26.851 E20.27234
G1 X8.435 Y-25.897 E20.48052
G1 X9.055 Y-25.710 E20.51437
G1 X10.271 Y-25.249 E20.58228
G1 X10.859 Y-24.978 E20.61614
G1 X14.388 Y-23.126 E20.82432
G1 X14.945 Y-22.796 E20.85817
G1 X15.335 Y-22.535 E20.88269
G1 X16.015 Y-22.057 E20.92609
G1 X16.521 Y-21.653 E20.95994
G1 X19.504 Y-19.011 E21.16812
G1 X19.966 Y-18.557 E21.20197
G1 X20.828 Y-17.584 E21.26989
G1 X21.223 Y-17.070 E21.30374
G1 X23.453 Y-13.840 E21.50878
G1 X23.142 Y-13.553 F6000.000
G1 X23.459 Y-13.038 E21.54037 F1363.944
G1 X23.840 Y-12.328 E21.58245
G1 X24.057 Y-11.900 E21.60754
G1 X24.300 Y-11.347 E21.63912
G1 X25.713 Y-7.621 E21.84730
G1 X25.898 Y-7.045 E21.87888
G1 X26.015 Y-6.598 E21.90303
G1 X26.206 Y-5.797 E21.94605
G1 X26.309 Y-5.201 E21.97764
G1 X26.790 Y-1.246 E22.18582
G1 X26.831 Y-0.643 E22.21741
G1 X26.831 Y0.643 E22.28458
G1 X26.790 Y1.246 E22.31615
G1 X26.309 Y5.201 E22.52433
G1 X26.206 Y5.797 E22.55592
G1 X26.015 Y6.598 E22.59894
G1 X25.898 Y7.045 E22.62309
G1 X25.713 Y7.621 E22.65467
G1 X24.300 Y11.347 E22.86285
G1 X24.057 Y11.900 E22.89444
G1 X23.459 Y13.039 E22.96161
G1 X23.142 Y13.553 E22.99318
G1 X20.879 Y16.832 E23.20136
G1 X20.510 Y17.311 E23.23295
G1 X20.209 Y17.662 E23.25709
G1 X19.657 Y18.274 E23.30011
G1 X19.226 Y18.697 E23.33170
G1 X16.244 Y21.340 E23.53988
G1 X15.771 Y21.717 E23.57147
G1 X15.097 Y22.190 E23.61449
G1 X14.713 Y22.447 E23.63863
G1 X14.193 Y22.755 E23.67022
G1 X10.665 Y24.607 E23.87839
G1 X10.115 Y24.860 E23.90999
G1 X8.913 Y25.316 E23.97716
G1 X8.335 Y25.491 E24.00873
G1 X4.466 Y26.444 E24.21691
G1 X3.872 Y26.558 E24.24850
G1 X3.056 Y26.665 E24.29152
G1 X2.596 Y26.713 E24.31569
G1 X1.992 Y26.745 E24.34725
G1 X-1.992 Y26.745 E24.55542
G1 X-2.596 Y26.713 E24.58701
G1 X-3.872 Y26.558 E24.65417
G1 X-4.466 Y26.444 E24.68576
G1 X-8.335 Y25.491 E24.89394
G1 X-8.913 Y25.316 E24.92549
G1 X-9.348 Y25.159 E24.94966
G1 X-10.115 Y24.860 E24.99268
G1 X-10.665 Y24.607 E25.02427
G1 X-14.193 Y22.755 E25.23245
G1 X-14.713 Y22.447 E25.26404
G1 X-15.097 Y22.190 E25.28818
G1 X-15.771 Y21.717 E25.33121
G1 X-16.244 Y21.340 E25.36279
G1 X-19.226 Y18.697 E25.57097
G1 X-19.657 Y18.274 E25.60256
G1 X-20.275 Y17.586 E25.65083
G1 X-20.879 Y16.832 E25.70129
G1 X-23.142 Y13.553 E25.90947
G1 X-23.459 Y13.038 E25.94106
G1 X-24.057 Y11.900 E26.00823
G1 X-24.300 Y11.347 E26.03980
G1 X-25.713 Y7.621 E26.24798
G1 X-25.898 Y7.045 E26.27957
G1 X-26.102 Y6.247 E26.32259
G1 X-26.206 Y5.797 E26.34674
G1 X-26.309 Y5.202 E26.37832
G1 X-26.790 Y1.246 E26.58650
G1 X-26.831 Y0.643 E26.61809
G1 X-26.831 Y-0.643 E26.68525
G1 X-26.790 Y-1.246 E26.71683
G1 X-26.309 Y-5.202 E26.92501
G1 X-26.206 Y-5.797 E26.95660
G1 X-25.990 Y-6.696 E27.00487
G1 X-25.713 Y-7.621 E27.05533
G1 X-24.300 Y-11.347 E27.26351
G1 X-23.894 Y-12.223 E27.31397
G1 X-23.459 Y-13.039 E27.36226
G1 X-23.142 Y-13.553 E27.39383
G1 X-20.879 Y-16.832 E27.60201
G1 X-20.510 Y-17.311 E27.63360
G1 X-19.981 Y-17.919 E27.67568
G1 X-19.657 Y-18.274 E27.70076
G1 X-19.226 Y-18.697 E27.73235
G1 X-16.244 Y-21.340 E27.94053
G1 X-15.771 Y-21.717 E27.97212
G1 X-15.112 Y-22.180 E28.01420
G1 X-14.713 Y-22.447 E28.03929
G1 X-14.193 Y-22.755 E28.07087
G1 X-10.665 Y-24.607 E28.27905
G1 X-10.116 Y-24.860 E28.31063
G1 X-9.348 Y-25.159 E28.35366
G1 X-8.913 Y-25.316 E28.37781
G1 X-8.335 Y-25.491 E28.40939
G1 X-4.466 Y-26.444 E28.61756
G1 X-3.872 Y-26.558 E28.64915
G1 X-3.056 Y-26.665 E28.69218
G1 X-2.596 Y-26.713 E28.71634
G1 X-1.992 Y-26.745 E28.74790
G1 X1.992 Y-26.745 E28.95608
G1 X2.596 Y-26.713 E28.98767
G1 X3.056 Y-26.665 E29.01181
G1 X3.873 Y-26.558 E29.05486
G1 X4.466 Y-26.444 E29.08642
G1 X8.335 Y-25.491 E29.29460
G1 X8.914 Y-25.316 E29.32618
G1 X10.116 Y-24.860 E29.39334
G1 X10.665 Y-24.607 E29.42493
G1 X14.193 Y-22.755 E29.63311
G1 X14.713 Y-22.447 E29.66470
G1 X15.097 Y-22.190 E29.68884
G1 X15.771 Y-21.717 E29.73186
G1 X16.244 Y-21.340 E29.76345
G1 X19.226 Y-18.697 E29.97163
G1 X19.657 Y-18.274 E30.00321
G1 X20.510 Y-17.311 E30.07038
G1 X20.879 Y-16.832 E30.10196
G1 X23.108 Y-13.602 E30.30700
G1 X22.797 Y-13.315 F6000.000
G1 X23.092 Y-12.837 E30.33632 F1363.944
G1 X23.469 Y-12.134 E30.37803
G1 X23.683 Y-11.712 E30.40274
G1 X23.908 Y-11.198 E30.43206
G1 X25.321 Y-7.472 E30.64023
G1 X25.493 Y-6.938 E30.66955
G1 X25.609 Y-6.498 E30.69332
G1 X25.797 Y-5.704 E30.73596
G1 X25.894 Y-5.151 E30.76529
G1 X26.374 Y-1.195 E30.97347
G1 X26.413 Y-0.636 E31.00279
G1 X26.413 Y0.636 E31.06920
G1 X26.374 Y1.195 E31.09851
G1 X25.894 Y5.151 E31.30669
G1 X25.797 Y5.704 E31.33602
G1 X25.609 Y6.498 E31.37866
G1 X25.493 Y6.938 E31.40243
G1 X25.321 Y7.472 E31.43174
G1 X23.908 Y11.198 E31.63992
G1 X23.683 Y11.712 E31.66924
G1 X23.092 Y12.838 E31.73566
G1 X22.797 Y13.315 E31.76497
G1 X20.534 Y16.594 E31.97315
G1 X20.192 Y17.039 E32.00247
G1 X19.895 Y17.384 E32.02623
G1 X19.349 Y17.991 E32.06888
G1 X18.948 Y18.384 E32.09820
G1 X15.966 Y21.026 E32.30638
G1 X15.527 Y21.376 E32.33570
G1 X14.859 Y21.846 E32.37835
G1 X14.481 Y22.098 E32.40211
G1 X13.998 Y22.384 E32.43143
G1 X10.470 Y24.236 E32.63961
G1 X9.960 Y24.471 E32.66893
G1 X8.771 Y24.922 E32.73535
G1 X8.235 Y25.084 E32.76466
G1 X4.366 Y26.038 E32.97283
G1 X3.815 Y26.143 E33.00216
G1 X3.005 Y26.249 E33.04480
G1 X2.552 Y26.297 E33.06859
G1 X1.992 Y26.326 E33.09789
G1 X-1.992 Y26.326 E33.30606
G1 X-2.553 Y26.297 E33.33539
G1 X-3.815 Y26.143 E33.40179
G1 X-4.366 Y26.038 E33.43111
G1 X-8.235 Y25.084 E33.63929
G1 X-8.771 Y24.922 E33.66858
G1 X-9.200 Y24.767 E33.69238
G1 X-9.960 Y24.471 E33.73502
G1 X-10.470 Y24.236 E33.76434
G1 X-13.998 Y22.384 E33.97252
G1 X-14.481 Y22.098 E34.00184
G1 X-14.859 Y21.846 E34.02560
G1 X-15.527 Y21.376 E34.06826
G1 X-15.966 Y21.026 E34.09757
G1 X-18.948 Y18.384 E34.30575
G1 X-19.349 Y17.991 E34.33507
G1 X-19.957 Y17.314 E34.38259
G1 X-20.534 Y16.594 E34.43079
G1 X-22.797 Y13.315 E34.63897
G1 X-23.092 Y12.837 E34.66829
G1 X-23.683 Y11.712 E34.73470
G1 X-23.908 Y11.198 E34.76401
G1 X-25.321 Y7.472 E34.97219
G1 X-25.493 Y6.938 E35.00151
G1 X-25.695 Y6.147 E35.04416
G1 X-25.797 Y5.704 E35.06793
G1 X-25.894 Y5.151 E35.09724
G1 X-26.374 Y1.195 E35.30542
G1 X-26.413 Y0.636 E35.33474
G1 X-26.413 Y-0.636 E35.40115
G1 X-26.374 Y-1.195 E35.43047
G1 X-25.894 Y-5.151 E35.63865
G1 X-25.797 Y-5.704 E35.66797
G1 X-25.586 Y-6.589 E35.71549
G1 X-25.321 Y-7.472 E35.76368
G1 X-23.908 Y-11.198 E35.97186
G1 X-23.520 Y-12.035 E36.02005
G1 X-23.092 Y-12.838 E36.06759
G1 X-22.797 Y-13.315 E36.09690
G1 X-20.534 Y-16.594 E36.30508
G1 X-20.192 Y-17.039 E36.33440
G1 X-19.668 Y-17.641 E36.37610
G1 X-19.349 Y-17.991 E36.40081
G1 X-18.948 Y-18.384 E36.43013
G1 X-15.966 Y-21.026 E36.63831
G1 X-15.527 Y-21.376 E36.66763
G1 X-14.874 Y-21.835 E36.70934
G1 X-14.481 Y-22.098 E36.73405
G1 X-13.998 Y-22.384 E36.76336
G1 X-10.470 Y-24.236 E36.97154
G1 X-9.960 Y-24.471 E37.00086
G1 X-9.200 Y-24.767 E37.04351
G1 X-8.772 Y-24.922 E37.06728
G1 X-8.235 Y-25.084 E37.09659
G1 X-4.366 Y-26.038 E37.30477
G1 X-3.815 Y-26.143 E37.33409
G1 X-3.005 Y-26.249 E37.37674
G1 X-2.552 Y-26.297 E37.40052
G1 X-1.992 Y-26.326 E37.42982
G1 X1.992 Y-26.326 E37.63800
G1 X2.553 Y-26.297 E37.66732
G1 X3.005 Y-26.249 E37.69108
G1 X3.815 Y-26.143 E37.73375
G1 X4.366 Y-26.038 E37.76305
G1 X8.235 Y-25.084 E37.97123
G1 X8.772 Y-24.922 E38.00055
G1 X9.960 Y-24.471 E38.06695
G1 X10.470 Y-24.236 E38.09628
G1 X13.998 Y-22.384 E38.30445
G1 X14.481 Y-22.098 E38.33377
G1 X14.859 Y-21.846 E38.35754
G1 X15.527 Y-21.376 E38.40018
G1 X15.966 Y-21.026 E38.42951
G1 X18.948 Y-18.384 E38.63768
G1 X19.349 Y-17.991 E38.66701
G1 X20.192 Y-17.039 E38.73342
G1 X20.534 Y-16.594 E38.76273
G1 X22.763 Y-13.364 E38.96778
G1 E35.46778 F1800.00000
G92 E0
G1 X-5.159 Y3.144 F6000.000
G1 E3.50000 F1800.00000
G1 X-4.565 Y3.268 E3.53168 F1363.944
G1 X-3.993 Y3.461 E3.56321
G1 X-3.449 Y3.722 E3.59475
G1 X-2.940 Y4.047 E3.62628
G1 X-2.474 Y4.430 E3.65781
G1 X-2.058 Y4.867 E3.68934
G1 X-1.697 Y5.351 E3.72087
G1 X-1.398 Y5.875 E3.75240
G1 X-1.162 Y6.434 E3.78409
G1 X-0.993 Y7.038 E3.81687
G1 X-0.903 Y7.608 E3.84699
G1 X-0.881 Y8.211 E3.87852
G1 X-0.932 Y8.812 E3.91005
G1 X-1.056 Y9.406 E3.94174
G1 X-1.261 Y9.999 E3.97452
G1 X-1.510 Y10.519 E4.00464
G1 X-1.834 Y11.028 E4.03617
G1 X-2.218 Y11.494 E4.06770
G1 X-2.657 Y11.912 E4.09939
G1 X-3.162 Y12.284 E4.13217
G1 X-3.663 Y12.570 E4.16229
G1 X-4.222 Y12.806 E4.19397
G1 X-4.826 Y12.975 E4.22676
G1 X-5.395 Y13.065 E4.25688
G1 X-5.999 Y13.087 E4.28841
G1 X-6.600 Y13.036 E4.31994
G1 X-7.194 Y12.912 E4.35162
G1 X-7.787 Y12.707 E4.38441
G1 X-8.307 Y12.458 E4.41453
G1 X-8.816 Y12.134 E4.44606
G1 X-9.282 Y11.750 E4.47759
G1 X-9.698 Y11.313 E4.50912
G1 X-10.058 Y10.829 E4.54065
G1 X-10.358 Y10.305 E4.57219
G1 X-10.592 Y9.749 E4.60372
G1 X-10.758 Y9.169 E4.63525
G1 X-10.852 Y8.573 E4.66678
G1 X-10.874 Y7.969 E4.69831
G1 X-10.823 Y7.368 E4.72984
G1 X-10.700 Y6.777 E4.76138
G1 X-10.506 Y6.203 E4.79306
G1 X-10.231 Y5.638 E4.82584
