; GCode generated by CraftWare

G28 X0 Y0
G28 Z0

M190 S60 ;set bed temp (wait)
M109 S215 ;set head temp (wait)
; ------------------------------------
; Layer #0
; ------------------------------------
G21 ; mm
G90 ; abs
G92 E0 ; reset extr
M106 S0
;segType:Skirt
G0 F4800 E-1.0000
G0 F300 Z0.200
G0 X65.515 Y67.667 F10800
G0 F4800 E0.0000
G1 X65.886 Y67.791 E0.0130 F600
G1 X66.134 Y67.791 E0.0213
G1 X66.258 Y67.916 E0.0271
G1 X67.125 Y68.040 E0.0562
G1 X67.248 Y68.165 E0.0621
G1 X68.734 Y68.165 E0.1115
G1 X69.044 Y68.352 E0.1235
G1 X69.292 Y68.601 E0.1352
G1 X69.601 Y68.788 E0.1472
G1 X69.849 Y68.788 E0.1555
G1 X69.973 Y68.912 E0.1613
G1 X70.839 Y69.037 E0.1904
G1 X70.963 Y69.161 E0.1963
G1 X71.397 Y69.224 E0.2108
G1 X71.768 Y69.348 E0.2239
G1 X72.201 Y69.410 E0.2384
G1 X72.325 Y69.535 E0.2443
G1 X72.759 Y69.598 E0.2588
G1 X73.130 Y69.722 E0.2719
G1 X73.563 Y69.784 E0.2864
G1 X73.687 Y69.909 E0.2923
G1 X74.554 Y70.033 E0.3214
G1 X74.678 Y70.158 E0.3272
G1 X74.925 Y70.158 E0.3355
G1 X75.049 Y70.282 E0.3413
G1 X75.916 Y70.407 E0.3704
G1 X76.040 Y70.532 E0.3763
G1 X76.288 Y70.532 E0.3845
G1 X76.411 Y70.656 E0.3904
G1 X77.278 Y70.781 E0.4195
G1 X77.402 Y70.905 E0.4253
G1 X77.836 Y70.968 E0.4399
G1 X78.207 Y71.092 E0.4529
G1 X78.640 Y71.154 E0.4675
G1 X78.764 Y71.279 E0.4733
G1 X79.631 Y71.404 E0.5025
G1 X81.117 Y71.404 E0.5519
G1 X81.426 Y71.217 E0.5639
G1 X83.902 Y68.726 E0.6807
G1 X84.212 Y68.539 E0.6928
G1 X84.274 Y68.975 E0.7074
G1 X84.274 Y70.470 E0.7571
G1 X84.460 Y70.781 E0.7692
G1 X87.184 Y73.521 E0.8977
G1 X87.618 Y73.584 E0.9123
G1 X87.989 Y73.708 E0.9253
G1 X88.422 Y73.770 E0.9399
G1 X88.546 Y73.895 E0.9457
G1 X89.413 Y74.019 E0.9748
G1 X89.537 Y74.144 E0.9807
G1 X89.784 Y74.144 E0.9889
G1 X89.908 Y74.269 E0.9947
G1 X90.775 Y74.393 E1.0239
G1 X90.899 Y74.518 E1.0297
G1 X91.332 Y74.580 E1.0443
G1 X91.704 Y74.705 E1.0573
G1 X92.137 Y74.767 E1.0719
G1 X92.261 Y74.891 E1.0777
G1 X93.127 Y75.016 E1.1068
G1 X93.251 Y75.140 E1.1127
G1 X93.685 Y75.203 E1.1272
G1 X94.056 Y75.328 E1.1403
G1 X94.490 Y75.390 E1.1548
G1 X94.613 Y75.514 E1.1607
G1 X95.047 Y75.577 E1.1752
G1 X95.418 Y75.701 E1.1883
G1 X95.852 Y75.763 E1.2028
G1 X95.975 Y75.888 E1.2087
G1 X96.842 Y76.012 E1.2378
G1 X96.966 Y76.137 E1.2436
G1 X97.957 Y76.137 E1.2766
G1 X98.390 Y76.200 E1.2912
G1 X98.638 Y76.449 E1.3028
G1 X98.947 Y76.635 E1.3149
G1 X99.195 Y76.760 E1.3241
G1 X99.566 Y76.760 E1.3364
G1 X99.690 Y76.884 E1.3423
G1 X100.557 Y77.009 E1.3714
G1 X100.681 Y77.134 E1.3772
G1 X102.662 Y77.134 E1.4431
G1 X105.386 Y74.393 E1.5716
G1 X105.448 Y73.957 E1.5863
G1 X105.448 Y72.463 E1.6360
G1 X105.386 Y72.027 E1.6506
G1 X104.148 Y70.781 E1.7091
G1 X103.962 Y70.470 E1.7211
G1 X104.086 Y70.345 E1.7270
G1 X104.086 Y68.352 E1.7933
G1 X103.962 Y67.978 E1.8064
G1 X103.590 Y67.355 E1.8305
G1 X101.485 Y65.238 E1.9298
G1 X101.485 Y64.241 E1.9629
G1 X101.361 Y63.868 E1.9760
G1 X98.142 Y60.629 E2.1279
G1 X97.771 Y60.504 E2.1409
G1 X94.799 Y57.515 E2.2811
G1 X94.366 Y57.204 E2.2989
G1 X92.880 Y57.204 E2.3483
G1 X92.570 Y57.016 E2.3603
G1 X90.837 Y55.273 E2.4421
G1 X90.527 Y55.086 E2.4541
G1 X90.280 Y55.086 E2.4624
G1 X90.156 Y54.961 E2.4682
G1 X88.175 Y54.961 E2.5341
G1 X87.741 Y55.023 E2.5487
G1 X87.494 Y55.273 E2.5603
G1 X87.246 Y55.148 E2.5696
G1 X86.007 Y53.902 E2.6280
G1 X85.636 Y53.778 E2.6410
G1 X85.203 Y53.716 E2.6556
G1 X82.974 Y53.716 E2.7297
G1 X82.107 Y54.588 E2.7706
G1 X81.797 Y54.401 E2.7826
G1 X81.054 Y53.653 E2.8177
G1 X80.621 Y53.591 E2.8322
G1 X79.135 Y53.591 E2.8817
G1 X78.269 Y53.716 E2.9108
G1 X78.021 Y53.716 E2.9190
G1 X76.659 Y55.086 E2.9833
G1 X76.349 Y54.899 E2.9953
G1 X76.102 Y54.650 E3.0070
G1 X75.668 Y54.588 E3.0216
G1 X74.183 Y54.588 E3.0710
G1 X73.811 Y54.712 E3.0840
G1 X73.687 Y54.837 E3.0899
G1 X73.440 Y54.837 E3.0981
G1 X73.130 Y55.023 E3.1101
G1 X71.397 Y56.767 E3.1919
G1 X70.963 Y56.830 E3.2065
G1 X69.477 Y56.830 E3.2559
G1 X69.168 Y57.016 E3.2679
G1 X68.920 Y57.266 E3.2796
G1 X68.610 Y57.453 E3.2916
G1 X66.134 Y59.944 E3.4085
G1 X65.639 Y59.944 E3.4249
G1 X62.915 Y62.684 E3.5534
G1 X62.729 Y62.996 E3.5655
G1 X62.729 Y64.490 E3.6152
G1 X62.791 Y64.926 E3.6298
G1 X65.515 Y67.667 E3.7584
G1 X65.329 Y67.854 E3.7671
G1 X65.763 Y68.165 E3.7849
G1 X66.629 Y68.289 E3.8140
G1 X66.753 Y68.414 E3.8198
G1 X67.620 Y68.539 E3.8490
G1 X68.858 Y68.539 E3.8901
G1 X69.477 Y69.161 E3.9194
G1 X70.344 Y69.286 E3.9485
G1 X70.468 Y69.410 E3.9543
G1 X71.335 Y69.535 E3.9834
G1 X71.458 Y69.660 E3.9893
G1 X71.706 Y69.660 E3.9975
G1 X71.830 Y69.784 E4.0034
G1 X72.697 Y69.909 E4.0325
G1 X72.820 Y70.033 E4.0383
G1 X73.068 Y70.033 E4.0466
G1 X73.192 Y70.158 E4.0524
G1 X74.059 Y70.282 E4.0815
G1 X74.183 Y70.407 E4.0874
G1 X74.616 Y70.470 E4.1019
G1 X74.988 Y70.594 E4.1150
G1 X75.421 Y70.656 E4.1295
G1 X75.545 Y70.781 E4.1354
G1 X75.978 Y70.843 E4.1499
G1 X76.350 Y70.968 E4.1630
G1 X76.783 Y71.030 E4.1775
G1 X76.907 Y71.154 E4.1834
G1 X77.773 Y71.279 E4.2125
G1 X77.897 Y71.404 E4.2183
G1 X78.145 Y71.404 E4.2266
G1 X78.269 Y71.528 E4.2324
G1 X79.135 Y71.653 E4.2615
G1 X79.259 Y71.777 E4.2674
G1 X81.240 Y71.777 E4.3333
G1 X83.841 Y69.161 E4.4560
G1 X83.903 Y69.598 E4.4706
G1 X83.903 Y70.594 E4.5038
G1 X87.122 Y73.833 E4.6556
G1 X87.555 Y73.895 E4.6702
G1 X87.679 Y74.019 E4.6760
G1 X87.927 Y74.019 E4.6843
G1 X88.051 Y74.144 E4.6901
G1 X88.917 Y74.269 E4.7192
G1 X89.041 Y74.393 E4.7251
G1 X89.475 Y74.456 E4.7396
G1 X89.846 Y74.580 E4.7527
G1 X90.280 Y74.642 E4.7672
G1 X90.403 Y74.767 E4.7731
G1 X91.270 Y74.891 E4.8022
G1 X91.394 Y75.016 E4.8080
G1 X91.642 Y75.016 E4.8163
G1 X91.765 Y75.140 E4.8221
G1 X92.632 Y75.265 E4.8512
G1 X92.756 Y75.390 E4.8571
G1 X93.623 Y75.514 E4.8862
G1 X93.747 Y75.639 E4.8921
G1 X93.994 Y75.639 E4.9003
G1 X94.118 Y75.763 E4.9061
G1 X94.985 Y75.888 E4.9353
G1 X95.109 Y76.012 E4.9411
G1 X95.356 Y76.012 E4.9493
G1 X95.480 Y76.137 E4.9552
G1 X96.347 Y76.262 E4.9843
G1 X96.471 Y76.386 E4.9901
G1 X96.718 Y76.386 E4.9984
G1 X96.966 Y76.511 E5.0076
G1 X98.328 Y76.511 E5.0529
G1 X98.823 Y77.009 E5.0763
G1 X99.071 Y77.009 E5.0845
G1 X99.195 Y77.134 E5.0903
G1 X100.062 Y77.258 E5.1195
G1 X100.185 Y77.383 E5.1253
G1 X101.052 Y77.507 E5.1544
G1 X102.538 Y77.507 E5.2039
G1 X102.847 Y77.321 E5.2159
G1 X105.819 Y74.331 E5.3561
G1 X105.819 Y72.089 E5.4307
G1 X104.333 Y70.594 E5.5008
G1 X104.457 Y70.220 E5.5138
G1 X104.457 Y68.227 E5.5801
G1 X103.900 Y67.293 E5.6163
G1 X101.919 Y65.300 E5.7098
G1 X101.857 Y64.864 E5.7244
G1 X101.857 Y64.117 E5.7493
G1 X101.671 Y63.805 E5.7613
G1 X98.080 Y60.193 E5.9307
G1 X97.833 Y60.193 E5.9390
G1 X94.861 Y57.204 E6.0792
G1 X94.242 Y56.830 E6.1032
G1 X92.756 Y56.830 E6.1527
G1 X90.775 Y54.837 E6.2461
G1 X90.032 Y54.588 E6.2722
G1 X87.803 Y54.588 E6.3463
G1 X87.432 Y54.961 E6.3638
G1 X85.946 Y53.467 E6.4339
G1 X85.698 Y53.467 E6.4422
G1 X85.574 Y53.342 E6.4480
G1 X83.098 Y53.342 E6.5304
G1 X82.788 Y53.529 E6.5424
G1 X82.293 Y54.027 E6.5658
G1 X81.983 Y54.214 E6.5778
G1 X80.993 Y53.217 E6.6245
G1 X78.764 Y53.217 E6.6987
G1 X78.640 Y53.342 E6.7045
G1 X78.145 Y53.342 E6.7210
G1 X77.836 Y53.529 E6.7330
G1 X76.845 Y54.525 E6.7797
G1 X76.535 Y54.712 E6.7918
G1 X76.040 Y54.214 E6.8151
G1 X74.059 Y54.214 E6.8810
G1 X73.749 Y54.401 E6.8931
G1 X73.378 Y54.525 E6.9061
G1 X73.068 Y54.712 E6.9181
G1 X71.335 Y56.456 E6.9999
G1 X69.849 Y56.456 E7.0493
G1 X69.416 Y56.518 E7.0639
G1 X69.106 Y56.705 E7.0759
G1 X68.858 Y56.954 E7.0876
G1 X68.549 Y57.141 E7.0996
G1 X66.320 Y59.383 E7.2048
G1 X66.010 Y59.570 E7.2168
G1 X65.577 Y59.632 E7.2314
G1 X62.358 Y62.871 E7.3832
G1 X62.358 Y64.864 E7.4495
G1 X65.329 Y67.854 E7.5897
G1 X65.515 Y68.414 E7.6094
G0 F4800 E6.6094
G0 X80.046 Y66.317 F10800
G0 X82.494 Y66.015
G0 X84.942 Y65.714
G0 X87.390 Y65.413
G0 X92.286 Y64.810
G0 F4800 E7.6094
;segType:HShell
G1 X88.930 Y68.185 E7.7677 F600
G1 X88.945 Y68.700
G1 X92.415 Y65.208 E7.9314
G1 X92.612 Y65.540
G1 X89.084 Y69.089 E8.0978
;segType:Perimeter
G0 X88.909 Y69.334 F10800
G1 X88.246 Y69.431 E8.1201 F359
G1 X88.305 Y69.155 E8.1295
G1 X88.347 Y68.651 E8.1463
G1 X88.329 Y68.146 E8.1631
G1 X88.250 Y67.648 E8.1799
G1 X88.112 Y67.162 E8.1967
G1 X87.917 Y66.697 E8.2134
G1 X87.659 Y66.245 E8.2308
G1 X87.364 Y65.847 E8.2472
G1 X87.016 Y65.483 E8.2640
G1 X86.628 Y65.163 E8.2807
G1 X86.204 Y64.893 E8.2974
G1 X85.751 Y64.677 E8.3141
G1 X85.274 Y64.518 E8.3308
G1 X84.782 Y64.418 E8.3475
G1 X84.282 Y64.379 E8.3642
G1 X83.780 Y64.400 E8.3809
G1 X83.284 Y64.483 E8.3977
G1 X82.801 Y64.625 E8.4144
G1 X82.339 Y64.825 E8.4312
G1 X81.903 Y65.079 E8.4479
G1 X81.501 Y65.384 E8.4647
G1 X81.138 Y65.736 E8.4815
G1 X80.820 Y66.129 E8.4984
G1 X80.550 Y66.558 E8.5152
G1 X80.334 Y67.016 E8.5321
G1 X80.229 Y67.341 E8.5434
G1 X70.696 Y64.787 E8.8717
G1 X70.796 Y64.695 E8.8762
G1 X70.929 Y64.348 E8.8886
G1 X70.926 Y64.125 E8.8960
G1 X70.791 Y63.805 E8.9075
G1 X70.681 Y63.659 E8.9136
G1 X70.386 Y63.061 E8.9358
G1 X70.135 Y62.242 E8.9643
G1 X69.959 Y61.162 E9.0007
G1 X70.639 Y60.707 E9.0279
G1 X71.552 Y61.294 E9.0640
G1 X72.199 Y61.847 E9.0923
G1 X72.628 Y62.355 E9.1144
G1 X72.811 Y62.644 E9.1258
G1 X72.982 Y62.782 E9.1331
G1 X73.335 Y62.888 E9.1454
G1 X73.688 Y62.809 E9.1574
G1 X74.330 Y62.465 E9.1816
G1 X74.543 Y62.161 E9.1940
G1 X74.594 Y61.938 E9.2016
G1 X74.540 Y61.601 E9.2130
G1 X74.465 Y61.420 E9.2195
G1 X74.323 Y60.775 E9.2414
G1 X74.274 Y59.919 E9.2700
G1 X74.359 Y58.826 E9.3064
G1 X75.127 Y58.548 E9.3336
G1 X75.873 Y59.338 E9.3697
G1 X76.369 Y60.033 E9.3981
G1 X76.661 Y60.624 E9.4200
G1 X76.776 Y60.965 E9.4320
G1 X77.041 Y61.239 E9.4447
G1 X77.409 Y61.348 E9.4575
G1 X78.132 Y61.202 E9.4820
G1 X78.435 Y61.048 E9.4933
G1 X78.587 Y60.874 E9.5010
G1 X78.705 Y60.536 E9.5129
G1 X78.669 Y60.189 E9.5245
G1 X78.683 Y59.503 E9.5473
G1 X78.839 Y58.659 E9.5759
G1 X79.181 Y57.617 E9.6123
G1 X79.990 Y57.533 E9.6394
G1 X80.526 Y58.481 E9.6756
G1 X80.842 Y59.276 E9.7041
G1 X80.984 Y59.912 E9.7258
G1 X80.994 Y60.121 E9.7327
G1 X81.089 Y60.454 E9.7443
G1 X81.361 Y60.730 E9.7571
G1 X81.710 Y60.828 E9.7692
G1 X82.424 Y60.824 E9.7929
G1 X82.640 Y60.744 E9.8006
G1 X82.914 Y60.487 E9.8131
G1 X83.024 Y60.159 E9.8246
G1 X83.043 Y59.949 E9.8316
G1 X83.213 Y59.320 E9.8533
G1 X83.564 Y58.536 E9.8818
G1 X84.143 Y57.606 E9.9183
G1 X84.948 Y57.719 E9.9453
G1 X85.243 Y58.771 E9.9816
G1 X85.360 Y59.620 E10.0102
G1 X85.347 Y60.271 E10.0318
G1 X85.307 Y60.478 E10.0388
G1 X85.320 Y60.825 E10.0504
G1 X85.529 Y61.168 E10.0637
G1 X85.834 Y61.338 E10.0754
G1 X86.538 Y61.509 E10.0995
G1 X86.899 Y61.425 E10.1118
G1 X87.090 Y61.287 E10.1196
G1 X87.267 Y61.005 E10.1307
G1 X87.335 Y60.805 E10.1377
G1 X87.649 Y60.234 E10.1594
G1 X88.176 Y59.558 E10.1879
G1 X88.958 Y58.793 E10.2242
G1 X89.711 Y59.098 E10.2513
G1 X89.747 Y60.192 E10.2877
G1 X89.660 Y61.046 E10.3162
G1 X89.493 Y61.676 E10.3379
G1 X89.404 Y61.867 E10.3449
G1 X89.335 Y62.206 E10.3564
G1 X89.444 Y62.566 E10.3689
G1 X89.592 Y62.744 E10.3766
G1 X90.209 Y63.104 E10.4004
G1 X90.559 Y63.194 E10.4124
G1 X90.920 Y63.099 E10.4248
G1 X91.181 Y62.852 E10.4368
G1 X91.294 Y62.675 E10.4437
G1 X91.735 Y62.195 E10.4654
G1 X92.406 Y61.664 E10.4939
G1 X93.345 Y61.110 E10.5301
G1 X94.003 Y61.588 E10.5572
G1 X93.779 Y62.660 E10.5937
G1 X93.491 Y63.470 E10.6222
G1 X93.176 Y64.049 E10.6442
G1 X92.962 Y64.341 E10.6562
G1 X92.887 Y64.716 E10.6689
G1 X93.006 Y65.084 E10.6818
G1 X93.533 Y65.601 E10.7063
G1 X93.841 Y65.771 E10.7180
G1 X94.215 Y65.769 E10.7305
G1 X94.422 Y65.682 E10.7379
G1 X94.683 Y65.452 E10.7495
G1 X95.232 Y65.086 E10.7714
G1 X96.008 Y64.733 E10.7998
G1 X97.050 Y64.421 E10.8360
G1 X97.575 Y65.044 E10.8631
G1 X97.103 Y66.033 E10.8995
G1 X96.632 Y66.751 E10.9281
G1 X96.183 Y67.242 E10.9502
G1 X95.910 Y67.471 E10.9621
G1 X95.749 Y67.819 E10.9748
G1 X95.779 Y68.203 E10.9877
G1 X96.062 Y68.670 E11.0058
G1 X96.266 Y68.951 E11.0174
G1 X96.445 Y69.079 E11.0247
G1 X96.803 Y69.163 E11.0369
G1 X97.149 Y69.063 E11.0489
G1 X97.315 Y68.966 E11.0553
G1 X97.936 Y68.742 E11.0772
G1 X98.773 Y68.585 E11.1056
G1 X99.857 Y68.534 E11.1417
G1 X100.218 Y69.267 E11.1688
G1 X99.537 Y70.100 E11.2046
G1 X98.891 Y70.704 E11.2340
G1 X98.337 Y71.073 E11.2562
G1 X98.024 Y71.226 E11.2678
G1 X97.787 Y71.527 E11.2805
G1 X97.727 Y71.908 E11.2933
G1 X97.768 Y72.040 E11.2979
G1 X88.288 Y69.500 E11.6244
G1 X88.676 Y68.951
;segType:Loop
G0 X88.740 Y68.452 F10800
G1 X88.727 Y68.107 E11.6358 F600
G1 X88.641 Y67.560 E11.6542
G1 X88.490 Y67.028 E11.6726
G1 X88.277 Y66.518 E11.6910
G1 X87.994 Y66.023 E11.7100
G1 X87.669 Y65.587 E11.7281
G1 X87.288 Y65.187 E11.7464
G1 X86.863 Y64.836 E11.7648
G1 X86.397 Y64.540 E11.7831
G1 X85.900 Y64.303 E11.8015
G1 X85.377 Y64.129 E11.8198
G1 X84.838 Y64.019 E11.8381
G1 X84.289 Y63.976 E11.8564
G1 X83.738 Y63.999 E11.8747
G1 X83.195 Y64.090 E11.8931
G1 X82.666 Y64.246 E11.9114
G1 X82.159 Y64.465 E11.9298
G1 X81.682 Y64.743 E11.9482
G1 X81.241 Y65.078 E11.9666
G1 X80.843 Y65.463 E11.9850
G1 X80.494 Y65.894 E12.0034
G1 X80.199 Y66.363 E12.0219
G1 X79.967 Y66.855 E12.0399
G1 X71.288 Y64.530 E12.3388
G1 X71.330 Y64.420 E12.3427
G1 X71.325 Y64.041 E12.3553
G1 X71.140 Y63.603 E12.3711
G1 X71.023 Y63.446 E12.3776
G1 X70.759 Y62.911 E12.3975
G1 X70.525 Y62.150 E12.4239
G1 X70.395 Y61.353 E12.4508
G1 X70.644 Y61.187 E12.4607
G1 X71.314 Y61.618 E12.4872
G1 X71.915 Y62.132 E12.5135
G1 X72.305 Y62.595 E12.5337
G1 X72.510 Y62.917 E12.5463
G1 X72.792 Y63.145 E12.5584
G1 X73.320 Y63.304 E12.5768
G1 X73.828 Y63.190 E12.5941
G1 X74.602 Y62.775 E12.6233
G1 X74.916 Y62.328 E12.6415
G1 X75.001 Y61.951 E12.6543
G1 X74.928 Y61.489 E12.6698
G1 X74.847 Y61.298 E12.6768
G1 X74.720 Y60.720 E12.6964
G1 X74.675 Y59.923 E12.7230
G1 X74.738 Y59.116 E12.7499
G1 X75.016 Y59.016 E12.7598
G1 X75.564 Y59.596 E12.7863
G1 X76.025 Y60.241 E12.8127
G1 X76.291 Y60.779 E12.8326
G1 X76.427 Y61.180 E12.8467
G1 X76.827 Y61.596 E12.8659
G1 X77.392 Y61.762 E12.8855
G1 X78.264 Y61.586 E12.9151
G1 X78.684 Y61.373 E12.9308
G1 X78.939 Y61.081 E12.9436
G1 X79.113 Y60.584 E12.9611
G1 X79.070 Y60.172 E12.9749
G1 X79.082 Y59.544 E12.9958
G1 X79.227 Y58.759 E13.0223
G1 X79.479 Y57.991 E13.0493
G1 X79.772 Y57.960 E13.0590
G1 X80.165 Y58.656 E13.0856
G1 X80.459 Y59.396 E13.1121
G1 X80.586 Y59.966 E13.1315
G1 X80.596 Y60.186 E13.1389
G1 X80.733 Y60.665 E13.1554
G1 X81.152 Y61.089 E13.1752
G1 X81.657 Y61.230 E13.1927
G1 X82.496 Y61.226 E13.2206
G1 X82.853 Y61.094 E13.2332
G1 X83.261 Y60.712 E13.2518
G1 X83.418 Y60.242 E13.2683
G1 X83.438 Y60.021 E13.2757
G1 X83.590 Y59.456 E13.2952
G1 X83.918 Y58.727 E13.3217
G1 X84.345 Y58.041 E13.3486
G1 X84.634 Y58.081 E13.3583
G1 X84.850 Y58.854 E13.3850
G1 X84.960 Y59.644 E13.4116
G1 X84.948 Y60.228 E13.4310
G1 X84.905 Y60.447 E13.4384
G1 X84.924 Y60.946 E13.4550
G1 X85.244 Y61.470 E13.4754
G1 X85.688 Y61.716 E13.4923
G1 X86.537 Y61.923 E13.5214
G1 X87.068 Y61.799 E13.5395
G1 X87.386 Y61.567 E13.5526
G1 X87.630 Y61.180 E13.5678
G1 X87.702 Y60.969 E13.5752
G1 X87.984 Y60.457 E13.5947
G1 X88.474 Y59.827 E13.6212
G1 X89.050 Y59.264 E13.6480
G1 X89.320 Y59.373 E13.6577
G1 X89.347 Y60.178 E13.6844
G1 X89.265 Y60.973 E13.7110
G1 X89.115 Y61.538 E13.7305
G1 X89.022 Y61.740 E13.7379
G1 X88.923 Y62.226 E13.7544
G1 X89.086 Y62.762 E13.7730
G1 X89.331 Y63.056 E13.7857
G1 X90.056 Y63.480 E13.8137
G1 X90.560 Y63.609 E13.8310
G1 X91.120 Y63.462 E13.8502
G1 X91.490 Y63.111 E13.8672
G1 X91.611 Y62.922 E13.8747
G1 X92.007 Y62.491 E13.8941
G1 X92.632 Y61.997 E13.9206
G1 X93.322 Y61.590 E13.9473
G1 X93.558 Y61.761 E13.9570
G1 X93.393 Y62.551 E13.9838
G1 X93.126 Y63.304 E14.0104
G1 X92.838 Y63.832 E14.0304
G1 X92.587 Y64.174 E14.0445
G1 X92.474 Y64.740 E14.0637
G1 X92.656 Y65.302 E14.0834
G1 X93.292 Y65.927 E14.1130
G1 X93.739 Y66.174 E14.1300
G1 X94.296 Y66.171 E14.1485
G1 X94.636 Y66.027 E14.1608
G1 X94.926 Y65.773 E14.1736
G1 X95.426 Y65.440 E14.1936
G1 X96.148 Y65.111 E14.2200
G1 X96.913 Y64.882 E14.2466
G1 X97.102 Y65.105 E14.2563
G1 X96.754 Y65.834 E14.2832
G1 X96.316 Y66.502 E14.3098
G1 X95.907 Y66.950 E14.3299
G1 X95.585 Y67.220 E14.3439
G1 X95.342 Y67.745 E14.3632
G1 X95.387 Y68.331 E14.3827
G1 X95.729 Y68.893 E14.4046
G1 X95.981 Y69.241 E14.4189
G1 X96.277 Y69.453 E14.4310
G1 X96.814 Y69.579 E14.4493
G1 X97.307 Y69.436 E14.4664
G1 X97.485 Y69.333 E14.4732
G1 X98.041 Y69.131 E14.4929
G1 X98.819 Y68.986 E14.5192
G1 X99.614 Y68.948 E14.5457
G1 X99.745 Y69.212 E14.5555
G1 X99.245 Y69.824 E14.5818
G1 X98.643 Y70.387 E14.6092
G1 X98.138 Y70.723 E14.6294
G1 X97.767 Y70.905 E14.6431
G1 X97.409 Y71.360 E14.6624
G1 X97.383 Y71.520 E14.6678
G1 X88.703 Y69.195 E14.9667
G1 X88.747 Y68.660 E14.9845
G1 X88.747 Y68.639 E14.9852
;segType:HShell
G0 X89.499 Y69.200 F10800
G1 X92.878 Y65.801 E15.1446 F600
G1 X93.144 Y66.062
G1 X89.915 Y69.311 E15.2970
G1 X90.330 Y69.422
G1 X93.476 Y66.258 E15.4454
G1 X93.886 Y66.374
G1 X90.745 Y69.534 E15.5935
G1 X91.160 Y69.645
G1 X94.469 Y66.316 E15.7497
G0 X96.492 Y65.869 F10800
G1 X92.406 Y69.979 E15.9424 F600
G1 X92.821 Y70.090
G1 X95.143 Y67.755 E16.0519
G1 X95.180 Y68.246
G1 X93.237 Y70.201 E16.1436
G1 X93.652 Y70.312
G1 X95.331 Y68.624 E16.2228
G1 X95.530 Y68.952
G1 X94.067 Y70.424 E16.2918
G1 X94.483 Y70.535
G1 X95.748 Y69.261 E16.3515
G1 X96.021 Y69.516
G1 X94.898 Y70.646 E16.4045
G1 X95.313 Y70.757
G1 X96.381 Y69.683 E16.4549
G1 X96.807 Y69.784
G1 X95.728 Y70.869 E16.5058
G1 X96.144 Y70.980
G1 X97.616 Y69.499 E16.5752
G0 X98.370 Y70.327 F10800
G1 X99.505 Y69.185 E16.6288 F600
G1 X98.979 Y69.186
G1 X96.974 Y71.202 E16.7233
G1 X96.559 Y71.091
G1 X98.364 Y69.276 E16.8084
G0 X96.808 Y69.350 F10800
G0 X96.135 Y69.084
G0 X95.602 Y68.261
G0 X95.566 Y67.785
G0 X96.637 Y65.194
G1 X91.991 Y69.867 E17.0276 F600
G1 X91.576 Y69.756
G1 X95.830 Y65.476 E17.2283
G0 X94.252 Y65.952 F10800
G0 X93.795 Y65.952
G0 X92.848 Y65.182
G0 X92.701 Y64.727
G0 X93.014 Y63.019
G1 X88.772 Y67.287 E17.4285 F600
G1 X88.869 Y67.718
G1 X92.381 Y64.185 E17.5942
G0 X93.251 Y62.251 F10800
G1 X88.647 Y66.883 E17.8114 F600
G1 X88.491 Y66.511
G1 X92.889 Y62.087 E18.0189
G0 X90.672 Y63.788 F10800
G1 X88.307 Y66.167 E18.1305 F600
G1 X88.107 Y65.839
G1 X90.207 Y63.727 E18.2296
G1 X89.828 Y63.579
G1 X87.882 Y65.537 E18.3214
G1 X87.633 Y65.258
G1 X89.495 Y63.385 E18.4092
G1 X89.173 Y63.180
G1 X87.370 Y64.994 E18.4943
G1 X87.081 Y64.756
G1 X88.933 Y62.892 E18.5817
G1 X88.797 Y62.500
G1 X86.770 Y64.539 E18.6773
G1 X86.443 Y64.339
G1 X88.763 Y62.005 E18.7868
G1 X88.984 Y61.254
G1 X86.086 Y64.169 E18.9235
G1 X85.703 Y64.025
G1 X89.102 Y60.606 E19.0838
G1 X89.142 Y60.037
G1 X87.627 Y61.561 E19.1553
G1 X87.342 Y61.848
G1 X85.296 Y63.907 E19.2518
G1 X84.857 Y63.818
G1 X86.536 Y62.130 E19.3310
G1 X86.113 Y62.027
G1 X84.369 Y63.780 E19.4133
G1 X83.830 Y63.794
G1 X85.689 Y61.923 E19.5010
G1 X85.335 Y61.750
G1 X83.216 Y63.882 E19.6010
G0 X82.502 Y61.427 F10800
G1 X77.871 Y66.085 E19.8194 F600
G1 X77.456 Y65.974
G1 X81.973 Y61.430 E20.0325
G1 X81.486 Y61.391
G1 X77.041 Y65.863 E20.2422
G1 X76.626 Y65.751
G1 X81.074 Y61.276 E20.4521
G1 X80.802 Y61.020
G1 X76.210 Y65.640 E20.6688
G1 X75.795 Y65.529
G1 X80.548 Y60.747 E20.8930
G1 X80.431 Y60.336
G1 X75.380 Y65.418 E21.1313
G1 X74.964 Y65.306
G1 X78.617 Y61.632 E21.3036
G1 X77.850 Y61.875
G1 X74.549 Y65.195 E21.4594
G1 X74.134 Y65.084
G1 X77.265 Y61.934 E21.6071
G1 X76.858 Y61.815
G1 X73.719 Y64.973 E21.7552
G1 X73.303 Y64.861
G1 X76.549 Y61.596 E21.9083
G1 X76.290 Y61.328
G1 X74.836 Y62.791 E21.9769
G1 X74.650 Y62.977
G1 X72.888 Y64.750 E22.0601
G1 X72.473 Y64.639
G1 X73.673 Y63.431 E22.1167
G1 X73.124 Y63.455
G1 X72.057 Y64.528 E22.1670
G1 X71.642 Y64.416
G1 X72.719 Y63.333 E22.2178
G1 X72.421 Y63.103
G1 X71.524 Y64.006 E22.2602
G1 X71.370 Y63.632
G1 X72.198 Y62.799 E22.2992
G1 X71.966 Y62.504
G1 X71.174 Y63.300 E22.3366
G1 X71.000 Y62.947
G1 X71.716 Y62.226 E22.3704
G1 X71.432 Y61.983
G1 X70.860 Y62.558 E22.3974
G1 X70.736 Y62.154
G1 X71.142 Y61.746 E22.4165
G1 X70.821 Y61.540
G1 X70.675 Y61.687 E22.4234
G0 X73.328 Y63.075 F10800
G0 X74.453 Y62.605
G0 X75.196 Y61.900
G1 X76.138 Y60.952 E22.4679 F600
G1 X75.973 Y60.588
G1 X75.123 Y61.444 E22.5080
G1 X74.996 Y61.042
G1 X75.784 Y60.249 E22.5452
G1 X75.565 Y59.941
G1 X74.914 Y60.596 E22.5759
G1 X74.885 Y60.096
G1 X75.334 Y59.644 E22.5971
G1 X75.078 Y59.373
G1 X74.926 Y59.526 E22.6042
G0 X76.945 Y61.400 F10800
G0 X77.401 Y61.535
G0 X78.549 Y61.196
G0 X78.890 Y60.557
G0 X79.484 Y58.643
G1 X79.767 Y58.359 E22.6176 F600
G0 X79.324 Y59.333 F10800
G1 X79.957 Y58.696 E22.6474 F600
G1 X80.113 Y59.068
G1 X79.275 Y59.912 E22.6870
G1 X79.297 Y60.419
G1 X80.264 Y59.446 E22.7326
G1 X80.361 Y59.877
G1 X79.143 Y61.102 E22.7901
G0 X82.458 Y64.117 F10800
G1 X85.039 Y61.519 E22.9119 F600
G1 X84.839 Y61.191
G1 X81.183 Y64.870 E23.0844
G1 X80.550 Y65.507
G1 X79.532 Y66.530 E23.1324
G1 X79.117 Y66.419
G1 X84.718 Y60.784 E23.3966
G1 X84.744 Y60.229
G1 X78.702 Y66.308 E23.6817
G1 X78.287 Y66.196
G1 X84.759 Y59.685 E23.9871
G1 X84.699 Y59.217
G1 X83.603 Y60.319 E24.0387
G1 X83.747 Y59.646
G1 X84.619 Y58.768 E24.0799
G1 X84.503 Y58.356
G1 X84.215 Y58.645 E24.0935
G0 X85.401 Y61.304 F10800
G0 X86.538 Y61.696
G0 X87.225 Y61.415
G0 X89.125 Y59.525
G1 X88.381 Y60.274 E24.1286 F600
; ------------------------------------
; Layer #1
; ------------------------------------
G21 ; mm
G90 ; abs
G92 E0 ; reset extr
M106 S0
G0 F4800 E-1.0000
G0 F300 Z0.400
G0 X89.172 Y63.105 F10800
G0 X98.073 Y80.874
G0 X98.530 Y82.005
G0 X100.439 Y83.641
G0 F4800 E0.0000
;segType:Loop
G1 X93.499 Y81.782 E0.2390 F3600
G1 X93.811 Y81.619 E0.2507
G1 X94.267 Y81.306 E0.2691
G1 X94.682 Y80.941 E0.2875
G1 X95.051 Y80.527 E0.3059
G1 X95.368 Y80.072 E0.3243
G1 X95.629 Y79.583 E0.3428
G1 X95.830 Y79.066 E0.3613
G1 X95.967 Y78.527 E0.3797
G1 X96.039 Y77.977 E0.3982
G1 X96.044 Y77.422 E0.4166
G1 X95.986 Y76.887 E0.4345
G1 X95.852 Y76.313 E0.4541
G1 X95.668 Y75.810 E0.4720
G1 X95.417 Y75.317 E0.4904
G1 X95.109 Y74.858 E0.5088
G1 X94.748 Y74.440 E0.5271
G1 X94.339 Y74.069 E0.5455
G1 X93.889 Y73.750 E0.5638
G1 X93.403 Y73.489 E0.5822
G1 X92.890 Y73.289 E0.6005
G1 X92.356 Y73.153 E0.6188
G1 X91.810 Y73.083 E0.6371
G1 X91.259 Y73.080 E0.6554
G1 X90.712 Y73.144 E0.6738
G1 X90.176 Y73.274 E0.6921
G1 X89.659 Y73.468 E0.7105
G1 X89.169 Y73.723 E0.7288
G1 X88.714 Y74.036 E0.7472
G1 X88.298 Y74.401 E0.7656
G1 X87.929 Y74.815 E0.7841
G1 X87.612 Y75.270 E0.8025
G1 X87.351 Y75.759 E0.8210
G1 X87.151 Y76.277 E0.8394
G1 X87.013 Y76.815 E0.8579
G1 X86.941 Y77.365 E0.8764
G1 X86.936 Y77.920 E0.8948
G1 X86.996 Y78.472 E0.9133
G1 X87.122 Y79.012 E0.9317
G1 X87.312 Y79.532 E0.9501
G1 X87.563 Y80.026 E0.9685
G1 X87.699 Y80.228 E0.9767
G1 X76.481 Y77.223 E1.3629
G1 X75.325 Y76.913 E1.4027
G1 X75.542 Y76.807 E1.4108
G1 X76.006 Y76.505 E1.4292
G1 X76.430 Y76.149 E1.4476
G1 X76.809 Y75.745 E1.4660
G1 X77.137 Y75.298 E1.4844
G1 X77.409 Y74.815 E1.5029
G1 X77.622 Y74.303 E1.5213
G1 X77.771 Y73.768 E1.5398
G1 X77.857 Y73.218 E1.5583
G1 X77.874 Y72.648 E1.5773
G1 X77.829 Y72.111 E1.5952
G1 X77.715 Y71.569 E1.6136
G1 X77.538 Y71.044 E1.6321
G1 X77.299 Y70.544 E1.6505
G1 X77.002 Y70.078 E1.6689
G1 X76.651 Y69.651 E1.6872
G1 X76.252 Y69.270 E1.7056
G1 X75.809 Y68.941 E1.7240
G1 X75.330 Y68.668 E1.7423
G1 X74.822 Y68.456 E1.7606
G1 X74.292 Y68.307 E1.7789
G1 X73.747 Y68.224 E1.7972
G1 X73.197 Y68.207 E1.8156
G1 X72.648 Y68.257 E1.8339
G1 X72.109 Y68.374 E1.8522
G1 X71.588 Y68.556 E1.8706
G1 X71.093 Y68.799 E1.8889
G1 X70.629 Y69.101 E1.9073
G1 X70.205 Y69.456 E1.9257
G1 X69.826 Y69.860 E1.9442
G1 X69.498 Y70.307 E1.9626
G1 X69.226 Y70.790 E1.9811
G1 X69.013 Y71.303 E1.9995
G1 X68.863 Y71.838 E2.0180
G1 X68.778 Y72.386 E2.0365
G1 X68.759 Y72.941 E2.0549
G1 X68.806 Y73.494 E2.0734
G1 X68.919 Y74.036 E2.0918
G1 X69.096 Y74.562 E2.1102
G1 X69.336 Y75.061 E2.1287
G1 X69.525 Y75.359 E2.1404
G1 X62.489 Y73.475 E2.3827
G1 X62.087 Y73.147 E2.3999
G1 X62.165 Y72.856 E2.4100
G1 X62.956 Y72.728 E2.4366
G1 X63.747 Y72.710 E2.4629
G1 X64.347 Y72.794 E2.4831
G1 X64.747 Y72.907 E2.4969
G1 X65.314 Y72.806 E2.5161
G1 X65.765 Y72.434 E2.5355
G1 X66.030 Y71.830 E2.5574
G1 X66.171 Y71.424 E2.5717
G1 X66.176 Y71.059 E2.5839
G1 X65.978 Y70.544 E2.6022
G1 X65.583 Y70.215 E2.6193
G1 X65.395 Y70.125 E2.6262
G1 X64.920 Y69.780 E2.6458
G1 X64.363 Y69.217 E2.6721
G1 X63.881 Y68.576 E2.6988
G1 X64.026 Y68.313 E2.7088
G1 X64.822 Y68.379 E2.7354
G1 X65.593 Y68.552 E2.7616
G1 X66.145 Y68.773 E2.7814
G1 X66.511 Y68.982 E2.7954
G1 X67.046 Y69.022 E2.8133
G1 X67.417 Y68.898 E2.8263
G1 X67.774 Y68.592 E2.8419
G1 X68.268 Y67.867 E2.8711
G1 X68.349 Y67.284 E2.8906
G1 X68.126 Y66.731 E2.9105
G1 X67.809 Y66.442 E2.9248
G1 X67.428 Y65.989 E2.9444
G1 X67.021 Y65.307 E2.9709
G1 X66.706 Y64.567 E2.9976
G1 X66.909 Y64.345 E3.0076
G1 X67.663 Y64.601 E3.0341
G1 X68.371 Y64.955 E3.0604
G1 X68.835 Y65.290 E3.0795
G1 X68.996 Y65.455 E3.0871
G1 X69.407 Y65.716 E3.1033
G1 X69.998 Y65.754 E3.1230
G1 X70.470 Y65.526 E3.1405
G1 X71.125 Y64.939 E3.1697
G1 X71.329 Y64.431 E3.1879
G1 X71.323 Y64.028 E3.2013
G1 X71.149 Y63.614 E3.2163
G1 X71.011 Y63.422 E3.2241
G1 X70.760 Y62.908 E3.2432
G1 X70.526 Y62.146 E3.2697
G1 X70.396 Y61.349 E3.2965
G1 X70.645 Y61.183 E3.3065
G1 X71.315 Y61.614 E3.3329
G1 X71.917 Y62.129 E3.3593
G1 X72.289 Y62.568 E3.3784
G1 X72.506 Y62.905 E3.3918
G1 X72.802 Y63.145 E3.4045
G1 X73.307 Y63.297 E3.4220
G1 X73.815 Y63.192 E3.4392
G1 X74.590 Y62.781 E3.4684
G1 X74.910 Y62.338 E3.4866
G1 X75.002 Y61.938 E3.5002
G1 X74.932 Y61.501 E3.5150
G1 X74.841 Y61.271 E3.5232
G1 X74.721 Y60.717 E3.5420
G1 X74.676 Y59.919 E3.5686
G1 X74.739 Y59.113 E3.5955
G1 X75.017 Y59.012 E3.6054
G1 X75.565 Y59.592 E3.6319
G1 X76.026 Y60.239 E3.6583
G1 X76.281 Y60.749 E3.6773
G1 X76.423 Y61.164 E3.6919
G1 X76.812 Y61.581 E3.7108
G1 X77.349 Y61.749 E3.7296
G1 X77.681 Y61.715 E3.7407
G1 X78.282 Y61.575 E3.7612
G1 X78.677 Y61.375 E3.7759
G1 X78.944 Y61.069 E3.7894
G1 X79.110 Y60.593 E3.8062
G1 X79.072 Y60.183 E3.8199
G1 X79.083 Y59.540 E3.8413
G1 X79.228 Y58.756 E3.8678
G1 X79.480 Y57.987 E3.8947
G1 X79.773 Y57.957 E3.9045
G1 X80.166 Y58.653 E3.9311
G1 X80.460 Y59.393 E3.9576
G1 X80.584 Y59.937 E3.9761
G1 X80.600 Y60.197 E3.9848
G1 X80.728 Y60.647 E4.0004
G1 X81.136 Y61.074 E4.0200
G1 X81.642 Y61.225 E4.0375
G1 X82.487 Y61.224 E4.0657
G1 X82.868 Y61.082 E4.0792
G1 X83.268 Y60.695 E4.0977
G1 X83.415 Y60.253 E4.1132
G1 X83.443 Y59.993 E4.1219
G1 X83.591 Y59.454 E4.1405
G1 X83.919 Y58.723 E4.1671
G1 X84.346 Y58.037 E4.1940
G1 X84.635 Y58.078 E4.2037
G1 X84.851 Y58.850 E4.2304
G1 X84.961 Y59.642 E4.2569
G1 X84.952 Y60.199 E4.2755
G1 X84.905 Y60.458 E4.2842
G1 X84.922 Y60.892 E4.2987
G1 X85.077 Y61.239 E4.3113
G1 X85.296 Y61.496 E4.3226
G1 X85.679 Y61.709 E4.3371
G1 X86.522 Y61.917 E4.3660
G1 X87.055 Y61.802 E4.3842
G1 X87.393 Y61.557 E4.3980
G1 X87.624 Y61.190 E4.4124
G1 X87.714 Y60.942 E4.4212
G1 X87.984 Y60.455 E4.4398
G1 X88.475 Y59.824 E4.4663
G1 X89.051 Y59.261 E4.4931
G1 X89.321 Y59.370 E4.5028
G1 X89.348 Y60.174 E4.5296
G1 X89.266 Y60.970 E4.5562
G1 X89.125 Y61.511 E4.5748
G1 X89.019 Y61.750 E4.5835
G1 X88.925 Y62.208 E4.5990
G1 X89.080 Y62.745 E4.6176
G1 X89.339 Y63.059 E4.6312
G1 X90.071 Y63.483 E4.6593
G1 X90.576 Y63.603 E4.6766
G1 X91.107 Y63.464 E4.6948
G1 X91.479 Y63.122 E4.7116
G1 X91.628 Y62.899 E4.7205
G1 X92.007 Y62.488 E4.7391
G1 X92.633 Y61.994 E4.7657
G1 X93.323 Y61.586 E4.7923
G1 X93.559 Y61.757 E4.8020
G1 X93.394 Y62.547 E4.8289
G1 X93.126 Y63.301 E4.8555
G1 X92.854 Y63.803 E4.8745
G1 X92.596 Y64.159 E4.8891
G1 X92.475 Y64.716 E4.9081
G1 X92.640 Y65.257 E4.9268
G1 X92.855 Y65.514 E4.9380
G1 X93.309 Y65.934 E4.9586
G1 X93.727 Y66.164 E4.9744
G1 X94.283 Y66.171 E4.9929
G1 X94.644 Y66.018 E5.0060
G1 X94.950 Y65.751 E5.0195
G1 X95.425 Y65.437 E5.0384
G1 X96.149 Y65.107 E5.0649
G1 X96.914 Y64.878 E5.0915
G1 X97.103 Y65.102 E5.1012
G1 X96.755 Y65.830 E5.1280
G1 X96.316 Y66.499 E5.1546
G1 X95.929 Y66.926 E5.1738
G1 X95.596 Y67.207 E5.1883
G1 X95.348 Y67.722 E5.2073
G1 X95.382 Y68.285 E5.2261
G1 X95.530 Y68.587 E5.2373
G1 X95.970 Y69.227 E5.2631
G1 X96.288 Y69.453 E5.2761
G1 X96.800 Y69.573 E5.2936
G1 X97.289 Y69.440 E5.3104
G1 X97.507 Y69.319 E5.3187
G1 X98.041 Y69.128 E5.3376
G1 X98.820 Y68.982 E5.3639
G1 X99.615 Y68.945 E5.3904
G1 X99.746 Y69.209 E5.4002
G1 X99.235 Y69.834 E5.4271
G1 X98.651 Y70.378 E5.4536
G1 X98.167 Y70.704 E5.4730
G1 X97.776 Y70.897 E5.4875
G1 X97.403 Y71.370 E5.5076
G1 X97.322 Y71.951 E5.5271
G1 X97.511 Y72.545 E5.5478
G1 X97.686 Y72.983 E5.5635
G1 X98.108 Y73.376 E5.5827
G1 X98.673 Y73.510 E5.6020
G1 X99.078 Y73.416 E5.6158
G1 X99.702 Y73.348 E5.6367
G1 X100.490 Y73.395 E5.6630
G1 X101.270 Y73.550 E5.6894
G1 X101.334 Y73.840 E5.6993
G1 X100.690 Y74.325 E5.7261
G1 X99.996 Y74.712 E5.7526
G1 X99.439 Y74.915 E5.7723
G1 X99.025 Y75.005 E5.7864
G1 X98.568 Y75.353 E5.8055
G1 X98.334 Y75.894 E5.8251
G1 X98.395 Y76.779 E5.8546
G1 X98.575 Y77.289 E5.8726
G1 X99.030 Y77.678 E5.8925
G1 X99.518 Y77.777 E5.9090
G1 X99.733 Y77.769 E5.9162
G1 X100.308 Y77.851 E5.9355
G1 X101.063 Y78.087 E5.9618
G1 X101.782 Y78.426 E5.9883
G1 X101.776 Y78.716 E5.9979
G1 X101.011 Y79.048 E6.0256
G1 X100.249 Y79.253 E6.0519
G1 X99.663 Y79.313 E6.0715
G1 X99.250 Y79.300 E6.0852
G1 X98.722 Y79.537 E6.1045
G1 X98.374 Y80.009 E6.1240
G1 X98.227 Y80.880 E6.1534
G1 X98.278 Y81.402 E6.1708
G1 X98.623 Y81.894 E6.1908
G1 X99.089 Y82.116 E6.2080
G1 X99.277 Y82.153 E6.2143
G1 X99.818 Y82.371 E6.2337
G1 X100.495 Y82.781 E6.2601
G1 X101.119 Y83.288 E6.2868
G1 X101.044 Y83.581 E6.2969
G1 X100.621 Y83.650 E6.3111
G0 F4800 E5.3111
G0 X101.149 Y83.292 F10800
G0 F4800 E6.3111
;segType:Perimeter
G1 X101.311 Y83.945 E6.3335 F2159
G1 X100.508 Y84.076 E6.3606
G1 X92.073 Y81.816 E6.6510
G1 X92.198 Y81.801 E6.6552
G1 X92.687 Y81.683 E6.6720
G1 X93.158 Y81.506 E6.6887
G1 X93.605 Y81.273 E6.7055
G1 X94.022 Y80.987 E6.7223
G1 X94.401 Y80.654 E6.7391
G1 X94.737 Y80.277 E6.7559
G1 X95.027 Y79.861 E6.7727
G1 X95.265 Y79.414 E6.7895
G1 X95.448 Y78.942 E6.8064
G1 X95.573 Y78.451 E6.8233
G1 X95.639 Y77.948 E6.8401
G1 X95.644 Y77.442 E6.8570
G1 X95.591 Y76.955 E6.8732
G1 X95.468 Y76.429 E6.8912
G1 X95.301 Y75.972 E6.9074
G1 X95.072 Y75.522 E6.9242
G1 X94.791 Y75.103 E6.9410
G1 X94.462 Y74.722 E6.9577
G1 X94.089 Y74.384 E6.9745
G1 X93.679 Y74.093 E6.9912
G1 X93.236 Y73.855 E7.0079
G1 X92.769 Y73.673 E7.0246
G1 X92.282 Y73.549 E7.0413
G1 X91.784 Y73.485 E7.0580
G1 X91.281 Y73.483 E7.0747
G1 X90.782 Y73.541 E7.0914
G1 X90.294 Y73.659 E7.1081
G1 X89.822 Y73.836 E7.1249
G1 X89.375 Y74.069 E7.1417
G1 X88.959 Y74.355 E7.1584
G1 X88.579 Y74.688 E7.1752
G1 X88.243 Y75.066 E7.1921
G1 X87.953 Y75.481 E7.2089
G1 X87.715 Y75.928 E7.2258
G1 X87.532 Y76.400 E7.2426
G1 X87.407 Y76.891 E7.2594
G1 X87.341 Y77.394 E7.2763
G1 X87.336 Y77.900 E7.2931
G1 X87.391 Y78.403 E7.3100
G1 X87.506 Y78.896 E7.3268
G1 X87.679 Y79.371 E7.3436
G1 X87.908 Y79.820 E7.3604
G1 X88.189 Y80.239 E7.3772
G1 X88.518 Y80.620 E7.3939
G1 X88.891 Y80.959 E7.4107
G1 X88.902 Y80.967 E7.4111
G1 X80.486 Y78.712 E7.7009
G1 X76.378 Y77.612 E7.8424
G1 X73.912 Y76.951 E7.9273
G1 X73.926 Y76.950 E7.9278
G1 X74.417 Y76.843 E7.9445
G1 X74.893 Y76.677 E7.9613
G1 X75.345 Y76.456 E7.9780
G1 X75.768 Y76.180 E7.9948
G1 X76.155 Y75.856 E8.0116
G1 X76.501 Y75.487 E8.0284
G1 X76.800 Y75.079 E8.0452
G1 X77.049 Y74.638 E8.0621
G1 X77.243 Y74.170 E8.0789
G1 X77.380 Y73.682 E8.0958
G1 X77.458 Y73.181 E8.1127
G1 X77.474 Y72.659 E8.1300
G1 X77.432 Y72.170 E8.1463
G1 X77.329 Y71.675 E8.1632
G1 X77.167 Y71.196 E8.1800
G1 X76.949 Y70.741 E8.1968
G1 X76.678 Y70.316 E8.2135
G1 X76.358 Y69.926 E8.2303
G1 X75.994 Y69.579 E8.2470
G1 X75.591 Y69.279 E8.2638
G1 X75.154 Y69.031 E8.2805
G1 X74.691 Y68.837 E8.2972
G1 X74.207 Y68.701 E8.3139
G1 X73.711 Y68.625 E8.3306
G1 X73.209 Y68.610 E8.3473
G1 X72.709 Y68.656 E8.3640
G1 X72.217 Y68.763 E8.3807
G1 X71.742 Y68.928 E8.3975
G1 X71.289 Y69.150 E8.4142
G1 X70.866 Y69.425 E8.4310
G1 X70.479 Y69.750 E8.4478
G1 X70.133 Y70.119 E8.4646
G1 X69.834 Y70.527 E8.4814
G1 X69.586 Y70.968 E8.4983
G1 X69.391 Y71.436 E8.5151
G1 X69.255 Y71.924 E8.5320
G1 X69.177 Y72.425 E8.5489
G1 X69.159 Y72.931 E8.5657
G1 X69.203 Y73.435 E8.5825
G1 X69.306 Y73.930 E8.5994
G1 X69.467 Y74.409 E8.6162
G1 X69.685 Y74.865 E8.6330
G1 X69.956 Y75.290 E8.6497
G1 X70.276 Y75.679 E8.6665
G1 X70.640 Y76.026 E8.6832
G1 X70.742 Y76.102 E8.6874
G1 X67.287 Y75.176 E8.8064
G1 X62.304 Y73.841 E8.9780
G1 X61.634 Y73.295 E9.0067
G1 X61.846 Y72.500 E9.0341
G1 X62.920 Y72.326 E9.0703
G1 X63.770 Y72.307 E9.0986
G1 X64.429 Y72.399 E9.1207
G1 X64.767 Y72.494 E9.1324
G1 X65.141 Y72.428 E9.1450
G1 X65.438 Y72.183 E9.1578
G1 X65.657 Y71.682 E9.1760
G1 X65.772 Y71.353 E9.1876
G1 X65.775 Y71.132 E9.1950
G1 X65.642 Y70.787 E9.2072
G1 X65.366 Y70.557 E9.2192
G1 X65.191 Y70.473 E9.2257
G1 X64.659 Y70.087 E9.2475
G1 X64.060 Y69.482 E9.2759
G1 X63.406 Y68.611 E9.3121
G1 X63.801 Y67.890 E9.3394
G1 X64.882 Y67.980 E9.3755
G1 X65.712 Y68.166 E9.4038
G1 X66.318 Y68.410 E9.4255
G1 X66.630 Y68.587 E9.4375
G1 X66.996 Y68.614 E9.4497
G1 X67.217 Y68.540 E9.4574
G1 X67.474 Y68.320 E9.4687
G1 X67.885 Y67.717 E9.4929
G1 X67.938 Y67.335 E9.5058
G1 X67.789 Y66.967 E9.5190
G1 X67.520 Y66.722 E9.5311
G1 X67.102 Y66.224 E9.5527
G1 X66.664 Y65.491 E9.5811
G1 X66.236 Y64.486 E9.6174
G1 X66.790 Y63.880 E9.6447
G1 X67.817 Y64.228 E9.6808
G1 X68.578 Y64.610 E9.7091
G1 X69.096 Y64.983 E9.7304
G1 X69.249 Y65.139 E9.7376
G1 X69.534 Y65.321 E9.7489
G1 X69.919 Y65.346 E9.7617
G1 X70.246 Y65.188 E9.7738
G1 X70.789 Y64.701 E9.7980
G1 X70.928 Y64.356 E9.8104
G1 X70.924 Y64.112 E9.8185
G1 X70.798 Y63.812 E9.8293
G1 X70.667 Y63.631 E9.8368
G1 X70.387 Y63.057 E9.8580
G1 X70.136 Y62.238 E9.8865
G1 X69.960 Y61.158 E9.9229
G1 X70.640 Y60.703 E9.9501
G1 X71.553 Y61.290 E9.9862
G1 X72.200 Y61.844 E10.0146
G1 X72.611 Y62.327 E10.0357
G1 X72.807 Y62.633 E10.0477
G1 X72.992 Y62.782 E10.0556
G1 X73.325 Y62.883 E10.0672
G1 X73.678 Y62.810 E10.0792
G1 X74.321 Y62.468 E10.1034
G1 X74.539 Y62.167 E10.1158
G1 X74.594 Y61.924 E10.1241
G1 X74.544 Y61.608 E10.1347
G1 X74.457 Y61.389 E10.1426
G1 X74.324 Y60.772 E10.1636
G1 X74.275 Y59.915 E10.1921
G1 X74.360 Y58.822 E10.2286
G1 X75.128 Y58.544 E10.2557
G1 X75.874 Y59.335 E10.2919
G1 X76.370 Y60.030 E10.3203
G1 X76.650 Y60.592 E10.3412
G1 X76.773 Y60.951 E10.3538
G1 X77.031 Y61.228 E10.3664
G1 X77.389 Y61.340 E10.3789
G1 X77.615 Y61.317 E10.3864
G1 X78.145 Y61.194 E10.4045
G1 X78.428 Y61.050 E10.4150
G1 X78.592 Y60.862 E10.4234
G1 X78.704 Y60.543 E10.4346
G1 X78.672 Y60.198 E10.4461
G1 X78.684 Y59.499 E10.4694
G1 X78.839 Y58.655 E10.4979
G1 X79.182 Y57.614 E10.5344
G1 X79.991 Y57.529 E10.5614
G1 X80.527 Y58.478 E10.5977
G1 X80.843 Y59.273 E10.6261
G1 X80.981 Y59.880 E10.6468
G1 X80.996 Y60.128 E10.6551
G1 X81.085 Y60.440 E10.6659
G1 X81.351 Y60.718 E10.6787
G1 X81.700 Y60.823 E10.6908
G1 X82.415 Y60.822 E10.7146
G1 X82.651 Y60.734 E10.7230
G1 X82.920 Y60.473 E10.7354
G1 X83.022 Y60.166 E10.7462
G1 X83.049 Y59.917 E10.7545
G1 X83.213 Y59.317 E10.7752
G1 X83.565 Y58.533 E10.8038
G1 X84.144 Y57.603 E10.8402
G1 X84.949 Y57.716 E10.8673
G1 X85.244 Y58.767 E10.9036
G1 X85.361 Y59.617 E10.9321
G1 X85.351 Y60.238 E10.9528
G1 X85.307 Y60.486 E10.9612
G1 X85.319 Y60.799 E10.9716
G1 X85.418 Y61.021 E10.9796
G1 X85.552 Y61.179 E10.9865
G1 X85.826 Y61.330 E10.9970
G1 X86.528 Y61.504 E11.0210
G1 X86.889 Y61.426 E11.0333
G1 X87.096 Y61.276 E11.0418
G1 X87.263 Y61.012 E11.0522
G1 X87.349 Y60.775 E11.0606
G1 X87.650 Y60.231 E11.0812
G1 X88.177 Y59.554 E11.1098
G1 X88.959 Y58.790 E11.1461
G1 X89.712 Y59.094 E11.1732
G1 X89.748 Y60.188 E11.2096
G1 X89.661 Y61.042 E11.2381
G1 X89.503 Y61.645 E11.2588
G1 X89.402 Y61.874 E11.2672
G1 X89.337 Y62.191 E11.2780
G1 X89.441 Y62.553 E11.2904
G1 X89.601 Y62.746 E11.2988
G1 X90.220 Y63.105 E11.3226
G1 X90.571 Y63.188 E11.3346
G1 X90.910 Y63.099 E11.3463
G1 X91.174 Y62.858 E11.3582
G1 X91.313 Y62.648 E11.3665
G1 X91.735 Y62.191 E11.3872
G1 X92.407 Y61.660 E11.4157
G1 X93.346 Y61.106 E11.4520
G1 X94.004 Y61.584 E11.4790
G1 X93.780 Y62.657 E11.5155
G1 X93.492 Y63.466 E11.5440
G1 X93.193 Y64.019 E11.5649
G1 X92.969 Y64.328 E11.5776
G1 X92.888 Y64.699 E11.5903
G1 X92.998 Y65.060 E11.6028
G1 X93.145 Y65.235 E11.6104
G1 X93.544 Y65.604 E11.6285
G1 X93.831 Y65.763 E11.6394
G1 X94.205 Y65.768 E11.6518
G1 X94.430 Y65.672 E11.6600
G1 X94.707 Y65.430 E11.6722
G1 X95.232 Y65.083 E11.6931
G1 X96.009 Y64.729 E11.7215
G1 X97.051 Y64.418 E11.7577
G1 X97.576 Y65.041 E11.7848
G1 X97.104 Y66.029 E11.8213
G1 X96.633 Y66.747 E11.8498
G1 X96.206 Y67.217 E11.8709
G1 X95.919 Y67.460 E11.8834
G1 X95.754 Y67.803 E11.8961
G1 X95.776 Y68.180 E11.9086
G1 X95.876 Y68.382 E11.9161
G1 X96.259 Y68.939 E11.9386
G1 X96.455 Y69.079 E11.9466
G1 X96.793 Y69.158 E11.9582
G1 X97.138 Y69.065 E11.9701
G1 X97.342 Y68.951 E11.9779
G1 X97.937 Y68.738 E11.9988
G1 X98.774 Y68.582 E12.0272
G1 X99.858 Y68.530 E12.0633
G1 X100.219 Y69.263 E12.0905
G1 X99.527 Y70.111 E12.1269
G1 X98.900 Y70.695 E12.1554
G1 X98.367 Y71.053 E12.1767
G1 X98.034 Y71.218 E12.1891
G1 X97.784 Y71.535 E12.2025
G1 X97.730 Y71.916 E12.2153
G1 X97.887 Y72.408 E12.2325
G1 X98.024 Y72.750 E12.2447
G1 X98.302 Y73.009 E12.2574
G1 X98.673 Y73.097 E12.2701
G1 X99.012 Y73.018 E12.2816
G1 X99.693 Y72.945 E12.3044
G1 X100.541 Y72.994 E12.3326
G1 X101.604 Y73.206 E12.3687
G1 X101.781 Y74.007 E12.3960
G1 X100.908 Y74.663 E12.4323
G1 X100.162 Y75.080 E12.4607
G1 X99.550 Y75.302 E12.4824
G1 X99.196 Y75.379 E12.4944
G1 X98.893 Y75.611 E12.5071
G1 X98.739 Y75.965 E12.5200
G1 X98.790 Y76.696 E12.5443
G1 X98.916 Y77.052 E12.5569
G1 X99.211 Y77.304 E12.5698
G1 X99.550 Y77.373 E12.5813
G1 X99.754 Y77.366 E12.5881
G1 X100.396 Y77.457 E12.6097
G1 X101.207 Y77.711 E12.6379
G1 X102.188 Y78.173 E12.6740
G1 X102.170 Y78.983 E12.7010
G1 X101.143 Y79.429 E12.7382
G1 X100.322 Y79.650 E12.7665
G1 X99.677 Y79.716 E12.7881
G1 X99.329 Y79.705 E12.7996
G1 X98.981 Y79.862 E12.8123
G1 X98.752 Y80.172 E12.8251
G1 X98.630 Y80.894 E12.8495
G1 X98.666 Y81.257 E12.8616
G1 X98.889 Y81.576 E12.8746
G1 X99.214 Y81.731 E12.8866
G1 X99.390 Y81.765 E12.8925
G1 X99.997 Y82.009 E12.9143
G1 X100.725 Y82.451 E12.9426
G1 X101.570 Y83.138 E12.9788
G1 X101.380 Y83.882 E13.0044
G1 X100.748 Y83.660
G0 X94.938 Y74.989 F10800
G0 X92.895 Y73.083
;segType:HShell
G1 X88.914 Y69.078 E13.1922 F3600
;segType:Loop
G0 X88.184 Y70.770 F10800
G1 X88.179 Y70.779 E13.1925 F3600
G1 X87.884 Y71.249 E13.2109
G1 X87.536 Y71.679 E13.2293
G1 X87.138 Y72.064 E13.2478
G1 X86.697 Y72.399 E13.2662
G1 X86.220 Y72.677 E13.2845
G1 X85.713 Y72.896 E13.3029
G1 X85.184 Y73.052 E13.3213
G1 X84.640 Y73.143 E13.3396
G1 X84.090 Y73.166 E13.3579
G1 X83.541 Y73.123 E13.3762
G1 X83.001 Y73.013 E13.3945
G1 X82.479 Y72.839 E13.4129
G1 X81.981 Y72.601 E13.4312
G1 X81.516 Y72.306 E13.4495
G1 X81.090 Y71.955 E13.4679
G1 X80.709 Y71.555 E13.4863
G1 X80.380 Y71.112 E13.5046
G1 X80.105 Y70.631 E13.5230
G1 X79.891 Y70.121 E13.5415
G1 X79.739 Y69.588 E13.5599
G1 X79.652 Y69.040 E13.5783
G1 X79.631 Y68.485 E13.5968
G1 X79.676 Y67.932 E13.6153
G1 X79.788 Y67.388 E13.6337
G1 X79.963 Y66.861 E13.6522
G1 X80.200 Y66.360 E13.6707
G1 X80.495 Y65.890 E13.6891
G1 X80.844 Y65.460 E13.7075
G1 X81.242 Y65.074 E13.7259
G1 X81.683 Y64.740 E13.7444
G1 X82.160 Y64.461 E13.7627
G1 X82.667 Y64.242 E13.7811
G1 X83.195 Y64.086 E13.7994
G1 X83.740 Y63.996 E13.8178
G1 X84.290 Y63.972 E13.8361
G1 X84.839 Y64.015 E13.8544
G1 X85.378 Y64.125 E13.8727
G1 X85.901 Y64.300 E13.8910
G1 X86.398 Y64.537 E13.9094
G1 X86.863 Y64.833 E13.9277
G1 X87.289 Y65.183 E13.9461
G1 X87.670 Y65.583 E13.9644
G1 X87.976 Y65.994 E13.9814
G1 X88.291 Y66.546 E14.0026
G1 X88.502 Y67.061 E14.0211
G1 X88.648 Y67.593 E14.0395
G1 X88.729 Y68.138 E14.0578
G1 X88.749 Y68.653 E14.0749
G1 X88.703 Y69.206 E14.0934
G1 X88.592 Y69.750 E14.1119
G1 X88.416 Y70.277 E14.1303
G1 X88.263 Y70.601 E14.1422
;segType:Perimeter
G0 X88.757 Y69.345 F10800
G1 X88.187 Y69.699 E14.1645 F2159
G1 X88.045 Y70.126 E14.1795
G1 X87.828 Y70.584 E14.1964
G1 X87.559 Y71.013 E14.2132
G1 X87.241 Y71.406 E14.2300
G1 X86.878 Y71.758 E14.2469
G1 X86.475 Y72.063 E14.2637
G1 X86.040 Y72.317 E14.2804
G1 X85.578 Y72.517 E14.2972
G1 X85.095 Y72.659 E14.3139
G1 X84.599 Y72.742 E14.3306
G1 X84.097 Y72.763 E14.3474
G1 X83.596 Y72.724 E14.3641
G1 X83.104 Y72.624 E14.3808
G1 X82.628 Y72.465 E14.3975
G1 X82.175 Y72.248 E14.4142
G1 X81.751 Y71.979 E14.4309
G1 X81.362 Y71.659 E14.4476
G1 X81.015 Y71.295 E14.4643
G1 X80.714 Y70.890 E14.4811
G1 X80.464 Y70.452 E14.4979
G1 X80.268 Y69.987 E14.5147
G1 X80.130 Y69.500 E14.5315
G1 X80.051 Y69.001 E14.5483
G1 X80.031 Y68.494 E14.5652
G1 X80.073 Y67.990 E14.5820
G1 X80.175 Y67.493 E14.5989
G1 X80.335 Y67.012 E14.6157
G1 X80.551 Y66.554 E14.6326
G1 X80.821 Y66.126 E14.6494
G1 X81.139 Y65.733 E14.6662
G1 X81.502 Y65.381 E14.6831
G1 X81.904 Y65.075 E14.6999
G1 X82.340 Y64.821 E14.7166
G1 X82.802 Y64.622 E14.7334
G1 X83.285 Y64.479 E14.7501
G1 X83.781 Y64.397 E14.7668
G1 X84.283 Y64.375 E14.7836
G1 X84.783 Y64.414 E14.8003
G1 X85.275 Y64.515 E14.8170
G1 X85.752 Y64.674 E14.8337
G1 X86.205 Y64.890 E14.8504
G1 X86.629 Y65.160 E14.8671
G1 X87.017 Y65.479 E14.8838
G1 X87.365 Y65.844 E14.9005
G1 X87.641 Y66.216 E14.9160
G1 X87.931 Y66.724 E14.9354
G1 X88.123 Y67.191 E14.9522
G1 X88.256 Y67.677 E14.9690
G1 X88.331 Y68.175 E14.9857
G1 X88.348 Y68.644 E15.0013
G1 X88.307 Y69.149 E15.0182
G1 X88.216 Y69.591 E15.0332
G1 X88.532 Y70.184
;segType:HShell
G0 X88.841 Y69.533 F10800
G1 X92.220 Y72.933 E15.1926 F3600
G1 X91.643 Y72.881
G1 X88.735 Y69.955 E15.3298
G1 X88.602 Y70.351
G1 X91.129 Y72.893 E15.4490
G1 X90.660 Y72.950
G1 X88.433 Y70.710 E15.5541
G1 X88.246 Y71.050
G1 X90.236 Y73.052 E15.6479
G1 X89.841 Y73.185
G1 X88.041 Y71.374 E15.7329
G1 X87.805 Y71.665
G1 X89.470 Y73.340 E15.8114
G1 X89.123 Y73.521
G1 X87.553 Y71.941 E15.8855
G1 X87.286 Y72.201
G1 X88.805 Y73.729 E15.9572
G1 X88.503 Y73.954
G1 X86.988 Y72.430 E16.0287
G1 X86.675 Y72.644
G1 X88.222 Y74.201 E16.1017
G1 X87.966 Y74.472
G1 X86.342 Y72.839 E16.1783
G1 X85.978 Y73.001
G1 X87.724 Y74.758 E16.2606
G1 X87.507 Y75.069
G1 X85.592 Y73.142 E16.3510
G1 X85.180 Y73.257
G1 X87.314 Y75.403 E16.4517
G1 X87.138 Y75.755
G1 X84.729 Y73.332 E16.5653
G1 X84.233 Y73.362
G1 X86.991 Y76.136 E16.6954
G1 X86.875 Y76.549
G1 X83.682 Y73.336 E16.8461
G1 X83.049 Y73.228
G1 X86.789 Y76.991 E17.0225
G1 X86.740 Y77.471
G1 X82.247 Y72.951 E17.2345
G0 X79.849 Y70.539 F10800
G1 X72.569 Y63.215 E17.5780 F3600
G1 X72.279 Y62.923
G1 X71.038 Y61.675 E17.6365
G1 X70.695 Y61.859
G1 X86.744 Y78.004 E18.3937
G1 X86.824 Y78.613
G1 X70.861 Y62.554 E19.1468
G0 X71.350 Y63.576 F10800
G1 X87.034 Y79.354 E19.8867 F3600
G1 X86.978 Y79.827
G1 X77.137 Y69.926 E20.3511
G0 X75.011 Y68.317 F10800
G1 X71.431 Y64.715 E20.5200 F3600
G1 X71.527 Y64.283
G1 X76.192 Y68.975 E20.7401
G0 X77.763 Y71.086 F10800
G1 X86.262 Y79.635 E21.1410 F3600
G1 X85.545 Y79.443
G1 X77.973 Y71.826 E21.4982
G1 X78.057 Y72.439
G1 X84.828 Y79.251 E21.8176
G1 X84.111 Y79.059
G1 X78.065 Y72.976 E22.1029
G1 X78.022 Y73.461
G1 X83.395 Y78.867 E22.3564
G1 X82.678 Y78.675
G1 X77.940 Y73.908 E22.5799
G1 X77.824 Y74.321
G1 X81.961 Y78.483 E22.7751
G1 X81.245 Y78.291
G1 X77.674 Y74.699 E22.9436
G1 X77.503 Y75.056
G1 X80.528 Y78.099 E23.0863
G1 X79.811 Y77.907
G1 X77.313 Y75.394 E23.2041
G1 X77.091 Y75.699
G1 X79.094 Y77.715 E23.2987
G1 X78.378 Y77.523
G1 X76.854 Y75.990 E23.3705
G1 X76.599 Y76.263
G1 X77.661 Y77.331 E23.4206
G1 X76.944 Y77.139
G1 X76.316 Y76.507 E23.4503
G1 X76.018 Y76.736
G1 X76.228 Y76.947 E23.4601
G0 X77.562 Y73.722 F10800
G0 X77.616 Y72.143
G0 X77.112 Y70.650
G0 X76.114 Y69.436
G0 X74.752 Y68.660
G0 X73.204 Y68.423
G0 X71.670 Y68.755
G0 X70.352 Y69.613
G0 X69.419 Y70.885
G0 X68.992 Y72.407
G0 X69.060 Y75.027
G1 X66.137 Y72.085 E23.5981 F3600
G1 X66.285 Y71.706
G1 X68.763 Y74.198 E23.7150
G1 X68.344 Y74.835
G1 X65.976 Y72.453 E23.8267
G1 X65.724 Y72.728
G1 X67.627 Y74.643 E23.9165
G1 X66.910 Y74.451
G1 X65.435 Y72.966 E23.9861
G1 X65.007 Y73.065
G1 X66.193 Y74.259 E24.0421
G1 X65.477 Y74.067
G1 X64.447 Y73.031 E24.0906
G1 X63.813 Y72.922
G1 X64.760 Y73.875 E24.1353
G1 X64.043 Y73.683
G1 X63.287 Y72.922 E24.1710
G1 X62.797 Y72.958
G1 X63.326 Y73.491 E24.1960
G1 X62.610 Y73.299
G1 X62.344 Y73.031 E24.2086
G0 X68.607 Y73.513 F10800
G1 X66.373 Y71.266 E24.3140 F3600
G1 X66.199 Y70.561
G1 X68.559 Y72.935 E24.4253
G1 X68.576 Y72.424
G1 X64.750 Y68.575 E24.6058
G1 X64.177 Y68.527
G1 X65.678 Y70.037 E24.6766
G0 X65.419 Y68.719 F10800
G1 X68.641 Y71.960 E24.8287 F3600
G1 X68.741 Y71.532
G1 X66.339 Y69.115 E24.9420
G1 X66.967 Y69.217
G1 X68.868 Y71.130 E25.0317
G1 X69.023 Y70.757
G1 X67.393 Y69.118 E25.1086
G1 X67.712 Y68.909
G1 X69.208 Y70.414 E25.1791
G1 X69.410 Y70.088
G1 X67.978 Y68.648 E25.2467
G1 X68.192 Y68.334
G1 X69.633 Y69.784 E25.3147
G1 X69.883 Y69.506
G1 X68.406 Y68.020 E25.3844
G1 X68.508 Y67.594
G1 X70.147 Y69.243 E25.4617
G1 X70.434 Y69.002
G1 X68.455 Y67.011 E25.5551
G0 X67.147 Y64.638 F10800
G1 X71.071 Y68.585 E25.7402 F3600
G1 X70.744 Y68.786
G1 X67.205 Y65.226 E25.9071
G1 X68.055 Y65.022
G1 X71.425 Y68.412 E26.0662
G1 X71.806 Y68.267
G1 X69.476 Y65.922 E26.1761
G1 X70.037 Y65.958
G1 X72.212 Y68.146 E26.2787
G1 X72.648 Y68.056
G1 X70.393 Y65.787 E26.3851
G1 X70.712 Y65.579
G1 X73.130 Y68.011 E26.4992
G1 X73.664 Y68.020
G1 X70.990 Y65.329 E26.6254
G1 X71.268 Y65.080
G1 X74.270 Y68.100 E26.7670
G0 X75.423 Y59.738 F10800
G1 X74.959 Y59.271 E26.7889 F3600
G1 X74.899 Y59.740
G1 X76.157 Y61.006 E26.8482
G0 X77.371 Y61.526 F10800
G0 X81.179 Y61.297
G1 X83.671 Y63.803 E26.9658 F3600
G1 X84.170 Y63.776
G1 X81.834 Y61.426 E27.0760
G1 X82.359 Y61.425
G1 X84.724 Y63.804 E27.1876
G0 X82.256 Y64.654 F10800
G0 X81.002 Y65.606
G0 X80.163 Y66.942
G0 X79.571 Y69.730
G1 X73.368 Y63.490 E27.4802 F3600
G1 X73.804 Y63.400
G1 X79.457 Y69.086 E27.7469
G1 X79.432 Y68.533
G1 X74.165 Y63.234 E27.9954
G1 X74.509 Y63.051
G1 X79.467 Y68.038 E28.2293
G1 X79.543 Y67.586
G1 X74.807 Y62.822 E28.4527
G1 X75.029 Y62.516
G1 X79.651 Y67.165 E28.6708
G1 X79.785 Y66.771
G1 X75.165 Y62.123 E28.8887
G1 X75.147 Y61.576
G1 X79.954 Y66.412 E29.1155
G1 X80.143 Y66.074
G1 X74.956 Y60.855 E29.3603
G1 X74.896 Y60.266
G1 X80.349 Y65.752 E29.6175
G1 X80.585 Y65.460
G1 X76.996 Y61.849 E29.7869
G1 X77.597 Y61.925
G1 X80.838 Y65.186 E29.9398
G1 X81.106 Y64.926
G1 X78.037 Y61.838 E30.0846
G1 X78.443 Y61.718
G1 X81.405 Y64.698 E30.2244
G1 X81.720 Y64.485
G1 X78.793 Y61.541 E30.3624
G1 X79.041 Y61.262
G1 X82.052 Y64.291 E30.5045
G1 X82.419 Y64.130
G1 X79.213 Y60.906 E30.6557
G1 X79.299 Y60.463
G1 X82.806 Y63.991 E30.8212
G1 X83.220 Y63.878
G1 X79.277 Y59.912 E31.0072
G1 X79.310 Y59.416
G1 X80.515 Y60.628 E31.0641
G1 X80.385 Y59.969
G1 X79.392 Y58.969 E31.1109
G1 X79.514 Y58.563
G1 X80.182 Y59.235 E31.1425
G0 X81.255 Y60.878 F10800
G0 X82.448 Y61.006
G0 X83.077 Y60.573
G0 X84.260 Y58.577
G1 X84.668 Y58.987 E31.1617 F3600
G1 X84.754 Y59.602
G1 X84.058 Y58.902 E31.1945
G1 X83.894 Y59.267
G1 X84.753 Y60.130 E31.2350
G1 X84.711 Y60.618
G1 X83.746 Y59.646 E31.2806
G1 X83.637 Y60.066
G1 X84.902 Y61.338 E31.3403
G1 X85.276 Y61.714
G1 X98.576 Y75.095 E31.9678
G1 X98.337 Y75.383
G1 X83.543 Y60.501 E32.6657
G1 X83.380 Y60.866
G1 X98.177 Y75.752 E33.3638
G1 X98.159 Y76.262
G1 X88.512 Y66.557 E33.8189
G0 X89.653 Y63.473 F10800
G1 X97.305 Y71.171 E34.1799 F3600
G1 X97.538 Y70.876
G1 X96.341 Y69.672 E34.2364
G1 X96.938 Y69.744
G1 X97.833 Y70.644 E34.2786
G1 X98.173 Y70.457
G1 X97.353 Y69.632 E34.3173
G1 X97.708 Y69.460
G1 X98.489 Y70.246 E34.3542
G1 X98.767 Y69.996
G1 X98.097 Y69.322 E34.3858
G1 X98.540 Y69.239
G1 X99.040 Y69.742 E34.4093
G1 X99.283 Y69.458
G1 X99.009 Y69.182 E34.4223
G0 X96.796 Y69.345 F10800
G0 X95.351 Y68.676
G1 X90.494 Y63.790 E34.6514 F3600
G1 X90.945 Y63.714
G1 X92.410 Y65.188 E34.7205
G1 X92.305 Y64.554
G1 X91.308 Y63.551 E34.7675
G1 X91.583 Y63.299
G1 X92.400 Y64.120 E34.8061
G1 X92.608 Y63.801
G1 X91.810 Y62.997 E34.8437
G1 X92.063 Y62.723
G1 X92.807 Y63.471 E34.8788
G1 X92.980 Y63.116
G1 X92.345 Y62.477 E34.9088
G1 X92.639 Y62.245
G1 X93.118 Y62.727 E34.9314
G1 X93.238 Y62.318
G1 X92.965 Y62.043 E34.9442
G0 X92.702 Y64.707 F10800
G0 X93.010 Y65.364
G0 X93.784 Y65.944
G0 X94.528 Y65.831
G0 X96.767 Y65.340
G1 X96.623 Y65.194 E34.9511 F3600
G1 X96.205 Y65.303
G1 X96.597 Y65.697 E34.9696
G1 X96.391 Y66.019
G1 X95.843 Y65.468 E34.9955
G1 X95.486 Y65.638
G1 X96.182 Y66.338 E35.0283
G1 X95.936 Y66.620
G1 X95.168 Y65.847 E35.0645
G1 X94.876 Y66.082
G1 X95.671 Y66.881 E35.1020
G1 X95.405 Y67.143
G1 X94.545 Y66.278 E35.1426
G1 X94.110 Y66.370
G1 X95.233 Y67.499 E35.1955
G1 X95.162 Y67.957
G1 X93.463 Y66.248 E35.2757
G0 X93.822 Y73.486 F10800
G1 X88.946 Y68.581 E35.5057 F3600
G1 X88.914 Y68.020
G1 X99.914 Y79.085 E36.0246
G1 X100.368 Y79.013
G1 X99.299 Y77.938 E36.0750
G1 X99.880 Y77.993
G1 X100.782 Y78.901 E36.1176
G1 X101.168 Y78.761
G1 X100.549 Y78.137 E36.1468
G0 X101.451 Y78.516 F10800
G1 X101.536 Y78.601 E36.1508 F3600
G0 X98.865 Y79.716 F10800
G0 X97.012 Y82.514
G1 X95.186 Y80.677 E36.2370 F3600
G1 X94.937 Y80.956
G1 X96.295 Y82.322 E36.3011
G1 X95.579 Y82.130
G1 X94.671 Y81.218 E36.3439
G1 X94.391 Y81.464
G1 X94.862 Y81.938 E36.3661
G1 X94.145 Y81.746
G1 X94.078 Y81.679 E36.3693
G0 F4800 E35.3693
G0 X90.973 Y81.730 F10800
G0 F4800 E36.3693
G1 X90.854 Y81.610 E36.3749 F3600
G1 X91.427 Y81.657
G1 X91.690 Y81.921 E36.3873
G1 X92.282 Y81.988
G1 X91.926 Y81.631 E36.4040
G1 X92.559 Y81.738
G1 X92.705 Y81.885 E36.4109
G0 X98.445 Y82.898 F10800
G1 X95.610 Y80.046 E36.5447 F3600
G1 X95.406 Y80.369
G1 X97.729 Y82.706 E36.6543
G0 X98.808 Y82.205 F10800
G1 X99.879 Y83.282 E36.7048 F3600
G1 X100.572 Y83.450
G1 X99.644 Y82.517 E36.7486
G1 X99.162 Y83.090
G1 X95.793 Y79.701 E36.9075
G1 X95.944 Y79.324
G1 X98.091 Y81.483 E37.0088
G1 X98.027 Y80.890
G1 X96.072 Y78.924 E37.1010
G1 X96.172 Y78.496
G1 X98.099 Y80.434 E37.1919
G1 X98.176 Y79.982
G1 X96.234 Y78.028 E37.2835
G1 X96.243 Y77.509
G1 X98.382 Y79.661 E37.3845
G1 X98.615 Y79.365
G1 X96.191 Y76.928 E37.4988
G1 X96.040 Y76.247
G1 X98.978 Y79.202 E37.6374
G1 X99.406 Y79.104
G1 X95.641 Y75.316 E37.8150
G0 X97.431 Y72.885 F10800
G1 X86.696 Y62.085 E38.3214 F3600
G1 X87.129 Y61.991
G1 X97.151 Y72.073 E38.7943
G1 X97.174 Y71.568
G1 X87.437 Y61.773 E39.2536
G1 X87.676 Y61.484
G1 X88.848 Y62.663 E39.3089
G1 X88.755 Y62.041
G1 X87.856 Y61.137 E39.3513
G1 X88.031 Y60.783
G1 X88.859 Y61.616 E39.3904
G1 X88.993 Y61.222
G1 X88.235 Y60.459 E39.4261
G1 X88.466 Y60.162
G1 X89.084 Y60.785 E39.4553
G1 X89.133 Y60.305
G1 X88.711 Y59.880 E39.4753
G1 X88.989 Y59.631
G1 X89.134 Y59.777 E39.4821
G0 X86.178 Y64.209 F10800
G1 X83.112 Y61.125 E39.6268 F3600
G1 X82.787 Y61.327
G1 X85.361 Y63.916 E39.7482
G0 X86.107 Y62.022 F10800
G1 X98.875 Y74.866 E40.3506 F3600
G1 X99.279 Y74.744
G1 X98.131 Y73.588 E40.4048
G1 X98.763 Y73.695
G1 X99.676 Y74.614 E40.4479
G1 X100.044 Y74.455
G1 X99.199 Y73.605 E40.4877
G1 X99.674 Y73.554
G1 X100.382 Y74.267 E40.5212
G1 X100.705 Y74.062
G1 X100.226 Y73.581 E40.5438
G1 X100.866 Y73.695
G1 X101.006 Y73.836 E40.5504
G0 X98.747 Y75.495 F10800
G0 X98.202 Y76.835
G1 X88.794 Y67.370 E40.9942 F3600
; ------------------------------------
; Layer #2
; ------------------------------------
G21 ; mm
G90 ; abs
G92 E0 ; reset extr
M106 S0
G0 F4800 E-1.0000
G0 F300 Z0.600
G0 X88.189 Y74.285 F10800
G0 X86.860 Y76.781
G0 X87.169 Y79.592
G0 X89.847 Y87.499
G0 X89.197 Y91.723
G0 F4800 E0.0000
;segType:HShell
G1 X98.711 Y82.151 E0.4489 F3600
G1 X99.077 Y82.313
G1 X97.990 Y83.406 E0.5002
G1 X98.573 Y83.349
G1 X99.473 Y82.443 E0.5426
G1 X99.834 Y82.609
G1 X98.992 Y83.456 E0.5823
G1 X99.454 Y83.520
G1 X100.161 Y82.809 E0.6157
G1 X100.473 Y83.024
G1 X99.989 Y83.511 E0.6385
G1 X100.575 Y83.450
G1 X100.749 Y83.275 E0.6467
;segType:Perimeter
G0 X101.153 Y83.288 F10800
G1 X101.309 Y83.943 E0.6691 F2159
G1 X100.291 Y84.108 E0.7034
G1 X99.441 Y84.127 E0.7317
G1 X98.804 Y84.040 E0.7531
G1 X98.452 Y83.941 E0.7653
G1 X98.078 Y84.003 E0.7779
G1 X97.778 Y84.245 E0.7907
G1 X97.551 Y84.759 E0.8094
G1 X97.437 Y85.095 E0.8212
G1 X97.437 Y85.309 E0.8283
G1 X97.562 Y85.631 E0.8398
G1 X97.719 Y85.798 E0.8474
G1 X98.028 Y85.965 E0.8591
G1 X98.551 Y86.347 E0.8806
G1 X99.151 Y86.952 E0.9090
G1 X99.805 Y87.823 E0.9452
G1 X99.410 Y88.544 E0.9725
G1 X98.328 Y88.454 E1.0086
G1 X97.499 Y88.268 E1.0369
G1 X96.892 Y88.024 E1.0587
G1 X96.580 Y87.847 E1.0706
G1 X96.202 Y87.819 E1.0832
G1 X95.854 Y87.983 E1.0960
G1 X95.518 Y88.422 E1.1144
G1 X95.320 Y88.731 E1.1266
G1 X95.273 Y89.102 E1.1390
G1 X95.419 Y89.465 E1.1520
G1 X95.684 Y89.705 E1.1639
G1 X96.109 Y90.210 E1.1859
G1 X96.547 Y90.944 E1.2143
G1 X96.975 Y91.948 E1.2506
G1 X96.421 Y92.554 E1.2779
G1 X95.393 Y92.206 E1.3140
G1 X94.633 Y91.825 E1.3423
G1 X94.094 Y91.433 E1.3644
G1 X93.849 Y91.199 E1.3757
G1 X93.651 Y91.107 E1.3830
G1 X93.290 Y91.091 E1.3950
G1 X93.087 Y91.163 E1.4021
G1 X92.682 Y91.491 E1.4195
G1 X92.414 Y91.743 E1.4317
G1 X92.276 Y92.101 E1.4445
G1 X92.330 Y92.481 E1.4572
G1 X92.524 Y92.771 E1.4689
G1 X92.791 Y93.311 E1.4889
G1 X86.244 Y91.557 E1.7143
G1 X86.612 Y91.439 E1.7272
G1 X87.070 Y91.228 E1.7439
G1 X87.499 Y90.963 E1.7607
G1 X87.894 Y90.648 E1.7775
G1 X88.249 Y90.287 E1.7943
G1 X88.557 Y89.887 E1.8112
G1 X88.816 Y89.452 E1.8280
G1 X89.022 Y88.988 E1.8449
G1 X89.170 Y88.504 E1.8617
G1 X89.260 Y88.005 E1.8786
G1 X89.289 Y87.500 E1.8954
G1 X89.258 Y86.994 E1.9122
G1 X89.167 Y86.497 E1.9291
G1 X89.017 Y86.014 E1.9459
G1 X88.810 Y85.553 E1.9627
G1 X88.550 Y85.122 E1.9795
G1 X88.239 Y84.725 E1.9962
G1 X87.883 Y84.369 E2.0130
G1 X87.487 Y84.059 E2.0297
G1 X87.057 Y83.799 E2.0464
G1 X86.598 Y83.594 E2.0631
G1 X86.119 Y83.447 E2.0798
G1 X85.624 Y83.359 E2.0965
G1 X85.123 Y83.332 E2.1132
G1 X84.621 Y83.365 E2.1299
G1 X84.127 Y83.460 E2.1466
G1 X83.648 Y83.614 E2.1634
G1 X83.191 Y83.825 E2.1801
G1 X82.761 Y84.090 E2.1969
G1 X82.366 Y84.405 E2.2137
G1 X82.012 Y84.765 E2.2305
G1 X81.703 Y85.166 E2.2474
G1 X81.444 Y85.601 E2.2642
G1 X81.239 Y86.064 E2.2811
G1 X81.090 Y86.548 E2.2979
G1 X81.000 Y87.047 E2.3148
G1 X80.971 Y87.553 E2.3316
G1 X81.002 Y88.058 E2.3484
G1 X81.093 Y88.556 E2.3653
G1 X81.244 Y89.039 E2.3821
G1 X81.450 Y89.499 E2.3989
G1 X81.711 Y89.931 E2.4157
G1 X82.021 Y90.328 E2.4324
G1 X82.154 Y90.461 E2.4387
G1 X75.009 Y88.547 E2.6847
G1 X75.190 Y88.499 E2.6909
G1 X75.657 Y88.311 E2.7077
G1 X76.097 Y88.068 E2.7244
G1 X76.506 Y87.773 E2.7411
G1 X76.876 Y87.432 E2.7579
G1 X77.204 Y87.048 E2.7747
G1 X77.483 Y86.628 E2.7915
G1 X77.711 Y86.177 E2.8083
G1 X77.883 Y85.702 E2.8251
G1 X77.997 Y85.210 E2.8419
G1 X78.052 Y84.708 E2.8587
G1 X78.047 Y84.203 E2.8755
G1 X77.982 Y83.702 E2.8923
G1 X77.846 Y83.179 E2.9102
G1 X77.659 Y82.709 E2.9271
G1 X77.429 Y82.282 E2.9432
G1 X77.138 Y81.870 E2.9600
G1 X76.799 Y81.497 E2.9767
G1 X76.419 Y81.168 E2.9934
G1 X76.001 Y80.888 E3.0102
G1 X75.553 Y80.661 E3.0269
G1 X75.081 Y80.490 E3.0436
G1 X74.592 Y80.378 E3.0603
G1 X74.092 Y80.326 E3.0770
G1 X73.590 Y80.336 E3.0937
G1 X73.092 Y80.406 E3.1104
G1 X72.606 Y80.537 E3.1271
G1 X72.139 Y80.725 E3.1439
G1 X71.698 Y80.969 E3.1607
G1 X71.288 Y81.264 E3.1775
G1 X70.917 Y81.607 E3.1943
G1 X70.589 Y81.992 E3.2111
G1 X70.310 Y82.414 E3.2279
G1 X70.083 Y82.867 E3.2448
G1 X69.911 Y83.344 E3.2616
G1 X69.798 Y83.837 E3.2785
G1 X69.744 Y84.342 E3.2953
G1 X69.751 Y84.848 E3.3122
G1 X69.818 Y85.349 E3.3290
G1 X69.945 Y85.839 E3.3458
G1 X70.129 Y86.309 E3.3626
G1 X70.369 Y86.754 E3.3794
G1 X70.660 Y87.165 E3.3962
G1 X70.920 Y87.452 E3.4090
G1 X65.003 Y85.867 E3.6128
G1 X64.373 Y85.698 E3.6345
G1 X64.867 Y85.368 E3.6542
G1 X65.035 Y85.297 E3.6603
G1 X65.312 Y85.086 E3.6719
G1 X65.425 Y84.895 E3.6793
G1 X65.482 Y84.528 E3.6916
G1 X65.320 Y84.017 E3.7095
G1 X65.183 Y83.676 E3.7217
G1 X64.900 Y83.420 E3.7344
G1 X64.528 Y83.337 E3.7471
G1 X64.190 Y83.418 E3.7586
G1 X63.518 Y83.490 E3.7811
G1 X62.670 Y83.440 E3.8094
G1 X61.607 Y83.228 E3.8454
G1 X61.430 Y82.428 E3.8727
G1 X62.303 Y81.771 E3.9090
G1 X63.049 Y81.354 E3.9374
G1 X63.671 Y81.129 E3.9594
G1 X64.018 Y81.054 E3.9713
G1 X64.320 Y80.821 E3.9840
G1 X64.473 Y80.457 E3.9971
G1 X64.437 Y79.928 E4.0147
G1 X64.385 Y79.564 E4.0269
G1 X64.174 Y79.246 E4.0396
G1 X63.834 Y79.073 E4.0523
G1 X63.487 Y79.070 E4.0639
G1 X62.814 Y78.977 E4.0865
G1 X62.003 Y78.723 E4.1147
G1 X61.022 Y78.261 E4.1508
G1 X61.041 Y77.439 E4.1781
G1 X62.043 Y77.012 E4.2144
G1 X62.866 Y76.787 E4.2427
G1 X63.506 Y76.719 E4.2641
G1 X63.717 Y76.734 E4.2712
G1 X64.054 Y76.677 E4.2825
G1 X64.358 Y76.439 E4.2954
G1 X64.499 Y76.102 E4.3075
G1 X64.587 Y75.376 E4.3319
G1 X64.460 Y75.014 E4.3446
G1 X64.173 Y74.762 E4.3573
G1 X63.837 Y74.673 E4.3688
G1 X63.202 Y74.420 E4.3916
G1 X62.476 Y73.978 E4.4198
G1 X61.634 Y73.291 E4.4560
G1 X61.847 Y72.497 E4.4833
G1 X62.921 Y72.323 E4.5195
G1 X63.771 Y72.303 E4.5478
G1 X64.400 Y72.389 E4.5689
G1 X64.757 Y72.488 E4.5812
G1 X65.130 Y72.429 E4.5938
G1 X65.424 Y72.194 E4.6063
G1 X65.532 Y71.997 E4.6138
G1 X65.771 Y71.361 E4.6364
G1 X65.774 Y71.118 E4.6445
G1 X65.648 Y70.794 E4.6560
G1 X65.378 Y70.561 E4.6679
G1 X65.167 Y70.455 E4.6758
G1 X64.660 Y70.084 E4.6966
G1 X64.061 Y69.478 E4.7250
G1 X63.407 Y68.607 E4.7612
G1 X63.802 Y67.886 E4.7886
G1 X64.883 Y67.976 E4.8247
G1 X65.713 Y68.162 E4.8529
G1 X66.292 Y68.393 E4.8737
G1 X66.621 Y68.579 E4.8862
G1 X66.986 Y68.612 E4.8984
G1 X67.226 Y68.532 E4.9068
G1 X67.468 Y68.324 E4.9174
G1 X67.880 Y67.724 E4.9417
G1 X67.937 Y67.357 E4.9540
G1 X67.875 Y67.118 E4.9622
G1 X67.772 Y66.946 E4.9689
G1 X67.500 Y66.697 E4.9812
G1 X67.103 Y66.220 E5.0018
G1 X66.665 Y65.487 E5.0302
G1 X66.237 Y64.482 E5.0665
G1 X66.791 Y63.876 E5.0938
G1 X67.818 Y64.225 E5.1299
G1 X68.579 Y64.606 E5.1582
G1 X69.075 Y64.961 E5.1785
G1 X69.258 Y65.143 E5.1871
G1 X69.525 Y65.313 E5.1976
G1 X69.907 Y65.344 E5.2103
G1 X70.238 Y65.191 E5.2225
G1 X70.782 Y64.706 E5.2467
G1 X70.927 Y64.363 E5.2591
G1 X70.922 Y64.100 E5.2679
G1 X70.804 Y63.818 E5.2780
G1 X70.653 Y63.602 E5.2868
G1 X70.388 Y63.054 E5.3070
G1 X70.137 Y62.235 E5.3355
G1 X69.961 Y61.155 E5.3719
G1 X70.641 Y60.700 E5.3992
G1 X71.554 Y61.286 E5.4353
G1 X72.202 Y61.840 E5.4636
G1 X72.594 Y62.299 E5.4837
G1 X72.802 Y62.622 E5.4964
G1 X73.001 Y62.783 E5.5050
G1 X73.315 Y62.877 E5.5158
G1 X73.668 Y62.810 E5.5278
G1 X74.312 Y62.471 E5.5520
G1 X74.535 Y62.174 E5.5644
G1 X74.595 Y61.911 E5.5734
G1 X74.548 Y61.615 E5.5833
G1 X74.450 Y61.357 E5.5925
G1 X74.325 Y60.769 E5.6125
G1 X74.276 Y59.912 E5.6411
G1 X74.361 Y58.819 E5.6775
G1 X75.129 Y58.541 E5.7047
G1 X75.875 Y59.331 E5.7408
G1 X76.371 Y60.027 E5.7692
G1 X76.640 Y60.560 E5.7891
G1 X76.770 Y60.937 E5.8024
G1 X77.022 Y61.217 E5.8149
G1 X77.378 Y61.335 E5.8274
G1 X77.626 Y61.311 E5.8357
G1 X78.155 Y61.187 E5.8537
G1 X78.421 Y61.052 E5.8636
G1 X78.598 Y60.850 E5.8726
G1 X78.703 Y60.550 E5.8832
G1 X78.666 Y60.097 E5.8983
G1 X78.685 Y59.497 E5.9182
G1 X78.840 Y58.652 E5.9468
G1 X79.183 Y57.610 E5.9833
G1 X79.992 Y57.526 E6.0103
G1 X80.528 Y58.474 E6.0466
G1 X80.845 Y59.270 E6.0751
G1 X80.978 Y59.847 E6.0948
G1 X80.999 Y60.135 E6.1044
G1 X81.082 Y60.426 E6.1144
G1 X81.342 Y60.707 E6.1272
G1 X81.689 Y60.818 E6.1393
G1 X82.406 Y60.819 E6.1632
G1 X82.661 Y60.724 E6.1722
G1 X82.926 Y60.460 E6.1846
G1 X83.021 Y60.173 E6.1947
G1 X83.056 Y59.884 E6.2043
G1 X83.214 Y59.313 E6.2241
G1 X83.566 Y58.529 E6.2526
G1 X84.145 Y57.599 E6.2891
G1 X84.950 Y57.712 E6.3161
G1 X85.245 Y58.764 E6.3524
G1 X85.362 Y59.614 E6.3810
G1 X85.355 Y60.205 E6.4006
G1 X85.307 Y60.493 E6.4104
G1 X85.318 Y60.786 E6.4201
G1 X85.426 Y61.026 E6.4288
G1 X85.563 Y61.182 E6.4357
G1 X85.818 Y61.323 E6.4455
G1 X86.517 Y61.499 E6.4694
G1 X86.880 Y61.427 E6.4817
G1 X87.103 Y61.265 E6.4909
G1 X87.259 Y61.018 E6.5006
G1 X87.362 Y60.744 E6.5104
G1 X87.651 Y60.228 E6.5300
G1 X88.178 Y59.551 E6.5586
G1 X88.960 Y58.786 E6.5949
G1 X89.713 Y59.090 E6.6219
G1 X89.749 Y60.184 E6.6583
G1 X89.662 Y61.040 E6.6869
G1 X89.514 Y61.613 E6.7066
G1 X89.400 Y61.881 E6.7163
G1 X89.339 Y62.176 E6.7264
G1 X89.436 Y62.539 E6.7388
G1 X89.610 Y62.749 E6.7479
G1 X90.232 Y63.106 E6.7718
G1 X90.583 Y63.183 E6.7837
G1 X90.901 Y63.100 E6.7946
G1 X91.167 Y62.864 E6.8065
G1 X91.332 Y62.621 E6.8162
G1 X91.736 Y62.188 E6.8359
G1 X92.408 Y61.657 E6.8644
G1 X93.347 Y61.103 E6.9007
G1 X94.005 Y61.581 E6.9277
G1 X93.781 Y62.653 E6.9642
G1 X93.493 Y63.463 E6.9928
G1 X93.210 Y63.990 E7.0127
G1 X92.976 Y64.315 E7.0260
G1 X92.889 Y64.683 E7.0385
G1 X92.994 Y65.046 E7.0511
G1 X93.154 Y65.239 E7.0595
G1 X93.553 Y65.606 E7.0775
G1 X93.822 Y65.755 E7.0877
G1 X94.194 Y65.766 E7.1001
G1 X94.438 Y65.663 E7.1089
G1 X94.733 Y65.407 E7.1219
G1 X95.233 Y65.080 E7.1418
G1 X96.010 Y64.726 E7.1702
G1 X97.052 Y64.414 E7.2064
G1 X97.577 Y65.037 E7.2335
G1 X97.105 Y66.026 E7.2699
G1 X96.634 Y66.744 E7.2985
G1 X96.230 Y67.193 E7.3186
G1 X95.928 Y67.449 E7.3317
G1 X95.758 Y67.786 E7.3443
G1 X95.774 Y68.165 E7.3569
G1 X95.882 Y68.387 E7.3651
G1 X96.254 Y68.928 E7.3869
G1 X96.464 Y69.078 E7.3955
G1 X96.783 Y69.153 E7.4064
G1 X97.127 Y69.066 E7.4182
G1 X97.370 Y68.935 E7.4274
G1 X97.937 Y68.735 E7.4474
G1 X98.775 Y68.578 E7.4757
G1 X99.859 Y68.527 E7.5118
G1 X100.220 Y69.260 E7.5390
G1 X99.528 Y70.107 E7.5754
G1 X98.900 Y70.692 E7.6039
G1 X98.395 Y71.035 E7.6243
G1 X98.055 Y71.204 E7.6369
G1 X97.881 Y71.374 E7.6450
G1 X97.779 Y71.559 E7.6520
G1 X97.734 Y71.924 E7.6642
G1 X97.884 Y72.394 E7.6806
G1 X98.020 Y72.736 E7.6929
G1 X98.292 Y72.998 E7.7055
G1 X98.662 Y73.092 E7.7181
G1 X99.001 Y73.018 E7.7297
G1 X99.694 Y72.941 E7.7529
G1 X100.542 Y72.991 E7.7811
G1 X101.605 Y73.202 E7.8172
G1 X101.782 Y74.003 E7.8444
G1 X100.909 Y74.660 E7.8808
G1 X100.162 Y75.076 E7.9092
G1 X99.580 Y75.291 E7.9299
G1 X99.207 Y75.373 E7.9426
G1 X98.903 Y75.597 E7.9551
G1 X98.743 Y75.950 E7.9680
G1 X98.790 Y76.680 E7.9923
G1 X98.924 Y77.058 E8.0057
G1 X99.223 Y77.304 E8.0185
G1 X99.540 Y77.369 E8.0293
G1 X99.783 Y77.364 E8.0374
G1 X100.397 Y77.454 E8.0580
G1 X101.208 Y77.707 E8.0863
G1 X102.189 Y78.170 E8.1224
G1 X102.172 Y78.959 E8.1486
G1 X101.267 Y79.376 E8.1818
G1 X101.093 Y79.439 E8.1879
G1 X100.346 Y79.643 E8.2137
G1 X99.719 Y79.711 E8.2347
G1 X99.345 Y79.702 E8.2471
G1 X98.997 Y79.849 E8.2597
G1 X98.760 Y80.154 E8.2726
G1 X98.634 Y80.874 E8.2968
G1 X98.663 Y81.238 E8.3090
G1 X98.879 Y81.561 E8.3219
G1 X99.200 Y81.722 E8.3339
G1 X99.424 Y81.772 E8.3415
G1 X100.009 Y82.011 E8.3625
G1 X100.735 Y82.453 E8.3908
G1 X101.577 Y83.139 E8.4269
G1 X101.379 Y83.880 E8.4524
G1 X100.748 Y83.656
;segType:Loop
G0 X100.291 Y83.700 F10800
G1 X100.255 Y83.706 E8.4537 F3600
G1 X99.463 Y83.724 E8.4800
G1 X98.885 Y83.644 E8.4994
G1 X98.474 Y83.530 E8.5136
G1 X97.910 Y83.623 E8.5326
G1 X97.452 Y83.992 E8.5522
G1 X97.178 Y84.612 E8.5747
G1 X97.037 Y85.029 E8.5893
G1 X97.037 Y85.384 E8.6012
G1 X97.217 Y85.850 E8.6178
G1 X97.473 Y86.122 E8.6302
G1 X97.815 Y86.307 E8.6431
G1 X98.291 Y86.654 E8.6627
G1 X98.848 Y87.217 E8.6891
G1 X99.329 Y87.858 E8.7157
G1 X99.185 Y88.121 E8.7257
G1 X98.389 Y88.055 E8.7523
G1 X97.617 Y87.882 E8.7786
G1 X97.065 Y87.661 E8.7984
G1 X96.699 Y87.452 E8.8124
G1 X96.126 Y87.410 E8.8315
G1 X95.597 Y87.661 E8.8510
G1 X95.191 Y88.190 E8.8732
G1 X94.935 Y88.590 E8.8890
G1 X94.863 Y89.156 E8.9079
G1 X95.083 Y89.702 E8.9275
G1 X95.396 Y89.985 E8.9415
G1 X95.783 Y90.446 E8.9615
G1 X96.190 Y91.127 E8.9879
G1 X96.505 Y91.868 E9.0147
G1 X96.302 Y92.089 E9.0247
G1 X95.547 Y91.833 E9.0512
G1 X94.841 Y91.479 E9.0775
G1 X94.350 Y91.123 E9.0977
G1 X94.077 Y90.862 E9.1102
G1 X93.748 Y90.708 E9.1223
G1 X93.231 Y90.685 E9.1395
G1 X92.890 Y90.806 E9.1516
G1 X92.419 Y91.187 E9.1717
G1 X92.074 Y91.512 E9.1875
G1 X91.865 Y92.054 E9.2068
G1 X91.947 Y92.630 E9.2261
G1 X91.978 Y92.676 E9.2280
G1 X87.452 Y91.464 E9.3838
G1 X87.729 Y91.293 E9.3946
G1 X88.161 Y90.948 E9.4130
G1 X88.550 Y90.553 E9.4315
G1 X88.888 Y90.114 E9.4499
G1 X89.172 Y89.638 E9.4683
G1 X89.397 Y89.130 E9.4868
G1 X89.560 Y88.599 E9.5053
G1 X89.658 Y88.053 E9.5237
G1 X89.690 Y87.499 E9.5422
G1 X89.656 Y86.945 E9.5606
G1 X89.556 Y86.400 E9.5791
G1 X89.391 Y85.870 E9.5975
G1 X89.165 Y85.366 E9.6159
G1 X88.879 Y84.892 E9.6343
G1 X88.539 Y84.457 E9.6527
G1 X88.148 Y84.066 E9.6711
G1 X87.714 Y83.726 E9.6894
G1 X87.242 Y83.442 E9.7078
G1 X86.739 Y83.217 E9.7261
G1 X86.212 Y83.055 E9.7444
G1 X85.670 Y82.958 E9.7627
G1 X85.120 Y82.928 E9.7810
G1 X84.570 Y82.965 E9.7994
G1 X84.029 Y83.069 E9.8177
G1 X83.504 Y83.238 E9.8361
G1 X83.002 Y83.469 E9.8544
G1 X82.531 Y83.759 E9.8728
G1 X82.099 Y84.104 E9.8912
G1 X81.711 Y84.499 E9.9096
G1 X81.372 Y84.938 E9.9281
G1 X81.089 Y85.415 E9.9465
G1 X80.864 Y85.922 E9.9650
G1 X80.701 Y86.453 E9.9834
G1 X80.602 Y86.999 E10.0019
G1 X80.570 Y87.553 E10.0204
G1 X80.604 Y88.107 E10.0388
G1 X80.705 Y88.653 E10.0573
G1 X80.869 Y89.182 E10.0757
G1 X81.149 Y89.775 E10.0975
G1 X76.225 Y88.456 E10.2671
G1 X76.758 Y88.087 E10.2887
G1 X77.164 Y87.712 E10.3070
G1 X77.523 Y87.292 E10.3254
G1 X77.829 Y86.832 E10.3438
G1 X78.078 Y86.337 E10.3622
G1 X78.267 Y85.818 E10.3806
G1 X78.392 Y85.278 E10.3990
G1 X78.452 Y84.728 E10.4174
G1 X78.447 Y84.175 E10.4358
G1 X78.375 Y83.625 E10.4543
G1 X78.227 Y83.053 E10.4739
G1 X78.022 Y82.538 E10.4924
G1 X77.769 Y82.068 E10.5101
G1 X77.449 Y81.617 E10.5285
G1 X77.078 Y81.208 E10.5469
G1 X76.661 Y80.847 E10.5652
G1 X76.203 Y80.540 E10.5836
G1 X75.711 Y80.291 E10.6019
G1 X75.194 Y80.103 E10.6202
G1 X74.657 Y79.980 E10.6385
G1 X74.109 Y79.923 E10.6568
G1 X73.558 Y79.934 E10.6752
G1 X73.012 Y80.011 E10.6935
G1 X72.480 Y80.154 E10.7118
G1 X71.968 Y80.361 E10.7302
G1 X71.484 Y80.628 E10.7486
G1 X71.036 Y80.951 E10.7670
G1 X70.629 Y81.327 E10.7854
G1 X70.270 Y81.749 E10.8038
G1 X69.964 Y82.211 E10.8223
G1 X69.715 Y82.707 E10.8407
G1 X69.527 Y83.229 E10.8592
G1 X69.403 Y83.770 E10.8776
G1 X69.344 Y84.323 E10.8961
G1 X69.351 Y84.878 E10.9146
G1 X69.425 Y85.427 E10.9330
G1 X69.564 Y85.964 E10.9515
G1 X69.766 Y86.480 E10.9699
G1 X69.922 Y86.768 E10.9808
G1 X65.368 Y85.548 E11.1376
G1 X65.615 Y85.359 E11.1479
G1 X65.808 Y85.035 E11.1605
G1 X65.892 Y84.496 E11.1786
G1 X65.697 Y83.880 E11.2001
G1 X65.519 Y83.439 E11.2159
G1 X65.090 Y83.050 E11.2352
G1 X64.525 Y82.924 E11.2545
G1 X64.122 Y83.021 E11.2682
G1 X63.509 Y83.086 E11.2887
G1 X62.721 Y83.039 E11.3150
G1 X61.940 Y82.884 E11.3415
G1 X61.876 Y82.594 E11.3514
G1 X62.521 Y82.109 E11.3782
G1 X63.215 Y81.722 E11.4046
G1 X63.781 Y81.517 E11.4246
G1 X64.190 Y81.428 E11.4386
G1 X64.648 Y81.075 E11.4578
G1 X64.878 Y80.525 E11.4776
G1 X64.835 Y79.886 E11.4989
G1 X64.768 Y79.417 E11.5147
G1 X64.448 Y78.935 E11.5339
G1 X63.931 Y78.672 E11.5532
G1 X63.516 Y78.668 E11.5670
G1 X62.902 Y78.583 E11.5877
G1 X62.148 Y78.347 E11.6139
G1 X61.428 Y78.008 E11.6404
G1 X61.435 Y77.708 E11.6504
G1 X62.174 Y77.393 E11.6771
G1 X62.940 Y77.184 E11.7035
G1 X63.513 Y77.123 E11.7227
G1 X63.736 Y77.138 E11.7301
G1 X64.220 Y77.057 E11.7464
G1 X64.686 Y76.691 E11.7661
G1 X64.889 Y76.207 E11.7836
G1 X64.995 Y75.331 E11.8130
G1 X64.802 Y74.780 E11.8324
G1 X64.365 Y74.397 E11.8517
G1 X63.963 Y74.290 E11.8655
G1 X63.381 Y74.058 E11.8864
G1 X62.707 Y73.648 E11.9126
G1 X62.088 Y73.144 E11.9392
G1 X62.166 Y72.853 E11.9492
G1 X62.957 Y72.724 E11.9758
G1 X63.748 Y72.706 E12.0021
G1 X64.320 Y72.784 E12.0213
G1 X64.734 Y72.900 E12.0356
G1 X65.297 Y72.809 E12.0546
G1 X65.736 Y72.459 E12.0733
G1 X65.897 Y72.166 E12.0844
G1 X66.170 Y71.437 E12.1103
G1 X66.175 Y71.046 E12.1233
G1 X65.985 Y70.554 E12.1408
G1 X65.601 Y70.223 E12.1577
G1 X65.376 Y70.109 E12.1661
G1 X64.921 Y69.777 E12.1848
G1 X64.363 Y69.214 E12.2112
G1 X63.882 Y68.573 E12.2378
G1 X64.027 Y68.309 E12.2478
G1 X64.823 Y68.375 E12.2744
G1 X65.595 Y68.548 E12.3007
G1 X66.119 Y68.757 E12.3195
G1 X66.500 Y68.972 E12.3340
G1 X67.033 Y69.020 E12.3518
G1 X67.426 Y68.889 E12.3656
G1 X67.767 Y68.596 E12.3806
G1 X68.261 Y67.877 E12.4096
G1 X68.346 Y67.336 E12.4278
G1 X68.247 Y66.960 E12.4407
G1 X68.084 Y66.688 E12.4513
G1 X67.789 Y66.418 E12.4646
G1 X67.429 Y65.986 E12.4833
G1 X67.022 Y65.303 E12.5097
G1 X66.707 Y64.563 E12.5365
G1 X66.909 Y64.341 E12.5465
G1 X67.664 Y64.597 E12.5730
G1 X68.373 Y64.952 E12.5993
G1 X68.817 Y65.270 E12.6175
G1 X69.008 Y65.460 E12.6265
G1 X69.394 Y65.706 E12.6417
G1 X69.979 Y65.754 E12.6612
G1 X70.459 Y65.531 E12.6788
G1 X71.115 Y64.947 E12.7080
G1 X71.328 Y64.442 E12.7262
G1 X71.321 Y64.015 E12.7405
G1 X71.156 Y63.622 E12.7546
G1 X70.999 Y63.397 E12.7638
G1 X70.761 Y62.906 E12.7819
G1 X70.527 Y62.143 E12.8085
G1 X70.397 Y61.346 E12.8353
G1 X70.646 Y61.180 E12.8452
G1 X71.316 Y61.611 E12.8717
G1 X71.919 Y62.127 E12.8981
G1 X72.273 Y62.541 E12.9163
G1 X72.501 Y62.895 E12.9303
G1 X72.811 Y63.145 E12.9435
G1 X73.293 Y63.291 E12.9603
G1 X73.801 Y63.195 E12.9775
G1 X74.577 Y62.785 E13.0066
G1 X74.906 Y62.348 E13.0249
G1 X75.002 Y61.925 E13.0393
G1 X74.937 Y61.510 E13.0533
G1 X74.834 Y61.242 E13.0628
G1 X74.722 Y60.715 E13.0807
G1 X74.677 Y59.916 E13.1073
G1 X74.740 Y59.109 E13.1342
G1 X75.018 Y59.009 E13.1441
G1 X75.566 Y59.589 E13.1706
G1 X76.028 Y60.236 E13.1971
G1 X76.271 Y60.718 E13.2150
G1 X76.419 Y61.147 E13.2301
G1 X76.796 Y61.566 E13.2489
G1 X77.333 Y61.744 E13.2677
G1 X77.691 Y61.709 E13.2797
G1 X78.292 Y61.568 E13.3002
G1 X78.670 Y61.376 E13.3143
G1 X78.949 Y61.057 E13.3284
G1 X79.108 Y60.602 E13.3444
G1 X79.066 Y60.087 E13.3616
G1 X79.083 Y59.541 E13.3798
G1 X79.229 Y58.752 E13.4064
G1 X79.481 Y57.984 E13.4334
G1 X79.774 Y57.953 E13.4431
G1 X80.167 Y58.649 E13.4697
G1 X80.462 Y59.390 E13.4963
G1 X80.581 Y59.907 E13.5139
G1 X80.603 Y60.206 E13.5239
G1 X80.724 Y60.629 E13.5385
G1 X81.120 Y61.059 E13.5580
G1 X81.627 Y61.220 E13.5756
G1 X82.478 Y61.221 E13.6039
G1 X82.881 Y61.071 E13.6182
G1 X83.275 Y60.678 E13.6367
G1 X83.413 Y60.262 E13.6513
G1 X83.449 Y59.963 E13.6614
G1 X83.591 Y59.451 E13.6790
G1 X83.920 Y58.720 E13.7057
G1 X84.347 Y58.034 E13.7326
G1 X84.636 Y58.074 E13.7423
G1 X84.852 Y58.847 E13.7690
G1 X84.962 Y59.639 E13.7956
G1 X84.955 Y60.169 E13.8132
G1 X84.906 Y60.468 E13.8232
G1 X84.922 Y60.879 E13.8370
G1 X85.086 Y61.247 E13.8504
G1 X85.309 Y61.501 E13.8616
G1 X85.671 Y61.701 E13.8753
G1 X86.507 Y61.911 E13.9040
G1 X87.043 Y61.805 E13.9222
G1 X87.400 Y61.546 E13.9369
G1 X87.619 Y61.198 E13.9505
G1 X87.725 Y60.915 E13.9606
G1 X87.984 Y60.452 E13.9782
G1 X88.476 Y59.820 E14.0049
G1 X89.052 Y59.257 E14.0317
G1 X89.322 Y59.366 E14.0413
G1 X89.349 Y60.170 E14.0681
G1 X89.267 Y60.968 E14.0948
G1 X89.134 Y61.483 E14.1124
G1 X89.016 Y61.760 E14.1224
G1 X88.928 Y62.189 E14.1370
G1 X89.073 Y62.729 E14.1556
G1 X89.348 Y63.062 E14.1700
G1 X90.087 Y63.486 E14.1983
G1 X90.591 Y63.597 E14.2155
G1 X91.093 Y63.465 E14.2328
G1 X91.469 Y63.133 E14.2494
G1 X91.645 Y62.874 E14.2599
G1 X92.007 Y62.486 E14.2775
G1 X92.634 Y61.990 E14.3041
G1 X93.324 Y61.583 E14.3308
G1 X93.560 Y61.754 E14.3404
G1 X93.395 Y62.544 E14.3673
G1 X93.127 Y63.299 E14.3939
G1 X92.871 Y63.775 E14.4119
G1 X92.605 Y64.144 E14.4270
G1 X92.476 Y64.693 E14.4458
G1 X92.633 Y65.239 E14.4647
G1 X92.864 Y65.518 E14.4767
G1 X93.318 Y65.936 E14.4973
G1 X93.713 Y66.154 E14.5123
G1 X94.269 Y66.171 E14.5308
G1 X94.652 Y66.009 E14.5446
G1 X94.973 Y65.730 E14.5588
G1 X95.425 Y65.434 E14.5767
G1 X96.150 Y65.103 E14.6032
G1 X96.915 Y64.874 E14.6298
G1 X97.104 Y65.098 E14.6395
G1 X96.756 Y65.827 E14.6664
G1 X96.317 Y66.497 E14.6930
G1 X95.951 Y66.903 E14.7112
G1 X95.608 Y67.195 E14.7262
G1 X95.354 Y67.698 E14.7450
G1 X95.378 Y68.266 E14.7638
G1 X95.536 Y68.591 E14.7759
G1 X95.965 Y69.215 E14.8010
G1 X96.297 Y69.452 E14.8146
G1 X96.787 Y69.567 E14.8314
G1 X97.273 Y69.444 E14.8480
G1 X97.532 Y69.304 E14.8578
G1 X98.041 Y69.125 E14.8758
G1 X98.821 Y68.979 E14.9022
G1 X99.616 Y68.941 E14.9287
G1 X99.747 Y69.205 E14.9385
G1 X99.236 Y69.831 E14.9653
G1 X98.651 Y70.375 E14.9919
G1 X98.193 Y70.686 E15.0103
G1 X97.820 Y70.872 E15.0242
G1 X97.560 Y71.128 E15.0363
G1 X97.392 Y71.432 E15.0479
G1 X97.326 Y71.962 E15.0656
G1 X97.508 Y72.530 E15.0855
G1 X97.680 Y72.966 E15.1011
G1 X98.092 Y73.362 E15.1201
G1 X98.655 Y73.506 E15.1394
G1 X99.065 Y73.416 E15.1534
G1 X99.704 Y73.345 E15.1747
G1 X100.491 Y73.391 E15.2010
G1 X101.271 Y73.546 E15.2274
G1 X101.335 Y73.836 E15.2373
G1 X100.691 Y74.321 E15.2641
G1 X99.996 Y74.709 E15.2906
G1 X99.468 Y74.904 E15.3093
G1 X99.039 Y74.999 E15.3239
G1 X98.583 Y75.334 E15.3428
G1 X98.337 Y75.875 E15.3625
G1 X98.394 Y76.763 E15.3921
G1 X98.585 Y77.298 E15.4110
G1 X99.046 Y77.679 E15.4309
G1 X99.504 Y77.772 E15.4464
G1 X99.759 Y77.767 E15.4549
G1 X100.308 Y77.847 E15.4734
G1 X101.064 Y78.083 E15.4997
G1 X101.784 Y78.423 E15.5262
G1 X101.778 Y78.698 E15.5353
G1 X101.116 Y79.003 E15.5596
G1 X100.973 Y79.055 E15.5646
G1 X100.272 Y79.247 E15.5888
G1 X99.702 Y79.309 E15.6079
G1 X99.270 Y79.297 E15.6223
G1 X98.746 Y79.518 E15.6412
G1 X98.383 Y79.986 E15.6608
G1 X98.231 Y80.855 E15.6902
G1 X98.273 Y81.375 E15.7076
G1 X98.606 Y81.873 E15.7275
G1 X99.066 Y82.104 E15.7446
G1 X99.305 Y82.157 E15.7528
G1 X99.829 Y82.371 E15.7716
G1 X100.505 Y82.783 E15.7979
G1 X101.123 Y83.287 E15.8244
G1 X101.045 Y83.578 E15.8345
G1 X100.475 Y83.670 E15.8537
G0 F4800 E14.8537
G0 X99.606 Y83.937 F10800
G0 X99.354 Y81.945
G0 X99.174 Y79.571
G0 X98.911 Y77.288
G0 X98.731 Y75.526
G0 X98.730 Y73.269
G0 X98.551 Y71.268
G0 X98.372 Y69.267
G0 F4800 E15.8537
;segType:HShell
G1 X94.051 Y73.614 E16.0576 F3600
;segType:Loop
G0 X95.106 Y74.850 F10800
G1 X95.110 Y74.854 E16.0577 F3600
G1 X95.418 Y75.313 E16.0761
G1 X95.669 Y75.806 E16.0945
G1 X95.841 Y76.280 E16.1113
G1 X95.990 Y76.915 E16.1330
G1 X96.045 Y77.418 E16.1498
G1 X96.040 Y77.973 E16.1683
G1 X95.968 Y78.523 E16.1867
G1 X95.831 Y79.062 E16.2052
G1 X95.630 Y79.580 E16.2237
G1 X95.369 Y80.069 E16.2421
G1 X95.052 Y80.524 E16.2606
G1 X94.683 Y80.937 E16.2790
G1 X94.268 Y81.303 E16.2974
G1 X93.812 Y81.615 E16.3158
G1 X93.322 Y81.871 E16.3342
G1 X92.805 Y82.065 E16.3525
G1 X92.269 Y82.194 E16.3709
G1 X91.722 Y82.258 E16.3892
G1 X91.171 Y82.256 E16.4075
G1 X90.625 Y82.185 E16.4258
G1 X90.091 Y82.049 E16.4442
G1 X89.578 Y81.849 E16.4625
G1 X89.092 Y81.588 E16.4808
G1 X88.642 Y81.270 E16.4992
G1 X88.233 Y80.899 E16.5175
G1 X87.872 Y80.481 E16.5359
G1 X87.564 Y80.022 E16.5543
G1 X87.313 Y79.528 E16.5727
G1 X87.123 Y79.008 E16.5911
G1 X86.997 Y78.468 E16.6096
G1 X86.937 Y77.916 E16.6280
G1 X86.942 Y77.362 E16.6465
G1 X87.014 Y76.811 E16.6649
G1 X87.152 Y76.273 E16.6834
G1 X87.352 Y75.756 E16.7019
G1 X87.613 Y75.266 E16.7203
G1 X87.930 Y74.811 E16.7388
G1 X88.299 Y74.398 E16.7572
G1 X88.714 Y74.032 E16.7756
G1 X89.170 Y73.720 E16.7940
G1 X89.660 Y73.464 E16.8124
G1 X90.177 Y73.271 E16.8307
G1 X90.713 Y73.140 E16.8491
G1 X91.260 Y73.077 E16.8674
G1 X91.811 Y73.080 E16.8857
G1 X92.357 Y73.150 E16.9040
G1 X92.891 Y73.286 E16.9223
G1 X93.404 Y73.486 E16.9406
G1 X93.890 Y73.746 E16.9590
G1 X94.340 Y74.065 E16.9773
G1 X94.749 Y74.436 E16.9957
G1 X94.984 Y74.709 E17.0077
;segType:Perimeter
G0 X94.037 Y73.751 F10800
G1 X94.132 Y74.418 E17.0301 F2159
G1 X94.463 Y74.718 E17.0449
G1 X94.792 Y75.100 E17.0617
G1 X95.073 Y75.518 E17.0785
G1 X95.302 Y75.968 E17.0952
G1 X95.458 Y76.395 E17.1104
G1 X95.595 Y76.984 E17.1305
G1 X95.645 Y77.438 E17.1457
G1 X95.640 Y77.945 E17.1625
G1 X95.574 Y78.447 E17.1794
G1 X95.449 Y78.938 E17.1962
G1 X95.266 Y79.411 E17.2131
G1 X95.028 Y79.858 E17.2299
G1 X94.739 Y80.273 E17.2468
G1 X94.402 Y80.650 E17.2636
G1 X94.023 Y80.984 E17.2804
G1 X93.606 Y81.269 E17.2972
G1 X93.159 Y81.502 E17.3139
G1 X92.688 Y81.679 E17.3307
G1 X92.199 Y81.798 E17.3474
G1 X91.700 Y81.856 E17.3641
G1 X91.197 Y81.853 E17.3809
G1 X90.699 Y81.789 E17.3975
G1 X90.213 Y81.665 E17.4143
G1 X89.745 Y81.483 E17.4310
G1 X89.302 Y81.245 E17.4477
G1 X88.892 Y80.955 E17.4644
G1 X88.519 Y80.617 E17.4811
G1 X88.190 Y80.235 E17.4979
G1 X87.909 Y79.817 E17.5146
G1 X87.680 Y79.367 E17.5314
G1 X87.507 Y78.892 E17.5482
G1 X87.392 Y78.400 E17.5651
G1 X87.337 Y77.896 E17.5819
G1 X87.342 Y77.390 E17.5987
G1 X87.408 Y76.888 E17.6156
G1 X87.533 Y76.397 E17.6325
G1 X87.716 Y75.924 E17.6493
G1 X87.954 Y75.477 E17.6661
G1 X88.244 Y75.062 E17.6830
G1 X88.580 Y74.685 E17.6998
G1 X88.960 Y74.351 E17.7166
G1 X89.376 Y74.066 E17.7334
G1 X89.823 Y73.833 E17.7502
G1 X90.295 Y73.656 E17.7669
G1 X90.783 Y73.537 E17.7836
G1 X91.282 Y73.479 E17.8003
G1 X91.785 Y73.482 E17.8171
G1 X92.283 Y73.546 E17.8338
G1 X92.769 Y73.670 E17.8505
G1 X93.237 Y73.852 E17.8672
G1 X93.680 Y74.090 E17.8839
G1 X94.045 Y74.348 E17.8987
G1 X94.712 Y74.293
;segType:HShell
G0 X88.947 Y68.698 F10800
G1 X92.416 Y65.208 E18.0624 F3600
G1 X92.617 Y65.534
G1 X88.892 Y69.282 E18.2381
;segType:Perimeter
G0 X88.758 Y69.342 F10800
G1 X88.188 Y69.695 E18.2604 F2159
G1 X88.046 Y70.123 E18.2754
G1 X87.829 Y70.581 E18.2923
G1 X87.560 Y71.009 E18.3091
G1 X87.242 Y71.403 E18.3259
G1 X86.879 Y71.754 E18.3427
G1 X86.476 Y72.059 E18.3595
G1 X86.041 Y72.314 E18.3763
G1 X85.578 Y72.514 E18.3931
G1 X85.096 Y72.656 E18.4098
G1 X84.600 Y72.738 E18.4265
G1 X84.098 Y72.760 E18.4432
G1 X83.597 Y72.720 E18.4599
G1 X83.105 Y72.620 E18.4766
G1 X82.629 Y72.461 E18.4933
G1 X82.176 Y72.245 E18.5100
G1 X81.751 Y71.975 E18.5267
G1 X81.363 Y71.656 E18.5435
G1 X81.016 Y71.291 E18.5602
G1 X80.715 Y70.887 E18.5770
G1 X80.465 Y70.449 E18.5938
G1 X80.269 Y69.983 E18.6106
G1 X80.131 Y69.497 E18.6274
G1 X80.052 Y68.997 E18.6442
G1 X80.032 Y68.491 E18.6611
G1 X80.074 Y67.986 E18.6779
G1 X80.176 Y67.489 E18.6948
G1 X80.336 Y67.009 E18.7116
G1 X80.552 Y66.551 E18.7285
G1 X80.821 Y66.122 E18.7453
G1 X81.140 Y65.729 E18.7621
G1 X81.503 Y65.377 E18.7789
G1 X81.905 Y65.072 E18.7957
G1 X82.341 Y64.818 E18.8125
G1 X82.803 Y64.618 E18.8293
G1 X83.286 Y64.476 E18.8460
G1 X83.782 Y64.393 E18.8627
G1 X84.284 Y64.372 E18.8794
G1 X84.784 Y64.411 E18.8961
G1 X85.276 Y64.511 E18.9128
G1 X85.752 Y64.670 E18.9295
G1 X86.206 Y64.886 E18.9462
G1 X86.630 Y65.156 E18.9630
G1 X87.018 Y65.476 E18.9797
G1 X87.366 Y65.840 E18.9964
G1 X87.623 Y66.186 E19.0108
G1 X87.945 Y66.751 E19.0324
G1 X88.133 Y67.220 E19.0492
G1 X88.263 Y67.707 E19.0659
G1 X88.333 Y68.205 E19.0827
G1 X88.349 Y68.640 E19.0972
G1 X88.308 Y69.146 E19.1140
G1 X88.217 Y69.587 E19.1290
G1 X88.533 Y70.181
;segType:Loop
G0 X88.184 Y70.767 F10800
G1 X88.180 Y70.775 E19.1293 F3600
G1 X87.886 Y71.245 E19.1478
G1 X87.537 Y71.676 E19.1662
G1 X87.139 Y72.061 E19.1846
G1 X86.698 Y72.395 E19.2030
G1 X86.221 Y72.674 E19.2214
G1 X85.714 Y72.893 E19.2398
G1 X85.185 Y73.049 E19.2581
G1 X84.641 Y73.139 E19.2764
G1 X84.091 Y73.163 E19.2948
G1 X83.542 Y73.120 E19.3131
G1 X83.002 Y73.010 E19.3314
G1 X82.480 Y72.835 E19.3497
G1 X81.983 Y72.598 E19.3680
G1 X81.517 Y72.302 E19.3864
G1 X81.091 Y71.952 E19.4047
G1 X80.710 Y71.552 E19.4231
G1 X80.381 Y71.108 E19.4415
G1 X80.106 Y70.628 E19.4599
G1 X79.892 Y70.117 E19.4783
G1 X79.740 Y69.584 E19.4967
G1 X79.653 Y69.036 E19.5152
G1 X79.632 Y68.482 E19.5337
G1 X79.677 Y67.929 E19.5521
G1 X79.789 Y67.385 E19.5706
G1 X79.964 Y66.858 E19.5891
G1 X80.201 Y66.356 E19.6075
G1 X80.496 Y65.887 E19.6259
G1 X80.845 Y65.456 E19.6444
G1 X81.243 Y65.071 E19.6628
G1 X81.683 Y64.736 E19.6812
G1 X82.160 Y64.458 E19.6996
G1 X82.668 Y64.239 E19.7179
G1 X83.197 Y64.083 E19.7363
G1 X83.740 Y63.992 E19.7546
G1 X84.291 Y63.969 E19.7730
G1 X84.840 Y64.012 E19.7913
G1 X85.380 Y64.122 E19.8096
G1 X85.902 Y64.296 E19.8279
G1 X86.399 Y64.533 E19.8462
G1 X86.864 Y64.829 E19.8646
G1 X87.290 Y65.180 E19.8829
G1 X87.671 Y65.580 E19.9013
G1 X87.957 Y65.965 E19.9172
G1 X88.306 Y66.574 E19.9406
G1 X88.513 Y67.092 E19.9591
G1 X88.655 Y67.626 E19.9775
G1 X88.732 Y68.169 E19.9957
G1 X88.750 Y68.649 E20.0117
G1 X88.704 Y69.203 E20.0302
G1 X88.593 Y69.747 E20.0487
G1 X88.417 Y70.273 E20.0671
G1 X88.264 Y70.598 E20.0791
G0 X85.137 Y72.838 F10800
G0 X83.571 Y72.906
G0 X77.865 Y71.381
;segType:HShell
G1 X79.558 Y69.678 E20.1589 F3600
G1 X79.676 Y70.089
G1 X77.971 Y71.804 E20.2394
G1 X78.043 Y72.260
G1 X79.823 Y70.470 E20.3233
G1 X79.991 Y70.830
G1 X78.069 Y72.764 E20.4140
;segType:Perimeter
G0 X77.950 Y72.784 F10800
G1 X77.450 Y73.232 E20.4363 F2159
G1 X77.381 Y73.679 E20.4514
G1 X77.244 Y74.166 E20.4682
G1 X77.050 Y74.634 E20.4851
G1 X76.801 Y75.076 E20.5019
G1 X76.502 Y75.484 E20.5187
G1 X76.156 Y75.852 E20.5356
G1 X75.769 Y76.177 E20.5524
G1 X75.346 Y76.452 E20.5691
G1 X74.894 Y76.674 E20.5859
G1 X74.418 Y76.839 E20.6026
G1 X73.927 Y76.946 E20.6194
G1 X73.427 Y76.992 E20.6361
G1 X72.924 Y76.977 E20.6528
G1 X72.428 Y76.901 E20.6695
G1 X71.945 Y76.765 E20.6862
G1 X71.481 Y76.572 E20.7029
G1 X71.045 Y76.323 E20.7196
G1 X70.641 Y76.023 E20.7363
G1 X70.277 Y75.676 E20.7531
G1 X69.957 Y75.286 E20.7698
G1 X69.686 Y74.861 E20.7866
G1 X69.468 Y74.406 E20.8034
G1 X69.307 Y73.927 E20.8202
G1 X69.203 Y73.432 E20.8370
G1 X69.160 Y72.927 E20.8539
G1 X69.178 Y72.421 E20.8707
G1 X69.255 Y71.920 E20.8876
G1 X69.392 Y71.432 E20.9044
G1 X69.587 Y70.964 E20.9213
G1 X69.835 Y70.523 E20.9381
G1 X70.134 Y70.115 E20.9549
G1 X70.480 Y69.746 E20.9718
G1 X70.867 Y69.422 E20.9886
G1 X71.290 Y69.147 E21.0053
G1 X71.743 Y68.925 E21.0221
G1 X72.218 Y68.759 E21.0388
G1 X72.710 Y68.653 E21.0556
G1 X73.210 Y68.606 E21.0723
G1 X73.712 Y68.621 E21.0890
G1 X74.208 Y68.697 E21.1057
G1 X74.692 Y68.833 E21.1224
G1 X75.155 Y69.027 E21.1391
G1 X75.591 Y69.276 E21.1558
G1 X75.995 Y69.576 E21.1725
G1 X76.359 Y69.923 E21.1893
G1 X76.679 Y70.312 E21.2060
G1 X76.950 Y70.737 E21.2228
G1 X77.168 Y71.193 E21.2396
G1 X77.330 Y71.672 E21.2564
G1 X77.433 Y72.167 E21.2732
G1 X77.472 Y72.623 E21.2884
G1 X77.460 Y73.121 E21.3050
G1 X77.872 Y73.651
;segType:Loop
G0 X77.625 Y74.289 F10800
G1 X77.622 Y74.299 E21.3053 F3600
G1 X77.410 Y74.812 E21.3238
G1 X77.138 Y75.295 E21.3422
G1 X76.810 Y75.742 E21.3607
G1 X76.431 Y76.146 E21.3791
G1 X76.006 Y76.501 E21.3975
G1 X75.543 Y76.803 E21.4159
G1 X75.047 Y77.046 E21.4343
G1 X74.526 Y77.228 E21.4526
G1 X73.987 Y77.344 E21.4710
G1 X73.439 Y77.395 E21.4893
G1 X72.888 Y77.379 E21.5076
G1 X72.344 Y77.295 E21.5259
G1 X71.813 Y77.146 E21.5442
G1 X71.305 Y76.934 E21.5626
G1 X70.826 Y76.661 E21.5809
G1 X70.384 Y76.332 E21.5992
G1 X69.985 Y75.951 E21.6176
G1 X69.633 Y75.524 E21.6360
G1 X69.336 Y75.058 E21.6544
G1 X69.097 Y74.558 E21.6728
G1 X68.920 Y74.033 E21.6912
G1 X68.807 Y73.490 E21.7097
G1 X68.760 Y72.937 E21.7281
G1 X68.779 Y72.383 E21.7466
G1 X68.864 Y71.834 E21.7650
G1 X69.014 Y71.300 E21.7835
G1 X69.227 Y70.787 E21.8020
G1 X69.499 Y70.304 E21.8204
G1 X69.827 Y69.857 E21.8389
G1 X70.206 Y69.453 E21.8573
G1 X70.630 Y69.097 E21.8757
G1 X71.093 Y68.796 E21.8941
G1 X71.589 Y68.552 E21.9124
G1 X72.110 Y68.371 E21.9308
G1 X72.649 Y68.254 E21.9491
G1 X73.198 Y68.203 E21.9675
G1 X73.748 Y68.220 E21.9858
G1 X74.293 Y68.303 E22.0041
G1 X74.823 Y68.452 E22.0224
G1 X75.331 Y68.665 E22.0407
G1 X75.810 Y68.938 E22.0591
G1 X76.252 Y69.267 E22.0774
G1 X76.652 Y69.648 E22.0958
G1 X77.003 Y70.074 E22.1141
G1 X77.300 Y70.541 E22.1325
G1 X77.539 Y71.040 E22.1510
G1 X77.716 Y71.565 E22.1694
G1 X77.830 Y72.108 E22.1878
G1 X77.873 Y72.610 E22.2046
G1 X77.858 Y73.213 E22.2246
G1 X77.772 Y73.764 E22.2432
G1 X77.676 Y74.109 E22.2551
;segType:HShell
G0 X77.923 Y73.968 F10800
G1 X80.403 Y71.474 E22.3721 F3600
G1 X80.183 Y71.166
G1 X78.044 Y73.318 E22.4730
G0 X77.732 Y70.986 F10800
G1 X79.481 Y69.227 E22.5555 F3600
G1 X79.441 Y68.738
G1 X77.563 Y70.627 E22.6441
G1 X77.376 Y70.287
G1 X79.455 Y68.195 E22.7422
G1 X79.546 Y67.575
G1 X77.170 Y69.964 E22.8542
G1 X76.933 Y69.674
G1 X79.764 Y66.826 E22.9878
G0 X80.529 Y65.528 F10800
G1 X76.681 Y69.398 E23.1693 F3600
G1 X76.411 Y69.141
G1 X84.718 Y60.785 E23.5612
G1 X84.742 Y60.231
G1 X76.112 Y68.913 E23.9683
G1 X75.798 Y68.700
G1 X84.762 Y59.683 E24.3912
G1 X84.701 Y59.214
G1 X83.607 Y60.315 E24.4429
G1 X83.745 Y59.648
G1 X84.622 Y58.765 E24.4842
G1 X84.506 Y58.353
G1 X84.206 Y58.655 E24.4984
G0 X83.083 Y60.559 F10800
G0 X82.439 Y61.003
G0 X81.242 Y60.865
G0 X80.920 Y60.518
G0 X79.771 Y58.355
G1 X79.483 Y58.645 E24.5120 F3600
G1 X79.325 Y59.332
G1 X79.961 Y58.692 E24.5420
G1 X80.117 Y59.065
G1 X79.272 Y59.915 E24.5818
G1 X79.294 Y60.422
G1 X80.267 Y59.443 E24.6277
G1 X80.367 Y59.871
G1 X79.147 Y61.099 E24.6853
G0 X77.358 Y61.521 F10800
G0 X76.920 Y61.373
G0 X74.927 Y59.525
G1 X75.082 Y59.369 E24.6927 F3600
G1 X75.339 Y59.640
G1 X74.887 Y60.094 E24.7139
G1 X74.916 Y60.594
G1 X75.569 Y59.937 E24.7447
G1 X75.788 Y60.245
G1 X74.996 Y61.042 E24.7821
G1 X75.125 Y61.442
G1 X75.979 Y60.583 E24.8224
G1 X76.139 Y60.950
G1 X75.200 Y61.895 E24.8667
G0 X74.787 Y62.840 F10800
G1 X76.302 Y61.316 E24.9381 F3600
G1 X76.552 Y61.594
G1 X66.151 Y72.056 E25.4288
G0 X65.800 Y70.685 F10800
G0 X64.387 Y68.541
G1 X64.247 Y68.681 E25.4354 F3600
G1 X64.459 Y68.998
G1 X64.864 Y68.590 E25.4545
G1 X65.294 Y68.687
G1 X64.708 Y69.276 E25.4822
G1 X64.970 Y69.541
G1 X65.701 Y68.806 E25.5166
G1 X66.073 Y68.961
G1 X65.261 Y69.777 E25.5549
G1 X65.579 Y69.987
G1 X66.409 Y69.151 E25.5941
G1 X66.879 Y69.208
G1 X65.888 Y70.205 E25.6408
G1 X66.163 Y70.458
G1 X67.650 Y68.961 E25.7110
G1 X68.005 Y68.605
G1 X73.128 Y63.451 E25.9527
G1 X73.682 Y63.422
G1 X66.310 Y70.839 E26.3005
G1 X66.371 Y71.306
G1 X74.657 Y62.970 E26.6915
G0 X71.493 Y64.566 F10800
G1 X72.723 Y63.329 E26.7495 F3600
G1 X72.430 Y63.095
G1 X71.521 Y64.009 E26.7924
G1 X71.375 Y63.627
G1 X72.200 Y62.797 E26.8313
G1 X71.972 Y62.497
G1 X71.175 Y63.299 E26.8689
G1 X71.002 Y62.944
G1 X71.721 Y62.221 E26.9028
G1 X71.437 Y61.978
G1 X70.863 Y62.555 E26.9299
G1 X70.739 Y62.151
G1 X71.147 Y61.741 E26.9491
G1 X70.826 Y61.535
G1 X70.677 Y61.684 E26.9561
G0 X71.109 Y64.399 F10800
G0 X70.933 Y64.815
G0 X69.939 Y65.528
G0 X69.466 Y65.490
G0 X67.201 Y64.652
G1 X67.052 Y64.802 E26.9631 F3600
G1 X67.192 Y65.190
G1 X67.593 Y64.786 E26.9821
G1 X67.944 Y64.962
G1 X67.386 Y65.524 E27.0084
G1 X67.584 Y65.854
G1 X68.292 Y65.141 E27.0418
G1 X68.599 Y65.361
G1 X67.822 Y66.144 E27.0785
G1 X68.080 Y66.412
G1 X68.876 Y65.612 E27.1160
G1 X69.197 Y65.818
G1 X68.323 Y66.697 E27.1572
G1 X68.482 Y67.066
G1 X69.616 Y65.926 E27.2107
G1 X70.190 Y65.878
G1 X68.512 Y67.565 E27.2899
G0 X71.287 Y68.477 F10800
G1 X77.845 Y61.880 E27.5993 F3600
G1 X78.624 Y61.625
G1 X72.126 Y68.162 E27.9058
G1 X72.772 Y68.041
G1 X80.432 Y60.335 E28.2672
G1 X80.554 Y60.741
G1 X73.332 Y68.006 E28.6079
G1 X73.835 Y68.030
G1 X80.807 Y61.015 E28.9368
G1 X81.090 Y61.260
G1 X74.291 Y68.100 E29.2576
G1 X74.707 Y68.211
G1 X81.489 Y61.387 E29.5776
G1 X81.981 Y61.422
G1 X75.096 Y68.348 E29.9024
G1 X75.462 Y68.508
G1 X82.506 Y61.422 E30.2347
G0 X81.206 Y64.847 F10800
G1 X84.841 Y61.190 E30.4062 F3600
G1 X85.049 Y61.509
G1 X82.468 Y64.106 E30.5280
G1 X83.224 Y63.874
G1 X85.339 Y61.747 E30.6278
G1 X85.698 Y61.915
G1 X83.837 Y63.787 E30.7155
G1 X84.376 Y63.773
G1 X86.119 Y62.021 E30.7977
G1 X86.560 Y62.105
G1 X84.864 Y63.812 E30.8778
G1 X85.302 Y63.900
G1 X87.384 Y61.805 E30.9760
G1 X87.627 Y61.561
G1 X89.144 Y60.035 E31.0476
G1 X89.103 Y60.605
G1 X85.709 Y64.020 E31.2077
G1 X86.091 Y64.164
G1 X88.988 Y61.250 E31.3444
G0 X89.127 Y59.523 F10800
G1 X88.364 Y60.290 E31.3803 F3600
G0 X88.761 Y62.007 F10800
G1 X86.448 Y64.334 E31.4895 F3600
G1 X86.775 Y64.534
G1 X88.803 Y62.494 E31.5851
G1 X88.941 Y62.884
G1 X87.085 Y64.751 E31.6727
G1 X87.374 Y64.989
G1 X89.180 Y63.173 E31.7579
G1 X89.499 Y63.381
G1 X87.638 Y65.254 E31.8457
G1 X87.886 Y65.533
G1 X89.834 Y63.573 E31.9376
G1 X90.214 Y63.720
G1 X88.111 Y65.835 E32.0368
G1 X88.305 Y66.169
G1 X90.678 Y63.782 E32.1488
G0 X92.902 Y62.074 F10800
G1 X88.495 Y66.507 E32.3567 F3600
G1 X88.646 Y66.885
G1 X93.252 Y62.251 E32.5740
G1 X93.014 Y63.019
G1 X88.772 Y67.287 E32.7741
G1 X88.870 Y67.717
G1 X92.392 Y64.173 E32.9403
G1 X92.298 Y64.797
G1 X88.932 Y68.183 E33.0991
G0 X88.727 Y69.976 F10800
G1 X92.877 Y65.802 E33.2948 F3600
G1 X93.151 Y66.055
G1 X88.344 Y70.891 E33.5216
G0 X95.841 Y65.465 F10800
G1 X78.418 Y82.993 E34.3436 F3600
G1 X78.526 Y83.413
G1 X96.646 Y65.185 E35.1984
G1 X96.484 Y65.876
G1 X78.607 Y83.860 E36.0418
G1 X78.648 Y84.348
G1 X87.104 Y75.841 E36.4408
G1 X86.857 Y76.619
G1 X78.636 Y84.890 E36.8286
G1 X78.543 Y85.512
G1 X86.755 Y77.250 E37.2161
G1 X86.738 Y77.797
G1 X78.316 Y86.270 E37.6134
G0 X80.476 Y89.387 F10800
G1 X80.664 Y89.197 E37.6223 F3600
G1 X80.539 Y88.794
G1 X80.060 Y89.276 E37.6449
G1 X79.645 Y89.164
G1 X80.447 Y88.358 E37.6827
G1 X80.390 Y87.886
G1 X79.230 Y89.053 E37.7375
G1 X78.815 Y88.942
G1 X80.381 Y87.366 E37.8113
G1 X80.439 Y86.779
G1 X78.399 Y88.831 E37.9076
G1 X77.984 Y88.719
G1 X80.605 Y86.082 E38.0312
G0 X81.023 Y85.133 F10800
G1 X77.569 Y88.608 E38.1942 F3600
G1 X77.154 Y88.497
G1 X86.855 Y78.738 E38.6519
G1 X86.776 Y78.288
G1 X77.550 Y87.569 E39.0871
G0 X76.869 Y88.254 F10800
G1 X76.738 Y88.386 E39.0933 F3600
G0 X78.061 Y85.756 F10800
G0 X78.232 Y84.190
G0 X77.827 Y82.629
G0 X76.929 Y81.363
G0 X75.627 Y80.489
G0 X74.100 Y80.139
G0 X72.548 Y80.359
G0 X71.171 Y81.119
G0 X70.149 Y82.320
G0 X69.614 Y83.806
G0 X69.443 Y86.203
G1 X69.263 Y86.383 E39.1018 F3600
G1 X68.848 Y86.272
G1 X69.315 Y85.802 E39.1238
G1 X69.216 Y85.373
G1 X68.433 Y86.161 E39.1608
G1 X68.017 Y86.050
G1 X69.154 Y84.906 E39.2144
G1 X69.145 Y84.387
G1 X67.602 Y85.938 E39.2872
G1 X67.187 Y85.827
G1 X69.198 Y83.804 E39.3821
G1 X69.355 Y83.117
G1 X66.771 Y85.716 E39.5039
G1 X66.356 Y85.605
G1 X69.750 Y82.190 E39.6641
G0 X65.052 Y76.336 F10800
G1 X68.564 Y72.803 E39.8298 F3600
G1 X68.598 Y72.240
G1 X65.151 Y75.708 E39.9924
G1 X65.153 Y75.176
G1 X68.727 Y71.581 E40.1610
G1 X69.024 Y70.754
G1 X65.016 Y74.786 E40.3501
G1 X64.780 Y74.494
G1 X77.266 Y61.933 E40.9392
G1 X76.870 Y61.802
G1 X64.499 Y74.248 E41.5228
G1 X64.101 Y74.119
G1 X65.182 Y73.032 E41.5738
G1 X64.613 Y73.075
G1 X63.717 Y73.976 E41.6161
G1 X63.357 Y73.809
G1 X64.191 Y72.970 E41.6554
G1 X63.727 Y72.908
G1 X63.030 Y73.609 E41.6883
G1 X62.721 Y73.391
G1 X63.189 Y72.920 E41.7104
G1 X62.597 Y72.986
G1 X62.445 Y73.139 E41.7176
G0 X64.614 Y74.909 F10800
G0 X64.772 Y75.355
G0 X64.506 Y76.552
G0 X64.129 Y76.848
G0 X62.231 Y77.587
G1 X61.857 Y77.964 E41.7352 F3600
G0 X62.955 Y77.388 F10800
G1 X62.200 Y78.148 E41.7708 F3600
G1 X62.597 Y78.277
G1 X63.542 Y77.326 E41.8154
G1 X64.115 Y77.279
G1 X63.006 Y78.394 E41.8677
G1 X63.469 Y78.458
G1 X68.590 Y73.306 E42.1093
G1 X68.660 Y73.765
G1 X63.981 Y78.472 E42.3301
G1 X64.330 Y78.649
G1 X68.762 Y74.191 E42.5392
G1 X68.895 Y74.586
G1 X64.642 Y78.864 E42.7398
G1 X64.853 Y79.182
G1 X69.062 Y74.948 E42.9384
G1 X69.247 Y75.290
G1 X64.992 Y79.571 E43.1391
G1 X65.046 Y80.045
G1 X69.452 Y75.613 E43.3470
G1 X69.687 Y75.905
G1 X65.080 Y80.540 E43.5644
G0 X63.938 Y81.689 F10800
G1 X62.792 Y82.842 E43.6185 F3600
G1 X63.289 Y82.871
G1 X69.937 Y76.183 E43.9321
G1 X70.207 Y76.440
G1 X63.837 Y82.849 E44.2327
G0 X63.071 Y82.033 F10800
G1 X62.364 Y82.744 E44.2660 F3600
G0 X64.484 Y82.726 F10800
G1 X70.504 Y76.671 E44.5500 F3600
G1 X70.816 Y76.886
G1 X64.929 Y82.808 E44.8277
G1 X65.297 Y82.967
G1 X71.151 Y77.077 E45.1039
G1 X71.516 Y77.240
G1 X65.573 Y83.218 E45.3843
G1 X65.776 Y83.543
G1 X71.902 Y77.380 E45.6733
G1 X72.315 Y77.494
G1 X65.921 Y83.926 E45.9749
G1 X66.049 Y84.327
G1 X72.771 Y77.564 E46.2921
G1 X73.270 Y77.591
G1 X66.037 Y84.868 E46.6333
G1 X65.941 Y85.493
G1 X73.825 Y77.561 E47.0053
G1 X74.465 Y77.447
G1 X71.589 Y80.340 E47.1410
G0 X72.517 Y79.936 F10800
G1 X75.281 Y77.156 E47.2714 F3600
G0 X83.708 Y82.961 F10800
G1 X87.106 Y79.543 E47.4317 F3600
G1 X86.964 Y79.156
G1 X82.769 Y83.377 E47.6296
G0 X84.401 Y82.793 F10800
G1 X87.277 Y79.899 E47.7653 F3600
G1 X87.467 Y80.237
G1 X84.983 Y82.736 E47.8825
G1 X85.498 Y82.748
G1 X87.679 Y80.553 E47.9854
G1 X87.919 Y80.841
G1 X85.965 Y82.806 E48.0776
G1 X86.397 Y82.901
G1 X88.173 Y81.115 E48.1614
G1 X88.449 Y81.366
G1 X86.800 Y83.025 E48.2392
G1 X87.165 Y83.187
G1 X88.750 Y81.592 E48.3140
G1 X89.066 Y81.803
G1 X87.510 Y83.369 E48.3874
G1 X87.838 Y83.568
G1 X89.409 Y81.987 E48.4616
G1 X89.779 Y82.144
G1 X88.133 Y83.799 E48.5392
G1 X88.413 Y84.047
G1 X90.172 Y82.278 E48.6222
G1 X90.592 Y82.384
G1 X88.677 Y84.311 E48.7126
G1 X88.910 Y84.606
G1 X91.058 Y82.444 E48.8139
G1 X91.569 Y82.459
G1 X89.127 Y84.916 E48.9292
G1 X89.326 Y85.245
G1 X92.142 Y82.412 E49.0620
G1 X92.808 Y82.271
G1 X89.492 Y85.606 E49.2184
G1 X89.638 Y85.989
G1 X93.705 Y81.897 E49.4103
G0 X95.364 Y87.634 F10800
G1 X90.858 Y92.168 E49.6229 F3600
G1 X90.442 Y92.057
G1 X96.893 Y85.567 E49.9273
G1 X96.837 Y85.095
G1 X90.027 Y91.946 E50.2486
G1 X89.612 Y91.834
G1 X97.093 Y84.308 E50.6015
G0 X97.404 Y85.731 F10800
G0 X98.794 Y87.887
G1 X98.951 Y87.729 E50.6089 F3600
G1 X98.740 Y87.413
G1 X98.321 Y87.834 E50.6287
G1 X97.891 Y87.738
G1 X98.487 Y87.138 E50.6568
G1 X98.225 Y86.873
G1 X97.488 Y87.614 E50.6916
G1 X97.117 Y87.459
G1 X97.931 Y86.640 E50.7300
G1 X97.616 Y86.428
G1 X96.781 Y87.267 E50.7693
G1 X96.301 Y87.221
G1 X97.293 Y86.223 E50.8161
G1 X97.041 Y85.948
G1 X95.526 Y87.472 E50.8876
G0 X95.089 Y89.126 F10800
G0 X95.986 Y91.770
G1 X96.151 Y91.604 E50.8954 F3600
G1 X96.010 Y91.217
G1 X95.596 Y91.633 E50.9149
G1 X95.245 Y91.457
G1 X95.813 Y90.886 E50.9417
G1 X95.615 Y90.557
G1 X94.901 Y91.275 E50.9753
G1 X94.595 Y91.053
G1 X95.373 Y90.270 E51.0120
G1 X95.115 Y90.001
G1 X94.312 Y90.809 E51.0499
G1 X93.993 Y90.601
G1 X94.873 Y89.716 E51.0915
G1 X94.721 Y89.339
G1 X93.568 Y90.499 E51.1458
G1 X92.982 Y90.560
G1 X94.703 Y88.828 E51.2271
G0 X91.748 Y91.802 F10800
G1 X91.273 Y92.279 E51.2495 F3600
G0 X88.781 Y91.612 F10800
G1 X98.404 Y81.932 E51.7035 F3600
G1 X98.192 Y81.615
G1 X88.366 Y91.501 E52.1670
G1 X87.951 Y91.389
G1 X88.028 Y91.312 E52.1707
G0 X88.876 Y90.459 F10800
G1 X98.060 Y81.220 E52.6039 F3600
G1 X98.056 Y80.695
G1 X89.572 Y89.229 E53.0042
G1 X89.783 Y88.488
G1 X98.168 Y80.052 E53.3998
G0 X100.937 Y78.854 F10800
G1 X101.341 Y78.447 E53.4188 F3600
G0 X100.216 Y79.050 F10800
G1 X100.991 Y78.271 E53.4554 F3600
G1 X100.589 Y78.146
G1 X99.635 Y79.106 E53.5004
G1 X99.039 Y79.176
G1 X100.177 Y78.031 E53.5541
G1 X99.713 Y77.969
G1 X89.869 Y87.873 E54.0185
G1 X89.880 Y87.332
G1 X99.234 Y77.923 E54.4598
G1 X98.851 Y77.778
G1 X89.841 Y86.843 E54.8849
G1 X89.759 Y86.396
G1 X98.563 Y77.540 E55.3002
G1 X98.347 Y77.227
G1 X95.681 Y79.910 E55.4260
G0 X96.051 Y79.009 F10800
G1 X98.208 Y76.838 E55.5278 F3600
G1 X98.167 Y76.350
G1 X96.194 Y78.336 E55.6209
G1 X96.242 Y77.758
G1 X98.136 Y75.853 E55.7103
G0 X99.233 Y74.750 F10800
G1 X100.389 Y73.587 E55.7648 F3600
G1 X99.892 Y73.557
G1 X96.227 Y77.244 E55.9377
G1 X96.164 Y76.779
G1 X99.335 Y73.588 E56.0873
G0 X100.821 Y73.680 F10800
G1 X100.066 Y74.440 E56.1230 F3600
G0 X98.696 Y73.702 F10800
G1 X96.064 Y76.351 E56.2472 F3600
G1 X95.935 Y75.951
G1 X98.260 Y73.612 E56.3568
G1 X97.895 Y73.451
G1 X95.778 Y75.580 E56.4567
G1 X95.600 Y75.230
G1 X97.626 Y73.192 E56.5523
G1 X97.425 Y72.865
G1 X95.390 Y74.912 E56.6483
G1 X95.164 Y74.610
G1 X97.282 Y72.480 E56.7482
G1 X97.154 Y72.080
G1 X94.920 Y74.327 E56.8536
G1 X94.647 Y74.072
G1 X97.179 Y71.526 E56.9730
G0 X98.381 Y70.316 F10800
G1 X99.500 Y69.191 E57.0258 F3600
G1 X98.986 Y69.179
G1 X94.360 Y73.833 E57.2440
G0 X91.742 Y73.468 F10800
G0 X89.124 Y73.104
G0 X86.507 Y72.739
G1 X77.690 Y81.609 E57.6600 F3600
G1 X77.908 Y81.918
G1 X93.479 Y66.254 E58.3946
G1 X93.899 Y66.361
G1 X78.098 Y82.257 E59.1400
G1 X78.268 Y82.615
G1 X94.489 Y66.297 E59.9053
G0 X96.121 Y69.059 F10800
G0 X96.785 Y69.340
G0 X97.633 Y69.482
G1 X93.714 Y73.424 E60.0902 F3600
G1 X93.359 Y73.252
G1 X96.826 Y69.765 E60.2537
G1 X96.385 Y69.679
G1 X92.980 Y73.105 E60.4143
G1 X92.563 Y72.995
G1 X96.029 Y69.508 E60.5779
G1 X95.751 Y69.259
G1 X92.116 Y72.916 E60.7494
G1 X91.628 Y72.877
G1 X95.536 Y68.946 E60.9337
G1 X95.330 Y68.625
G1 X91.085 Y72.894 E61.1340
G1 X90.460 Y72.995
G1 X95.177 Y68.249 E61.3566
G1 X95.156 Y67.742
G1 X89.693 Y73.237 E61.6143
G0 X85.581 Y73.142 F10800
G1 X77.451 Y81.320 E61.9978 F3600
G1 X77.198 Y81.046
G1 X84.897 Y73.300 E62.3611
G1 X84.318 Y73.354
G1 X76.915 Y80.801 E62.7103
G1 X76.615 Y80.574
G1 X83.804 Y73.342 E63.0495
G1 X83.337 Y73.283
G1 X76.299 Y80.363 E63.3815
G1 X75.949 Y80.186
G1 X82.904 Y73.189 E63.7096
G1 X82.510 Y73.057
G1 X75.579 Y80.029 E64.0366
G1 X75.187 Y79.895
G1 X82.143 Y72.897 E64.3648
G1 X81.796 Y72.718
G1 X74.758 Y79.797 E64.6968
G1 X74.289 Y79.740
G1 X81.474 Y72.513 E65.0357
G1 X81.177 Y72.282
G1 X73.775 Y79.728 E65.3849
G1 X73.196 Y79.782
G1 X80.895 Y72.036 E65.7482
G1 X80.638 Y71.766
G1 X77.638 Y74.785 E65.8897
; ------------------------------------
; Layer #3
; ------------------------------------
G21 ; mm
G90 ; abs
G92 E0 ; reset extr
M106 S255
G0 F4800 E-1.0000
G0 F300 Z0.800
G0 X90.596 Y82.337 F10800
G0 X100.292 Y83.697
G0 F4800 E0.0000
;segType:Loop
G1 X100.256 Y83.703 E0.0012 F3600
G1 X99.463 Y83.721 E0.0276
G1 X98.914 Y83.647 E0.0460
G1 X98.489 Y83.530 E0.0607
G1 X97.929 Y83.612 E0.0795
G1 X97.484 Y83.959 E0.0983
G1 X97.312 Y84.269 E0.1101
G1 X97.036 Y85.032 E0.1371
G1 X97.042 Y85.395 E0.1491
G1 X97.214 Y85.838 E0.1649
G1 X97.480 Y86.123 E0.1779
G1 X97.840 Y86.319 E0.1915
G1 X98.291 Y86.649 E0.2101
G1 X98.849 Y87.213 E0.2365
G1 X99.330 Y87.854 E0.2632
G1 X99.185 Y88.118 E0.2732
G1 X98.389 Y88.052 E0.2997
G1 X97.617 Y87.879 E0.3261
G1 X97.092 Y87.670 E0.3449
G1 X96.712 Y87.455 E0.3594
G1 X96.147 Y87.404 E0.3783
G1 X95.635 Y87.636 E0.3970
G1 X95.402 Y87.889 E0.4084
G1 X94.935 Y88.589 E0.4364
G1 X94.864 Y89.143 E0.4550
G1 X95.090 Y89.704 E0.4751
G1 X95.417 Y90.002 E0.4898
G1 X95.783 Y90.441 E0.5088
G1 X96.191 Y91.124 E0.5353
G1 X96.506 Y91.864 E0.5620
G1 X96.303 Y92.086 E0.5720
G1 X95.548 Y91.830 E0.5985
G1 X94.841 Y91.475 E0.6248
G1 X94.373 Y91.138 E0.6440
G1 X94.084 Y90.865 E0.6573
G1 X93.735 Y90.701 E0.6701
G1 X93.212 Y90.687 E0.6875
G1 X92.878 Y90.812 E0.6993
G1 X92.429 Y91.175 E0.7186
G1 X92.086 Y91.497 E0.7342
G1 X91.870 Y92.030 E0.7533
G1 X91.941 Y92.609 E0.7727
G1 X92.171 Y92.959 E0.7866
G1 X92.453 Y93.524 E0.8077
G1 X92.685 Y94.284 E0.8341
G1 X92.815 Y95.081 E0.8609
G1 X92.567 Y95.247 E0.8709
G1 X91.897 Y94.816 E0.8974
G1 X91.295 Y94.301 E0.9237
G1 X90.923 Y93.862 E0.9429
G1 X90.805 Y93.662 E0.9506
G1 X90.473 Y93.322 E0.9664
G1 X90.126 Y93.173 E0.9790
G1 X89.588 Y93.164 E0.9968
G1 X89.022 Y93.429 E1.0176
G1 X88.643 Y93.642 E1.0321
G1 X88.389 Y93.925 E1.0447
G1 X88.204 Y94.452 E1.0633
G1 X88.282 Y94.938 E1.0797
G1 X88.366 Y95.145 E1.0871
G1 X88.490 Y95.714 E1.1065
G1 X88.536 Y96.511 E1.1331
G1 X88.473 Y97.318 E1.1600
G1 X88.195 Y97.418 E1.1698
G1 X87.647 Y96.838 E1.1963
G1 X87.186 Y96.193 E1.2227
G1 X86.921 Y95.658 E1.2426
G1 X86.785 Y95.256 E1.2567
G1 X86.387 Y94.840 E1.2758
G1 X85.822 Y94.672 E1.2954
G1 X84.946 Y94.849 E1.3251
G1 X84.528 Y95.061 E1.3408
G1 X84.272 Y95.353 E1.3537
G1 X84.098 Y95.850 E1.3712
G1 X84.141 Y96.262 E1.3850
G1 X84.129 Y96.890 E1.4058
G1 X83.984 Y97.675 E1.4324
G1 X83.731 Y98.443 E1.4593
G1 X83.439 Y98.474 E1.4691
G1 X83.046 Y97.778 E1.4957
G1 X82.752 Y97.039 E1.5221
G1 X82.624 Y96.463 E1.5417
G1 X82.615 Y96.251 E1.5488
G1 X82.477 Y95.768 E1.5655
G1 X82.057 Y95.344 E1.5854
G1 X81.552 Y95.204 E1.6028
G1 X80.713 Y95.208 E1.6307
G1 X80.359 Y95.340 E1.6433
G1 X79.951 Y95.719 E1.6618
G1 X79.792 Y96.196 E1.6785
G1 X79.774 Y96.405 E1.6855
G1 X79.620 Y96.978 E1.7052
G1 X79.293 Y97.707 E1.7318
G1 X78.866 Y98.393 E1.7587
G1 X78.577 Y98.353 E1.7684
G1 X78.361 Y97.580 E1.7951
G1 X78.251 Y96.790 E1.8216
G1 X78.264 Y96.184 E1.8418
G1 X78.329 Y95.765 E1.8559
G1 X78.158 Y95.198 E1.8756
G1 X77.733 Y94.796 E1.8950
G1 X77.124 Y94.613 E1.9162
G1 X76.664 Y94.512 E1.9319
G1 X76.140 Y94.637 E1.9498
G1 X75.827 Y94.864 E1.9626
G1 X75.578 Y95.259 E1.9781
G1 X75.512 Y95.457 E1.9851
G1 X75.227 Y95.977 E2.0048
G1 X74.736 Y96.607 E2.0314
G1 X74.161 Y97.170 E2.0582
G1 X73.891 Y97.061 E2.0678
G1 X73.864 Y96.256 E2.0946
G1 X73.945 Y95.461 E2.1212
G1 X74.102 Y94.876 E2.1413
G1 X74.263 Y94.487 E2.1553
G1 X74.238 Y93.910 E2.1746
G1 X73.928 Y93.410 E2.1941
G1 X73.358 Y93.069 E2.2162
G1 X72.930 Y92.861 E2.2320
G1 X72.351 Y92.865 E2.2513
G1 X71.853 Y93.152 E2.2704
G1 X71.612 Y93.498 E2.2844
G1 X71.204 Y93.943 E2.3045
G1 X70.579 Y94.437 E2.3310
G1 X69.888 Y94.844 E2.3577
G1 X69.653 Y94.673 E2.3674
G1 X69.818 Y93.883 E2.3942
G1 X70.085 Y93.130 E2.4208
G1 X70.367 Y92.613 E2.4404
G1 X70.504 Y92.443 E2.4476
G1 X70.719 Y91.976 E2.4647
G1 X70.680 Y91.395 E2.4841
G1 X70.399 Y90.955 E2.5014
G1 X69.742 Y90.372 E2.5307
G1 X69.215 Y90.233 E2.5488
G1 X68.826 Y90.288 E2.5619
G1 X68.430 Y90.520 E2.5771
G1 X68.272 Y90.670 E2.5844
G1 X67.785 Y90.994 E2.6038
G1 X67.062 Y91.324 E2.6303
G1 X66.297 Y91.552 E2.6568
G1 X66.109 Y91.329 E2.6666
G1 X66.457 Y90.600 E2.6934
G1 X66.895 Y89.932 E2.7200
G1 X67.296 Y89.492 E2.7398
G1 X67.622 Y89.219 E2.7539
G1 X67.851 Y88.731 E2.7719
G1 X67.868 Y88.334 E2.7851
G1 X67.715 Y87.894 E2.8006
G1 X67.240 Y87.202 E2.8285
G1 X66.928 Y86.979 E2.8412
G1 X66.406 Y86.857 E2.8591
G1 X65.915 Y86.993 E2.8760
G1 X65.714 Y87.108 E2.8837
G1 X65.171 Y87.303 E2.9029
G1 X64.392 Y87.448 E2.9293
G1 X63.596 Y87.486 E2.9557
G1 X63.466 Y87.222 E2.9655
G1 X63.977 Y86.596 E2.9924
G1 X64.561 Y86.052 E3.0189
G1 X65.037 Y85.732 E3.0380
G1 X65.255 Y85.634 E3.0460
G1 X65.627 Y85.340 E3.0618
