; generated by Slic3r 1.2.9 on 2016-06-28 at 11:59:18

; external perimeters extrusion width = 0.40mm
; perimeters extrusion width = 0.67mm
; infill extrusion width = 0.67mm
; solid infill extrusion width = 0.67mm
; top infill extrusion width = 0.40mm
; support material extrusion width = 0.40mm

M190 S60 ; set bed temperature
M104 S210 ; set temperature
G28 ; home all axes

M109 S210 ; wait for temperature to be reached
G21 ; set units to millimeters
G90 ; use absolute coordinates
M82 ; use absolute distances for extrusion
G92 E0
G1 E-4.00000 F4800.00000
G92 E0
G1 Z1.000 F6000.000
G1 X25.740 Y-17.767 F6000.000
G1 Z0.300 F6000.000
G1 E4.00000 F4800.00000
G1 X26.872 Y-16.128 E4.08340 F1200.000
G1 X27.520 Y-15.056 E4.13581
G1 X28.024 Y-14.096 E4.18121
G1 X28.538 Y-12.954 E4.23363
G1 X29.951 Y-9.228 E4.40043
G1 X30.323 Y-8.033 E4.45285
G1 X30.583 Y-6.980 E4.49824
G1 X30.809 Y-5.748 E4.55067
G1 X31.289 Y-1.792 E4.71747
G1 X31.364 Y-0.542 E4.76988
G1 X31.364 Y0.542 E4.81528
G1 X31.289 Y1.792 E4.86770
G1 X30.809 Y5.748 E5.03450
G1 X30.583 Y6.980 E5.08692
G1 X30.323 Y8.033 E5.13232
G1 X29.951 Y9.228 E5.18473
G1 X28.538 Y12.954 E5.35153
G1 X28.024 Y14.096 E5.40395
G1 X27.520 Y15.056 E5.44935
G1 X26.872 Y16.128 E5.50177
G1 X24.608 Y19.407 E5.66857
G1 X23.836 Y20.393 E5.72099
G1 X23.117 Y21.204 E5.76638
G1 X22.232 Y22.090 E5.81880
G1 X19.249 Y24.732 E5.98560
G1 X18.263 Y25.504 E6.03802
G1 X17.371 Y26.120 E6.08342
G1 X16.299 Y26.768 E6.13583
G1 X12.771 Y28.620 E6.30263
G1 X11.629 Y29.134 E6.35505
G1 X10.615 Y29.519 E6.40045
G1 X9.419 Y29.891 E6.45287
G1 X5.551 Y30.845 E6.61967
G1 X4.319 Y31.070 E6.67209
G1 X3.242 Y31.201 E6.71748
G1 X1.992 Y31.277 E6.76990
G1 X-1.992 Y31.277 E6.93670
G1 X-3.065 Y31.221 E6.98166
G1 X-3.690 Y31.153 E7.00800
G1 X-4.407 Y31.059 E7.03827
G1 X-5.551 Y30.845 E7.08696
G1 X-9.419 Y29.891 E7.25376
G1 X-10.615 Y29.519 E7.30617
G1 X-11.629 Y29.134 E7.35157
G1 X-12.771 Y28.620 E7.40399
G1 X-16.299 Y26.768 E7.57079
G1 X-17.371 Y26.120 E7.62321
G1 X-18.263 Y25.504 E7.66861
G1 X-19.249 Y24.732 E7.72102
G1 X-22.232 Y22.090 E7.88782
G1 X-23.058 Y21.271 E7.93651
G1 X-23.953 Y20.258 E7.99312
G1 X-24.608 Y19.407 E8.03808
G1 X-26.872 Y16.128 E8.20487
G1 X-27.520 Y15.056 E8.25729
G1 X-28.024 Y14.096 E8.30269
G1 X-28.538 Y12.954 E8.35511
G1 X-29.951 Y9.228 E8.52191
G1 X-30.323 Y8.032 E8.57433
G1 X-30.583 Y6.980 E8.61972
G1 X-30.809 Y5.748 E8.67214
G1 X-31.289 Y1.792 E8.83894
G1 X-31.364 Y0.542 E8.89136
G1 X-31.364 Y-0.542 E8.93676
G1 X-31.289 Y-1.792 E8.98918
G1 X-30.809 Y-5.748 E9.15598
G1 X-30.583 Y-6.980 E9.20839
G1 X-30.323 Y-8.032 E9.25379
G1 X-29.951 Y-9.228 E9.30621
G1 X-28.538 Y-12.954 E9.47301
G1 X-28.024 Y-14.096 E9.52543
G1 X-27.520 Y-15.056 E9.57082
G1 X-26.872 Y-16.128 E9.62324
G1 X-24.608 Y-19.407 E9.79004
G1 X-23.836 Y-20.393 E9.84246
G1 X-23.117 Y-21.204 E9.88786
G1 X-22.232 Y-22.090 E9.94028
G1 X-19.249 Y-24.732 E10.10708
G1 X-18.263 Y-25.504 E10.15950
G1 X-17.371 Y-26.120 E10.20489
G1 X-16.299 Y-26.768 E10.25731
G1 X-12.771 Y-28.620 E10.42411
G1 X-11.629 Y-29.134 E10.47653
G1 X-10.615 Y-29.519 E10.52193
G1 X-9.419 Y-29.891 E10.57434
G1 X-5.551 Y-30.845 E10.74114
G1 X-4.319 Y-31.070 E10.79356
G1 X-3.242 Y-31.201 E10.83896
G1 X-1.992 Y-31.277 E10.89138
G1 X1.992 Y-31.277 E11.05818
G1 X3.065 Y-31.221 E11.10313
G1 X4.401 Y-31.060 E11.15947 F1200.000
G1 X5.551 Y-30.845 E11.20843
G1 X9.419 Y-29.891 E11.37523
G1 X10.615 Y-29.519 E11.42765
G1 X11.629 Y-29.134 E11.47304
G1 X12.771 Y-28.620 E11.52546
G1 X16.299 Y-26.768 E11.69226
G1 X17.371 Y-26.120 E11.74468
G1 X18.263 Y-25.504 E11.79008
G1 X19.249 Y-24.732 E11.84250
G1 X22.232 Y-22.090 E12.00930
G1 X23.058 Y-21.271 E12.05798
G1 X23.953 Y-20.258 E12.11459
G1 X24.608 Y-19.407 E12.15955
G1 X25.706 Y-17.817 E12.24044
G1 X25.464 Y-17.577 F6000.000
G1 X26.596 Y-15.937 E12.32384 F1200.000
G1 X27.223 Y-14.900 E12.37456
G1 X27.727 Y-13.940 E12.41995
G1 X28.224 Y-12.835 E12.47068
G1 X29.637 Y-9.109 E12.63748
G1 X29.997 Y-7.952 E12.68820
G1 X30.257 Y-6.899 E12.73359
G1 X30.475 Y-5.707 E12.78432
G1 X30.956 Y-1.752 E12.95112
G1 X31.029 Y-0.542 E13.00184
G1 X31.029 Y0.542 E13.04724
G1 X30.956 Y1.752 E13.09796
G1 X30.475 Y5.707 E13.26476
G1 X30.257 Y6.899 E13.31548
G1 X29.997 Y7.952 E13.36088
G1 X29.637 Y9.109 E13.41160
G1 X28.224 Y12.835 E13.57840
G1 X27.727 Y13.940 E13.62912
G1 X27.223 Y14.900 E13.67452
G1 X26.596 Y15.937 E13.72524
G1 X24.332 Y19.216 E13.89204
G1 X23.585 Y20.170 E13.94276
G1 X22.866 Y20.982 E13.98816
G1 X22.009 Y21.839 E14.03888
G1 X19.026 Y24.481 E14.20568
G1 X18.073 Y25.228 E14.25640
G1 X17.180 Y25.844 E14.30180
G1 X16.143 Y26.471 E14.35252
G1 X12.615 Y28.323 E14.51932
G1 X11.510 Y28.820 E14.57004
G1 X10.496 Y29.205 E14.61544
G1 X9.339 Y29.565 E14.66616
G1 X5.470 Y30.519 E14.83296
G1 X4.278 Y30.737 E14.88368
G1 X3.202 Y30.868 E14.92908
G1 X1.992 Y30.941 E14.97980
G1 X-1.992 Y30.941 E15.14660
G1 X-3.030 Y30.887 E15.19010
G1 X-3.647 Y30.820 E15.21608
G1 X-4.364 Y30.726 E15.24635
G1 X-5.470 Y30.519 E15.29346
G1 X-9.339 Y29.565 E15.46026
G1 X-10.496 Y29.205 E15.51098
G1 X-11.510 Y28.820 E15.55638
G1 X-12.615 Y28.323 E15.60710
G1 X-16.143 Y26.471 E15.77390
G1 X-17.180 Y25.844 E15.82463
G1 X-18.073 Y25.228 E15.87002
G1 X-19.026 Y24.481 E15.92074
G1 X-22.009 Y21.839 E16.08754
G1 X-22.808 Y21.046 E16.13465
G1 X-23.698 Y20.040 E16.19090
G1 X-24.332 Y19.216 E16.23440
G1 X-26.596 Y15.937 E16.40120
G1 X-27.223 Y14.900 E16.45192
G1 X-27.727 Y13.940 E16.49732
G1 X-28.224 Y12.835 E16.54804
G1 X-29.637 Y9.109 E16.71484
G1 X-29.997 Y7.952 E16.76556
G1 X-30.257 Y6.899 E16.81096
G1 X-30.475 Y5.707 E16.86168
G1 X-30.956 Y1.752 E17.02848
G1 X-31.029 Y0.542 E17.07920
G1 X-31.029 Y-0.542 E17.12460
G1 X-30.956 Y-1.752 E17.17532
G1 X-30.475 Y-5.707 E17.34212
G1 X-30.257 Y-6.899 E17.39284
G1 X-29.997 Y-7.952 E17.43824
G1 X-29.637 Y-9.109 E17.48896
G1 X-28.224 Y-12.835 E17.65576
G1 X-27.727 Y-13.940 E17.70649
G1 X-27.223 Y-14.900 E17.75188
G1 X-26.596 Y-15.937 E17.80260
G1 X-24.332 Y-19.216 E17.96940
G1 X-23.585 Y-20.170 E18.02013
G1 X-22.866 Y-20.982 E18.06552
G1 X-22.009 Y-21.839 E18.11625
G1 X-19.026 Y-24.481 E18.28304
G1 X-18.073 Y-25.228 E18.33377
G1 X-17.180 Y-25.844 E18.37916
G1 X-16.143 Y-26.471 E18.42989
G1 X-12.615 Y-28.323 E18.59668
G1 X-11.510 Y-28.820 E18.64741
G1 X-10.496 Y-29.205 E18.69280
G1 X-9.339 Y-29.565 E18.74353
G1 X-5.470 Y-30.519 E18.91033
G1 X-4.278 Y-30.737 E18.96105
G1 X-3.202 Y-30.868 E19.00644
G1 X-1.992 Y-30.941 E19.05717
G1 X1.992 Y-30.941 E19.22397
G1 X3.030 Y-30.887 E19.26747
G1 X4.358 Y-30.727 E19.32345 F1200.000
G1 X5.470 Y-30.519 E19.37082
G1 X9.339 Y-29.565 E19.53762
G1 X10.496 Y-29.205 E19.58835
G1 X11.510 Y-28.820 E19.63374
G1 X12.615 Y-28.323 E19.68447
G1 X16.143 Y-26.471 E19.85126
G1 X17.180 Y-25.844 E19.90199
G1 X18.073 Y-25.228 E19.94738
G1 X19.026 Y-24.481 E19.99811
G1 X22.009 Y-21.839 E20.16490
G1 X22.808 Y-21.046 E20.21202
G1 X23.698 Y-20.040 E20.26826
G1 X24.332 Y-19.216 E20.31176
G1 X25.430 Y-17.626 E20.39265
G1 X25.188 Y-17.386 F6000.000
G1 X26.320 Y-15.746 E20.47605 F1200.000
G1 X26.925 Y-14.744 E20.52507
G1 X27.429 Y-13.784 E20.57047
G1 X27.910 Y-12.716 E20.61950
G1 X29.323 Y-8.990 E20.78630
G1 X29.672 Y-7.872 E20.83532
G1 X29.931 Y-6.819 E20.88072
G1 X30.142 Y-5.667 E20.92975
G1 X30.622 Y-1.711 E21.09655
G1 X30.693 Y-0.542 E21.14557
G1 X30.693 Y0.542 E21.19097
G1 X30.622 Y1.711 E21.23999
G1 X30.142 Y5.667 E21.40679
G1 X29.931 Y6.819 E21.45582
G1 X29.672 Y7.872 E21.50122
G1 X29.323 Y8.990 E21.55024
G1 X27.910 Y12.716 E21.71704
G1 X27.429 Y13.784 E21.76607
G1 X26.925 Y14.744 E21.81147
G1 X26.320 Y15.746 E21.86049
G1 X24.056 Y19.026 E22.02729
G1 X23.334 Y19.948 E22.07632
G1 X22.615 Y20.759 E22.12171
G1 X21.786 Y21.587 E22.17074
G1 X18.804 Y24.230 E22.33754
G1 X17.882 Y24.952 E22.38656
G1 X16.989 Y25.568 E22.43196
G1 X15.987 Y26.174 E22.48098
G1 X12.459 Y28.026 E22.64778
G1 X11.391 Y28.506 E22.69681
G1 X10.377 Y28.891 E22.74221
G1 X9.259 Y29.239 E22.79123
G1 X5.390 Y30.193 E22.95803
G1 X4.238 Y30.404 E23.00706
G1 X3.161 Y30.535 E23.05245
G1 X1.992 Y30.605 E23.10148
G1 X-1.992 Y30.605 E23.26828
G1 X-2.995 Y30.553 E23.31033
G1 X-3.604 Y30.487 E23.33594
G1 X-4.321 Y30.394 E23.36621
G1 X-5.390 Y30.193 E23.41175
G1 X-9.259 Y29.239 E23.57855
G1 X-10.377 Y28.891 E23.62757
G1 X-11.391 Y28.506 E23.67297
G1 X-12.459 Y28.026 E23.72199
G1 X-15.987 Y26.174 E23.88879
G1 X-16.990 Y25.568 E23.93782
G1 X-17.882 Y24.952 E23.98322
G1 X-18.804 Y24.230 E24.03224
G1 X-21.786 Y21.587 E24.19904
G1 X-22.559 Y20.822 E24.24458
G1 X-23.443 Y19.822 E24.30046
G1 X-24.056 Y19.026 E24.34251
G1 X-26.320 Y15.746 E24.50930
G1 X-26.925 Y14.744 E24.55833
G1 X-27.429 Y13.784 E24.60373
G1 X-27.910 Y12.716 E24.65275
G1 X-29.323 Y8.990 E24.81955
G1 X-29.672 Y7.872 E24.86858
G1 X-29.931 Y6.819 E24.91398
G1 X-30.142 Y5.667 E24.96300
G1 X-30.623 Y1.711 E25.12980
G1 X-30.693 Y0.542 E25.17883
G1 X-30.693 Y-0.542 E25.22422
G1 X-30.623 Y-1.711 E25.27325
G1 X-30.142 Y-5.667 E25.44005
G1 X-29.931 Y-6.819 E25.48907
G1 X-29.672 Y-7.872 E25.53447
G1 X-29.323 Y-8.990 E25.58350
G1 X-27.910 Y-12.716 E25.75030
G1 X-27.429 Y-13.784 E25.79932
G1 X-26.925 Y-14.744 E25.84472
G1 X-26.320 Y-15.746 E25.89374
G1 X-24.056 Y-19.026 E26.06054
G1 X-23.334 Y-19.947 E26.10957
G1 X-22.615 Y-20.759 E26.15497
G1 X-21.786 Y-21.587 E26.20399
G1 X-18.804 Y-24.230 E26.37079
G1 X-17.882 Y-24.952 E26.41982
G1 X-16.989 Y-25.568 E26.46521
G1 X-15.987 Y-26.174 E26.51424
G1 X-12.459 Y-28.026 E26.68104
G1 X-11.391 Y-28.506 E26.73006
G1 X-10.377 Y-28.891 E26.77546
G1 X-9.259 Y-29.239 E26.82449
G1 X-5.390 Y-30.193 E26.99129
G1 X-4.238 Y-30.404 E27.04031
G1 X-3.161 Y-30.535 E27.08571
G1 X-1.992 Y-30.605 E27.13473
G1 X1.992 Y-30.605 E27.30153
G1 X2.995 Y-30.553 E27.34358
G1 X4.315 Y-30.394 E27.39921 F1200.000
G1 X5.390 Y-30.193 E27.44500
G1 X9.259 Y-29.239 E27.61180
G1 X10.377 Y-28.891 E27.66082
G1 X11.391 Y-28.506 E27.70622
G1 X12.459 Y-28.026 E27.75525
G1 X15.987 Y-26.174 E27.92204
G1 X16.989 Y-25.568 E27.97107
G1 X17.882 Y-24.952 E28.01647
G1 X18.804 Y-24.230 E28.06549
G1 X21.786 Y-21.587 E28.23229
G1 X22.559 Y-20.821 E28.27783
G1 X23.443 Y-19.822 E28.33371
G1 X24.056 Y-19.026 E28.37576
G1 X25.154 Y-17.435 E28.45665
G1 X24.912 Y-17.195 F6000.000
G1 X26.043 Y-15.556 E28.54004 F1200.000
G1 X26.628 Y-14.588 E28.58737
G1 X27.132 Y-13.628 E28.63277
G1 X27.596 Y-12.597 E28.68010
G1 X29.009 Y-8.871 E28.84690
G1 X29.346 Y-7.792 E28.89423
G1 X29.605 Y-6.739 E28.93962
G1 X29.809 Y-5.626 E28.98695
G1 X30.289 Y-1.671 E29.15375
G1 X30.358 Y-0.542 E29.20108
G1 X30.358 Y0.542 E29.24648
G1 X30.289 Y1.671 E29.29381
G1 X29.809 Y5.626 E29.46061
G1 X29.605 Y6.739 E29.50794
G1 X29.346 Y7.792 E29.55334
G1 X29.009 Y8.871 E29.60066
G1 X27.596 Y12.597 E29.76746
G1 X27.132 Y13.628 E29.81479
G1 X26.628 Y14.588 E29.86019
G1 X26.043 Y15.556 E29.90752
G1 X23.780 Y18.835 E30.07432
G1 X23.083 Y19.725 E30.12165
G1 X22.363 Y20.537 E30.16704
G1 X21.564 Y21.336 E30.21437
G1 X18.581 Y23.978 E30.38117
G1 X17.691 Y24.676 E30.42850
G1 X16.799 Y25.292 E30.47390
G1 X15.831 Y25.877 E30.52123
G1 X12.303 Y27.729 E30.68803
G1 X11.272 Y28.193 E30.73536
G1 X10.258 Y28.577 E30.78075
G1 X9.178 Y28.913 E30.82808
G1 X5.310 Y29.867 E30.99488
G1 X4.197 Y30.071 E31.04221
G1 X3.121 Y30.202 E31.08761
G1 X1.992 Y30.270 E31.13494
G1 X-1.992 Y30.270 E31.30173
G1 X-2.961 Y30.220 E31.34233
G1 X-3.560 Y30.154 E31.36758
G1 X-4.277 Y30.061 E31.39785
G1 X-5.310 Y29.867 E31.44181
G1 X-9.178 Y28.913 E31.60861
G1 X-10.258 Y28.577 E31.65594
G1 X-11.272 Y28.193 E31.70133
G1 X-12.303 Y27.729 E31.74866
G1 X-15.831 Y25.877 E31.91546
G1 X-16.799 Y25.292 E31.96279
G1 X-17.691 Y24.676 E32.00819
G1 X-18.581 Y23.978 E32.05552
G1 X-21.564 Y21.336 E32.22232
G1 X-22.310 Y20.597 E32.26628
G1 X-23.188 Y19.603 E32.32180
G1 X-23.780 Y18.835 E32.36239
G1 X-26.043 Y15.556 E32.52919
G1 X-26.628 Y14.588 E32.57652
G1 X-27.132 Y13.628 E32.62191
G1 X-27.596 Y12.597 E32.66924
G1 X-29.009 Y8.871 E32.83604
G1 X-29.346 Y7.792 E32.88337
G1 X-29.605 Y6.739 E32.92877
G1 X-29.809 Y5.626 E32.97610
G1 X-30.289 Y1.671 E33.14290
G1 X-30.358 Y0.542 E33.19023
G1 X-30.358 Y-0.542 E33.23562
G1 X-30.289 Y-1.671 E33.28295
G1 X-29.809 Y-5.626 E33.44975
G1 X-29.605 Y-6.739 E33.49708
G1 X-29.346 Y-7.792 E33.54248
G1 X-29.009 Y-8.871 E33.58981
G1 X-27.596 Y-12.597 E33.75661
G1 X-27.132 Y-13.628 E33.80394
G1 X-26.628 Y-14.588 E33.84933
G1 X-26.043 Y-15.556 E33.89666
G1 X-23.780 Y-18.835 E34.06346
G1 X-23.083 Y-19.725 E34.11079
G1 X-22.363 Y-20.537 E34.15619
G1 X-21.564 Y-21.336 E34.20352
G1 X-18.581 Y-23.978 E34.37031
G1 X-17.691 Y-24.676 E34.41764
G1 X-16.799 Y-25.292 E34.46304
G1 X-15.831 Y-25.877 E34.51037
G1 X-12.303 Y-27.729 E34.67717
G1 X-11.272 Y-28.193 E34.72450
G1 X-10.258 Y-28.577 E34.76990
G1 X-9.178 Y-28.913 E34.81722
G1 X-5.310 Y-29.867 E34.98402
G1 X-4.197 Y-30.071 E35.03135
G1 X-3.121 Y-30.202 E35.07675
G1 X-1.992 Y-30.270 E35.12408
G1 X1.992 Y-30.270 E35.29088
G1 X2.961 Y-30.220 E35.33147
G1 X4.272 Y-30.062 E35.38674 F1200.000
G1 X5.310 Y-29.867 E35.43095
G1 X9.178 Y-28.913 E35.59775
G1 X10.258 Y-28.577 E35.64508
G1 X11.272 Y-28.193 E35.69047
G1 X12.303 Y-27.729 E35.73780
G1 X15.831 Y-25.877 E35.90460
G1 X16.799 Y-25.292 E35.95193
G1 X17.691 Y-24.676 E35.99733
G1 X18.581 Y-23.978 E36.04466
G1 X21.564 Y-21.336 E36.21146
G1 X22.310 Y-20.597 E36.25542
G1 X23.188 Y-19.603 E36.31094
G1 X23.780 Y-18.835 E36.35153
G1 X24.878 Y-17.245 E36.43242
G1 X24.635 Y-17.005 F6000.000
G1 X25.767 Y-15.365 E36.51582 F1200.000
G1 X26.331 Y-14.432 E36.56145
G1 X26.835 Y-13.472 E36.60684
G1 X27.283 Y-12.478 E36.65248
G1 X28.696 Y-8.752 E36.81928
G1 X29.020 Y-7.711 E36.86491
G1 X29.279 Y-6.658 E36.91030
G1 X29.476 Y-5.586 E36.95594
G1 X29.956 Y-1.630 E37.12274
G1 X30.022 Y-0.542 E37.16837
G1 X30.022 Y0.542 E37.21377
G1 X29.956 Y1.630 E37.25940
G1 X29.476 Y5.586 E37.42620
G1 X29.279 Y6.658 E37.47184
G1 X29.020 Y7.711 E37.51723
G1 X28.696 Y8.752 E37.56286
G1 X27.283 Y12.478 E37.72966
G1 X26.835 Y13.472 E37.77530
G1 X26.331 Y14.432 E37.82069
G1 X25.767 Y15.365 E37.86632
G1 X23.504 Y18.644 E38.03312
G1 X22.831 Y19.502 E38.07876
G1 X22.112 Y20.314 E38.12415
G1 X21.341 Y21.085 E38.16979
G1 X18.359 Y23.727 E38.33658
G1 X17.501 Y24.400 E38.38222
G1 X16.608 Y25.016 E38.42761
G1 X15.675 Y25.580 E38.47325
G1 X12.147 Y27.431 E38.64005
G1 X11.153 Y27.879 E38.68568
G1 X10.139 Y28.263 E38.73108
G1 X9.098 Y28.588 E38.77671
G1 X5.229 Y29.541 E38.94351
G1 X4.157 Y29.738 E38.98914
G1 X3.080 Y29.868 E39.03454
G1 X1.992 Y29.934 E39.08017
G1 X-1.992 Y29.934 E39.24697
G1 X-2.926 Y29.886 E39.28611
G1 X-3.517 Y29.821 E39.31100
G1 X-4.234 Y29.728 E39.34126
G1 X-5.229 Y29.541 E39.38365
G1 X-9.098 Y28.588 E39.55045
G1 X-10.139 Y28.263 E39.59608
G1 X-11.153 Y27.879 E39.64148
G1 X-12.147 Y27.431 E39.68711
G1 X-15.675 Y25.580 E39.85391
G1 X-16.608 Y25.016 E39.89954
G1 X-17.501 Y24.400 E39.94494
G1 X-18.359 Y23.727 E39.99057
G1 X-21.341 Y21.085 E40.15737
G1 X-22.060 Y20.372 E40.19976
G1 X-22.933 Y19.385 E40.25491
G1 X-23.504 Y18.644 E40.29405
G1 X-25.767 Y15.365 E40.46085
G1 X-26.331 Y14.432 E40.50648
G1 X-26.835 Y13.472 E40.55188
G1 X-27.283 Y12.478 E40.59751
G1 X-28.696 Y8.752 E40.76431
G1 X-29.020 Y7.711 E40.80994
G1 X-29.279 Y6.658 E40.85534
G1 X-29.476 Y5.586 E40.90097
G1 X-29.956 Y1.630 E41.06777
G1 X-30.022 Y0.542 E41.11340
G1 X-30.022 Y-0.542 E41.15880
G1 X-29.956 Y-1.630 E41.20443
G1 X-29.476 Y-5.586 E41.37123
G1 X-29.279 Y-6.658 E41.41687
G1 X-29.020 Y-7.711 E41.46226
G1 X-28.696 Y-8.752 E41.50789
G1 X-27.283 Y-12.478 E41.67469
G1 X-26.835 Y-13.472 E41.72033
G1 X-26.331 Y-14.432 E41.76572
G1 X-25.767 Y-15.365 E41.81136
G1 X-23.504 Y-18.644 E41.97815
G1 X-22.831 Y-19.502 E42.02379
G1 X-22.112 Y-20.314 E42.06918
G1 X-21.341 Y-21.085 E42.11482
G1 X-18.359 Y-23.727 E42.28162
G1 X-17.501 Y-24.400 E42.32725
G1 X-16.608 Y-25.016 E42.37265
G1 X-15.675 Y-25.580 E42.41828
G1 X-12.147 Y-27.431 E42.58508
G1 X-11.153 Y-27.879 E42.63071
G1 X-10.139 Y-28.263 E42.67611
G1 X-9.098 Y-28.588 E42.72174
G1 X-5.229 Y-29.541 E42.88854
G1 X-4.157 Y-29.738 E42.93417
G1 X-3.080 Y-29.868 E42.97957
G1 X-1.992 Y-29.934 E43.02520
G1 X1.992 Y-29.934 E43.19200
