; generated by Slic3r 1.2.9 on 2016-02-02 at 11:16:36

; external perimeters extrusion width = 0.40mm
; perimeters extrusion width = 0.67mm
; infill extrusion width = 0.67mm
; solid infill extrusion width = 0.67mm
; top infill extrusion width = 0.67mm
; support material extrusion width = 0.40mm

M107
M104 S190 ; set temperature
G28 ; home all axes
G1 X70Y70Z5 F5000 
M109 S190 ; wait for temperature to be reached
G21 ; set units to millimeters
G90 ; use absolute coordinates
M82 ; use absolute distances for extrusion
G92 E0
G1 E-3.50000 F1800.00000
G92 E0
G1 Z0.300 F6000.000
G1 X50.000 Y-21.257 F6000.000
G1 E3.50000 F1800.00000
G1 X53.579 Y-20.858 E3.68812 F1363.944
G1 X56.982 Y-19.681 E3.87624
G1 X60.042 Y-17.784 E4.06436
G1 X62.610 Y-15.260 E4.25248
G1 X64.559 Y-12.232 E4.44060
G1 X65.794 Y-8.850 E4.62872
G1 X66.257 Y-5.000 E4.83132
G1 X66.257 Y5.000 E5.35376
G1 X65.858 Y8.579 E5.54188
G1 X64.681 Y11.982 E5.73000
G1 X62.784 Y15.042 E5.91812
G1 X60.260 Y17.610 E6.10624
G1 X57.232 Y19.559 E6.29437
G1 X53.850 Y20.794 E6.48249
G1 X50.000 Y21.257 E6.68508
G1 X-50.000 Y21.257 E11.90957
G1 X-53.579 Y20.858 E12.09769
G1 X-56.982 Y19.681 E12.28581
G1 X-60.042 Y17.784 E12.47393
G1 X-62.610 Y15.260 E12.66205
G1 X-64.559 Y12.232 E12.85017
G1 X-65.794 Y8.850 E13.03829
G1 X-66.257 Y5.000 E13.24089
G1 X-66.257 Y-5.000 E13.76333
G1 X-65.858 Y-8.579 E13.95145
G1 X-64.681 Y-11.982 E14.13957
G1 X-62.784 Y-15.042 E14.32769
G1 X-60.260 Y-17.610 E14.51581
G1 X-57.232 Y-19.559 E14.70394
G1 X-53.850 Y-20.794 E14.89206
G1 X-50.000 Y-21.257 E15.09465
G1 X49.940 Y-21.257 E20.31601
G1 X50.000 Y-20.838 F6000.000
G1 X53.531 Y-20.439 E20.50168 F1363.944
G1 X56.885 Y-19.263 E20.68735
G1 X59.892 Y-17.369 E20.87302
G1 X62.401 Y-14.851 E21.05870
G1 X64.285 Y-11.838 E21.24437
G1 X65.451 Y-8.481 E21.43004
G1 X65.838 Y-5.000 E21.61302
G1 X65.838 Y5.000 E22.13547
G1 X65.439 Y8.531 E22.32114
G1 X64.263 Y11.885 E22.50682
G1 X62.369 Y14.892 E22.69249
G1 X59.851 Y17.401 E22.87816
G1 X56.838 Y19.285 E23.06384
G1 X53.481 Y20.451 E23.24951
G1 X50.000 Y20.838 E23.43249
G1 X-50.000 Y20.838 E28.65698
G1 X-53.531 Y20.439 E28.84265
G1 X-56.885 Y19.263 E29.02833
G1 X-59.892 Y17.369 E29.21400
G1 X-62.401 Y14.851 E29.39967
G1 X-64.285 Y11.838 E29.58535
G1 X-65.451 Y8.481 E29.77102
G1 X-65.838 Y5.000 E29.95400
G1 X-65.838 Y-5.000 E30.47645
G1 X-65.439 Y-8.531 E30.66212
G1 X-64.263 Y-11.885 E30.84779
G1 X-62.369 Y-14.892 E31.03347
G1 X-59.851 Y-17.401 E31.21914
G1 X-56.838 Y-19.285 E31.40481
G1 X-53.481 Y-20.451 E31.59048
G1 X-50.000 Y-20.838 E31.77346
G1 X49.940 Y-20.838 E36.99482
G1 X50.000 Y-20.419 F6000.000
G1 X53.484 Y-20.020 E37.17801 F1363.944
G1 X56.787 Y-18.845 E37.36121
G1 X59.740 Y-16.953 E37.54440
G1 X62.189 Y-14.444 E37.72759
G1 X64.007 Y-11.446 E37.91079
G1 X65.101 Y-8.114 E38.09398
G1 X65.419 Y-5.000 E38.25752
G1 X65.419 Y5.000 E38.77997
G1 X65.020 Y8.484 E38.96316
G1 X63.845 Y11.787 E39.14636
G1 X61.953 Y14.740 E39.32955
G1 X59.444 Y17.189 E39.51274
G1 X56.446 Y19.007 E39.69594
G1 X53.114 Y20.101 E39.87913
G1 X50.000 Y20.419 E40.04267
G1 X-50.000 Y20.419 E45.26716
G1 X-53.484 Y20.020 E45.45036
G1 X-56.787 Y18.845 E45.63355
G1 X-59.740 Y16.953 E45.81674
G1 X-62.189 Y14.444 E45.99994
G1 X-64.007 Y11.446 E46.18313
G1 X-65.101 Y8.114 E46.36632
G1 X-65.419 Y5.000 E46.52987
G1 X-65.419 Y-5.000 E47.05232
G1 X-65.020 Y-8.484 E47.23551
G1 X-63.845 Y-11.787 E47.41870
G1 X-61.953 Y-14.740 E47.60190
G1 X-59.444 Y-17.189 E47.78509
G1 X-56.446 Y-19.007 E47.96828
G1 X-53.114 Y-20.101 E48.15148
G1 X-50.000 Y-20.419 E48.31502
G1 X49.940 Y-20.419 E53.53637
G1 E50.03637 F1800.00000
G92 E0
G1 X49.004 Y-4.004 F6000.000
G1 E3.50000 F1800.00000
G1 X49.004 Y4.004 E3.91836 F1363.944
G1 X-49.004 Y4.004 E9.03877
G1 X-49.004 Y-4.004 E9.45713
G1 X48.944 Y-4.004 E14.57440
G1 X49.423 Y-4.423 F6000.000
G1 X49.423 Y4.423 E15.03653 F1363.944
G1 X-49.423 Y4.423 E20.20071
G1 X-49.423 Y-4.423 E20.66284
G1 X49.363 Y-4.423 E25.82388
G1 X49.800 Y-4.800 F6000.000
G1 X49.800 Y4.800 E26.22574 F600.000
G1 X-49.800 Y4.800 E30.39503
G1 X-49.800 Y-4.800 E30.79688
G1 X49.740 Y-4.800 E34.96366
G1 X49.600 Y-4.454 F6000.000
G1 X48.757 Y-3.539 F6000.000
G1 X48.539 Y-3.757 E34.97980 F1359.618
G1 X47.945 Y-3.757 E35.01094
G1 X48.757 Y-2.945 E35.07113
G1 X48.757 Y-2.350 E35.10227
G1 X47.350 Y-3.757 E35.20651
G1 X46.756 Y-3.757 E35.23765
G1 X48.757 Y-1.756 E35.38593
G1 X48.757 Y-1.162 E35.41708
G1 X46.162 Y-3.757 E35.60941
G1 X45.568 Y-3.757 E35.64055
G1 X48.757 Y-0.568 E35.87693
G1 X48.757 Y0.027 E35.90807
G1 X44.973 Y-3.757 E36.18850
G1 X44.379 Y-3.757 E36.21964
G1 X48.757 Y0.621 E36.54411
G1 X48.757 Y1.215 E36.57526
G1 X43.785 Y-3.757 E36.94378
G1 X43.191 Y-3.757 E36.97492
G1 X48.757 Y1.809 E37.38749
G1 X48.757 Y2.404 E37.41863
G1 X42.596 Y-3.757 E37.87525
G1 X42.002 Y-3.757 E37.90639
G1 X48.757 Y2.998 E38.40705
G1 X48.757 Y3.592 E38.43820
G1 X41.408 Y-3.757 E38.98291
G1 X40.813 Y-3.757 E39.01405
G1 X48.327 Y3.757 E39.57095
G1 X47.733 Y3.757 E39.60210
G1 X40.219 Y-3.757 E40.15900
G1 X39.625 Y-3.757 E40.19014
G1 X47.138 Y3.757 E40.74704
G1 X46.544 Y3.757 E40.77819
G1 X39.031 Y-3.757 E41.33508
G1 X38.436 Y-3.757 E41.36623
G1 X45.950 Y3.757 E41.92313
G1 X45.356 Y3.757 E41.95427
G1 X37.842 Y-3.757 E42.51117
G1 X37.248 Y-3.757 E42.54232
G1 X44.761 Y3.757 E43.09921
G1 X44.167 Y3.757 E43.13036
G1 X36.654 Y-3.757 E43.68726
G1 X36.059 Y-3.757 E43.71840
G1 X43.573 Y3.757 E44.27530
G1 X42.978 Y3.757 E44.30645
G1 X35.465 Y-3.757 E44.86335
G1 X34.871 Y-3.757 E44.89449
G1 X42.384 Y3.757 E45.45139
G1 X41.790 Y3.757 E45.48254
G1 X34.277 Y-3.757 E46.03943
G1 X33.682 Y-3.757 E46.07058
G1 X41.196 Y3.757 E46.62748
G1 X40.601 Y3.757 E46.65862
G1 X33.088 Y-3.757 E47.21552
G1 X32.494 Y-3.757 E47.24667
G1 X40.007 Y3.757 E47.80357
G1 X39.413 Y3.757 E47.83471
G1 X31.899 Y-3.757 E48.39161
G1 X31.305 Y-3.757 E48.42276
G1 X38.819 Y3.757 E48.97965
G1 X38.224 Y3.757 E49.01080
G1 X30.711 Y-3.757 E49.56770
G1 X30.117 Y-3.757 E49.59884
G1 X37.630 Y3.757 E50.15574
G1 X37.036 Y3.757 E50.18689
G1 X29.522 Y-3.757 E50.74378
G1 X28.928 Y-3.757 E50.77493
G1 X36.442 Y3.757 E51.33183
G1 X35.847 Y3.757 E51.36297
G1 X28.334 Y-3.757 E51.91987
G1 X27.740 Y-3.757 E51.95102
G1 X35.253 Y3.757 E52.50792
G1 X34.659 Y3.757 E52.53906
G1 X27.145 Y-3.757 E53.09596
G1 X26.551 Y-3.757 E53.12711
G1 X34.064 Y3.757 E53.68400
G1 X33.470 Y3.757 E53.71515
G1 X25.957 Y-3.757 E54.27205
G1 X25.362 Y-3.757 E54.30319
G1 X32.876 Y3.757 E54.86009
G1 X32.282 Y3.757 E54.89124
G1 X24.768 Y-3.757 E55.44813
G1 X24.174 Y-3.757 E55.47928
G1 X31.687 Y3.757 E56.03618
G1 X31.093 Y3.757 E56.06733
G1 X23.580 Y-3.757 E56.62422
G1 X22.985 Y-3.757 E56.65537
G1 X30.499 Y3.757 E57.21227
G1 X29.905 Y3.757 E57.24341
G1 X22.391 Y-3.757 E57.80031
G1 X21.797 Y-3.757 E57.83146
G1 X29.310 Y3.757 E58.38835
G1 X28.716 Y3.757 E58.41950
G1 X21.203 Y-3.757 E58.97640
G1 X20.608 Y-3.757 E59.00754
G1 X28.122 Y3.757 E59.56444
G1 X27.527 Y3.757 E59.59559
G1 X20.014 Y-3.757 E60.15249
G1 X19.420 Y-3.757 E60.18363
G1 X26.933 Y3.757 E60.74053
G1 X26.339 Y3.757 E60.77168
G1 X18.826 Y-3.757 E61.32857
G1 X18.231 Y-3.757 E61.35972
G1 X25.745 Y3.757 E61.91662
G1 X25.150 Y3.757 E61.94776
G1 X17.637 Y-3.757 E62.50466
G1 X17.043 Y-3.757 E62.53581
G1 X24.556 Y3.757 E63.09270
G1 X23.962 Y3.757 E63.12385
G1 X16.448 Y-3.757 E63.68075
G1 X15.854 Y-3.757 E63.71189
G1 X23.368 Y3.757 E64.26879
G1 X22.773 Y3.757 E64.29994
G1 X15.260 Y-3.757 E64.85684
G1 X14.666 Y-3.757 E64.88798
G1 X22.179 Y3.757 E65.44488
G1 X21.585 Y3.757 E65.47603
G1 X14.071 Y-3.757 E66.03292
G1 X13.477 Y-3.757 E66.06407
G1 X20.991 Y3.757 E66.62097
G1 X20.396 Y3.757 E66.65211
G1 X12.883 Y-3.757 E67.20901
G1 X12.289 Y-3.757 E67.24016
G1 X19.802 Y3.757 E67.79705
G1 X19.208 Y3.757 E67.82820
G1 X11.694 Y-3.757 E68.38510
G1 X11.100 Y-3.757 E68.41625
G1 X18.613 Y3.757 E68.97314
G1 X18.019 Y3.757 E69.00429
G1 X10.506 Y-3.757 E69.56119
G1 X9.911 Y-3.757 E69.59233
G1 X17.425 Y3.757 E70.14923
G1 X16.831 Y3.757 E70.18038
G1 X9.317 Y-3.757 E70.73727
G1 X8.723 Y-3.757 E70.76842
G1 X16.236 Y3.757 E71.32532
G1 X15.642 Y3.757 E71.35646
G1 X8.129 Y-3.757 E71.91336
G1 X7.534 Y-3.757 E71.94451
G1 X15.048 Y3.757 E72.50141
G1 X14.454 Y3.757 E72.53255
G1 X6.940 Y-3.757 E73.08945
G1 X6.346 Y-3.757 E73.12060
G1 X13.859 Y3.757 E73.67749
G1 X13.265 Y3.757 E73.70864
G1 X5.752 Y-3.757 E74.26554
G1 X5.157 Y-3.757 E74.29668
G1 X12.671 Y3.757 E74.85358
G1 X12.076 Y3.757 E74.88473
G1 X4.563 Y-3.757 E75.44162
G1 X3.969 Y-3.757 E75.47277
G1 X11.482 Y3.757 E76.02967
G1 X10.888 Y3.757 E76.06081
G1 X3.375 Y-3.757 E76.61771
G1 X2.780 Y-3.757 E76.64886
G1 X10.294 Y3.757 E77.20576
G1 X9.699 Y3.757 E77.23690
G1 X2.186 Y-3.757 E77.79380
G1 X1.592 Y-3.757 E77.82495
G1 X9.105 Y3.757 E78.38184
G1 X8.511 Y3.757 E78.41299
G1 X0.997 Y-3.757 E78.96989
G1 X0.403 Y-3.757 E79.00103
G1 X7.917 Y3.757 E79.55793
G1 X7.322 Y3.757 E79.58908
G1 X-0.191 Y-3.757 E80.14597
G1 X-0.785 Y-3.757 E80.17712
G1 X6.728 Y3.757 E80.73402
G1 X6.134 Y3.757 E80.76516
G1 X-1.380 Y-3.757 E81.32206
G1 X-1.974 Y-3.757 E81.35321
G1 X5.540 Y3.757 E81.91011
G1 X4.945 Y3.757 E81.94125
G1 X-2.568 Y-3.757 E82.49815
G1 X-3.162 Y-3.757 E82.52930
G1 X4.351 Y3.757 E83.08619
G1 X3.757 Y3.757 E83.11734
G1 X-3.757 Y-3.757 E83.67424
G1 X-4.351 Y-3.757 E83.70538
G1 X3.162 Y3.757 E84.26228
G1 X2.568 Y3.757 E84.29343
G1 X-4.945 Y-3.757 E84.85033
G1 X-5.540 Y-3.757 E84.88147
G1 X1.974 Y3.757 E85.43837
G1 X1.380 Y3.757 E85.46952
G1 X-6.134 Y-3.757 E86.02641
G1 X-6.728 Y-3.757 E86.05756
G1 X0.785 Y3.757 E86.61446
G1 X0.191 Y3.757 E86.64560
G1 X-7.322 Y-3.757 E87.20250
G1 X-7.917 Y-3.757 E87.23365
G1 X-0.403 Y3.757 E87.79055
G1 X-0.997 Y3.757 E87.82169
G1 X-8.511 Y-3.757 E88.37859
G1 X-9.105 Y-3.757 E88.40974
G1 X-1.592 Y3.757 E88.96663
G1 X-2.186 Y3.757 E88.99778
G1 X-9.699 Y-3.757 E89.55468
G1 X-10.294 Y-3.757 E89.58582
G1 X-2.780 Y3.757 E90.14272
G1 X-3.375 Y3.757 E90.17387
G1 X-10.888 Y-3.757 E90.73076
G1 X-11.482 Y-3.757 E90.76191
G1 X-3.969 Y3.757 E91.31881
G1 X-4.563 Y3.757 E91.34995
G1 X-12.076 Y-3.757 E91.90685
G1 X-12.671 Y-3.757 E91.93800
G1 X-5.157 Y3.757 E92.49490
G1 X-5.752 Y3.757 E92.52604
G1 X-13.265 Y-3.757 E93.08294
G1 X-13.859 Y-3.757 E93.11409
G1 X-6.346 Y3.757 E93.67098
G1 X-6.940 Y3.757 E93.70213
G1 X-14.454 Y-3.757 E94.25903
G1 X-15.048 Y-3.757 E94.29017
G1 X-7.534 Y3.757 E94.84707
G1 X-8.129 Y3.757 E94.87822
G1 X-15.642 Y-3.757 E95.43512
G1 X-16.236 Y-3.757 E95.46626
G1 X-8.723 Y3.757 E96.02316
G1 X-9.317 Y3.757 E96.05431
G1 X-16.831 Y-3.757 E96.61120
G1 X-17.425 Y-3.757 E96.64235
G1 X-9.911 Y3.757 E97.19925
G1 X-10.506 Y3.757 E97.23039
G1 X-18.019 Y-3.757 E97.78729
G1 X-18.613 Y-3.757 E97.81844
G1 X-11.100 Y3.757 E98.37533
G1 X-11.694 Y3.757 E98.40648
G1 X-19.208 Y-3.757 E98.96338
G1 X-19.802 Y-3.757 E98.99452
G1 X-12.289 Y3.757 E99.55142
G1 X-12.883 Y3.757 E99.58257
G1 X-20.396 Y-3.757 E100.13947
G1 X-20.991 Y-3.757 E100.17061
G1 X-13.477 Y3.757 E100.72751
G1 X-14.071 Y3.757 E100.75866
G1 X-21.585 Y-3.757 E101.31555
G1 X-22.179 Y-3.757 E101.34670
G1 X-14.666 Y3.757 E101.90360
G1 X-15.260 Y3.757 E101.93474
G1 X-22.773 Y-3.757 E102.49164
G1 X-23.368 Y-3.757 E102.52279
G1 X-15.854 Y3.757 E103.07968
G1 X-16.448 Y3.757 E103.11083
G1 X-23.962 Y-3.757 E103.66773
G1 X-24.556 Y-3.757 E103.69888
G1 X-17.043 Y3.757 E104.25577
G1 X-17.637 Y3.757 E104.28692
G1 X-25.150 Y-3.757 E104.84382
G1 X-25.745 Y-3.757 E104.87496
G1 X-18.231 Y3.757 E105.43186
G1 X-18.826 Y3.757 E105.46301
G1 X-26.339 Y-3.757 E106.01990
G1 X-26.933 Y-3.757 E106.05105
G1 X-19.420 Y3.757 E106.60795
G1 X-20.014 Y3.757 E106.63909
G1 X-27.527 Y-3.757 E107.19599
G1 X-28.122 Y-3.757 E107.22714
G1 X-20.608 Y3.757 E107.78404
G1 X-21.203 Y3.757 E107.81518
G1 X-28.716 Y-3.757 E108.37208
G1 X-29.310 Y-3.757 E108.40323
G1 X-21.797 Y3.757 E108.96012
G1 X-22.391 Y3.757 E108.99127
G1 X-29.905 Y-3.757 E109.54817
G1 X-30.499 Y-3.757 E109.57931
G1 X-22.985 Y3.757 E110.13621
G1 X-23.580 Y3.757 E110.16736
G1 X-31.093 Y-3.757 E110.72425
G1 X-31.687 Y-3.757 E110.75540
G1 X-24.174 Y3.757 E111.31230
G1 X-24.768 Y3.757 E111.34344
G1 X-32.282 Y-3.757 E111.90034
G1 X-32.876 Y-3.757 E111.93149
G1 X-25.362 Y3.757 E112.48839
G1 X-25.957 Y3.757 E112.51953
G1 X-33.470 Y-3.757 E113.07643
G1 X-34.064 Y-3.757 E113.10758
G1 X-26.551 Y3.757 E113.66447
G1 X-27.145 Y3.757 E113.69562
G1 X-34.659 Y-3.757 E114.25252
G1 X-35.253 Y-3.757 E114.28366
G1 X-27.740 Y3.757 E114.84056
G1 X-28.334 Y3.757 E114.87171
G1 X-35.847 Y-3.757 E115.42861
G1 X-36.442 Y-3.757 E115.45975
G1 X-28.928 Y3.757 E116.01665
G1 X-29.522 Y3.757 E116.04780
G1 X-37.036 Y-3.757 E116.60469
G1 X-37.630 Y-3.757 E116.63584
G1 X-30.117 Y3.757 E117.19274
G1 X-30.711 Y3.757 E117.22388
G1 X-38.224 Y-3.757 E117.78078
G1 X-38.819 Y-3.757 E117.81193
G1 X-31.305 Y3.757 E118.36882
G1 X-31.899 Y3.757 E118.39997
G1 X-39.413 Y-3.757 E118.95687
G1 X-40.007 Y-3.757 E118.98801
G1 X-32.494 Y3.757 E119.54491
G1 X-33.088 Y3.757 E119.57606
G1 X-40.601 Y-3.757 E120.13296
G1 X-41.196 Y-3.757 E120.16410
G1 X-33.682 Y3.757 E120.72100
G1 X-34.277 Y3.757 E120.75215
G1 X-41.790 Y-3.757 E121.30904
G1 X-42.384 Y-3.757 E121.34019
G1 X-34.871 Y3.757 E121.89709
G1 X-35.465 Y3.757 E121.92823
G1 X-42.978 Y-3.757 E122.48513
G1 X-43.573 Y-3.757 E122.51628
G1 X-36.059 Y3.757 E123.07318
G1 X-36.654 Y3.757 E123.10432
G1 X-44.167 Y-3.757 E123.66122
G1 X-44.761 Y-3.757 E123.69237
G1 X-37.248 Y3.757 E124.24926
G1 X-37.842 Y3.757 E124.28041
G1 X-45.356 Y-3.757 E124.83731
G1 X-45.950 Y-3.757 E124.86845
G1 X-38.436 Y3.757 E125.42535
G1 X-39.031 Y3.757 E125.45650
G1 X-46.544 Y-3.757 E126.01339
G1 X-47.138 Y-3.757 E126.04454
G1 X-39.625 Y3.757 E126.60144
G1 X-40.219 Y3.757 E126.63258
G1 X-47.733 Y-3.757 E127.18948
G1 X-48.327 Y-3.757 E127.22063
G1 X-40.813 Y3.757 E127.77753
G1 X-41.408 Y3.757 E127.80867
G1 X-48.757 Y-3.592 E128.35338
G1 X-48.757 Y-2.998 E128.38453
G1 X-42.002 Y3.757 E128.88519
G1 X-42.596 Y3.757 E128.91633
G1 X-48.757 Y-2.404 E129.37294
G1 X-48.757 Y-1.809 E129.40409
G1 X-43.191 Y3.757 E129.81665
G1 X-43.785 Y3.757 E129.84780
G1 X-48.757 Y-1.215 E130.21632
G1 X-48.757 Y-0.621 E130.24746
G1 X-44.379 Y3.757 E130.57193
G1 X-44.973 Y3.757 E130.60308
G1 X-48.757 Y-0.027 E130.88350
G1 X-48.757 Y0.568 E130.91465
G1 X-45.568 Y3.757 E131.15102
G1 X-46.162 Y3.757 E131.18217
G1 X-48.757 Y1.162 E131.37450
G1 X-48.757 Y1.756 E131.40564
G1 X-46.756 Y3.757 E131.55392
G1 X-47.350 Y3.757 E131.58507
G1 X-48.757 Y2.350 E131.68930
G1 X-48.757 Y2.945 E131.72045
G1 X-47.945 Y3.757 E131.78063
G1 X-48.539 Y3.757 E131.81178
G1 X-48.757 Y3.539 E131.82791
G1 E128.32791 F1800.00000
G92 E0
G1 Z0.300 F6000.000
G1 Z0.500 F6000.000
G1 X48.679 Y-3.679 F6000.000
G1 E3.50000 F1800.00000
G1 X48.679 Y3.679 E3.88442 F1363.944
G1 X-48.679 Y3.679 E8.97087
G1 X-48.679 Y-3.679 E9.35529
G1 X48.619 Y-3.679 E14.43861
G1 X49.307 Y-4.307 F6000.000
G1 X49.307 Y4.307 E14.88868 F1363.944
G1 X-49.307 Y4.307 E20.04079
G1 X-49.307 Y-4.307 E20.49086
G1 X49.247 Y-4.307 E25.63984
G1 X49.800 Y-4.800 F6000.000
G1 X49.800 Y4.800 E25.92487 F1200.000
G1 X-49.800 Y4.800 E28.88213
G1 X-49.800 Y-4.800 E29.16716
G1 X49.740 Y-4.800 E32.12263
G1 X49.600 Y-4.454 F6000.000
G1 E28.62263 F1800.00000
G92 E0
G1 X47.992 Y3.298 F6000.000
G1 E3.50000 F1800.00000
G1 X48.298 Y2.992 E3.52274 F1358.712
G1 X48.298 Y2.100 E3.56952
G1 X47.100 Y3.298 E3.65842
G1 X46.208 Y3.298 E3.70520
G1 X48.298 Y1.208 E3.86026
G1 X48.298 Y0.316 E3.90704
G1 X45.316 Y3.298 E4.12826
G1 X44.424 Y3.298 E4.17504
G1 X48.298 Y-0.576 E4.46242
G1 X48.298 Y-1.468 E4.50920
G1 X43.532 Y3.298 E4.86273
G1 X42.640 Y3.298 E4.90951
G1 X48.298 Y-2.360 E5.32921
G1 X48.298 Y-3.252 E5.37599
G1 X41.748 Y3.298 E5.86185
G1 X40.856 Y3.298 E5.90863
G1 X47.452 Y-3.298 E6.39789
G1 X46.560 Y-3.298 E6.44467
G1 X39.964 Y3.298 E6.93393
G1 X39.072 Y3.298 E6.98071
G1 X45.668 Y-3.298 E7.46997
G1 X44.776 Y-3.298 E7.51675
G1 X38.180 Y3.298 E8.00600
G1 X37.288 Y3.298 E8.05279
G1 X43.884 Y-3.298 E8.54204
G1 X42.992 Y-3.298 E8.58883
G1 X36.396 Y3.298 E9.07808
G1 X35.504 Y3.298 E9.12487
G1 X42.100 Y-3.298 E9.61412
G1 X41.208 Y-3.298 E9.66090
G1 X34.612 Y3.298 E10.15016
G1 X33.720 Y3.298 E10.19694
