; generated by Slic3r 1.2.9 on 2016-06-20 at 13:32:56

; external perimeters extrusion width = 0.40mm
; perimeters extrusion width = 0.40mm
; infill extrusion width = 0.67mm
; solid infill extrusion width = 0.40mm
; top infill extrusion width = 0.40mm
; support material extrusion width = 0.40mm

M190 S60 ; set bed temperature
M104 S210 ; set temperature
G28 ; home all axes

M109 S210 ; wait for temperature to be reached
G21 ; set units to millimeters
G90 ; use absolute coordinates
M82 ; use absolute distances for extrusion
G92 E0
G1 E-4.00000 F4800.00000
G92 E0
G1 Z1.000 F6000.000
G1 X23.084 Y-63.866 F6000.000
G1 Z0.300 F6000.000
G1 E4.00000 F4800.00000
G1 X26.344 Y-62.688 E4.14510 F3404.615
G1 X26.767 Y-62.516 E4.16423
G1 X29.044 Y-61.492 E4.26875
G1 X33.792 Y-59.012 E4.49294
G1 X34.210 Y-58.771 E4.51319
G1 X38.430 Y-56.102 E4.72220
G1 X38.829 Y-55.827 E4.74245
G1 X42.820 Y-52.828 E4.95146
G1 X43.195 Y-52.522 E4.97171
G1 X46.932 Y-49.211 E5.18072
G1 X49.130 Y-47.022 E5.31055
G1 X51.061 Y-44.913 E5.43026
G1 X54.218 Y-41.045 E5.63926
G1 X54.509 Y-40.658 E5.65951
G1 X57.345 Y-36.549 E5.86852
G1 X57.604 Y-36.140 E5.88877
G1 X60.100 Y-31.816 E6.09778
G1 X60.345 Y-31.345 E6.12001
G1 X62.765 Y-26.139 E6.36032
G1 X62.986 Y-25.598 E6.38478
G1 X65.219 Y-19.241 E6.66685
G1 X65.384 Y-18.687 E6.69104
G1 X66.579 Y-13.839 E6.90004
G1 X66.676 Y-13.365 E6.92029
G1 X67.477 Y-8.437 E7.12930
G1 X67.535 Y-7.957 E7.14955
G1 X67.955 Y-2.617 E7.37374
G1 X68.006 Y0.121 E7.48839
G1 X67.937 Y2.980 E7.60810
G1 X67.535 Y7.957 E7.81711
G1 X67.477 Y8.437 E7.83736
G1 X66.676 Y13.365 E8.04636
G1 X66.579 Y13.839 E8.06661
G1 X65.384 Y18.687 E8.27562
G1 X65.250 Y19.152 E8.29587
G1 X63.543 Y24.228 E8.52006
G1 X62.516 Y26.767 E8.63471
G1 X61.333 Y29.370 E8.75442
G1 X59.012 Y33.792 E8.96343
G1 X58.771 Y34.210 E8.98368
G1 X56.102 Y38.430 E9.19268
G1 X55.827 Y38.829 E9.21293
G1 X52.828 Y42.820 E9.42194
G1 X52.459 Y43.265 E9.44612
G1 X47.912 Y48.238 E9.72820
G1 X47.497 Y48.650 E9.75265
G1 X43.230 Y52.490 E9.99297
G1 X42.820 Y52.828 E10.01520
G1 X38.829 Y55.827 E10.22421
G1 X38.430 Y56.102 E10.24446
G1 X34.210 Y58.771 E10.45346
G1 X33.792 Y59.012 E10.47371
G1 X29.044 Y61.492 E10.69790
G1 X26.767 Y62.516 E10.80243
G1 X24.228 Y63.543 E10.91708
G1 X19.152 Y65.250 E11.14127
G1 X18.687 Y65.384 E11.16152
G1 X13.839 Y66.579 E11.37053
G1 X13.365 Y66.676 E11.39078
G1 X8.437 Y67.477 E11.59978
G1 X7.957 Y67.535 E11.62003
G1 X2.980 Y67.937 E11.82904
G1 X-0.121 Y68.006 E11.95887
G1 X-2.980 Y67.937 E12.07858
G1 X-7.957 Y67.535 E12.28759
G1 X-8.437 Y67.477 E12.30784
G1 X-13.365 Y66.676 E12.51684
G1 X-13.839 Y66.579 E12.53709
G1 X-18.687 Y65.384 E12.74610
G1 X-19.152 Y65.250 E12.76635
G1 X-24.228 Y63.543 E12.99054
G1 X-26.545 Y62.611 E13.09507
G1 X-29.044 Y61.492 E13.20972
G1 X-33.792 Y59.012 E13.43391
G1 X-34.210 Y58.771 E13.45416
G1 X-38.430 Y56.102 E13.66316
G1 X-38.829 Y55.827 E13.68341
G1 X-42.820 Y52.828 E13.89242
G1 X-43.265 Y52.459 E13.91661
G1 X-48.238 Y47.912 E14.19868
G1 X-48.650 Y47.497 E14.22314
G1 X-52.490 Y43.230 E14.46345
G1 X-52.828 Y42.820 E14.48568
G1 X-55.827 Y38.829 E14.69469
G1 X-56.102 Y38.430 E14.71494
G1 X-58.771 Y34.210 E14.92394
G1 X-59.002 Y33.810 E14.94330
G1 X-60.988 Y30.060 E15.12096
G1 X-62.493 Y26.818 E15.27056
G1 X-62.688 Y26.344 E15.29202
G1 X-64.978 Y20.006 E15.57410
G1 X-65.150 Y19.448 E15.59855
G1 X-66.568 Y13.885 E15.83887
G1 X-66.690 Y13.272 E15.86503
G1 X-67.667 Y6.605 E16.14711
G1 X-67.724 Y6.023 E16.17156
G1 X-68.000 Y0.289 E16.41188
G1 X-68.002 Y-0.242 E16.43410
G1 X-67.801 Y-5.231 E16.64311
G1 X-67.765 Y-5.692 E16.66247
G1 X-67.268 Y-9.907 E16.84013
G1 X-66.665 Y-13.429 E16.98973
G1 X-66.579 Y-13.839 E17.00726
G1 X-65.384 Y-18.687 E17.21626
G1 X-65.250 Y-19.152 E17.23651
G1 X-63.669 Y-23.888 E17.44552
G1 X-62.611 Y-26.545 E17.56523
G1 X-62.445 Y-26.920 E17.58240
G1 X-59.943 Y-32.087 E17.82271
G1 X-59.663 Y-32.600 E17.84717
G1 X-56.152 Y-38.351 E18.12924
G1 X-55.827 Y-38.829 E18.15343
G1 X-52.828 Y-42.820 E18.36243
G1 X-50.983 Y-45.006 E18.48214
G1 X-47.281 Y-48.876 E18.70633
G1 X-46.861 Y-49.273 E18.73052
G1 X-41.748 Y-53.661 E19.01259
G1 X-41.287 Y-54.020 E19.03705
G1 X-36.588 Y-57.318 E19.27736
G1 X-36.244 Y-57.542 E19.29453
G1 X-33.792 Y-59.012 E19.41424
G1 X-29.370 Y-61.333 E19.62325
G1 X-28.933 Y-61.540 E19.64350
G1 X-24.340 Y-63.497 E19.85250
G1 X-23.888 Y-63.669 E19.87275
G1 X-19.152 Y-65.250 E20.08176
G1 X-18.687 Y-65.384 E20.10201
G1 X-13.839 Y-66.579 E20.31102
G1 X-11.028 Y-67.106 E20.43073
G1 X-5.713 Y-67.762 E20.65492
G1 X-5.184 Y-67.803 E20.67714
G1 X0.554 Y-67.989 E20.91746
G1 X1.138 Y-67.979 E20.94191
G1 X7.863 Y-67.542 E21.22399 F3404.615
G1 X8.437 Y-67.477 E21.24817
G1 X13.365 Y-66.676 E21.45718
G1 X13.885 Y-66.568 E21.47941
G1 X19.448 Y-65.150 E21.71973
G1 X20.006 Y-64.978 E21.74418
G1 X23.027 Y-63.887 E21.87864
G1 X22.970 Y-63.551 F6000.000
G1 X26.230 Y-62.372 E22.02374 F3404.615
G1 X26.629 Y-62.210 E22.04180
G1 X28.906 Y-61.186 E22.14633
G1 X33.636 Y-58.715 E22.36967
G1 X34.031 Y-58.487 E22.38879
G1 X38.251 Y-55.818 E22.59779
G1 X38.627 Y-55.559 E22.61691
G1 X42.619 Y-52.559 E22.82592
G1 X42.972 Y-52.270 E22.84504
G1 X46.710 Y-48.960 E23.05404
G1 X48.725 Y-46.959 E23.17290
G1 X50.801 Y-44.700 E23.30132
G1 X53.958 Y-40.833 E23.51033
G1 X54.233 Y-40.468 E23.52945
G1 X57.069 Y-36.359 E23.73846
G1 X57.313 Y-35.973 E23.75757
G1 X59.810 Y-31.648 E23.96658
G1 X60.041 Y-31.204 E23.98757
G1 X62.461 Y-25.998 E24.22788
G1 X62.669 Y-25.487 E24.25097
G1 X64.903 Y-19.129 E24.53305
G1 X65.059 Y-18.607 E24.55588
G1 X66.253 Y-13.759 E24.76489
G1 X66.345 Y-13.311 E24.78401
G1 X67.146 Y-8.383 E24.99301
G1 X67.201 Y-7.930 E25.01213
G1 X67.620 Y-2.611 E25.23547
G1 X67.670 Y0.114 E25.34956
G1 X67.603 Y2.953 E25.46842
G1 X67.201 Y7.930 E25.67742
G1 X67.146 Y8.383 E25.69654
G1 X66.345 Y13.311 E25.90555
G1 X66.253 Y13.759 E25.92467
G1 X65.059 Y18.607 E26.13368
G1 X64.932 Y19.045 E26.15279
G1 X63.232 Y24.103 E26.37614
G1 X62.210 Y26.629 E26.49022
G1 X61.036 Y29.215 E26.60908
G1 X58.715 Y33.636 E26.81809
G1 X58.487 Y34.031 E26.83721
G1 X55.818 Y38.251 E27.04621
G1 X55.559 Y38.627 E27.06533
G1 X52.559 Y42.619 E27.27434
G1 X52.211 Y43.038 E27.29717
G1 X47.664 Y48.012 E27.57925
G1 X47.273 Y48.400 E27.60234
G1 X43.006 Y52.241 E27.84265
G1 X42.619 Y52.559 E27.86364
G1 X38.627 Y55.559 E28.07265
G1 X38.251 Y55.818 E28.09176
G1 X34.031 Y58.487 E28.30077
G1 X33.636 Y58.715 E28.31989
G1 X28.906 Y61.186 E28.54323
G1 X26.419 Y62.300 E28.65732
G1 X24.103 Y63.232 E28.76184
G1 X19.045 Y64.932 E28.98518
G1 X18.607 Y65.059 E29.00430
G1 X13.759 Y66.253 E29.21331
G1 X13.311 Y66.345 E29.23243
G1 X8.383 Y67.146 E29.44143
G1 X7.930 Y67.201 E29.46055
G1 X2.953 Y67.603 E29.66956
G1 X0.114 Y67.670 E29.78842
G1 X-2.953 Y67.603 E29.91684
G1 X-7.930 Y67.201 E30.12585
G1 X-8.383 Y67.146 E30.14496
G1 X-13.311 Y66.345 E30.35397
G1 X-13.759 Y66.253 E30.37309
G1 X-18.607 Y65.059 E30.58210
G1 X-19.045 Y64.932 E30.60121
G1 X-24.103 Y63.232 E30.82456
G1 X-26.419 Y62.300 E30.92908
G1 X-28.906 Y61.186 E31.04317
G1 X-33.636 Y58.715 E31.26651
G1 X-34.031 Y58.487 E31.28563
G1 X-38.251 Y55.818 E31.49463
G1 X-38.627 Y55.559 E31.51375
G1 X-42.619 Y52.559 E31.72276
G1 X-43.038 Y52.211 E31.74559
G1 X-48.012 Y47.664 E32.02767
G1 X-48.400 Y47.273 E32.05076
G1 X-52.241 Y43.006 E32.29107
G1 X-52.559 Y42.619 E32.31206
G1 X-55.559 Y38.627 E32.52107
G1 X-55.818 Y38.251 E32.54018
G1 X-58.487 Y34.031 E32.74919
G1 X-58.706 Y33.653 E32.76747
G1 X-60.691 Y29.903 E32.94512
G1 X-62.188 Y26.677 E33.09396
G1 X-62.372 Y26.230 E33.11422
G1 X-64.663 Y19.892 E33.39630
G1 X-64.825 Y19.365 E33.41939
G1 X-66.243 Y13.802 E33.65970
G1 X-66.358 Y13.224 E33.68440
G1 X-67.335 Y6.556 E33.96648
G1 X-67.388 Y6.007 E33.98957
G1 X-67.665 Y0.273 E34.22988
G1 X-67.667 Y-0.228 E34.25087
G1 X-67.466 Y-5.217 E34.45987
G1 X-67.431 Y-5.653 E34.47815
G1 X-66.935 Y-9.867 E34.65581
G1 X-66.335 Y-13.372 E34.80464
G1 X-66.253 Y-13.759 E34.82119
G1 X-65.059 Y-18.607 E35.03020
G1 X-64.932 Y-19.045 E35.04932
G1 X-63.350 Y-23.781 E35.25832
G1 X-62.300 Y-26.419 E35.37718
G1 X-62.143 Y-26.773 E35.39339
G1 X-59.641 Y-31.940 E35.63371
G1 X-59.377 Y-32.425 E35.65680
G1 X-55.865 Y-38.176 E35.93887
G1 X-55.559 Y-38.627 E35.96170
G1 X-52.559 Y-42.619 E36.17071
G1 X-50.728 Y-44.788 E36.28957
G1 X-47.039 Y-48.643 E36.51291
G1 X-46.643 Y-49.018 E36.53575
G1 X-41.529 Y-53.407 E36.81782
G1 X-41.094 Y-53.745 E36.84091
G1 X-36.071 Y-57.255 E37.09743
G1 X-33.636 Y-58.715 E37.21629
G1 X-29.214 Y-61.036 E37.42529
G1 X-28.802 Y-61.231 E37.44441
G1 X-24.208 Y-63.188 E37.65342
G1 X-23.781 Y-63.350 E37.67254
G1 X-19.045 Y-64.932 E37.88154
G1 X-18.607 Y-65.059 E37.90066
G1 X-13.759 Y-66.253 E38.10967
G1 X-10.968 Y-66.775 E38.22853
G1 X-5.673 Y-67.429 E38.45187
G1 X-5.173 Y-67.467 E38.47286
G1 X0.565 Y-67.653 E38.71317
G1 X1.117 Y-67.644 E38.73626
G1 X7.841 Y-67.207 E39.01834 F3404.615
G1 X8.383 Y-67.146 E39.04117
G1 X13.311 Y-66.345 E39.25018
G1 X13.802 Y-66.243 E39.27117
G1 X19.365 Y-64.825 E39.51148
G1 X19.892 Y-64.663 E39.53457
G1 X22.913 Y-63.571 E39.66903
G1 X22.856 Y-63.235 F6000.000
G1 X26.116 Y-62.057 E39.81413 F3404.615
G1 X26.492 Y-61.904 E39.83112
G1 X28.769 Y-60.879 E39.93564
G1 X33.480 Y-58.418 E40.15814
G1 X33.852 Y-58.203 E40.17613
G1 X38.072 Y-55.535 E40.38513
G1 X38.425 Y-55.291 E40.40312
G1 X42.417 Y-52.291 E40.61213
G1 X42.750 Y-52.019 E40.63011
G1 X46.487 Y-48.708 E40.83912
G1 X48.487 Y-46.722 E40.95713
G1 X50.541 Y-44.488 E41.08414
G1 X53.698 Y-40.621 E41.29314
G1 X53.957 Y-40.277 E41.31113
G1 X56.793 Y-36.168 E41.52014
G1 X57.023 Y-35.805 E41.53813
G1 X59.519 Y-31.481 E41.74713
G1 X59.737 Y-31.062 E41.76688
G1 X62.157 Y-25.856 E42.00719
G1 X62.352 Y-25.376 E42.02891
G1 X64.586 Y-19.018 E42.31099
G1 X64.733 Y-18.526 E42.33247
G1 X65.928 Y-13.678 E42.54148
G1 X66.014 Y-13.257 E42.55947
G1 X66.814 Y-8.329 E42.76847
G1 X66.866 Y-7.903 E42.78646
G1 X67.284 Y-2.604 E43.00895
G1 X67.335 Y0.107 E43.12247
G1 X67.268 Y2.926 E43.24048
G1 X66.866 Y7.903 E43.44949
G1 X66.814 Y8.329 E43.46748
G1 X66.014 Y13.257 E43.67649
G1 X65.928 Y13.678 E43.69447
G1 X64.733 Y18.526 E43.90348
G1 X64.613 Y18.939 E43.92147
G1 X62.921 Y23.978 E44.14396
G1 X61.904 Y26.492 E44.25748
G1 X60.738 Y29.059 E44.37549
G1 X58.418 Y33.480 E44.58450
G1 X58.203 Y33.852 E44.60249
G1 X55.535 Y38.072 E44.81149
G1 X55.291 Y38.425 E44.82948
G1 X52.291 Y42.417 E45.03849
G1 X51.963 Y42.812 E45.05997
G1 X47.416 Y47.785 E45.34204
G1 X47.048 Y48.151 E45.36377
G1 X42.781 Y51.991 E45.60408
G1 X42.417 Y52.291 E45.62383
G1 X38.425 Y55.291 E45.83283
G1 X38.072 Y55.535 E45.85082
G1 X33.852 Y58.203 E46.05983
G1 X33.480 Y58.418 E46.07781
G1 X28.769 Y60.879 E46.30031
G1 X26.492 Y61.904 E46.40483
G1 X23.978 Y62.921 E46.51835
G1 X18.939 Y64.613 E46.74085
G1 X18.526 Y64.733 E46.75883
G1 X13.678 Y65.928 E46.96784
G1 X13.257 Y66.014 E46.98583
G1 X8.329 Y66.814 E47.19483
G1 X7.903 Y66.866 E47.21282
G1 X2.926 Y67.268 E47.42183
G1 X0.107 Y67.335 E47.53984
G1 X-2.926 Y67.268 E47.66684
G1 X-7.903 Y66.866 E47.87585
G1 X-8.329 Y66.814 E47.89384
G1 X-13.257 Y66.014 E48.10285
G1 X-13.678 Y65.928 E48.12083
G1 X-18.526 Y64.733 E48.32984
G1 X-18.939 Y64.613 E48.34783
G1 X-23.978 Y62.921 E48.57032
G1 X-26.294 Y61.989 E48.67485
G1 X-28.769 Y60.879 E48.78836
G1 X-33.480 Y58.418 E49.01086
G1 X-33.852 Y58.203 E49.02884
G1 X-38.072 Y55.535 E49.23785
G1 X-38.425 Y55.291 E49.25584
G1 X-42.417 Y52.291 E49.46485
G1 X-42.812 Y51.963 E49.48633
G1 X-47.785 Y47.416 E49.76840
G1 X-48.151 Y47.048 E49.79013
G1 X-51.991 Y42.781 E50.03044
G1 X-52.291 Y42.417 E50.05019
G1 X-55.291 Y38.425 E50.25919
G1 X-55.535 Y38.072 E50.27718
G1 X-58.203 Y33.852 E50.48619
G1 X-58.409 Y33.496 E50.50338
G1 X-60.395 Y29.745 E50.68104
G1 X-61.884 Y26.537 E50.82911
G1 X-62.057 Y26.116 E50.84817
G1 X-64.347 Y19.778 E51.13025
G1 X-64.500 Y19.282 E51.15197
G1 X-65.917 Y13.719 E51.39228
G1 X-66.026 Y13.175 E51.41552
G1 X-67.003 Y6.508 E51.69760
G1 X-67.053 Y5.991 E51.71932
G1 X-67.329 Y0.257 E51.95963
G1 X-67.331 Y-0.215 E51.97938
G1 X-67.130 Y-5.204 E52.18839
G1 X-67.098 Y-5.613 E52.20558
G1 X-66.601 Y-9.828 E52.38324
G1 X-66.004 Y-13.315 E52.53131
G1 X-64.733 Y-18.526 E52.75587
G1 X-64.613 Y-18.939 E52.77386
G1 X-63.032 Y-23.675 E52.98287
G1 X-61.841 Y-26.627 E53.11612
G1 X-59.339 Y-31.794 E53.35643
G1 X-59.091 Y-32.250 E53.37815
G1 X-55.579 Y-38.001 E53.66023
G1 X-55.291 Y-38.425 E53.68171
G1 X-52.291 Y-42.417 E53.89072
G1 X-50.472 Y-44.571 E54.00873
G1 X-46.797 Y-48.411 E54.23122
G1 X-46.424 Y-48.763 E54.25271
G1 X-41.311 Y-53.152 E54.53478
G1 X-40.901 Y-53.471 E54.55650
G1 X-35.897 Y-56.968 E54.81206
G1 X-33.480 Y-58.418 E54.93007
G1 X-29.059 Y-60.738 E55.13908
G1 X-28.670 Y-60.923 E55.15707
G1 X-24.077 Y-62.880 E55.36607
G1 X-23.675 Y-63.032 E55.38406
G1 X-18.939 Y-64.613 E55.59307
G1 X-18.526 Y-64.733 E55.61106
G1 X-13.678 Y-65.928 E55.82006
G1 X-10.907 Y-66.445 E55.93807
G1 X-5.632 Y-67.096 E56.16057
G1 X-5.162 Y-67.132 E56.18031
G1 X0.576 Y-67.318 E56.42063
G1 X1.095 Y-67.309 E56.44235
G1 X7.819 Y-66.872 E56.72443 F3404.615
G1 X8.329 Y-66.814 E56.74591
G1 X13.257 Y-66.014 E56.95491
G1 X13.719 Y-65.917 E56.97466
G1 X19.282 Y-64.500 E57.21497
G1 X19.778 Y-64.347 E57.23670
G1 X22.799 Y-63.255 E57.37116
G1 F4800
G1 X26.116 Y-62.057 E54.02107
G1 F4800
G1 X26.492 Y-61.904 E53.63555
G1 F4800
G1 X26.554 Y-61.876 E53.57116
G1 E53.37116 F4800.00000
G92 E0
G1 Z1.300 F6000.000
G1 X-17.273 Y-58.019 F6000.000
G1 Z0.300 F6000.000
G1 E4.00000 F4800.00000
G1 X-12.423 Y-59.248 E4.20944 F3404.615
G1 X-7.484 Y-60.072 E4.41906
G1 X-0.702 Y-60.522 E4.70358 F3404.615
G1 X4.997 Y-60.330 E4.94226
G1 X9.968 Y-59.710 E5.15197
G1 X16.547 Y-58.220 E5.43435
G1 X22.007 Y-56.394 E5.67534
G1 X28.070 Y-53.622 E5.95438
G1 X33.112 Y-50.678 E6.19880
G1 X38.458 Y-46.735 E6.47688
G1 X42.804 Y-42.807 E6.72209
G1 X46.190 Y-39.129 E6.93140
G1 X47.775 Y-37.178 E7.03660
G1 X50.679 Y-33.110 E7.24581
G1 X53.237 Y-28.817 E7.45502
G1 X54.387 Y-26.582 E7.56022
G1 X56.395 Y-22.005 E7.76943
G1 X58.018 Y-17.278 E7.97864
G1 X58.685 Y-14.855 E8.08384
G1 X59.710 Y-9.964 E8.29305
G1 X60.329 Y-4.999 E8.50249
G1 X60.536 Y-0.000 E8.71193
G1 X60.329 Y4.999 E8.92137
G1 X59.710 Y9.968 E9.13099
G1 X58.220 Y16.547 E9.41337
G1 X56.396 Y22.003 E9.65419
G1 X54.387 Y26.582 E9.86349
G1 X53.237 Y28.817 E9.96869
G1 X50.677 Y33.114 E10.17808
G1 X46.669 Y38.540 E10.46046
G1 X42.807 Y42.804 E10.70128
G1 X39.128 Y46.190 E10.91058
G1 X37.178 Y47.775 E11.01578
G1 X33.110 Y50.679 E11.22499
G1 X28.817 Y53.237 E11.43420
G1 X26.582 Y54.387 E11.53940
G1 X22.003 Y56.396 E11.74870
G1 X16.547 Y58.220 E11.98952
G1 X9.968 Y59.710 E12.27190
G1 X4.999 Y60.329 E12.48152
G1 X0.000 Y60.536 E12.69096
G1 X-4.999 Y60.329 E12.90040
G1 X-9.964 Y59.710 E13.10984
G1 X-14.855 Y58.685 E13.31904
G1 X-17.278 Y58.018 E13.42425
G1 X-22.009 Y56.393 E13.63364
G1 X-28.143 Y53.585 E13.91602
G1 X-33.108 Y50.680 E14.15683
G1 X-37.178 Y47.775 E14.36613
G1 X-39.129 Y46.190 E14.47134
G1 X-42.801 Y42.809 E14.68031
G1 X-44.541 Y40.996 E14.78552
G1 X-47.771 Y37.182 E14.99473
G1 X-50.680 Y33.108 E15.20427
G1 X-53.622 Y28.070 E15.44851
G1 X-56.394 Y22.009 E15.72746
G1 X-58.019 Y17.274 E15.93703
G1 X-59.078 Y13.157 E16.11500
G1 X-59.711 Y9.961 E16.25137
G1 X-60.329 Y4.999 E16.46068
G1 X-60.536 Y-0.004 E16.67031
G1 X-60.145 Y-6.784 E16.95457
G1 X-59.248 Y-12.421 E17.19350
G1 X-58.018 Y-17.277 E17.40321
G1 X-55.726 Y-23.622 E17.68559
G1 X-53.241 Y-28.810 E17.92641
G1 X-50.679 Y-33.110 E18.13594
G1 X-47.775 Y-37.178 E18.34515
G1 X-46.190 Y-39.129 E18.45035
G1 X-42.805 Y-42.805 E18.65956
G1 X-39.129 Y-46.190 E18.86877
G1 X-37.178 Y-47.775 E18.97397
G1 X-33.110 Y-50.679 E19.18318
G1 X-28.812 Y-53.240 E19.39262
G1 X-24.322 Y-55.435 E19.60183
G1 X-22.000 Y-56.397 E19.70703
G1 X-17.330 Y-58.000 E19.91373
G1 X-17.177 Y-57.697 F6000.000
G1 X-12.354 Y-58.919 E20.12201 F3404.615
G1 X-7.445 Y-59.738 E20.33035
G1 X-0.696 Y-60.186 E20.61347 F3404.615
G1 X4.971 Y-59.995 E20.85081
G1 X9.910 Y-59.379 E21.05919
G1 X16.457 Y-57.896 E21.34018
G1 X21.884 Y-56.082 E21.57972
G1 X27.915 Y-53.324 E21.85731
G1 X32.927 Y-50.397 E22.10027
