; generated by Slic3r 1.2.9 on 2016-06-20 at 11:51:45

; external perimeters extrusion width = 0.40mm
; perimeters extrusion width = 0.40mm
; infill extrusion width = 0.67mm
; solid infill extrusion width = 0.40mm
; top infill extrusion width = 0.40mm
; support material extrusion width = 0.40mm

M190 S60 ; set bed temperature
M104 S210 ; set temperature
G28 ; home all axes

M109 S210 ; wait for temperature to be reached
G21 ; set units to millimeters
G90 ; use absolute coordinates
M82 ; use absolute distances for extrusion
G92 E0
G1 E-4.00000 F4800.00000
G92 E0
G1 Z1.000 F6000.000
G1 X77.902 Y-1.133 F6000.000
G1 Z0.300 F6000.000
G1 E4.00000 F4800.00000
G1 X77.956 Y2.605 E4.15648 F3404.615
G1 X77.947 Y3.029 E4.17424
G1 X77.796 Y5.717 E4.28696
G1 X77.165 Y11.404 E4.52645
G1 X77.098 Y11.848 E4.54525
G1 X76.097 Y17.138 E4.77064
G1 X75.974 Y17.660 E4.79310
G1 X73.991 Y24.652 E5.09730
G1 X73.820 Y25.166 E5.12000
G1 X71.600 Y30.946 E5.37916
G1 X71.404 Y31.399 E5.39980
G1 X69.068 Y36.250 E5.62519
G1 X67.611 Y38.906 E5.75201
G1 X67.393 Y39.269 E5.76977
G1 X63.438 Y45.366 E6.07396
G1 X63.122 Y45.807 E6.09667
G1 X59.298 Y50.675 E6.35583
G1 X57.027 Y53.220 E6.49858
G1 X53.220 Y57.027 E6.72397
G1 X52.891 Y57.333 E6.74277
G1 X48.809 Y60.845 E6.96816
G1 X48.458 Y61.125 E6.98697
G1 X43.849 Y64.515 E7.22646
G1 X41.310 Y66.166 E7.35327
G1 X36.647 Y68.858 E7.57866
G1 X36.250 Y69.068 E7.59746
G1 X31.399 Y71.404 E7.82285
G1 X28.603 Y72.573 E7.94967
G1 X24.764 Y73.958 E8.12051
G1 X20.387 Y75.292 E8.31209
G1 X17.467 Y76.025 E8.43808
G1 X11.848 Y77.098 E8.67757
G1 X11.404 Y77.165 E8.69637
G1 X5.717 Y77.796 E8.93586
G1 X2.692 Y77.957 E9.06267
G1 X-2.692 Y77.957 E9.28806
G1 X-5.717 Y77.796 E9.41488
G1 X-11.404 Y77.165 E9.65437
G1 X-11.848 Y77.098 E9.67317
G1 X-17.138 Y76.097 E9.89856
G1 X-17.557 Y76.002 E9.91654
G1 X-21.982 Y74.832 E10.10812
G1 X-25.975 Y73.551 E10.28365
G1 X-30.987 Y71.584 E10.50904
G1 X-31.399 Y71.404 E10.52785
G1 X-36.250 Y69.068 E10.75324
G1 X-38.906 Y67.611 E10.88005
G1 X-39.269 Y67.393 E10.89781
G1 X-45.366 Y63.438 E11.20201
G1 X-45.807 Y63.122 E11.22472
G1 X-50.675 Y59.298 E11.48388
G1 X-53.220 Y57.027 E11.62662
G1 X-57.027 Y53.220 E11.85201
G1 X-57.333 Y52.891 E11.87082
G1 X-60.845 Y48.809 E12.09621
G1 X-62.919 Y46.102 E12.23896
G1 X-66.369 Y40.962 E12.49811
G1 X-66.650 Y40.498 E12.52082
G1 X-70.139 Y34.123 E12.82502
G1 X-70.330 Y33.744 E12.84278
G1 X-71.584 Y30.987 E12.96959
G1 X-73.551 Y25.975 E13.19498
G1 X-73.700 Y25.551 E13.21379
G1 X-75.287 Y20.406 E13.43918
G1 X-75.403 Y19.972 E13.45798
G1 X-76.667 Y14.392 E13.69747
G1 X-77.118 Y11.737 E13.81019
G1 X-77.174 Y11.317 E13.82794
G1 X-77.883 Y4.084 E14.13214
G1 X-77.911 Y3.543 E14.15485
G1 X-77.956 Y-2.648 E14.41401
G1 X-77.940 Y-3.141 E14.43465
G1 X-77.537 Y-8.510 E14.66004
G1 X-77.487 Y-8.957 E14.67884
G1 X-76.625 Y-14.613 E14.91833
G1 X-76.075 Y-17.248 E15.03105
G1 X-75.377 Y-20.081 E15.15316
G1 X-73.700 Y-25.551 E15.39265
G1 X-73.551 Y-25.975 E15.41146
G1 X-71.452 Y-31.297 E15.65095
G1 X-70.181 Y-34.046 E15.77776
G1 X-67.665 Y-38.807 E16.00315
G1 X-67.393 Y-39.269 E16.02561
G1 X-63.438 Y-45.366 E16.32981
G1 X-63.122 Y-45.807 E16.35251
G1 X-59.053 Y-50.967 E16.62761
G1 X-57.027 Y-53.220 E16.75442
G1 X-53.220 Y-57.027 E16.97981
G1 X-50.967 Y-59.053 E17.10663
G1 X-46.500 Y-62.627 E17.34611
G1 X-46.139 Y-62.894 E17.36492
G1 X-41.406 Y-66.109 E17.60441
G1 X-38.807 Y-67.665 E17.73122
G1 X-34.046 Y-70.181 E17.95661
G1 X-33.642 Y-70.375 E17.97542
G1 X-28.707 Y-72.529 E18.20081
G1 X-25.870 Y-73.591 E18.32762
G1 X-20.406 Y-75.287 E18.56711
G1 X-19.972 Y-75.403 E18.58591
G1 X-14.722 Y-76.601 E18.81130
G1 X-14.301 Y-76.682 E18.82928
G1 X-9.475 Y-77.417 E19.03362
G1 X-5.993 Y-77.774 E19.18013
G1 X-5.518 Y-77.804 E19.20006
G1 X1.747 Y-77.970 E19.50426
G1 X2.290 Y-77.958 E19.52697
G1 X8.467 Y-77.540 E19.78612 F3404.615
G1 X8.957 Y-77.487 E19.80677
G1 X14.281 Y-76.685 E20.03215
G1 X17.248 Y-76.075 E20.15897
G1 X17.660 Y-75.974 E20.17673
G1 X24.652 Y-73.991 E20.48093
G1 X25.166 Y-73.820 E20.50363
G1 X31.297 Y-71.452 E20.77873
G1 X34.046 Y-70.181 E20.90554
G1 X38.807 Y-67.665 E21.13093
G1 X39.269 Y-67.393 E21.15339
G1 X45.366 Y-63.438 E21.45759
G1 X45.807 Y-63.122 E21.48030
G1 X50.967 Y-59.053 E21.75539
G1 X53.220 Y-57.027 E21.88220
G1 X57.027 Y-53.220 E22.10759
G1 X57.389 Y-52.824 E22.13005
G1 X62.049 Y-47.247 E22.43425
G1 X62.378 Y-46.816 E22.45696
G1 X65.902 Y-41.726 E22.71612
G1 X66.156 Y-41.327 E22.73593
G1 X68.458 Y-37.371 E22.92751
G1 X70.209 Y-33.993 E23.08678
G1 X70.393 Y-33.601 E23.10489
G1 X72.827 Y-27.909 E23.36405
G1 X73.018 Y-27.401 E23.38676
G1 X75.260 Y-20.489 E23.69096
G1 X75.377 Y-20.081 E23.70872
G1 X76.097 Y-17.138 E23.83553
G1 X77.098 Y-11.848 E24.06092
G1 X77.170 Y-11.360 E24.08156
G1 X77.818 Y-5.203 E24.34072
G1 X77.850 Y-4.661 E24.36343
G1 X77.901 Y-1.193 E24.50863
G1 X77.566 Y-1.128 F6000.000
G1 X77.620 Y2.610 E24.66512 F3404.615
G1 X77.461 Y5.699 E24.79459
G1 X76.831 Y11.366 E25.03329
G1 X76.768 Y11.785 E25.05104
G1 X75.767 Y17.076 E25.27643
G1 X75.651 Y17.569 E25.29764
G1 X73.668 Y24.560 E25.60184
G1 X73.506 Y25.046 E25.62327
G1 X71.287 Y30.825 E25.88243
G1 X71.102 Y31.253 E25.90192
G1 X68.766 Y36.104 E26.12731
G1 X67.317 Y38.743 E26.25334
G1 X67.111 Y39.087 E26.27010
G1 X63.156 Y45.183 E26.57430
G1 X62.858 Y45.600 E26.59574
G1 X59.034 Y50.468 E26.85490
G1 X56.790 Y52.983 E26.99597
G1 X52.983 Y56.790 E27.22136
G1 X52.672 Y57.078 E27.23911
G1 X48.591 Y60.591 E27.46450
G1 X48.259 Y60.855 E27.48226
G1 X43.666 Y64.234 E27.72096
G1 X41.142 Y65.876 E27.84699
G1 X36.479 Y68.568 E28.07237
G1 X36.104 Y68.766 E28.09013
G1 X31.253 Y71.102 E28.31552
G1 X28.475 Y72.262 E28.44154
G1 X24.666 Y73.637 E28.61103
G1 X20.289 Y74.971 E28.80261
G1 X17.387 Y75.699 E28.92785
G1 X11.785 Y76.768 E29.16655
G1 X11.366 Y76.831 E29.18431
G1 X5.699 Y77.461 E29.42301
G1 X2.692 Y77.621 E29.54903
G1 X-2.692 Y77.621 E29.77442
G1 X-5.699 Y77.461 E29.90045
G1 X-11.366 Y76.831 E30.13915
G1 X-11.785 Y76.768 E30.15690
G1 X-17.076 Y75.767 E30.38229
G1 X-17.471 Y75.678 E30.39927
G1 X-21.896 Y74.508 E30.59085
G1 X-25.852 Y73.239 E30.76476
G1 X-30.864 Y71.272 E30.99015
G1 X-31.253 Y71.102 E31.00791
G1 X-36.104 Y68.766 E31.23330
G1 X-38.743 Y67.317 E31.35932
G1 X-39.087 Y67.111 E31.37609
G1 X-45.183 Y63.156 E31.68029
G1 X-45.600 Y62.858 E31.70173
G1 X-50.468 Y59.034 E31.96088
G1 X-52.983 Y56.790 E32.10195
G1 X-56.790 Y52.983 E32.32734
G1 X-57.078 Y52.672 E32.34510
G1 X-60.591 Y48.591 E32.57049
G1 X-62.640 Y45.915 E32.71156
G1 X-66.090 Y40.775 E32.97072
G1 X-66.356 Y40.337 E32.99216
G1 X-69.845 Y33.962 E33.29635
G1 X-70.024 Y33.604 E33.31312
G1 X-71.272 Y30.864 E33.43915
G1 X-73.239 Y25.852 E33.66454
G1 X-73.379 Y25.452 E33.68229
G1 X-74.966 Y20.307 E33.90768
G1 X-75.076 Y19.897 E33.92543
G1 X-76.336 Y14.336 E34.16414
G1 X-76.840 Y11.284 E34.29361
G1 X-77.549 Y4.052 E34.59780
G1 X-77.575 Y3.540 E34.61924
G1 X-77.621 Y-2.651 E34.87840
G1 X-77.605 Y-3.116 E34.89789
G1 X-77.203 Y-8.485 E35.12328
G1 X-77.155 Y-8.907 E35.14103
G1 X-76.296 Y-14.544 E35.37974
G1 X-75.699 Y-17.387 E35.50133
G1 X-75.051 Y-20.000 E35.61404
G1 X-73.379 Y-25.452 E35.85274
G1 X-73.239 Y-25.852 E35.87050
G1 X-71.147 Y-31.157 E36.10920
G1 X-69.884 Y-33.890 E36.23522
G1 X-67.368 Y-38.650 E36.46061
G1 X-67.111 Y-39.087 E36.48182
G1 X-63.156 Y-45.183 E36.78601
G1 X-62.858 Y-45.600 E36.80745
G1 X-58.803 Y-50.744 E37.08166
G1 X-56.790 Y-52.983 E37.20768
G1 X-52.983 Y-56.790 E37.43307
G1 X-50.744 Y-58.803 E37.55910
G1 X-46.291 Y-62.365 E37.79780
G1 X-45.950 Y-62.617 E37.81555
G1 X-41.233 Y-65.822 E38.05426
G1 X-38.650 Y-67.368 E38.18028
G1 X-33.890 Y-69.884 E38.40567
G1 X-33.508 Y-70.068 E38.42342
G1 X-28.572 Y-72.221 E38.64881
G1 X-25.753 Y-73.277 E38.77484
G1 X-20.307 Y-74.966 E39.01354
G1 X-19.897 Y-75.076 E39.03130
G1 X-14.648 Y-76.274 E39.25669
G1 X-14.249 Y-76.350 E39.27366
G1 X-9.441 Y-77.084 E39.47729
G1 X-5.959 Y-77.440 E39.62380
G1 X-5.510 Y-77.468 E39.64261
G1 X1.755 Y-77.635 E39.94681
G1 X2.267 Y-77.623 E39.96825
G1 X8.444 Y-77.206 E40.22741 F3404.615
G1 X8.907 Y-77.155 E40.24690
G1 X14.231 Y-76.353 E40.47228
G1 X17.180 Y-75.746 E40.59831
G1 X17.569 Y-75.651 E40.61508
G1 X24.560 Y-73.668 E40.91928
G1 X25.046 Y-73.506 E40.94072
G1 X31.157 Y-71.147 E41.21492
G1 X33.890 Y-69.884 E41.34095
G1 X38.650 Y-67.368 E41.56634
G1 X39.087 Y-67.111 E41.58754
G1 X45.183 Y-63.156 E41.89174
G1 X45.600 Y-62.858 E41.91318
G1 X50.744 Y-58.803 E42.18738
G1 X52.983 Y-56.790 E42.31341
G1 X56.790 Y-52.983 E42.53880
G1 X57.132 Y-52.609 E42.56000
G1 X61.791 Y-47.032 E42.86420
G1 X62.102 Y-46.625 E42.88564
G1 X65.626 Y-41.535 E43.14479
G1 X65.866 Y-41.158 E43.16350
G1 X68.168 Y-37.202 E43.35508
G1 X69.910 Y-33.839 E43.51364
G1 X70.084 Y-33.469 E43.53074
G1 X72.518 Y-27.777 E43.78990
G1 X72.698 Y-27.297 E43.81134
G1 X74.941 Y-20.385 E44.11554
G1 X75.051 Y-20.000 E44.13230
G1 X75.767 Y-17.076 E44.25833
G1 X76.768 Y-11.785 E44.48372
G1 X76.836 Y-11.325 E44.50321
G1 X77.484 Y-5.168 E44.76237
G1 X77.515 Y-4.657 E44.78381
G1 X77.565 Y-1.188 E44.92901
G1 X77.230 Y-1.123 F6000.000
G1 X77.285 Y2.615 E45.08549 F3404.615
G1 X77.126 Y5.680 E45.21397
G1 X76.498 Y11.328 E45.45189
G1 X76.438 Y11.723 E45.46859
G1 X75.437 Y17.013 E45.69398
G1 X75.328 Y17.477 E45.71393
G1 X73.345 Y24.469 E46.01813
G1 X73.193 Y24.926 E46.03830
G1 X70.973 Y30.705 E46.29745
G1 X70.800 Y31.107 E46.31579
G1 X68.464 Y35.958 E46.54118
G1 X67.024 Y38.581 E46.66642
G1 X66.830 Y38.904 E46.68219
G1 X62.875 Y45.000 E46.98639
G1 X62.594 Y45.392 E47.00656
G1 X58.770 Y50.261 E47.26572
G1 X56.553 Y52.745 E47.40511
G1 X52.745 Y56.553 E47.63050
G1 X52.453 Y56.824 E47.64720
G1 X48.372 Y60.336 E47.87259
G1 X48.060 Y60.585 E47.88930
G1 X43.482 Y63.953 E48.12721
G1 X40.974 Y65.585 E48.25245
G1 X36.311 Y68.277 E48.47784
G1 X35.958 Y68.464 E48.49454
G1 X31.107 Y70.800 E48.71993
G1 X28.346 Y71.952 E48.84517
G1 X24.569 Y73.316 E49.01329
G1 X20.191 Y74.650 E49.20487
G1 X17.306 Y75.374 E49.32938
G1 X11.723 Y76.438 E49.56729
G1 X11.328 Y76.498 E49.58399
G1 X5.680 Y77.126 E49.82191
G1 X2.692 Y77.285 E49.94714
G1 X-2.692 Y77.285 E50.17253
G1 X-5.680 Y77.126 E50.29777
G1 X-11.328 Y76.498 E50.53569
G1 X-11.723 Y76.438 E50.55239
G1 X-17.013 Y75.437 E50.77778
G1 X-17.385 Y75.353 E50.79375
G1 X-21.810 Y74.183 E50.98533
G1 X-25.729 Y72.926 E51.15762
G1 X-30.742 Y70.959 E51.38301
G1 X-31.107 Y70.800 E51.39971
G1 X-35.958 Y68.464 E51.62510
G1 X-38.581 Y67.024 E51.75034
G1 X-38.904 Y66.830 E51.76612
G1 X-45.000 Y62.875 E52.07031
G1 X-45.392 Y62.594 E52.09049
G1 X-50.261 Y58.770 E52.34964
G1 X-52.745 Y56.553 E52.48904
G1 X-56.553 Y52.745 E52.71442
G1 X-56.824 Y52.453 E52.73113
G1 X-60.336 Y48.372 E52.95652
G1 X-62.361 Y45.728 E53.09591
G1 X-65.811 Y40.588 E53.35507
G1 X-66.062 Y40.176 E53.37524
G1 X-69.550 Y33.801 E53.67944
G1 X-69.719 Y33.464 E53.69521
G1 X-70.959 Y30.742 E53.82045
G1 X-72.926 Y25.729 E54.04584
G1 X-73.058 Y25.353 E54.06254
G1 X-74.645 Y20.208 E54.28793
G1 X-74.749 Y19.822 E54.30464
G1 X-76.005 Y14.279 E54.54255
G1 X-76.506 Y11.251 E54.67103
G1 X-77.215 Y4.019 E54.97523
G1 X-77.240 Y3.538 E54.99540
G1 X-77.285 Y-2.653 E55.25456
G1 X-77.270 Y-3.091 E55.27289
G1 X-76.868 Y-8.460 E55.49828
G1 X-76.823 Y-8.857 E55.51498
G1 X-75.968 Y-14.475 E55.75290
G1 X-75.418 Y-17.111 E55.86561
G1 X-74.725 Y-19.919 E55.98668
G1 X-73.058 Y-25.353 E56.22459
G1 X-72.926 Y-25.729 E56.24129
G1 X-70.842 Y-31.017 E56.47921
G1 X-69.587 Y-33.733 E56.60445
G1 X-67.071 Y-38.493 E56.82984
G1 X-66.830 Y-38.904 E56.84978
G1 X-62.875 Y-45.000 E57.15398
G1 X-62.594 Y-45.392 E57.17415
G1 X-58.552 Y-50.520 E57.44747
G1 X-56.553 Y-52.745 E57.57270
G1 X-52.745 Y-56.553 E57.79809
G1 X-50.520 Y-58.552 E57.92333
G1 X-46.082 Y-62.103 E58.16125
G1 X-45.761 Y-62.340 E58.17795
G1 X-41.060 Y-65.534 E58.41586
G1 X-38.493 Y-67.071 E58.54110
G1 X-33.733 Y-69.587 E58.76649
G1 X-33.373 Y-69.760 E58.78319
G1 X-28.438 Y-71.913 E59.00858
G1 X-25.636 Y-72.962 E59.13382
G1 X-20.208 Y-74.645 E59.37173
G1 X-19.822 Y-74.749 E59.38844
G1 X-14.573 Y-75.947 E59.61383
G1 X-14.198 Y-76.018 E59.62979
G1 X-9.406 Y-76.750 E59.83271
G1 X-5.925 Y-77.106 E59.97922
G1 X-5.503 Y-77.133 E59.99692
G1 X1.763 Y-77.299 E60.30112
G1 X2.244 Y-77.288 E60.32129
G1 X8.421 Y-76.871 E60.58045 F3404.615
G1 X8.857 Y-76.823 E60.59878
G1 X14.181 Y-76.021 E60.82417
G1 X17.111 Y-75.418 E60.94941
G1 X17.477 Y-75.328 E60.96519
G1 X24.469 Y-73.345 E61.26939
G1 X24.926 Y-73.193 E61.28956
G1 X31.017 Y-70.842 E61.56287
G1 X33.733 Y-69.587 E61.68811
G1 X38.493 Y-67.071 E61.91350
G1 X38.904 Y-66.830 E61.93345
G1 X45.000 Y-62.875 E62.23764
G1 X45.392 Y-62.594 E62.25781
G1 X50.520 Y-58.552 E62.53113
G1 X52.745 Y-56.553 E62.65637
G1 X56.553 Y-52.745 E62.88176
G1 X56.874 Y-52.394 E62.90170
G1 X61.534 Y-46.817 E63.20590
G1 X61.826 Y-46.434 E63.22607
G1 X65.351 Y-41.344 E63.48523
G1 X65.576 Y-40.989 E63.50283
G1 X67.878 Y-37.033 E63.69441
G1 X69.612 Y-33.685 E63.85226
G1 X69.776 Y-33.337 E63.86834
G1 X72.210 Y-27.645 E64.12750
G1 X72.379 Y-27.194 E64.14767
G1 X74.622 Y-20.282 E64.45187
G1 X74.725 Y-19.919 E64.46765
G1 X75.437 Y-17.013 E64.59289
G1 X76.438 Y-11.723 E64.81828
G1 X76.502 Y-11.290 E64.83661
G1 X77.150 Y-5.133 E65.09577
G1 X77.179 Y-4.652 E65.11594
G1 X77.229 Y-1.183 E65.26114
G1 F4800
G1 X77.285 Y2.615 E61.65284
G1 F4800
G1 X77.274 Y2.816 E61.46114
G1 E61.26114 F4800.00000
G92 E0
G1 Z1.300 F6000.000
G1 X5.020 Y-70.345 F6000.000
G1 Z0.300 F6000.000
G1 E4.00000 F4800.00000
G1 X6.667 Y-70.220 E4.06915 F3404.615
G1 X10.111 Y-69.797 E4.21441
G1 X14.581 Y-69.013 E4.40438
G1 X20.522 Y-67.474 E4.66130
G1 X27.297 Y-65.040 E4.96261
G1 X31.420 Y-63.140 E5.15266
G1 X34.497 Y-61.525 E5.29813
G1 X39.049 Y-58.741 E5.52148
G1 X43.375 Y-55.623 E5.74474
G1 X45.457 Y-53.935 E5.85691
G1 X49.399 Y-50.350 E6.07995
G1 X51.275 Y-48.437 E6.19213
G1 X54.789 Y-44.424 E6.41539
G1 X57.994 Y-40.150 E6.63902
G1 X61.817 Y-33.950 E6.94394
G1 X64.509 Y-28.529 E7.19732
G1 X66.481 Y-23.571 E7.42065
G1 X67.327 Y-21.031 E7.53272
G1 X68.286 Y-17.630 E7.68066
G1 X69.276 Y-13.274 E7.86765
G1 X69.730 Y-10.634 E7.97979
G1 X70.334 Y-5.335 E8.20304
G1 X70.536 Y-0.000 E8.42651
G1 X70.334 Y5.334 E8.64994
G1 X69.835 Y9.842 E8.83983
G1 X69.276 Y13.272 E8.98529
G1 X68.075 Y18.470 E9.20861
G1 X66.737 Y22.804 E9.39850
G1 X65.543 Y26.067 E9.54393
G1 X63.723 Y30.219 E9.73371
G1 X62.166 Y33.326 E9.87917
G1 X59.468 Y37.934 E10.10269
G1 X55.283 Y43.791 E10.40404
G1 X51.274 Y48.439 E10.66099
G1 X47.465 Y52.176 E10.88433
G1 X45.449 Y53.941 E10.99650
G1 X41.248 Y57.218 E11.21954
G1 X39.045 Y58.744 E11.33172
G1 X34.491 Y61.528 E11.55514
G1 X28.035 Y64.714 E11.85649
G1 X22.306 Y66.916 E12.11344
G1 X17.184 Y68.411 E12.33678
G1 X14.573 Y69.014 E12.44895
G1 X9.317 Y69.918 E12.67221
G1 X4.008 Y70.422 E12.89546
G1 X1.326 Y70.523 E13.00780
G1 X-5.864 Y70.281 E13.30894
G1 X-11.954 Y69.516 E13.56589
G1 X-17.177 Y68.413 E13.78932
G1 X-20.522 Y67.473 E13.93479
G1 X-24.821 Y66.025 E14.12468
G1 X-29.738 Y63.961 E14.34790
G1 X-32.141 Y62.787 E14.45986
G1 X-34.499 Y61.523 E14.57183
G1 X-39.049 Y58.741 E14.79508
G1 X-43.375 Y55.623 E15.01833
G1 X-45.457 Y53.935 E15.13051
G1 X-49.402 Y50.346 E15.35376
G1 X-53.068 Y46.466 E15.57723
G1 X-56.427 Y42.323 E15.80048
G1 X-57.994 Y40.149 E15.91266
G1 X-60.860 Y35.657 E16.13570
G1 X-62.171 Y33.318 E16.24796
G1 X-64.821 Y27.787 E16.50470
G1 X-67.324 Y21.042 E16.80584
G1 X-68.076 Y18.466 E16.91818
G1 X-69.275 Y13.275 E17.14122
G1 X-69.730 Y10.634 E17.25340
G1 X-70.334 Y5.335 E17.47665
G1 X-70.536 Y0.000 E17.70012
G1 X-70.334 Y-5.335 E17.92358
G1 X-69.730 Y-10.634 E18.14683
G1 X-69.275 Y-13.275 E18.25901
G1 X-68.076 Y-18.466 E18.48205
G1 X-67.325 Y-21.038 E18.59423
G1 X-65.545 Y-26.061 E18.81727
G1 X-64.508 Y-28.531 E18.92945
G1 X-62.168 Y-33.324 E19.15270
G1 X-59.470 Y-37.930 E19.37617
G1 X-56.431 Y-42.319 E19.59963
G1 X-53.072 Y-46.462 E19.82289
G1 X-51.268 Y-48.444 E19.93506
G1 X-47.465 Y-52.176 E20.15811
G1 X-45.453 Y-53.938 E20.27007
G1 X-43.375 Y-55.623 E20.38204
G1 X-39.049 Y-58.741 E20.60529
G1 X-34.499 Y-61.523 E20.82854
G1 X-32.137 Y-62.789 E20.94072
G1 X-27.301 Y-65.038 E21.16397
