; generated by Slic3r 1.2.9 on 2016-06-30 at 12:04:22

; external perimeters extrusion width = 0.40mm
; perimeters extrusion width = 0.40mm
; infill extrusion width = 0.67mm
; solid infill extrusion width = 0.40mm
; top infill extrusion width = 0.40mm

M190 S60 ; set bed temperature
M104 S210 ; set temperature
G28 ; home all axes

M109 S210 ; wait for temperature to be reached
G21 ; set units to millimeters
G90 ; use absolute coordinates
M82 ; use absolute distances for extrusion
G92 E0
G1 E-4.00000 F4800.00000
G92 E0
G1 Z1.000 F6000.000
G1 X25.300 Y-1.963 F6000.000
G1 Z0.300 F6000.000
G1 E4.00000 F4800.00000
G1 X26.321 Y11.198 E4.55257 F1200.000
G1 X26.291 Y13.130 E4.63347
G1 X26.143 Y14.480 E4.69031
G1 X25.699 Y16.548 E4.77886
G1 X25.116 Y18.329 E4.85727
G1 X23.261 Y23.501 E5.08731
G1 X21.925 Y26.045 E5.20759
G1 X19.943 Y28.125 E5.32787
G1 X17.466 Y29.582 E5.44814
G1 X13.500 Y30.370 E5.61741
G1 X-13.500 Y30.370 E6.74764
G1 X-16.346 Y29.972 E6.86792
G1 X-18.973 Y28.808 E6.98820
G1 X-21.180 Y26.968 E7.10848
G1 X-23.261 Y23.501 E7.27774
G1 X-25.116 Y18.329 E7.50779
G1 X-25.699 Y16.548 E7.58620
G1 X-26.143 Y14.480 E7.67475
G1 X-26.291 Y13.130 E7.73158
G1 X-26.321 Y11.198 E7.81249
G1 X-23.839 Y-20.802 E9.15604
G1 X-23.222 Y-23.608 E9.27632
G1 X-21.858 Y-26.138 E9.39660
G1 X-19.853 Y-28.196 E9.51688
G1 X-17.361 Y-29.625 E9.63715
G1 X-13.500 Y-30.370 E9.80174
G1 X13.500 Y-30.370 E10.93197
G1 X16.346 Y-29.972 E11.05225
G1 X18.973 Y-28.808 E11.17252 F1200.000
G1 X21.180 Y-26.968 E11.29280
G1 X22.797 Y-24.593 E11.41308
G1 X23.839 Y-20.802 E11.57767
G1 X25.296 Y-2.023 E12.36614
G1 X24.966 Y-1.937 F6000.000
G1 X25.987 Y11.224 E12.91871 F1200.000
G1 X25.957 Y13.094 E12.99700
G1 X25.809 Y14.443 E13.05383
G1 X25.380 Y16.445 E13.13951
G1 X24.801 Y18.215 E13.21749
G1 X22.945 Y23.388 E13.44754
G1 X21.626 Y25.887 E13.56584
G1 X19.662 Y27.920 E13.68415
G1 X17.209 Y29.324 E13.80245
G1 X13.500 Y30.034 E13.96053
G1 X-13.500 Y30.034 E15.09076
G1 X-16.298 Y29.636 E15.20907
G1 X-18.874 Y28.474 E15.32737
G1 X-21.024 Y26.639 E15.44568
G1 X-22.945 Y23.388 E15.60376
G1 X-24.801 Y18.215 E15.83380
G1 X-25.380 Y16.445 E15.91178
G1 X-25.809 Y14.443 E15.99746
G1 X-25.957 Y13.094 E16.05430
G1 X-25.987 Y11.224 E16.13258
G1 X-23.504 Y-20.776 E17.47614
G1 X-22.891 Y-23.535 E17.59444
G1 X-21.533 Y-26.013 E17.71275
G1 X-19.537 Y-28.015 E17.83105
G1 X-17.063 Y-29.380 E17.94936
G1 X-13.500 Y-30.034 E18.10100
G1 X13.500 Y-30.034 E19.23122
G1 X16.298 Y-29.636 E19.34953
G1 X18.874 Y-28.474 E19.46784 F1200.000
G1 X21.024 Y-26.639 E19.58614
G1 X22.577 Y-24.278 E19.70445
G1 X23.504 Y-20.776 E19.85608
G1 X24.961 Y-1.997 E20.64456
G1 X24.631 Y-1.911 F6000.000
G1 X25.652 Y11.250 E21.19713 F1200.000
G1 X25.624 Y13.057 E21.27279
G1 X25.475 Y14.407 E21.32963
G1 X25.060 Y16.341 E21.41245
G1 X24.485 Y18.102 E21.48999
G1 X22.629 Y23.275 E21.72003
G1 X21.326 Y25.729 E21.83633
G1 X19.381 Y27.712 E21.95264
G1 X16.953 Y29.063 E22.06894
G1 X13.500 Y29.699 E22.21591
G1 X-13.500 Y29.699 E23.34614
G1 X-16.250 Y29.301 E23.46244
G1 X-18.774 Y28.140 E23.57874
G1 X-20.865 Y26.310 E23.69504
G1 X-22.629 Y23.275 E23.84202
G1 X-24.485 Y18.102 E24.07207
G1 X-25.060 Y16.341 E24.14961
G1 X-25.475 Y14.407 E24.23242
G1 X-25.624 Y13.057 E24.28926
G1 X-25.652 Y11.250 E24.36493
G1 X-23.170 Y-20.750 E25.70848
G1 X-22.560 Y-23.461 E25.82479
G1 X-21.207 Y-25.887 E25.94109
G1 X-19.222 Y-27.831 E26.05739
G1 X-16.767 Y-29.132 E26.17369
G1 X-13.500 Y-29.699 E26.31249
G1 X13.500 Y-29.699 E27.44271
G1 X16.250 Y-29.301 E27.55901
G1 X18.774 Y-28.140 E27.67532 F1200.000
G1 X20.865 Y-26.310 E27.79162
G1 X22.352 Y-23.964 E27.90792
G1 X23.170 Y-20.750 E28.04672
G1 X24.627 Y-1.971 E28.83519
G1 X24.297 Y-1.885 F6000.000
G1 X25.318 Y11.276 E29.38776 F1200.000
G1 X25.290 Y13.021 E29.46081
G1 X25.142 Y14.370 E29.51765
G1 X24.741 Y16.238 E29.59759
G1 X24.169 Y17.989 E29.67471
G1 X22.313 Y23.161 E29.90475
G1 X21.027 Y25.569 E30.01901
G1 X19.101 Y27.503 E30.13327
G1 X16.699 Y28.800 E30.24753
G1 X13.500 Y29.363 E30.38350
G1 X-13.500 Y29.363 E31.51373
G1 X-16.200 Y28.965 E31.62799
G1 X-18.671 Y27.805 E31.74225
G1 X-20.703 Y25.982 E31.85651
G1 X-22.313 Y23.161 E31.99248
G1 X-24.169 Y17.989 E32.22253
G1 X-24.741 Y16.238 E32.29964
G1 X-25.142 Y14.370 E32.37959
G1 X-25.290 Y13.021 E32.43642
G1 X-25.318 Y11.276 E32.50947
G1 X-22.835 Y-20.724 E33.85303
G1 X-22.229 Y-23.386 E33.96729
G1 X-20.882 Y-25.760 E34.08155
G1 X-18.907 Y-27.644 E34.19581
G1 X-16.473 Y-28.879 E34.31007
G1 X-13.500 Y-29.363 E34.43615
G1 X13.500 Y-29.363 E35.56638
G1 X16.200 Y-28.965 E35.68064
G1 X18.671 Y-27.805 E35.79490 F1200.000
G1 X20.703 Y-25.982 E35.90916
G1 X22.122 Y-23.651 E36.02342
G1 X22.835 Y-20.724 E36.14951
G1 X24.292 Y-1.945 E36.93799
G1 X23.962 Y-1.859 F6000.000
G1 X24.983 Y11.302 E37.49055 F1200.000
G1 X24.956 Y12.984 E37.56098
G1 X24.808 Y14.334 E37.61782
G1 X24.422 Y16.134 E37.69490
G1 X23.853 Y17.875 E37.77158
G1 X21.997 Y23.048 E38.00163
G1 X20.728 Y25.408 E38.11381
G1 X18.822 Y27.292 E38.22599
G1 X16.447 Y28.533 E38.33817
G1 X13.500 Y29.027 E38.46324
G1 X-13.500 Y29.027 E39.59347
G1 X-16.150 Y28.630 E39.70565
G1 X-18.567 Y27.471 E39.81783
G1 X-20.537 Y25.655 E39.93001
G1 X-21.997 Y23.048 E40.05508
G1 X-23.853 Y17.875 E40.28512
G1 X-24.422 Y16.134 E40.36180
G1 X-24.808 Y14.334 E40.43888
G1 X-24.956 Y12.984 E40.49572
G1 X-24.983 Y11.302 E40.56615
G1 X-22.500 Y-20.698 E41.90971
G1 X-21.899 Y-23.310 E42.02189
G1 X-20.557 Y-25.630 E42.13407
G1 X-18.593 Y-27.453 E42.24625
G1 X-16.181 Y-28.620 E42.35844
G1 X-13.500 Y-29.027 E42.47194
G1 X13.500 Y-29.027 E43.60217
G1 X16.150 Y-28.630 E43.71435
G1 X18.567 Y-27.471 E43.82654 F1200.000
G1 X20.537 Y-25.655 E43.93872
G1 X21.887 Y-23.340 E44.05090
G1 X22.500 Y-20.698 E44.16441
G1 X23.957 Y-1.919 E44.95288
G1 X23.627 Y-1.833 F6000.000
G1 X24.648 Y11.328 E45.50545 F1200.000
G1 X24.623 Y12.947 E45.57326
G1 X24.475 Y14.297 E45.63010
G1 X24.103 Y16.031 E45.70432
G1 X23.537 Y17.762 E45.78056
G1 X21.681 Y22.935 E46.01061
G1 X20.429 Y25.247 E46.12067
G1 X18.543 Y27.079 E46.23074
G1 X16.196 Y28.263 E46.34080
G1 X13.500 Y28.692 E46.45507
G1 X-13.500 Y28.692 E47.58530
G1 X-16.099 Y28.294 E47.69536
G1 X-18.460 Y27.137 E47.80543
G1 X-20.368 Y25.328 E47.91549
G1 X-21.681 Y22.935 E48.02976
G1 X-23.537 Y17.762 E48.25980
G1 X-24.103 Y16.031 E48.33605
G1 X-24.475 Y14.297 E48.41026
G1 X-24.623 Y12.947 E48.46710
G1 X-24.648 Y11.328 E48.53491
G1 X-22.166 Y-20.672 E49.87847
G1 X-21.568 Y-23.233 E49.98853
G1 X-20.232 Y-25.498 E50.09860
G1 X-18.280 Y-27.259 E50.20866
G1 X-15.891 Y-28.356 E50.31873
G1 X-13.500 Y-28.692 E50.41980
G1 X13.500 Y-28.692 E51.55002
G1 X16.099 Y-28.294 E51.66009
G1 X18.460 Y-27.137 E51.77015 F1200.000
G1 X20.368 Y-25.328 E51.88022
G1 X21.647 Y-23.030 E51.99028
G1 X22.166 Y-20.672 E52.09135
G1 X23.623 Y-1.893 E52.87983
G1 X23.293 Y-1.807 F6000.000
G1 X24.314 Y11.354 E53.43239 F1200.000
G1 X24.289 Y12.911 E53.49759
G1 X24.141 Y14.261 E53.55443
G1 X23.783 Y15.927 E53.62578
G1 X23.221 Y17.649 E53.70159
G1 X21.365 Y22.821 E53.93163
G1 X20.131 Y25.085 E54.03954
G1 X18.266 Y26.864 E54.14744
G1 X15.947 Y27.990 E54.25535
G1 X13.500 Y28.356 E54.35893
G1 X-13.500 Y28.356 E55.48916
G1 X-16.047 Y27.959 E55.59707
G1 X-18.351 Y26.804 E55.70497
G1 X-20.194 Y25.001 E55.81288
G1 X-21.365 Y22.821 E55.91646
G1 X-23.221 Y17.649 E56.14650
G1 X-23.783 Y15.927 E56.22231
G1 X-24.141 Y14.261 E56.29367
G1 X-24.289 Y12.911 E56.35050
G1 X-24.314 Y11.354 E56.41570
G1 X-21.831 Y-20.646 E57.75925
G1 X-21.238 Y-23.155 E57.86716
G1 X-19.908 Y-25.363 E57.97507
G1 X-17.968 Y-27.061 E58.08297
G1 X-15.604 Y-28.087 E58.19088
G1 X-13.500 Y-28.356 E58.27965
G1 X13.500 Y-28.356 E59.40988
G1 X16.047 Y-27.959 E59.51779
G1 X18.351 Y-26.804 E59.62569 F1200.000
G1 X20.194 Y-25.001 E59.73360
G1 X21.400 Y-22.723 E59.84151
G1 X21.831 Y-20.646 E59.93028
G1 X23.288 Y-1.867 E60.71876
G1 X22.958 Y-1.781 F6000.000
G1 X23.979 Y11.380 E61.27132 F1200.000
G1 X23.955 Y12.874 E61.33390
G1 X23.807 Y14.224 E61.39074
G1 X23.464 Y15.824 E61.45922
G1 X22.985 Y17.301 E61.52424
G1 X21.050 Y22.708 E61.76464
G1 X19.833 Y24.921 E61.87035
G1 X17.989 Y26.646 E61.97605
G1 X15.701 Y27.713 E62.08176
G1 X13.500 Y28.021 E62.17477
G1 X-13.500 Y28.021 E63.30500
G1 X-15.994 Y27.623 E63.41070
G1 X-18.240 Y26.470 E63.51641
G1 X-20.017 Y24.676 E63.62211
G1 X-21.050 Y22.708 E63.71512
G1 X-22.905 Y17.535 E63.94517
G1 X-23.464 Y15.824 E64.02054
G1 X-23.807 Y14.224 E64.08903
G1 X-23.955 Y12.874 E64.14587
G1 X-23.979 Y11.380 E64.20844
G1 X-21.497 Y-20.620 E65.55200
G1 X-20.907 Y-23.076 E65.65770
G1 X-19.584 Y-25.226 E65.76341
G1 X-17.657 Y-26.859 E65.86911
G1 X-15.319 Y-27.812 E65.97481
G1 X-13.500 Y-28.021 E66.05145
G1 X13.500 Y-28.021 E67.18168
G1 X15.994 Y-27.623 E67.28739
G1 X18.240 Y-26.470 E67.39309 F1200.000
G1 X20.017 Y-24.676 E67.49879
G1 X21.148 Y-22.418 E67.60450
G1 X21.497 Y-20.620 E67.68114
G1 X22.953 Y-1.841 E68.46961
G1 X22.624 Y-1.755 F6000.000
G1 X23.645 Y11.406 E69.02218 F1200.000
G1 X23.622 Y12.838 E69.08214
G1 X23.474 Y14.187 E69.13898
G1 X23.145 Y15.720 E69.20460
G1 X22.666 Y17.198 E69.26961
G1 X20.734 Y22.595 E69.50958
G1 X19.536 Y24.757 E69.61304
G1 X17.714 Y26.427 E69.71649
G1 X15.456 Y27.432 E69.81995
G1 X13.500 Y27.685 E69.90252
G1 X-13.500 Y27.685 E71.03275
G1 X-15.939 Y27.288 E71.13621
G1 X-18.126 Y26.136 E71.23966
G1 X-19.835 Y24.351 E71.34312
G1 X-20.734 Y22.595 E71.42569
G1 X-22.589 Y17.422 E71.65573
G1 X-23.145 Y15.720 E71.73068
G1 X-23.474 Y14.187 E71.79630
G1 X-23.622 Y12.838 E71.85314
G1 X-23.645 Y11.406 E71.91309
G1 X-21.162 Y-20.594 E73.25665
G1 X-20.577 Y-22.996 E73.36010
G1 X-19.260 Y-25.087 E73.46356
G1 X-17.348 Y-26.652 E73.56701
G1 X-15.037 Y-27.530 E73.67047
G1 X-13.500 Y-27.685 E73.73514
G1 X13.500 Y-27.685 E74.86537
G1 X15.939 Y-27.288 E74.96882
G1 X18.126 Y-26.136 E75.07228 F1200.000
G1 X19.835 Y-24.351 E75.17573
G1 X20.888 Y-22.115 E75.27919
G1 X21.162 Y-20.594 E75.34387
G1 X22.619 Y-1.815 E76.13234
G1 X22.289 Y-1.729 F6000.000
G1 X23.310 Y11.432 E76.68491 F1200.000
G1 X23.288 Y12.801 E76.74225
G1 X23.140 Y14.151 E76.79908
G1 X22.826 Y15.617 E76.86184
G1 X22.347 Y17.094 E76.92686
G1 X20.418 Y22.481 E77.16639
G1 X19.239 Y24.591 E77.26755
G1 X17.440 Y26.204 E77.36870
G1 X15.215 Y27.147 E77.46986
G1 X13.500 Y27.349 E77.54213
G1 X-13.500 Y27.349 E78.67236
G1 X-15.884 Y26.952 E78.77352
G1 X-18.010 Y25.803 E78.87467
G1 X-19.648 Y24.027 E78.97583
G1 X-20.418 Y22.481 E79.04810
G1 X-22.273 Y17.309 E79.27815
G1 X-22.826 Y15.617 E79.35266
G1 X-23.140 Y14.151 E79.41541
G1 X-23.288 Y12.801 E79.47225
G1 X-23.310 Y11.432 E79.52959
G1 X-20.827 Y-20.568 E80.87314
G1 X-20.247 Y-22.914 E80.97430
G1 X-18.937 Y-24.945 E81.07545
G1 X-17.039 Y-26.441 E81.17661
G1 X-14.759 Y-27.241 E81.27776
G1 X-13.500 Y-27.349 E81.33066
G1 X13.500 Y-27.349 E82.46089
G1 X15.884 Y-26.952 E82.56204
G1 X18.010 Y-25.803 E82.66320 F1200.000
G1 X19.648 Y-24.027 E82.76435
G1 X20.622 Y-21.815 E82.86551
G1 X20.827 Y-20.568 E82.91840
G1 X22.284 Y-1.789 E83.70688
G1 X21.954 Y-1.703 F6000.000
G1 X22.975 Y11.457 E84.25945 F1200.000
G1 X22.955 Y12.765 E84.31417
G1 X22.807 Y14.114 E84.37100
G1 X22.506 Y15.513 E84.43089
G1 X22.027 Y16.991 E84.49591
G1 X20.102 Y22.368 E84.73501
G1 X18.942 Y24.424 E84.83382
G1 X17.167 Y25.979 E84.93262
G1 X14.976 Y26.857 E85.03142
G1 X13.500 Y27.014 E85.09354
G1 X-13.500 Y27.014 E86.22377
G1 X-15.827 Y26.617 E86.32257
G1 X-17.890 Y25.470 E86.42138
G1 X-19.456 Y23.704 E86.52018
G1 X-20.102 Y22.368 E86.58230
G1 X-21.957 Y17.195 E86.81234
G1 X-22.506 Y15.513 E86.88642
G1 X-22.807 Y14.114 E86.94631
G1 X-22.955 Y12.765 E87.00315
G1 X-22.975 Y11.457 E87.05787
G1 X-20.493 Y-20.543 E88.40142
G1 X-19.917 Y-22.831 E88.50022
G1 X-18.614 Y-24.800 E88.59903
G1 X-16.732 Y-26.224 E88.69783
G1 X-13.500 Y-27.014 E88.83711
G1 X13.500 Y-27.014 E89.96734
G1 X15.827 Y-26.617 E90.06614
G1 X17.890 Y-25.470 E90.16494 F1200.000
G1 X19.456 Y-23.704 E90.26375
G1 X20.493 Y-20.543 E90.40303
G1 X21.950 Y-1.763 E91.19151
G1 X21.620 Y-1.677 F6000.000
G1 X22.641 Y11.483 E91.74407 F1200.000
G1 X22.621 Y12.728 E91.79617
G1 X22.473 Y14.078 E91.85301
G1 X22.187 Y15.410 E91.91003
G1 X21.708 Y16.887 E91.97505
G1 X19.786 Y22.255 E92.21372
G1 X18.646 Y24.256 E92.31011
G1 X16.895 Y25.751 E92.40651
G1 X14.740 Y26.562 E92.50290
G1 X13.500 Y26.678 E92.55503
G1 X-13.500 Y26.678 E93.68525
G1 X-15.768 Y26.281 E93.78165
G1 X-17.767 Y25.137 E93.87804
G1 X-19.258 Y23.383 E93.97443
G1 X-19.786 Y22.255 E94.02656
G1 X-21.641 Y17.082 E94.25660
G1 X-22.187 Y15.410 E94.33025
G1 X-22.473 Y14.078 E94.38727
G1 X-22.621 Y12.728 E94.44411
G1 X-22.641 Y11.483 E94.49621
G1 X-20.158 Y-20.517 E95.83976
G1 X-19.587 Y-22.747 E95.93615
G1 X-18.292 Y-24.651 E96.03255
G1 X-16.427 Y-26.002 E96.12894
G1 X-13.500 Y-26.678 E96.25469
G1 X13.500 Y-26.678 E97.38492
G1 X15.768 Y-26.281 E97.48131
G1 X17.767 Y-25.137 E97.57771 F1200.000
G1 X19.258 Y-23.383 E97.67410
G1 X20.158 Y-20.517 E97.79985
G1 X21.615 Y-1.737 E98.58833
G1 X21.285 Y-1.651 F6000.000
G1 X22.306 Y11.509 E99.14089 F1200.000
G1 X22.287 Y12.691 E99.19038
G1 X22.139 Y14.041 E99.24721
G1 X21.868 Y15.306 E99.30137
G1 X21.389 Y16.784 E99.36639
G1 X19.470 Y22.142 E99.60463
G1 X18.351 Y24.086 E99.69855
G1 X16.625 Y25.519 E99.79247
G1 X13.500 Y26.342 E99.92773
G1 X-13.500 Y26.342 E101.05796
G1 X-15.708 Y25.946 E101.15188
G1 X-17.640 Y24.805 E101.24580
G1 X-19.470 Y22.142 E101.38106
G1 X-21.326 Y16.969 E101.61110
G1 X-21.868 Y15.306 E101.68431
G1 X-22.139 Y14.041 E101.73847
G1 X-22.287 Y12.691 E101.79531
G1 X-22.306 Y11.509 E101.84479
G1 X-19.823 Y-20.491 E103.18834
G1 X-19.257 Y-22.662 E103.28226
G1 X-17.970 Y-24.499 E103.37618
G1 X-16.124 Y-25.774 E103.47010
G1 X-13.500 Y-26.342 E103.58248
G1 X13.500 Y-26.342 E104.71271
G1 X15.708 Y-25.946 E104.80663
G1 X17.640 Y-24.805 E104.90055 F1200.000
G1 X19.054 Y-23.063 E104.99447
G1 X19.823 Y-20.491 E105.10685
G1 X21.280 Y-1.711 E105.89533
G1 X20.950 Y-1.625 F6000.000
G1 X21.971 Y11.535 E106.44790 F1200.000
G1 X21.954 Y12.655 E106.49476
G1 X21.806 Y14.004 E106.55160
G1 X21.549 Y15.202 E106.60289
G1 X21.070 Y16.680 E106.66791
G1 X19.154 Y22.028 E106.90571
G1 X18.056 Y23.915 E106.99709
G1 X16.356 Y25.284 E107.08847
G1 X13.500 Y26.007 E107.21179
G1 X-13.500 Y26.007 E108.34202
G1 X-15.647 Y25.610 E108.43340
G1 X-17.510 Y24.473 E108.52478
G1 X-19.154 Y22.028 E108.64810
G1 X-21.010 Y16.855 E108.87814
G1 X-21.549 Y15.202 E108.95092
G1 X-21.806 Y14.004 E109.00221
G1 X-21.954 Y12.655 E109.05905
G1 X-21.971 Y11.535 E109.10591
G1 X-19.489 Y-20.465 E110.44947
G1 X-18.927 Y-22.574 E110.54085
G1 X-17.649 Y-24.344 E110.63223
G1 X-15.823 Y-25.540 E110.72361
G1 X-13.500 Y-26.007 E110.82279
G1 X13.500 Y-26.007 E111.95302
G1 X15.647 Y-25.610 E112.04440
G1 X17.510 Y-24.473 E112.13578 F1200.000
G1 X18.843 Y-22.744 E112.22716
G1 X19.489 Y-20.465 E112.32634
G1 X20.946 Y-1.685 E113.11481
G1 X20.616 Y-1.599 F6000.000
G1 X21.637 Y11.561 E113.66738 F1200.000
G1 X21.620 Y12.618 E113.71163
G1 X21.472 Y13.968 E113.76846
G1 X21.229 Y15.099 E113.81689
G1 X20.750 Y16.576 E113.88191
G1 X18.838 Y21.915 E114.11928
G1 X17.762 Y23.742 E114.20805
G1 X16.089 Y25.046 E114.29682
G1 X13.500 Y25.671 E114.40832
G1 X-13.500 Y25.671 E115.53855
G1 X-15.583 Y25.275 E115.62732
G1 X-17.375 Y24.141 E115.71608
G1 X-18.838 Y21.915 E115.82759
G1 X-20.694 Y16.742 E116.05763
G1 X-21.229 Y15.099 E116.12997
G1 X-21.472 Y13.968 E116.17840
G1 X-21.620 Y12.618 E116.23524
G1 X-21.637 Y11.561 E116.27948
G1 X-19.154 Y-20.439 E117.62304
G1 X-18.598 Y-22.485 E117.71181
G1 X-17.329 Y-24.184 E117.80058
G1 X-15.524 Y-25.298 E117.88935
G1 X-13.500 Y-25.671 E117.97551
G1 X13.500 Y-25.671 E119.10574
G1 X15.583 Y-25.275 E119.19450
G1 X17.375 Y-24.141 E119.28327 F1200.000
G1 X18.625 Y-22.428 E119.37204
G1 X19.154 Y-20.439 E119.45820
G1 X20.611 Y-1.659 E120.24668
G1 X20.281 Y-1.573 F6000.000
G1 X21.302 Y11.587 E120.79925 F1200.000
G1 X21.286 Y12.582 E120.84088
G1 X21.138 Y13.931 E120.89771
G1 X20.910 Y14.995 E120.94327
G1 X20.431 Y16.473 E121.00829
G1 X18.522 Y21.802 E121.24523
G1 X17.468 Y23.567 E121.33131
G1 X15.824 Y24.803 E121.41738
G1 X13.500 Y25.336 E121.51721
