; generated by Slic3r 1.2.9 on 2016-06-30 at 12:17:23

; external perimeters extrusion width = 0.40mm
; perimeters extrusion width = 0.40mm
; infill extrusion width = 0.67mm
; solid infill extrusion width = 0.40mm
; top infill extrusion width = 0.40mm

M190 S60 ; set bed temperature
M104 S210 ; set temperature
G28 ; home all axes

M109 S210 ; wait for temperature to be reached
G21 ; set units to millimeters
G90 ; use absolute coordinates
M82 ; use absolute distances for extrusion
G92 E0
G1 E-4.00000 F4800.00000
G92 E0
G1 Z1.000 F6000.000
G1 X-21.540 Y-1.706 F6000.000
G1 Z0.400 F6000.000
G1 E4.00000 F4800.00000
G1 X-20.050 Y-20.519 E4.98594 F1200.000
G1 X-19.477 Y-22.730 E5.10527
G1 X-18.181 Y-24.611 E5.22460
G1 X-16.320 Y-25.935 E5.34392
G1 X-13.500 Y-26.571 E5.49497
G1 X13.500 Y-26.571 E6.90558
G1 X15.749 Y-26.174 E7.02491
G1 X17.727 Y-25.031 E7.14424 F1200.000
G1 X19.193 Y-23.280 E7.26357
G1 X20.050 Y-20.519 E7.41461
G1 X22.585 Y11.481 E9.09169
G1 X22.566 Y12.716 E9.15622
G1 X22.420 Y14.055 E9.22660
G1 X22.138 Y15.366 E9.29663
G1 X21.579 Y17.075 E9.39059
G1 X19.666 Y22.270 E9.67982
G1 X18.517 Y24.244 E9.79915
G1 X16.761 Y25.705 E9.91847
G1 X13.500 Y26.571 E10.09474
G1 X-13.500 Y26.571 E11.50536
G1 X-15.749 Y26.174 E11.62468
G1 X-17.727 Y25.031 E11.74401
G1 X-19.666 Y22.270 E11.92028
G1 X-21.663 Y16.832 E12.22296
G1 X-22.138 Y15.366 E12.30347
G1 X-22.420 Y14.055 E12.37350
G1 X-22.566 Y12.716 E12.44388
G1 X-22.585 Y11.481 E12.50841
G1 X-21.545 Y-1.646 E13.19641
G1 X-21.227 Y-1.681 F6000.000
G1 X-19.737 Y-20.494 E14.18235 F1200.000
G1 X-19.168 Y-22.649 E14.29877
G1 X-17.881 Y-24.467 E14.41518
G1 X-16.037 Y-25.719 E14.53160
G1 X-13.500 Y-26.257 E14.66711
G1 X13.500 Y-26.257 E16.07772
G1 X15.693 Y-25.860 E16.19414
G1 X17.607 Y-24.720 E16.31055 F1200.000
G1 X19.001 Y-22.981 E16.42697
G1 X19.737 Y-20.494 E16.56248
G1 X22.272 Y11.506 E18.23955
G1 X22.254 Y12.682 E18.30100
G1 X22.107 Y14.021 E18.37138
G1 X21.840 Y15.269 E18.43806
G1 X21.284 Y16.967 E18.53138
G1 X19.371 Y22.162 E18.82060
G1 X18.241 Y24.082 E18.93702
G1 X16.510 Y25.485 E19.05344
G1 X13.500 Y26.257 E19.21579
G1 X-13.500 Y26.257 E20.62640
G1 X-15.693 Y25.860 E20.74281
G1 X-17.607 Y24.720 E20.85923
G1 X-19.371 Y22.162 E21.02158
G1 X-21.364 Y16.735 E21.32362
G1 X-21.840 Y15.269 E21.40413
G1 X-22.107 Y14.021 E21.47080
G1 X-22.254 Y12.682 E21.54118
G1 X-22.272 Y11.506 E21.60263
G1 X-21.232 Y-1.622 E22.29063
G1 X-20.914 Y-1.657 F6000.000
G1 X-19.424 Y-20.469 E23.27657 F1200.000
G1 X-18.860 Y-22.566 E23.39000
G1 X-17.580 Y-24.320 E23.50344
G1 X-15.756 Y-25.497 E23.61687
G1 X-13.500 Y-25.942 E23.73702
G1 X13.500 Y-25.942 E25.14763
G1 X15.635 Y-25.546 E25.26107
G1 X17.484 Y-24.409 E25.37450 F1200.000
G1 X18.802 Y-22.683 E25.48793
G1 X19.424 Y-20.469 E25.60808
G1 X21.959 Y11.531 E27.28516
G1 X21.942 Y12.648 E27.34352
G1 X21.795 Y13.987 E27.41390
G1 X21.541 Y15.172 E27.47723
G1 X20.989 Y16.858 E27.56991
G1 X19.077 Y22.053 E27.85914
G1 X17.967 Y23.919 E27.97257
G1 X16.261 Y25.262 E28.08600
G1 X13.500 Y25.942 E28.23455
G1 X-13.500 Y25.942 E29.64517
G1 X-15.635 Y25.546 E29.75860
G1 X-17.484 Y24.409 E29.87203
G1 X-19.077 Y22.053 E30.02059
G1 X-21.065 Y16.638 E30.32198
G1 X-21.541 Y15.172 E30.40249
G1 X-21.795 Y13.987 E30.46582
G1 X-21.942 Y12.648 E30.53620
G1 X-21.959 Y11.531 E30.59456
G1 X-20.919 Y-1.597 E31.28256
G1 X-20.601 Y-1.632 F6000.000
G1 X-19.111 Y-20.444 E32.26850 F1200.000
G1 X-18.552 Y-22.482 E32.37887
G1 X-17.281 Y-24.169 E32.48924
G1 X-15.478 Y-25.269 E32.59960
G1 X-13.500 Y-25.628 E32.70461
G1 X13.500 Y-25.628 E34.11522
G1 X15.575 Y-25.232 E34.22559
G1 X17.358 Y-24.098 E34.33596 F1200.000
G1 X18.597 Y-22.388 E34.44633
G1 X19.111 Y-20.444 E34.55133
G1 X21.646 Y11.556 E36.22841
G1 X21.630 Y12.614 E36.28368
G1 X21.483 Y13.953 E36.35406
G1 X21.242 Y15.075 E36.41405
G1 X20.694 Y16.750 E36.50608
G1 X18.782 Y21.945 E36.79531
G1 X17.693 Y23.755 E36.90567
G1 X16.013 Y25.036 E37.01604
G1 X13.500 Y25.628 E37.15094
G1 X-13.500 Y25.628 E38.56155
G1 X-15.575 Y25.232 E38.67192
G1 X-17.358 Y24.098 E38.78229
G1 X-18.782 Y21.945 E38.91719
G1 X-20.767 Y16.541 E39.21794
G1 X-21.242 Y15.075 E39.29845
G1 X-21.483 Y13.953 E39.35843
G1 X-21.630 Y12.614 E39.42881
G1 X-21.646 Y11.556 E39.48409
G1 X-20.606 Y-1.572 E40.17209
G1 X-20.288 Y-1.607 F6000.000
G1 X-18.798 Y-20.420 E41.15803 F1200.000
G1 X-18.244 Y-22.396 E41.26524
G1 X-16.982 Y-24.014 E41.37246
G1 X-15.202 Y-25.034 E41.47967
G1 X-13.500 Y-25.314 E41.56976
G1 X13.500 Y-25.314 E42.98037
G1 X15.514 Y-24.918 E43.08759
G1 X17.227 Y-23.788 E43.19480 F1200.000
G1 X18.384 Y-22.094 E43.30202
G1 X18.798 Y-20.420 E43.39211
G1 X21.332 Y11.580 E45.06918
G1 X21.317 Y12.579 E45.12137
G1 X21.170 Y13.918 E45.19175
G1 X20.943 Y14.978 E45.24839
G1 X20.400 Y16.641 E45.33978
G1 X18.487 Y21.836 E45.62900
G1 X17.419 Y23.589 E45.73622
G1 X15.767 Y24.806 E45.84343
G1 X13.500 Y25.314 E45.96483
G1 X-13.500 Y25.314 E47.37544
G1 X-15.514 Y24.918 E47.48266
G1 X-17.227 Y23.788 E47.58987
G1 X-18.487 Y21.836 E47.71127
G1 X-20.468 Y16.444 E48.01138
G1 X-20.943 Y14.978 E48.09189
G1 X-21.170 Y13.918 E48.14852
G1 X-21.317 Y12.579 E48.21890
G1 X-21.332 Y11.580 E48.27109
G1 X-20.292 Y-1.547 E48.95909
G1 F4800
G1 X-19.977 Y-5.535 E45.15909
G1 E44.95909 F4800.00000
G92 E0
G1 Z1.400 F6000.000
G1 X8.045 Y4.871 F6000.000
G1 Z0.400 F6000.000
G1 E4.00000 F4800.00000
G1 X8.871 Y4.045 E4.06105 F450.000
G1 X9.985 Y3.747 E4.12127 F450.000
G1 X11.127 Y4.044 E4.18293
G1 X11.955 Y4.871 E4.24409
G1 X12.257 Y6.000 E4.30514
G1 X11.955 Y7.129 E4.36618
G1 X11.129 Y7.955 E4.42723
G1 X9.998 Y8.258 E4.48838
G1 X8.860 Y7.944 E4.55005
G1 X8.045 Y7.129 E4.61027
G1 X7.743 Y6.000 E4.67132
G1 X8.030 Y4.929 E4.72923
G1 X8.327 Y5.034 F6000.000
G1 X9.034 Y4.327 E4.78148 F450.000
G1 X9.986 Y4.072 E4.83297 F450.000
G1 X10.965 Y4.326 E4.88584
G1 X11.673 Y5.034 E4.93814
G1 X11.932 Y6.000 E4.99039
G1 X11.673 Y6.966 E5.04264
G1 X10.966 Y7.673 E5.09489
G1 X9.999 Y7.932 E5.14718
G1 X9.024 Y7.663 E5.20006
G1 X8.327 Y6.966 E5.25155
G1 X8.068 Y6.000 E5.30380
G1 X8.311 Y5.092 E5.35291
G1 X8.158 Y4.671 F6000.000
G1 F4800
G1 X9.034 Y4.327 E4.35305
G1 E1.35291 F4800.00000
G92 E0
G1 Z1.400 F6000.000
G1 X12.500 Y5.029 F6000.000
G1 X12.500 Y5.029 F6000.000
G1 X12.552 Y6.114 F6000.000
G1 Z0.400 F6000.000
G1 E4.00000 F4800.00000
G1 X13.774 Y7.855 E4.11113 F2045.916
G1 X14.646 Y9.518 E4.20922
G1 X15.074 Y10.836 E4.28161
G1 X15.202 Y12.000 E4.34281
G1 X15.074 Y13.164 E4.40401
G1 X14.646 Y14.482 E4.47640
G1 X13.774 Y16.145 E4.57449
G1 X12.672 Y17.715 E4.67474
G1 X12.672 Y19.172 E4.75082
G1 X-12.672 Y19.172 E6.07488
G1 X-12.672 Y17.715 E6.15096
G1 X-13.774 Y16.145 E6.25121
G1 X-14.646 Y14.482 E6.34930
G1 X-15.074 Y13.164 E6.42169
G1 X-15.202 Y12.000 E6.48289
G1 X-15.074 Y10.836 E6.54408
G1 X-14.646 Y9.518 E6.61648
G1 X-13.774 Y7.855 E6.71457
G1 X-12.552 Y6.114 E6.82570
G1 X-12.237 Y7.291 E6.88937
G1 X-11.291 Y8.237 E6.95922
G1 X-10.000 Y8.583 E7.02906
G1 X-8.709 Y8.237 E7.09890
G1 X-7.763 Y7.291 E7.16874
G1 X-7.417 Y6.000 E7.23858
G1 X-7.763 Y4.709 E7.30843
G1 X-8.711 Y3.761 E7.37844
G1 X-10.017 Y3.422 E7.44891
G1 X-11.291 Y3.763 E7.51786
G1 X-12.237 Y4.709 E7.58770
G1 X-12.508 Y5.721 E7.64245
G1 X-12.672 Y5.699 E7.65109
G1 X-12.672 Y-13.699 E8.66458
G1 X-12.508 Y-13.721 E8.67322
G1 X-12.237 Y-12.709 E8.72797
G1 X-11.291 Y-11.763 E8.79782
G1 X-10.000 Y-11.417 E8.86766
G1 X-8.709 Y-11.763 E8.93750
G1 X-7.763 Y-12.709 E9.00734
G1 X-7.417 Y-14.000 E9.07718
G1 X-7.763 Y-15.291 E9.14703
G1 X-8.714 Y-16.242 E9.21724
G1 X-10.036 Y-16.573 E9.28844
G1 X-11.291 Y-16.237 E9.35635
G1 X-12.237 Y-15.291 E9.42620
G1 X-12.508 Y-14.279 E9.48095
G1 X-12.672 Y-14.301 E9.48959
G1 X-12.672 Y-19.172 E9.74408
G1 X12.672 Y-19.172 E11.06814
G1 X12.672 Y-14.301 E11.32263
G1 X12.508 Y-14.279 E11.33127
G1 X12.237 Y-15.291 E11.38602
G1 X11.286 Y-16.242 E11.45624
G1 X9.964 Y-16.573 E11.52744
G1 X8.709 Y-16.237 E11.59535
G1 X7.763 Y-15.291 E11.66519
G1 X7.417 Y-14.000 E11.73503
G1 X7.763 Y-12.709 E11.80488
G1 X8.709 Y-11.763 E11.87472
G1 X10.000 Y-11.417 E11.94456
G1 X11.291 Y-11.763 E12.01440
G1 X12.210 Y-12.683 E12.08231
G1 X12.509 Y-13.730 E12.13921
G1 X12.672 Y-13.707 E12.14778
G1 X12.672 Y5.699 E13.16168
G1 X12.508 Y5.721 E13.17031
G1 X12.237 Y4.709 E13.22507
G1 X11.289 Y3.761 E13.29509
G1 X9.983 Y3.422 E13.36555
G1 X8.709 Y3.763 E13.43450
G1 X7.763 Y4.709 E13.50434
G1 X7.417 Y6.000 E13.57418
G1 X7.763 Y7.291 E13.64403
G1 X8.697 Y8.224 E13.71297
G1 X9.997 Y8.583 E13.78344
G1 X11.291 Y8.237 E13.85346
G1 X12.237 Y7.291 E13.92330
G1 X12.536 Y6.172 E13.98384
G1 F4800
G1 X13.774 Y7.855 E11.99915
G1 F4800
G1 X14.646 Y9.518 E10.21557
G1 F4800
G1 X14.657 Y9.549 E10.18384
G1 E9.98384 F4800.00000
G92 E0
G1 Z1.400 F6000.000
G1 X10.000 Y-11.743 F6000.000
G1 Z0.400 F6000.000
G1 E4.00000 F4800.00000
G1 X8.871 Y-12.045 E4.06105 F450.000
G1 X8.045 Y-12.871 E4.12209
G1 X7.743 Y-14.000 E4.18314
G1 X8.045 Y-15.129 E4.24418
G1 X8.871 Y-15.955 E4.30523
G1 X9.967 Y-16.248 E4.36449 F450.000
G1 X11.125 Y-15.958 E4.42689
G1 X11.955 Y-15.129 E4.48817
G1 X12.258 Y-13.996 E4.54945
G1 X11.931 Y-12.847 E4.61185
G1 X11.129 Y-12.045 E4.67111
G1 X10.058 Y-11.758 E4.72902
G1 X10.000 Y-12.068 F6000.000
G1 X9.034 Y-12.327 E4.78127 F450.000
G1 X8.327 Y-13.034 E4.83352
G1 X8.068 Y-14.000 E4.88577
G1 X8.327 Y-14.966 E4.93802
G1 X9.034 Y-15.673 E4.99027
G1 X9.970 Y-15.924 E5.04088 F450.000
G1 X10.965 Y-15.674 E5.09448
G1 X11.673 Y-14.966 E5.14682
G1 X11.933 Y-13.998 E5.19916
G1 X11.651 Y-13.012 E5.25277
G1 X10.966 Y-12.327 E5.30337
G1 X10.058 Y-12.083 E5.35249
G1 X9.771 Y-11.740 F6000.000
G1 F4800
G1 X9.034 Y-12.327 E4.35262
G1 F4800
G1 X8.327 Y-13.034 E3.40252
G1 F4800
G1 X8.068 Y-14.000 E2.45242
G1 F4800
G1 X8.313 Y-14.915 E1.55249
G1 E1.35249 F4800.00000
G92 E0
G1 Z1.400 F6000.000
G1 X-7.743 Y-14.000 F6000.000
G1 Z0.400 F6000.000
G1 E4.00000 F4800.00000
G1 X-8.045 Y-12.871 E4.06105 F450.000
G1 X-8.871 Y-12.045 E4.12209
G1 X-10.000 Y-11.743 E4.18314
G1 X-11.129 Y-12.045 E4.24418
G1 X-11.955 Y-12.871 E4.30523
G1 X-12.257 Y-14.000 E4.36628
G1 X-11.955 Y-15.129 E4.42732
G1 X-11.129 Y-15.955 E4.48837
G1 X-10.033 Y-16.248 E4.54763 F450.000
G1 X-8.875 Y-15.958 E4.61003
G1 X-8.045 Y-15.129 E4.67131
G1 X-7.758 Y-14.058 E4.72922
G1 X-8.068 Y-14.000 F6000.000
G1 X-8.327 Y-13.034 E4.78147 F450.000
G1 X-9.034 Y-12.327 E4.83372
G1 X-10.000 Y-12.068 E4.88597
G1 X-10.966 Y-12.327 E4.93822
G1 X-11.673 Y-13.034 E4.99047
G1 X-11.932 Y-14.000 E5.04272
G1 X-11.673 Y-14.966 E5.09497
G1 X-10.966 Y-15.673 E5.14722
G1 X-10.030 Y-15.924 E5.19783 F450.000
G1 X-9.035 Y-15.674 E5.25143
G1 X-8.327 Y-14.966 E5.30377
G1 X-8.083 Y-14.058 E5.35289
G1 X-7.740 Y-13.771 F6000.000
G1 F4800
G1 X-8.327 Y-13.034 E4.35302
G1 F4800
G1 X-9.034 Y-12.327 E3.40292
G1 F4800
G1 X-10.000 Y-12.068 E2.45282
G1 F4800
G1 X-10.915 Y-12.313 E1.55289
G1 E1.35289 F4800.00000
G92 E0
G1 Z1.400 F6000.000
G1 X-10.015 Y3.747 F6000.000
G1 Z0.400 F6000.000
G1 E4.00000 F4800.00000
G1 X-8.873 Y4.044 E4.06167 F450.000
G1 X-8.045 Y4.871 E4.12282
G1 X-7.743 Y6.000 E4.18387
G1 X-8.045 Y7.129 E4.24492
G1 X-8.871 Y7.955 E4.30596
G1 X-10.000 Y8.257 E4.36701
G1 X-11.129 Y7.955 E4.42806
G1 X-11.955 Y7.129 E4.48910
G1 X-12.257 Y6.000 E4.55015
G1 X-11.955 Y4.871 E4.61119
G1 X-11.129 Y4.045 E4.67224
G1 X-10.073 Y3.762 E4.72933 F450.000
G1 X-10.014 Y4.072 F6000.000
G1 X-9.035 Y4.326 E4.78220 F450.000
G1 X-8.327 Y5.034 E4.83449
G1 X-8.068 Y6.000 E4.88674
G1 X-8.327 Y6.966 E4.93899
G1 X-9.034 Y7.673 E4.99124
G1 X-10.000 Y7.932 E5.04349
G1 X-10.966 Y7.673 E5.09574
G1 X-11.673 Y6.966 E5.14799
G1 X-11.932 Y6.000 E5.20025
G1 X-11.673 Y5.034 E5.25250
G1 X-10.966 Y4.327 E5.30475
G1 X-10.072 Y4.087 E5.35310 F450.000
G1 X-9.786 Y3.743 F6000.000
G1 F4800
G1 X-9.035 Y4.326 E4.34170
G1 F4800
G1 X-8.327 Y5.034 E3.39084
G1 F4800
G1 X-8.068 Y6.000 E2.44073
G1 F4800
G1 X-8.310 Y6.903 E1.55310
G1 E1.35310 F4800.00000
G92 E0
G1 Z1.400 F6000.000
G1 X-10.000 Y8.760 F6000.000
G1 X-11.008 Y12.522 F6000.000
G1 X-9.512 Y13.546 F6000.000
G1 X-13.627 Y16.055 F6000.000
G1 X-12.986 Y19.486 F6000.000
G1 Z0.400 F6000.000
G1 E4.00000 F4800.00000
G1 X-12.986 Y17.815 E4.08731 F2045.916
G1 X-14.043 Y16.309 E4.18343
G1 X-14.937 Y14.605 E4.28397
G1 X-15.383 Y13.231 E4.35944
G1 X-15.518 Y12.000 E4.42412
G1 X-15.383 Y10.769 E4.48880
G1 X-14.937 Y9.395 E4.56427
G1 X-14.043 Y7.691 E4.66482
G1 X-12.986 Y6.185 E4.76094
G1 X-12.986 Y-19.486 E6.10212
G1 X12.986 Y-19.486 E7.45901
G1 X12.986 Y6.185 E8.80019
G1 X14.043 Y7.691 E8.89632
G1 X14.937 Y9.395 E8.99686
G1 X15.383 Y10.769 E9.07233
G1 X15.518 Y12.000 E9.13701
G1 X15.383 Y13.231 E9.20169
G1 X14.937 Y14.605 E9.27716
G1 X14.043 Y16.309 E9.37770
G1 X12.986 Y17.815 E9.47383
G1 X12.986 Y19.486 E9.56113
G1 X-12.926 Y19.486 E10.91489
G1 X-13.300 Y19.800 F6000.000
G1 X-13.300 Y17.914 E11.01342 F2045.916
G1 X-14.312 Y16.473 E11.10541
G1 X-15.228 Y14.727 E11.20841
G1 X-15.691 Y13.297 E11.28696
G1 X-15.834 Y12.000 E11.35512
G1 X-15.691 Y10.703 E11.42329
G1 X-15.228 Y9.273 E11.50184
G1 X-14.312 Y7.527 E11.60483
G1 X-13.300 Y6.086 E11.69683
G1 X-13.300 Y-19.800 E13.04924
G1 X13.300 Y-19.800 E14.43895
G1 X13.300 Y6.086 E15.79136
G1 X14.312 Y7.527 E15.88336
G1 X15.228 Y9.273 E15.98636
G1 X15.691 Y10.703 E16.06491
G1 X15.834 Y12.000 E16.13307
G1 X15.691 Y13.297 E16.20123
G1 X15.228 Y14.727 E16.27978
G1 X14.312 Y16.473 E16.38278
G1 X13.300 Y17.914 E16.47478
G1 X13.300 Y19.800 E16.57331
G1 X-13.240 Y19.800 E17.95989
G1 X-13.100 Y19.454 F6000.000
G1 X-12.252 Y18.905 F6000.000
G1 X-12.252 Y12.252 E18.30744 F2045.916
G1 X-14.905 Y12.252 E18.44605
G1 X-14.926 Y11.938 F6000.000
G1 X-11.938 Y11.938 E18.60216 F2045.916
G1 X-11.938 Y18.905 E18.96613
G1 X-11.624 Y18.905 F6000.000
G1 X-11.624 Y11.624 E19.34652 F2045.916
G1 X-14.892 Y11.624 E19.51724
G1 X-14.857 Y11.310 F6000.000
G1 X-11.310 Y11.310 E19.70258 F2045.916
G1 X-11.310 Y18.905 E20.09937
G1 X-10.996 Y18.905 F6000.000
G1 X-10.996 Y10.996 E20.51258 F2045.916
G1 X-14.823 Y10.996 E20.71253
G1 X-14.743 Y10.681 F6000.000
G1 X-10.681 Y10.681 E20.92474 F2045.916
G1 X-10.681 Y18.905 E21.35436
G1 X-10.367 Y18.905 F6000.000
G1 X-10.367 Y10.367 E21.80040 F2045.916
G1 X-14.641 Y10.367 E22.02369
G1 X-14.539 Y10.053 F6000.000
G1 X-10.053 Y10.053 E22.25808 F2045.916
G1 X-10.053 Y18.905 E22.72053
G1 X-9.739 Y18.905 F6000.000
G1 X-9.739 Y9.739 E23.19939 F2045.916
G1 X-14.438 Y9.739 E23.44487
G1 X-14.296 Y9.425 F6000.000
G1 X-9.425 Y9.425 E23.69938 F2045.916
G1 X-9.425 Y18.905 E24.19465
G1 X-9.111 Y18.905 F6000.000
G1 X-9.111 Y9.111 E24.70634 F2045.916
G1 X-14.131 Y9.111 E24.96866
G1 X-13.967 Y8.796 F6000.000
G1 X-10.233 Y8.796 E25.16370 F2045.916
G1 X-9.767 Y8.796 F6000.000
G1 X-8.796 Y8.796 E25.21439 F2045.916
G1 X-8.796 Y18.905 E25.74250
G1 X-8.482 Y18.905 F6000.000
G1 X-8.482 Y8.482 E26.28701 F2045.916
G1 X-8.594 Y8.482 E26.29286
G1 X-8.263 Y8.168 F6000.000
G1 X-8.168 Y8.168 E26.29780 F2045.916
G1 X-8.168 Y18.905 E26.85873
G1 X-7.854 Y18.905 F6000.000
G1 X-7.854 Y7.854 E27.43607 F2045.916
G1 X-7.949 Y7.854 E27.44101
G1 X-7.634 Y7.540 F6000.000
G1 X-7.540 Y7.540 E27.44595 F2045.916
G1 X-7.540 Y18.905 E28.03971
G1 X-7.226 Y18.905 F6000.000
G1 X-7.226 Y7.226 E28.64988 F2045.916
G1 X-7.469 Y7.226 E28.66261
G1 X-7.385 Y6.912 F6000.000
G1 X-6.912 Y6.912 E28.68737 F2045.916
G1 X-6.912 Y18.905 E29.31395
G1 X-6.597 Y18.905 F6000.000
G1 X-6.597 Y6.597 E29.95694 F2045.916
G1 X-7.301 Y6.597 E29.99371
G1 X-7.217 Y6.283 F6000.000
G1 X-6.283 Y6.283 E30.04249 F2045.916
G1 X-6.283 Y18.221 E30.66619
G1 X0.000 Y11.938 E31.13043
G1 X5.969 Y17.907 E31.57145
G1 X5.969 Y5.969 E32.19516
G1 X7.149 Y5.969 E32.25682
G1 X7.217 Y6.283 F6000.000
G1 X6.283 Y6.283 E32.30560 F2045.916
G1 X6.283 Y18.850 E32.96213
G1 X0.000 Y12.566 E33.42637
G1 X-6.338 Y18.905 E33.89467
G1 X-5.710 Y18.905 F6000.000
G1 X0.000 Y13.195 E34.31656 F2045.916
G1 X5.710 Y18.905 E34.73844
G1 X5.082 Y18.905 F6000.000
G1 X0.000 Y13.823 E35.11390 F2045.916
G1 X-5.082 Y18.905 E35.48936
G1 X-4.453 Y18.905 F6000.000
G1 X0.000 Y14.451 E35.81840 F2045.916
G1 X4.453 Y18.905 E36.14744
G1 X3.825 Y18.905 F6000.000
G1 X0.000 Y15.080 E36.43005 F2045.916
