; generated by Slic3r 1.2.9 on 2016-06-13 at 13:19:59

; external perimeters extrusion width = 0.40mm
; perimeters extrusion width = 0.67mm
; infill extrusion width = 0.67mm
; solid infill extrusion width = 0.67mm
; top infill extrusion width = 0.67mm
; support material extrusion width = 0.40mm

M107
M190 S60 ; set bed temperature
M104 S205 ; set temperature
G28 ; home all axes

M109 S205 ; wait for temperature to be reached
G21 ; set units to millimeters
G90 ; use absolute coordinates
M82 ; use absolute distances for extrusion
G92 E0
G1 E-4.00000 F4800.00000
G92 E0
G1 Z1.000 F6000.000
G1 X0.032 Y-10.312 F6000.000
G1 Z0.300 F6000.000
G1 E4.00000 F4800.00000
G1 X16.746 Y-10.260 E4.87324 F1200.000
G1 X19.190 Y-9.788 E5.00327 F1200.000
G1 X19.691 Y-9.589 E5.03143
G1 X21.652 Y-8.383 E5.15171
G1 X23.086 Y-6.583 E5.27199
G1 X23.901 Y-3.456 E5.44079
G1 X24.055 Y11.080 E6.20027
G1 X23.348 Y14.142 E6.36444
G1 X23.085 Y14.666 E6.39506
G1 X22.066 Y16.155 E6.48937
G1 X10.294 Y29.155 E7.40562
G1 X8.478 Y30.570 E7.52590
G1 X6.873 Y31.173 E7.61547
G1 X6.022 Y31.373 E7.66114
G1 X5.061 Y31.526 E7.71202
G1 X2.708 Y31.726 E7.83538
G1 X2.142 Y31.750 E7.86495
G1 X-2.363 Y31.750 E8.10031
G1 X-2.980 Y31.721 E8.13262
G1 X-5.133 Y31.521 E8.24554
G1 X-6.859 Y31.283 E8.33662
G1 X-9.048 Y30.570 E8.45690
G1 X-10.915 Y29.098 E8.58109
G1 X-22.420 Y16.098 E9.48803
G1 X-23.625 Y14.137 E9.60831
G1 X-24.096 Y11.588 E9.74371
G1 X-23.901 Y-3.472 E10.53059
G1 X-23.475 Y-5.734 E10.65087
G1 X-22.306 Y-7.717 E10.77115
G1 X-20.532 Y-9.185 E10.89143
G1 X-18.813 Y-9.870 E10.98812
G1 X-17.586 Y-10.170 E11.05408
G1 X-15.979 Y-10.361 E11.13862
G1 X-0.028 Y-10.312 E11.97200
G1 X0.031 Y-9.893 F6000.000
G1 X16.745 Y-9.841 E12.84524 F1200.000
G1 X19.035 Y-9.399 E12.96711 F1200.000
G1 X19.536 Y-9.200 E12.99527
G1 X21.427 Y-8.022 E13.11168
G1 X22.786 Y-6.256 E13.22810
G1 X23.483 Y-3.452 E13.37904
G1 X23.636 Y11.084 E14.13852
G1 X22.974 Y13.954 E14.29239
G1 X22.711 Y14.478 E14.32301
G1 X21.755 Y15.874 E14.41140
G1 X9.984 Y28.874 E15.32765
G1 X8.218 Y30.233 E15.44406
G1 X6.778 Y30.765 E15.52430
G1 X5.926 Y30.965 E15.56997
G1 X5.025 Y31.109 E15.61766
G1 X2.672 Y31.309 E15.74102
G1 X2.142 Y31.331 E15.76873
G1 X-2.363 Y31.331 E16.00410
G1 X-2.942 Y31.304 E16.03437
G1 X-5.094 Y31.104 E16.14730
G1 X-6.800 Y30.868 E16.23730
G1 X-8.915 Y30.166 E16.35372
G1 X-10.602 Y28.821 E16.46643
G1 X-22.106 Y15.821 E17.37337
G1 X-23.262 Y13.916 E17.48979
G1 X-23.677 Y11.594 E17.61302
G1 X-23.482 Y-3.466 E18.39990
G1 X-23.057 Y-5.654 E18.51631
G1 X-21.893 Y-7.553 E18.63273
G1 X-20.136 Y-8.924 E18.74915
G1 X-18.713 Y-9.463 E18.82864
G1 X-17.487 Y-9.763 E18.89460
G1 X-15.981 Y-9.942 E18.97384
G1 X-0.029 Y-9.893 E19.80722
G1 X0.029 Y-9.474 F6000.000
G1 X16.743 Y-9.422 E20.68045 F1200.000
G1 X18.881 Y-9.010 E20.79417 F1200.000
G1 X19.382 Y-8.811 E20.82232
G1 X21.201 Y-7.662 E20.93474
G1 X22.480 Y-5.931 E21.04716
G1 X23.064 Y-3.447 E21.18047
G1 X23.218 Y11.089 E21.93995
G1 X22.599 Y13.766 E22.08352
G1 X22.337 Y14.290 E22.11414
G1 X21.445 Y15.593 E22.19661
G1 X9.673 Y28.593 E23.11286
G1 X7.960 Y29.894 E23.22528
G1 X6.682 Y30.357 E23.29631
G1 X5.831 Y30.557 E23.34199
G1 X4.990 Y30.691 E23.38648
G1 X2.637 Y30.891 E23.50984
G1 X2.142 Y30.912 E23.53570
G1 X-2.363 Y30.912 E23.77106
G1 X-2.903 Y30.887 E23.79931
G1 X-5.055 Y30.687 E23.91224
G1 X-6.741 Y30.454 E24.00117
G1 X-8.779 Y29.762 E24.11359
G1 X-10.288 Y28.543 E24.21495
G1 X-21.792 Y15.543 E25.12189
G1 X-22.897 Y13.697 E25.23431
G1 X-23.258 Y11.599 E25.34550
G1 X-23.064 Y-3.461 E26.13237
G1 X-22.640 Y-5.570 E26.24479
G1 X-21.480 Y-7.383 E26.35721
G1 X-19.743 Y-8.653 E26.46963
G1 X-18.614 Y-9.056 E26.53229
G1 X-17.387 Y-9.356 E26.59825
G1 X-15.982 Y-9.523 E26.67219
G1 X-0.031 Y-9.474 E27.50556
G1 X0.028 Y-9.055 F6000.000
G1 X16.742 Y-9.003 E28.37880 F1200.000
G1 X18.726 Y-8.621 E28.48436 F1200.000
G1 X19.227 Y-8.422 E28.51251
G1 X20.971 Y-7.302 E28.62079
G1 X22.168 Y-5.610 E28.72906
G1 X22.645 Y-3.443 E28.84500
G1 X22.799 Y11.093 E29.60448
G1 X22.225 Y13.579 E29.73775
G1 X21.962 Y14.103 E29.76837
G1 X21.134 Y15.312 E29.84492
G1 X9.363 Y28.312 E30.76117
G1 X7.704 Y29.554 E30.86945
G1 X6.586 Y29.950 E30.93141
G1 X5.735 Y30.150 E30.97709
G1 X4.954 Y30.274 E31.01839
G1 X2.601 Y30.474 E31.14175
G1 X2.142 Y30.493 E31.16575
G1 X-2.363 Y30.493 E31.40111
G1 X-2.864 Y30.470 E31.42734
G1 X-5.016 Y30.270 E31.54026
G1 X-6.682 Y30.039 E31.62812
G1 X-8.640 Y29.359 E31.73639
G1 X-9.974 Y28.266 E31.82654
G1 X-21.479 Y15.266 E32.73348
G1 X-22.530 Y13.480 E32.84176
G1 X-22.839 Y11.605 E32.94104
G1 X-22.645 Y-3.455 E33.72791
G1 X-22.222 Y-5.484 E33.83619
G1 X-21.069 Y-7.206 E33.94447
G1 X-18.514 Y-8.649 E34.09776
G1 X-17.288 Y-8.949 E34.16372
G1 X-15.983 Y-9.104 E34.23235
G1 X-0.032 Y-9.055 E35.06573
G1 F4800
G1 X3.968 Y-9.043 E31.26573
G1 E31.06573 F4800.00000
G92 E0
G1 Z1.300 F6000.000
G1 X-16.496 Y-3.474 F6000.000
G1 Z0.300 F6000.000
G1 E4.00000 F4800.00000
G1 X-15.982 Y-3.536 E4.02704 F1200.000
G1 X16.486 Y-3.485 E5.72335
G1 F4800
G1 X12.486 Y-3.492 E1.92335
G1 E1.72335 F4800.00000
G92 E0
G1 Z1.300 F6000.000
G1 Z0.300 F6000.000
G1 Z1.300 F6000.000
G1 X15.794 Y9.822 F6000.000
G1 Z0.300 F6000.000
G1 E4.00000 F4800.00000
G1 X14.865 Y11.674 E4.08675 F1200.000
G1 X14.114 Y11.674 E4.11818
G1 X15.894 Y8.124 E4.28440
G1 X16.496 Y8.420 E4.31250
G1 X15.891 Y9.628 E4.36903
G1 X15.143 Y8.124 E4.43932
G1 X13.363 Y11.674 E4.60554
G1 X12.613 Y11.674 E4.63697
G1 X14.392 Y8.124 E4.80320
G1 X13.641 Y8.124 E4.83463
G1 X11.862 Y11.674 E5.00085
G1 X11.111 Y11.674 E5.03228
G1 X12.890 Y8.124 E5.19851
G1 X12.139 Y8.124 E5.22994
G1 X10.360 Y11.674 E5.39616
G1 X9.609 Y11.674 E5.42759
G1 X11.389 Y8.124 E5.59382
G1 X10.638 Y8.124 E5.62525
G1 X8.858 Y11.674 E5.79147
G1 X8.108 Y11.674 E5.82290
G1 X9.887 Y8.124 E5.98912
G1 X9.136 Y8.124 E6.02055
G1 X7.357 Y11.674 E6.18678
G1 X6.606 Y11.674 E6.21821
G1 X8.385 Y8.124 E6.38443
G1 X7.634 Y8.124 E6.41586
G1 X5.855 Y11.674 E6.58208
G1 X5.104 Y11.674 E6.61351
G1 X6.884 Y8.124 E6.77974
G1 X6.133 Y8.124 E6.81117
G1 X4.353 Y11.674 E6.97739
G1 X3.603 Y11.674 E7.00882
G1 X5.382 Y8.124 E7.17505
G1 X4.631 Y8.124 E7.20648
G1 X2.852 Y11.674 E7.37270
G1 X2.101 Y11.674 E7.40413
G1 X3.880 Y8.124 E7.57035
G1 X3.129 Y8.124 E7.60178
G1 X1.350 Y11.674 E7.76801
G1 X0.599 Y11.674 E7.79944
G1 X2.379 Y8.124 E7.96566
G1 X1.628 Y8.124 E7.99709
G1 X-0.151 Y11.674 E8.16332
G1 X-0.902 Y11.674 E8.19475
G1 X0.877 Y8.124 E8.36097
G1 X0.126 Y8.124 E8.39240
G1 X-1.653 Y11.674 E8.55862
G1 X-2.404 Y11.674 E8.59005
G1 X-0.625 Y8.124 E8.75628
G1 X-1.376 Y8.124 E8.78771
G1 X-3.155 Y11.674 E8.95393
G1 X-3.906 Y11.674 E8.98536
G1 X-2.126 Y8.124 E9.15158
G1 X-2.877 Y8.124 E9.18301
G1 X-4.656 Y11.674 E9.34924
G1 X-5.407 Y11.674 E9.38067
G1 X-3.628 Y8.124 E9.54689
G1 X-4.379 Y8.125 E9.57832
G1 X-6.158 Y11.674 E9.74454
G1 X-6.909 Y11.674 E9.77597
G1 X-5.130 Y8.125 E9.94220
G1 X-5.881 Y8.125 E9.97363
G1 X-7.660 Y11.674 E10.13985
G1 X-8.411 Y11.674 E10.17128
G1 X-6.631 Y8.125 E10.33750
G1 X-7.382 Y8.125 E10.36893
G1 X-9.161 Y11.674 E10.53516
G1 X-9.912 Y11.674 E10.56659
G1 X-8.133 Y8.125 E10.73281
G1 X-8.884 Y8.125 E10.76424
G1 X-10.663 Y11.674 E10.93046
G1 X-11.414 Y11.674 E10.96189
G1 X-9.635 Y8.125 E11.12812
G1 X-10.385 Y8.125 E11.15955
G1 X-12.165 Y11.674 E11.32577
G1 X-12.916 Y11.674 E11.35720
G1 X-11.136 Y8.125 E11.52342
G1 X-11.887 Y8.125 E11.55485
G1 X-13.666 Y11.674 E11.72108
G1 X-14.417 Y11.674 E11.75251
G1 X-12.638 Y8.125 E11.91873
G1 X-13.389 Y8.125 E11.95016
G1 X-15.168 Y11.674 E12.11638
G1 X-15.919 Y11.674 E12.14781
G1 X-14.140 Y8.125 E12.31404
G1 X-14.890 Y8.125 E12.34547
G1 X-16.670 Y11.674 E12.51169
G1 X-17.421 Y11.674 E12.54312
G1 X-16.659 Y10.154 E12.61429
G1 X-16.285 Y9.409 F6000.000
G1 X-15.641 Y8.125 E12.67442 F1200.000
G1 F4800
G1 X-16.285 Y9.409 E11.30988
G1 E8.67442 F4800.00000
G92 E0
G1 Z1.300 F6000.000
G1 X-4.749 Y20.848 F6000.000
G1 Z0.300 F6000.000
G1 E4.00000 F4800.00000
G1 X-5.442 Y22.230 E4.06473 F1200.000
G1 X-4.848 Y22.543 E4.09284
G1 X-4.127 Y21.105 E4.16016
G1 X-3.468 Y21.287 E4.18880
G1 X-5.165 Y24.674 E4.34740
G1 X-4.515 Y24.874 F6000.000
G1 X-2.785 Y21.424 E4.50897 F1200.000
G1 X-2.049 Y21.453 E4.53982
G1 X-3.764 Y24.874 E4.70004
G1 X-3.013 Y24.874 E4.73147
G1 X-1.322 Y21.501 E4.88945
G1 X-0.596 Y21.549 E4.91993
G1 X-2.363 Y25.074 E5.08502
G1 X-1.612 Y25.074 E5.11645
G1 X0.137 Y21.585 E5.27983
G1 X0.914 Y21.534 E5.31241
G1 X-0.861 Y25.074 E5.47820
G1 X-0.110 Y25.074 E5.50963
G1 X1.690 Y21.482 E5.67783
G1 X2.429 Y21.506 E5.70878
G1 X0.641 Y25.074 E5.87586
G1 X1.392 Y25.074 E5.90729
G1 X3.260 Y21.347 E6.08183
G1 X4.109 Y21.150 E6.11832
G1 X2.142 Y25.074 E6.30207
G1 X2.993 Y24.874 E6.33867
G1 X5.057 Y20.758 E6.53144
G1 X5.356 Y21.658 E6.57115
G1 X4.959 Y22.450 E6.60827
G1 X4.606 Y23.154 F6000.000
G1 X3.744 Y24.874 E6.68880 F1200.000
G1 X4.495 Y24.874 E6.72023
G1 X5.357 Y23.154 E6.80077
G1 X5.815 Y23.739 E6.83186
G1 X5.346 Y24.674 E6.87565
G1 F4800
G1 X5.815 Y23.739 E5.88166
G1 F4800
G1 X5.357 Y23.154 E5.17624
G1 F4800
G1 X4.495 Y24.874 E3.34846
G1 F4800
G1 X4.208 Y24.874 E3.07565
G1 E2.87565 F4800.00000
G92 E0
G1 Z1.300 F6000.000
G1 X-5.154 Y23.154 F6000.000
G1 Z0.300 F6000.000
G1 E4.00000 F4800.00000
G1 X-5.916 Y24.674 E4.07117 F1200.000
G1 F4800
G1 X-5.154 Y23.154 E2.45594
G1 E0.07117 F4800.00000
G92 E0
G1 Z1.300 F6000.000
G1 X17.118 Y11.674 F6000.000
G1 Z0.300 F6000.000
G1 E4.00000 F4800.00000
G1 X17.380 Y11.151 E4.02453 F1200.000
G1 X17.085 Y10.240 E4.06458
G1 X16.367 Y11.674 E4.13172
G1 X15.616 Y11.674 E4.16315
G1 X16.378 Y10.154 E4.23433
M106 S255
G1 F4800
G1 X15.616 Y11.674 E2.61907
G1 F4800
G1 X16.367 Y11.674 E1.90579
G1 F4800
G1 X17.061 Y10.290 E0.43433
G1 E0.23433 F4800.00000
G92 E0
G1 Z1.300 F6000.000
G1 X15.555 Y10.141 F6000.000
G1 Z0.500 F6000.000
G1 E4.00000 F4800.00000
G1 X-15.555 Y10.141 E4.92367 F600.000
G1 F4800
G1 X-11.555 Y10.141 E1.12367
G1 E0.92367 F4800.00000
G92 E0
G1 Z1.500 F6000.000
G1 X-4.234 Y23.141 F6000.000
G1 Z0.500 F6000.000
G1 E4.00000 F4800.00000
G1 X4.233 Y23.141 E4.25139 F600.000
G1 X5.382 Y22.163 F6000.000
G1 X5.090 Y20.837 E4.29172 F600.000
G1 X3.944 Y21.312 E4.32857
G1 X2.367 Y21.627 E4.37631
G1 X2.359 Y21.545 E4.37874
G1 X-0.000 Y21.701 E4.44894
G1 X-2.359 Y21.545 E4.51913
G1 X-2.367 Y21.627 E4.52156
G1 X-3.944 Y21.312 E4.56931
G1 X-5.087 Y20.838 E4.60606
G1 X-5.381 Y22.161 E4.64631
G1 X-4.360 Y22.638 E4.67976
G1 X-4.499 Y23.264 E4.69882
G1 X-5.626 Y23.264 E4.73228
G1 X-5.914 Y24.564 E4.77181
G1 X-4.645 Y24.564 E4.80951
G1 X-4.685 Y24.764 E4.81556
G1 X-2.677 Y24.764 E4.87516
G1 X-2.697 Y24.964 E4.88113
G1 X2.697 Y24.964 E5.04129
G1 X2.677 Y24.764 E5.04726
G1 X4.685 Y24.764 E5.10686
G1 X4.645 Y24.564 E5.11291
G1 X5.911 Y24.564 E5.15052
G1 X5.625 Y23.264 E5.19004
G1 X4.499 Y23.264 E5.22349
G1 X4.360 Y22.637 E5.24258
G1 X5.382 Y22.163 E5.27602
G1 F4800
G1 X4.360 Y22.637 E4.20597
G1 F4800
G1 X4.499 Y23.264 E3.59516
G1 F4800
G1 X5.625 Y23.264 E2.52511
G1 F4800
G1 X5.863 Y24.343 E1.47602
G1 E1.27602 F4800.00000
G92 E0
G1 Z1.500 F6000.000
G1 X16.599 Y9.033 F6000.000
G1 Z0.500 F6000.000
G1 E4.00000 F4800.00000
G1 X16.341 Y8.234 E4.02492 F600.000
G1 X-16.342 Y8.235 E4.99530
G1 X-16.600 Y9.034 E5.02025
G1 X-15.663 Y9.710 E5.05457
G1 X-15.842 Y10.264 E5.07186
G1 X-16.998 Y10.264 E5.10618
G1 X-17.418 Y11.564 E5.14675
G1 X17.419 Y11.564 E6.18109
G1 X16.998 Y10.264 E6.22166
G1 X15.842 Y10.264 E6.25599
G1 X15.662 Y9.711 E6.27327
G1 X16.599 Y9.033 E6.30760
G1 F4800
G1 X15.662 Y9.711 E5.20916
G1 F4800
G1 X15.842 Y10.264 E4.65643
G1 F4800
G1 X16.998 Y10.264 E3.55800
G1 F4800
G1 X17.339 Y11.316 E2.50760
G1 E2.30760 F4800.00000
G92 E0
G1 Z1.500 F6000.000
G1 X-16.854 Y-3.557 F6000.000
G1 Z0.500 F6000.000
G1 E4.00000 F4800.00000
G1 X-16.716 Y-3.634 E4.00470 F600.000
G1 X-15.986 Y-3.736 E4.02657
G1 X16.546 Y-3.655 E4.99250
G1 X16.751 Y-3.579 E4.99897
G1 X16.707 Y-3.336 E5.00632
G1 X-16.796 Y-3.336 E6.00108
G1 X-16.839 Y-3.499 E6.00608
G1 X-16.696 Y-3.541 F6000.000
G1 F4800
G1 X-16.716 Y-3.634 E5.83226
G1 F4800
G1 X-15.986 Y-3.736 E5.13277
G1 F4800
G1 X-12.906 Y-3.728 E2.20608
G1 E2.00608 F4800.00000
G92 E0
G1 Z1.500 F6000.000
G1 X16.926 Y-3.422 F6000.000
G1 Z0.500 F6000.000
G1 E4.00000 F4800.00000
G1 X17.835 Y-3.260 E4.04826 F600.000
G1 F4800
G1 X16.926 Y-3.422 E3.17076
G1 E0.04826 F4800.00000
G92 E0
G1 Z1.500 F6000.000
G1 X-17.891 Y-3.136 F6000.000
G1 Z0.700 F6000.000
G1 E4.00000 F4800.00000
G1 X-17.424 Y-3.533 E4.01821 F730.958
G1 X-16.726 Y-3.832 E4.04076
G1 X-15.986 Y-3.936 E4.06294
G1 X16.434 Y-3.871 E5.02553
G1 X17.430 Y-3.528 E5.05681
G1 X17.891 Y-3.136 E5.07480
G1 X-17.831 Y-3.136 E6.13544
G1 X-17.535 Y-3.317 F6000.000
G1 X-17.073 Y-3.398 F6000.000
G1 X-16.630 Y-3.489 E6.15906 F600.000
G1 X-15.959 Y-3.535 E6.19422
G1 X16.372 Y-3.503 E7.88335
G1 X16.997 Y-3.399 E7.91644
G1 F4800
G1 X16.372 Y-3.503 E7.31460
G1 F4800
G1 X13.005 Y-3.506 E4.11644
G1 E3.91644 F4800.00000
G92 E0
G1 Z1.700 F6000.000
G1 X16.599 Y9.033 F6000.000
G1 Z0.800 F6000.000
G1 E4.00000 F4800.00000
G1 X16.341 Y8.234 E4.03514 F600.000
G1 X-16.342 Y8.235 E5.40323
G1 X-16.600 Y9.034 E5.43840
G1 X-15.663 Y9.710 E5.48679
G1 X-15.842 Y10.264 E5.51116
G1 X-16.998 Y10.264 E5.55956
G1 X-17.418 Y11.564 E5.61674
G1 X17.419 Y11.564 E7.07501
G1 X16.998 Y10.264 E7.13221
G1 X15.842 Y10.264 E7.18061
G1 X15.662 Y9.711 E7.20497
G1 X16.599 Y9.033 E7.25337
G1 X15.577 Y10.141 F6000.000
G1 X-15.577 Y10.141 E8.55750 F600.000
G1 F4800
G1 X-11.577 Y10.141 E4.75750
G1 E4.55750 F4800.00000
G92 E0
G1 Z1.800 F6000.000
G1 X-4.970 Y21.284 F6000.000
G1 Z0.800 F6000.000
G1 E4.00000 F4800.00000
G1 X-4.729 Y21.284 E4.01009 F600.000
G1 X-4.256 Y23.141 F6000.000
G1 X4.255 Y23.141 E4.36636 F600.000
G1 X5.382 Y22.163 F6000.000
G1 X5.090 Y20.837 E4.42322 F600.000
G1 X3.944 Y21.312 E4.47516
G1 X2.367 Y21.627 E4.54247
G1 X2.359 Y21.545 E4.54590
G1 X-0.000 Y21.701 E4.64487
G1 X-2.359 Y21.545 E4.74383
G1 X-2.367 Y21.627 E4.74726
G1 X-3.944 Y21.312 E4.81457
G1 X-5.087 Y20.838 E4.86639
G1 X-5.381 Y22.161 E4.92313
G1 X-4.360 Y22.638 E4.97029
G1 X-4.499 Y23.264 E4.99716
G1 X-5.626 Y23.264 E5.04433
G1 X-5.914 Y24.564 E5.10007
G1 X-4.645 Y24.564 E5.15322
G1 X-4.685 Y24.764 E5.16175
G1 X-2.677 Y24.764 E5.24578
G1 X-2.697 Y24.964 E5.25419
G1 X2.697 Y24.964 E5.48000
G1 X2.677 Y24.764 E5.48841
G1 X4.685 Y24.764 E5.57244
G1 X4.645 Y24.564 E5.58097
G1 X5.911 Y24.564 E5.63399
G1 X5.625 Y23.264 E5.68971
G1 X4.499 Y23.264 E5.73686
G1 X4.360 Y22.637 E5.76378
G1 X5.382 Y22.163 E5.81093
G1 X4.973 Y21.284 F6000.000
G1 X4.729 Y21.284 E5.82112 F600.000
G1 F4800
G1 X4.973 Y21.284 E5.58982
G1 E1.82112 F4800.00000
G92 E0
G1 Z1.800 F6000.000
G1 X-18.273 Y-2.936 F6000.000
G1 Z0.900 F6000.000
G1 E4.00000 F4800.00000
G1 X-17.420 Y-3.735 E4.03472 F737.243
G1 X-16.726 Y-4.032 E4.05713
G1 X-15.986 Y-4.136 E4.07931
G1 X16.321 Y-4.086 E5.03855
G1 X17.427 Y-3.728 E5.07306
G1 X18.273 Y-2.936 E5.10750
G1 X-18.213 Y-2.936 E6.19084
G1 X-17.923 Y-3.128 F6000.000
G1 X-17.301 Y-3.343 F6000.000
G1 X-16.575 Y-3.492 E6.27088 F600.000
G1 X-15.945 Y-3.535 E6.33916
G1 X16.229 Y-3.511 E9.81590
G1 X17.238 Y-3.352 E9.92624
G1 F4800
G1 X16.229 Y-3.511 E8.95616
G1 F4800
G1 X13.251 Y-3.513 E6.12624
G1 E5.92624 F4800.00000
G92 E0
G1 Z1.900 F6000.000
G1 X16.599 Y9.033 F6000.000
G1 Z1.100 F6000.000
G1 E4.00000 F4800.00000
G1 X16.341 Y8.234 E4.03514 F600.000
G1 X-16.342 Y8.235 E5.40323
G1 X-16.600 Y9.034 E5.43840
G1 X-15.663 Y9.710 E5.48679
G1 X-15.842 Y10.264 E5.51116
G1 X-16.998 Y10.264 E5.55956
G1 X-17.418 Y11.564 E5.61674
G1 X17.419 Y11.564 E7.07501
G1 X16.998 Y10.264 E7.13221
G1 X15.842 Y10.264 E7.18061
G1 X15.662 Y9.711 E7.20497
G1 X16.599 Y9.033 E7.25337
G1 X15.577 Y10.141 F6000.000
G1 X-15.577 Y10.141 E8.55750 F600.000
G1 F4800
G1 X-11.577 Y10.141 E4.75750
G1 E4.55750 F4800.00000
G92 E0
G1 Z2.100 F6000.000
G1 X-4.970 Y21.284 F6000.000
G1 Z1.100 F6000.000
G1 E4.00000 F4800.00000
G1 X-4.729 Y21.284 E4.01009 F600.000
G1 X-4.256 Y23.141 F6000.000
G1 X4.255 Y23.141 E4.36636 F600.000
G1 X5.382 Y22.163 F6000.000
G1 X5.090 Y20.837 E4.42322 F600.000
G1 X3.944 Y21.312 E4.47516
G1 X2.367 Y21.627 E4.54247
G1 X2.359 Y21.545 E4.54590
