; generated by Slic3r 1.2.9 on 2016-03-22 at 17:35:48

; external perimeters extrusion width = 0.40mm
; perimeters extrusion width = 0.67mm
; infill extrusion width = 0.67mm
; solid infill extrusion width = 0.67mm
; top infill extrusion width = 0.67mm
; support material extrusion width = 0.40mm

M107
M104 S210 ; set temperature
G28 ; home all axes
G1 X70Y70Z10 F5000 
M109 S210 ; wait for temperature to be reached
G21 ; set units to millimeters
G90 ; use absolute coordinates
M82 ; use absolute distances for extrusion
G92 E0
G1 E-3.50000 F1800.00000
G92 E0
G1 Z0.300 F3600.000
G1 X16.000 Y-15.361 F3600.000
G1 E3.50000 F1800.00000
G1 X17.611 Y-15.249 E3.58435 F1200.000
G1 X18.391 Y-15.141 E3.62553
G1 X21.383 Y-14.307 E3.78781
G1 X21.829 Y-14.115 E3.81316
G1 X24.451 Y-12.557 E3.97249
G1 X26.580 Y-10.374 E4.13182
G1 X28.070 Y-7.713 E4.29115
G1 X28.895 Y-3.790 E4.50059
G1 X29.376 Y10.093 E5.22636
G1 X29.083 Y13.129 E5.38569
G1 X28.145 Y15.729 E5.53010
G1 X27.637 Y16.744 E5.58940
G1 X26.105 Y19.062 E5.73458
G1 X15.084 Y32.062 E6.62497
G1 X12.825 Y34.111 E6.78430
G1 X10.113 Y35.505 E6.94363
G1 X7.625 Y36.098 E7.07726
G1 X4.421 Y36.498 E7.24594
G1 X2.974 Y36.588 E7.32165
G1 X-3.032 Y36.588 E7.63547
G1 X-4.113 Y36.538 E7.69197
G1 X-6.265 Y36.338 E7.80490
G1 X-8.615 Y35.873 E7.93008
G1 X-10.016 Y35.435 E8.00675
G1 X-12.777 Y34.140 E8.16607
G1 X-15.249 Y32.019 E8.33627
G1 X-26.729 Y18.969 E9.24429
G1 X-28.427 Y16.436 E9.40362
G1 X-29.411 Y13.550 E9.56295
G1 X-29.623 Y10.671 E9.71373
G1 X-28.887 Y-3.972 E10.47973
G1 X-28.337 Y-6.971 E10.63906
G1 X-27.030 Y-9.727 E10.79839
G1 X-25.053 Y-12.049 E10.95772
G1 X-21.829 Y-14.115 E11.15778
G1 X-21.383 Y-14.307 E11.18313
G1 X-18.391 Y-15.141 E11.34542
G1 X-17.611 Y-15.249 E11.38659
G1 X-16.000 Y-15.361 E11.47094
G1 X15.940 Y-15.361 E13.13964
G1 X16.000 Y-14.942 F3600.000
G1 X17.553 Y-14.835 E13.22097 F1200.000
G1 X18.334 Y-14.726 E13.26215
G1 X21.218 Y-13.922 E13.41860
G1 X21.664 Y-13.730 E13.44396
G1 X24.234 Y-12.194 E13.60039
G1 X26.309 Y-10.035 E13.75682
G1 X27.741 Y-7.406 E13.91325
G1 X28.476 Y-3.775 E14.10677
G1 X28.957 Y10.108 E14.83254
G1 X28.662 Y13.088 E14.98897
G1 X27.771 Y15.542 E15.12537
G1 X27.262 Y16.556 E15.18467
G1 X25.785 Y18.792 E15.32464
G1 X14.765 Y31.792 E16.21504
G1 X12.542 Y33.798 E16.37147
G1 X9.869 Y35.147 E16.52790
G1 X7.573 Y35.682 E16.65108
G1 X4.369 Y36.082 E16.81976
G1 X2.974 Y36.169 E16.89276
G1 X-3.032 Y36.169 E17.20658
G1 X-4.074 Y36.121 E17.26105
G1 X-6.226 Y35.921 E17.37398
G1 X-8.492 Y35.472 E17.49467
G1 X-9.889 Y35.036 E17.57113
G1 X-12.597 Y33.758 E17.72757
G1 X-14.935 Y31.742 E17.88884
G1 X-26.414 Y18.693 E18.79686
G1 X-28.075 Y16.202 E18.95329
G1 X-29.021 Y13.361 E19.10972
G1 X-29.205 Y10.692 E19.24945
G1 X-28.469 Y-3.951 E20.01545
G1 X-27.922 Y-6.895 E20.17188
G1 X-26.619 Y-9.590 E20.32831
G1 X-24.651 Y-11.847 E20.48474
G1 X-21.664 Y-13.730 E20.66921
G1 X-21.218 Y-13.922 E20.69456
G1 X-18.333 Y-14.726 E20.85103
G1 X-17.553 Y-14.835 E20.89220
G1 X-16.000 Y-14.942 E20.97352
G1 X15.940 Y-14.942 E22.64222
G1 X16.000 Y-14.523 F3600.000
G1 X17.495 Y-14.420 E22.72052 F1200.000
G1 X18.276 Y-14.311 E22.76170
G1 X21.053 Y-13.537 E22.91233
G1 X21.499 Y-13.345 E22.93769
G1 X24.017 Y-11.832 E23.09117
G1 X26.036 Y-9.698 E23.24465
G1 X27.408 Y-7.100 E23.39813
G1 X28.058 Y-3.761 E23.57587
G1 X28.539 Y10.123 E24.30164
G1 X28.241 Y13.045 E24.45512
G1 X27.396 Y15.354 E24.58357
G1 X26.888 Y16.369 E24.64287
G1 X25.466 Y18.521 E24.77763
G1 X14.445 Y31.521 E25.66803
G1 X12.259 Y33.483 E25.82151
G1 X9.627 Y34.787 E25.97499
G1 X7.521 Y35.267 E26.08782
G1 X4.317 Y35.667 E26.25650
G1 X2.974 Y35.750 E26.32679
G1 X-3.032 Y35.750 E26.64060
G1 X-4.035 Y35.704 E26.69305
G1 X-6.187 Y35.504 E26.80598
G1 X-8.369 Y35.072 E26.92218
G1 X-9.762 Y34.637 E26.99844
G1 X-12.416 Y33.376 E27.15192
G1 X-14.620 Y31.465 E27.30432
G1 X-26.100 Y18.416 E28.21234
G1 X-27.723 Y15.968 E28.36582
G1 X-28.630 Y13.173 E28.51930
G1 X-28.787 Y10.713 E28.64808
G1 X-28.050 Y-3.930 E29.41408
G1 X-27.507 Y-6.817 E29.56756
G1 X-26.207 Y-9.451 E29.72104
G1 X-24.248 Y-11.641 E29.87452
G1 X-21.499 Y-13.345 E30.04353
G1 X-21.053 Y-13.537 E30.06888
G1 X-18.275 Y-14.311 E30.21953
G1 X-17.495 Y-14.420 E30.26070
G1 X-16.000 Y-14.523 E30.33900
G1 X15.940 Y-14.523 E32.00770
G1 X16.000 Y-14.104 F3600.000
G1 X17.437 Y-14.005 E32.08297 F1200.000
G1 X18.218 Y-13.896 E32.12415
G1 X20.888 Y-13.152 E32.26896
G1 X21.334 Y-12.961 E32.29431
G1 X23.798 Y-11.470 E32.44478
G1 X25.761 Y-9.362 E32.59526
G1 X27.071 Y-6.797 E32.74573
G1 X27.639 Y-3.746 E32.90785
G1 X28.120 Y10.137 E33.63362
G1 X27.821 Y13.002 E33.78409
G1 X27.022 Y15.166 E33.90464
G1 X26.513 Y16.181 E33.96394
G1 X25.146 Y18.250 E34.09350
G1 X14.126 Y31.250 E34.98389
G1 X11.977 Y33.168 E35.13436
G1 X9.386 Y34.425 E35.28484
G1 X7.469 Y34.851 E35.38743
G1 X4.265 Y35.251 E35.55612
G1 X2.974 Y35.331 E35.62368
G1 X-3.032 Y35.331 E35.93750
G1 X-3.996 Y35.287 E35.98792
G1 X-6.149 Y35.087 E36.10085
G1 X-8.246 Y34.671 E36.21256
G1 X-9.636 Y34.237 E36.28862
G1 X-12.234 Y32.995 E36.43909
G1 X-14.306 Y31.189 E36.58268
G1 X-25.785 Y18.139 E37.49069
G1 X-27.370 Y15.735 E37.64117
G1 X-28.237 Y12.988 E37.79164
G1 X-28.368 Y10.735 E37.90957
G1 X-27.632 Y-3.909 E38.67557
G1 X-27.091 Y-6.738 E38.82604
G1 X-25.797 Y-9.310 E38.97651
G1 X-23.847 Y-11.430 E39.12699
G1 X-21.334 Y-12.961 E39.28071
G1 X-20.888 Y-13.152 E39.30606
G1 X-18.218 Y-13.896 E39.45089
G1 X-17.437 Y-14.005 E39.49205
G1 X-16.000 Y-14.104 E39.56732
G1 X15.940 Y-14.104 E41.23603
G1 E37.73603 F1800.00000
G92 E0
G1 X15.075 Y20.341 F3600.000
G1 E3.50000 F1800.00000
G1 X14.825 Y20.623 E3.51968 F1200.000
G1 X14.898 Y21.232 E3.55175
G1 X14.960 Y21.399 E3.56102
G1 X15.308 Y23.239 E3.65887
G1 X15.249 Y25.218 E3.76230
G1 X14.790 Y27.034 E3.86015
G1 X12.477 Y31.648 E4.12983
G1 X5.726 Y33.891 E4.50148
G1 X5.280 Y33.668 E4.52755
G1 X5.134 Y33.651 E4.53524
G1 X3.988 Y33.920 E4.59674
G1 X3.892 Y33.919 E4.60178
G1 X3.374 Y34.091 E4.63030
G1 X3.189 Y34.070 E4.64003
G1 X2.523 Y34.291 E4.67670
G1 X1.470 Y33.764 E4.73822
G1 X1.375 Y33.741 E4.74333
G1 X-4.548 Y33.741 E5.05279
G1 X-5.636 Y34.091 E5.11249
G1 X-6.055 Y33.881 E5.13696
G1 X-6.221 Y33.869 E5.14567
G1 X-6.287 Y33.891 E5.14928
G1 X-6.711 Y33.679 E5.17408
G1 X-6.877 Y33.667 E5.18279
G1 X-6.935 Y33.686 E5.18593
G1 X-13.726 Y30.282 E5.58284
G1 X-15.969 Y23.531 E5.95449
G1 X-14.916 Y21.428 E6.07737
G1 X-14.894 Y21.348 E6.08172
G1 X-14.843 Y20.607 E6.12052
G1 X-15.092 Y20.341 E6.13952
G1 X-17.492 Y20.341 E6.26490
G1 X-18.414 Y20.636 E6.31551
G1 X-18.958 Y20.364 E6.34731
G1 X-19.054 Y20.341 E6.35242
G1 X-19.707 Y20.341 E6.38658
G1 X-23.608 Y18.165 E6.61992
G1 X-23.694 Y18.026 E6.62848
G1 X-23.780 Y17.947 E6.63457
G1 X-25.206 Y17.232 E6.71791
G1 X-27.449 Y10.482 E7.08957
G1 X-24.429 Y4.456 E7.44171
G1 X-24.410 Y4.316 E7.44908
G1 X-27.047 Y-8.516 E8.13351
G1 X-19.639 Y-11.695 E8.55466
G1 X-18.533 Y-12.003 E8.61461
G1 X-16.890 Y-12.231 E8.70128
G1 X-16.297 Y-12.273 E8.73234
G1 X16.297 Y-12.273 E10.43523
G1 X16.890 Y-12.231 E10.46629
G1 X18.533 Y-12.003 E10.55296
G1 X19.639 Y-11.695 E10.61290
G1 X27.047 Y-8.516 E11.03406
G1 X24.486 Y3.949 E11.69893
G1 X24.492 Y4.059 E11.70469
G1 X24.917 Y5.339 E11.77513
G1 X25.694 Y6.358 E11.84205
G1 X26.664 Y9.667 E12.02222
G1 X26.373 Y12.912 E12.19245
G1 X23.498 Y18.648 E12.52766
G1 X16.747 Y20.891 E12.89932
G1 X15.694 Y20.364 E12.96084
G1 X15.599 Y20.341 E12.96595
G1 X15.135 Y20.341 E12.99021
G1 E9.49021 F1800.00000
G92 E0
G1 X21.000 Y-2.096 F3600.000
G1 X21.991 Y-2.390 F3600.000
G1 X21.956 Y-2.893 F3600.000
G1 X20.028 Y-24.776 F3600.000
G1 X23.000 Y-27.749 F3600.000
G1 X26.568 Y-8.266 F3600.000
G1 E3.50000 F1800.00000
G1 X24.053 Y3.975 E4.15289 F1200.000
G1 X24.059 Y4.085 E4.15865
G1 X24.543 Y5.539 E4.23871
G1 X25.314 Y6.552 E4.30523
G1 X26.240 Y9.709 E4.47709
G1 X25.963 Y12.796 E4.63902
G1 X23.201 Y18.305 E4.96101
G1 X16.780 Y20.439 E5.31454
G1 X15.793 Y19.945 E5.37217
G1 X15.698 Y19.922 E5.37728
G1 X14.603 Y19.922 E5.43452
G1 X14.353 Y20.204 E5.45420
G1 X14.489 Y21.342 E5.51408
G1 X14.557 Y21.522 E5.52411
G1 X14.888 Y23.272 E5.61718
G1 X14.831 Y25.159 E5.71583
G1 X14.395 Y26.887 E5.80891
G1 X12.180 Y31.305 E6.06714
G1 X5.759 Y33.439 E6.42066
G1 X5.332 Y33.225 E6.44560
G1 X5.186 Y33.208 E6.45329
G1 X4.036 Y33.478 E6.51503
G1 X3.895 Y33.477 E6.52238
G1 X3.406 Y33.639 E6.54929
G1 X3.221 Y33.618 E6.55901
G1 X2.555 Y33.839 E6.59569
G1 X1.569 Y33.345 E6.65332
G1 X1.474 Y33.322 E6.65843
G1 X-4.616 Y33.322 E6.97660
G1 X-5.604 Y33.639 E7.03078
G1 X-6.022 Y33.429 E7.05525
G1 X-6.189 Y33.417 E7.06396
G1 X-6.254 Y33.439 E7.06757
G1 X-6.679 Y33.226 E7.09237
G1 X-6.845 Y33.214 E7.10108
G1 X-6.902 Y33.233 E7.10423
G1 X-13.384 Y29.985 E7.48300
G1 X-15.517 Y23.563 E7.83653
G1 X-14.503 Y21.541 E7.95474
G1 X-14.481 Y21.460 E7.95909
G1 X-14.395 Y20.188 E8.02571
G1 X-14.644 Y19.922 E8.04471
G1 X-17.559 Y19.922 E8.19705
G1 X-18.382 Y20.184 E8.24214
G1 X-18.859 Y19.945 E8.27005
G1 X-18.954 Y19.922 E8.27516
G1 X-19.598 Y19.922 E8.30880
G1 X-23.309 Y17.853 E8.53076
G1 X-23.400 Y17.705 E8.53984
G1 X-23.486 Y17.626 E8.54593
G1 X-24.863 Y16.936 E8.62642
G1 X-26.997 Y10.514 E8.97994
G1 X-23.989 Y4.514 E9.33061
G1 X-23.971 Y4.374 E9.33798
G1 X-26.568 Y-8.266 E10.01214
G1 X-19.499 Y-11.299 E10.41399
G1 X-18.448 Y-11.592 E10.47102
G1 X-16.847 Y-11.815 E10.55546
G1 X-16.283 Y-11.854 E10.58501
G1 X16.283 Y-11.854 E12.28638
G1 X16.847 Y-11.815 E12.31592
G1 X18.448 Y-11.592 E12.40038
G1 X19.499 Y-11.299 E12.45740
G1 X26.513 Y-8.290 E12.85611
G1 X26.089 Y-8.016 F3600.000
G1 X23.620 Y4.001 E13.49702 F1200.000
G1 X23.626 Y4.111 E13.50278
G1 X24.168 Y5.739 E13.59245
G1 X24.934 Y6.746 E13.65857
G1 X25.816 Y9.750 E13.82213
G1 X25.553 Y12.679 E13.97575
G1 X22.904 Y17.963 E14.28453
G1 X16.812 Y19.987 E14.61992
G1 X15.892 Y19.526 E14.67367
G1 X15.797 Y19.503 E14.67878
G1 X14.099 Y19.503 E14.76749
G1 X13.848 Y19.849 E14.78979
G1 X13.911 Y20.043 E14.80044
G1 X14.080 Y21.452 E14.87458
G1 X14.154 Y21.644 E14.88536
G1 X14.468 Y23.305 E14.97366
G1 X14.414 Y25.101 E15.06754
G1 X14.000 Y26.740 E15.15584
G1 X11.884 Y30.963 E15.40262
G1 X5.792 Y32.987 E15.73802
G1 X5.384 Y32.783 E15.76182
G1 X5.238 Y32.766 E15.76951
G1 X4.059 Y33.043 E15.83281
G1 X3.898 Y33.034 E15.84119
G1 X3.439 Y33.187 E15.86649
G1 X3.254 Y33.166 E15.87622
G1 X2.588 Y33.387 E15.91289
G1 X1.668 Y32.926 E15.96664
G1 X1.573 Y32.903 E15.97174
G1 X-4.684 Y32.903 E16.29864
G1 X-5.571 Y33.187 E16.34729
G1 X-5.990 Y32.977 E16.37176
G1 X-6.156 Y32.965 E16.38047
G1 X-6.222 Y32.987 E16.38408
G1 X-6.646 Y32.774 E16.40888
G1 X-6.812 Y32.762 E16.41759
G1 X-6.869 Y32.781 E16.42074
G1 X-13.041 Y29.688 E16.78138
G1 X-15.065 Y23.596 E17.11678
G1 X-14.091 Y21.653 E17.23032
G1 X-14.069 Y21.573 E17.23468
G1 X-13.947 Y19.769 E17.32912
G1 X-14.195 Y19.503 E17.34812
G1 X-17.627 Y19.503 E17.52741
G1 X-18.349 Y19.732 E17.56698
G1 X-18.760 Y19.526 E17.59101
G1 X-18.855 Y19.503 E17.59611
G1 X-19.489 Y19.503 E17.62924
G1 X-23.009 Y17.540 E17.83982
G1 X-23.106 Y17.383 E17.84942
G1 X-23.192 Y17.305 E17.85551
G1 X-24.520 Y16.639 E17.93314
G1 X-26.545 Y10.547 E18.26854
G1 X-23.550 Y4.572 E18.61772
G1 X-23.531 Y4.432 E18.62509
G1 X-26.089 Y-8.016 E19.28900
G1 X-19.360 Y-10.903 E19.67154
G1 X-18.362 Y-11.181 E19.72564
G1 X-16.803 Y-11.398 E19.80787
G1 X-16.268 Y-11.435 E19.83589
G1 X16.268 Y-11.435 E21.53576
G1 X16.803 Y-11.398 E21.56378
G1 X18.362 Y-11.181 E21.64602
G1 X19.360 Y-10.903 E21.70011
G1 X26.034 Y-8.040 E22.07951
G1 X25.610 Y-7.766 F3600.000
G1 X23.187 Y4.026 E22.70844 F1200.000
G1 X23.194 Y4.136 E22.71420
G1 X23.793 Y5.940 E22.81348
G1 X24.555 Y6.940 E22.87920
G1 X25.391 Y9.792 E23.03446
G1 X25.142 Y12.562 E23.17978
G1 X22.608 Y17.620 E23.47534
G1 X16.845 Y19.535 E23.79261
G1 X15.992 Y19.107 E23.84246
G1 X15.896 Y19.085 E23.84757
G1 X13.523 Y19.085 E23.97158
G1 X13.272 Y19.430 E23.99388
G1 X13.500 Y20.133 E24.03252
G1 X13.672 Y21.561 E24.10766
G1 X13.751 Y21.767 E24.11919
G1 X14.048 Y23.338 E24.20272
G1 X13.997 Y25.043 E24.29182
G1 X13.605 Y26.593 E24.37535
G1 X11.587 Y30.620 E24.61068
G1 X5.824 Y32.535 E24.92795
G1 X5.436 Y32.340 E24.95061
G1 X5.290 Y32.323 E24.95830
G1 X4.082 Y32.607 E25.02316
G1 X3.902 Y32.592 E25.03259
G1 X3.471 Y32.735 E25.05628
G1 X3.286 Y32.713 E25.06601
G1 X2.620 Y32.935 E25.10268
G1 X1.767 Y32.507 E25.15254
G1 X1.672 Y32.485 E25.15764
G1 X-4.752 Y32.485 E25.49326
G1 X-5.539 Y32.735 E25.53639
G1 X-5.957 Y32.525 E25.56086
G1 X-6.123 Y32.513 E25.56956
G1 X-6.189 Y32.535 E25.57318
G1 X-6.614 Y32.322 E25.59798
G1 X-6.780 Y32.310 E25.60668
G1 X-6.837 Y32.329 E25.60983
G1 X-12.698 Y29.391 E25.95235
G1 X-14.613 Y23.629 E26.26962
G1 X-13.679 Y21.765 E26.37850
G1 X-13.657 Y21.685 E26.38285
G1 X-13.542 Y19.995 E26.47135
G1 X-13.285 Y19.482 E26.50131
G1 X-13.531 Y19.085 E26.52573
G1 X-17.695 Y19.085 E26.74328
G1 X-18.317 Y19.280 E26.77732
G1 X-18.661 Y19.107 E26.79746
G1 X-18.756 Y19.085 E26.80257
G1 X-19.381 Y19.085 E26.83518
G1 X-22.710 Y17.227 E27.03437
G1 X-22.812 Y17.062 E27.04449
G1 X-22.898 Y16.984 E27.05059
G1 X-24.178 Y16.342 E27.12536
G1 X-26.092 Y10.579 E27.44263
G1 X-22.966 Y4.343 E27.80711
G1 X-23.200 Y3.965 E27.83030
G1 X-25.610 Y-7.766 E28.45595
G1 X-19.220 Y-10.507 E28.81918
G1 X-18.277 Y-10.770 E28.87036
G1 X-16.760 Y-10.981 E28.95037
G1 X-16.254 Y-11.016 E28.97688
G1 X16.254 Y-11.016 E30.67523
G1 X16.760 Y-10.981 E30.70174
G1 X18.277 Y-10.770 E30.78175
G1 X19.220 Y-10.507 E30.83292
G1 X25.555 Y-7.789 E31.19302
G1 E27.69302 F1800.00000
G92 E0
G1 X23.000 Y-27.749 F3600.000
G1 X17.791 Y-26.363 F3600.000
G1 X-17.817 Y-26.352 F3600.000
G1 X-21.989 Y-2.424 F3600.000
G1 X-21.998 Y-2.200 F3600.000
G1 X-22.000 Y-2.131 F3600.000
G1 X-22.000 Y-2.096 F3600.000
G1 X-22.288 Y3.924 F3600.000
G1 E3.50000 F1800.00000
G1 X-22.533 Y3.526 E3.52442 F1200.000
G1 X-22.862 Y3.526 E3.54159
G1 X-25.131 Y-7.515 E4.13049
G1 X-19.081 Y-10.111 E4.47441
G1 X-18.191 Y-10.359 E4.52267
G1 X-16.717 Y-10.564 E4.60046
G1 X-16.239 Y-10.597 E4.62545
G1 X16.239 Y-10.597 E6.32228
G1 X16.717 Y-10.564 E6.34728
G1 X18.191 Y-10.359 E6.42508
G1 X19.081 Y-10.111 E6.47332
G1 X25.131 Y-7.515 E6.81725
G1 X22.841 Y3.630 E7.41167
G1 X22.665 Y3.874 E7.42739
G1 X23.418 Y6.140 E7.55215
G1 X24.175 Y7.135 E7.61747
G1 X24.967 Y9.834 E7.76442
G1 X24.732 Y12.446 E7.90144
G1 X22.311 Y17.277 E8.18378
G1 X16.877 Y19.082 E8.48292
G1 X16.091 Y18.688 E8.52889
G1 X15.996 Y18.666 E8.53400
G1 X12.946 Y18.666 E8.69331
G1 X12.695 Y19.011 E8.71561
G1 X13.089 Y20.224 E8.78222
G1 X13.264 Y21.695 E8.85965
G1 X13.348 Y21.890 E8.87072
G1 X13.628 Y23.371 E8.94947
G1 X13.579 Y24.985 E9.03380
G1 X13.210 Y26.446 E9.11256
G1 X11.290 Y30.277 E9.33644
G1 X5.857 Y32.082 E9.63557
G1 X5.488 Y31.898 E9.65711
G1 X5.342 Y31.881 E9.66480
G1 X4.104 Y32.171 E9.73122
G1 X4.044 Y32.150 E9.73458
G1 X3.905 Y32.149 E9.74183
G1 X3.504 Y32.282 E9.76390
G1 X3.319 Y32.261 E9.77363
G1 X2.653 Y32.482 E9.81030
G1 X1.866 Y32.088 E9.85627
G1 X1.771 Y32.066 E9.86138
G1 X-4.820 Y32.066 E10.20571
G1 X-5.506 Y32.282 E10.24332
G1 X-5.925 Y32.073 E10.26779
G1 X-6.091 Y32.061 E10.27649
G1 X-6.157 Y32.082 E10.28011
G1 X-6.581 Y31.870 E10.30491
G1 X-6.747 Y31.858 E10.31361
G1 X-6.804 Y31.877 E10.31676
G1 X-12.355 Y29.095 E10.64115
G1 X-14.161 Y23.661 E10.94028
G1 X-13.267 Y21.878 E11.04450
G1 X-13.245 Y21.797 E11.04886
G1 X-13.130 Y20.107 E11.13735
G1 X-12.607 Y19.063 E11.19837
G1 X-12.852 Y18.666 E11.22278
G1 X-17.763 Y18.666 E11.47932
G1 X-18.284 Y18.828 E11.50784
G1 X-18.562 Y18.688 E11.52409
G1 X-18.657 Y18.666 E11.52919
G1 X-19.272 Y18.666 E11.56130
G1 X-22.411 Y16.914 E11.74911
G1 X-22.518 Y16.741 E11.75975
G1 X-22.604 Y16.662 E11.76584
G1 X-23.835 Y16.045 E11.83776
G1 X-25.640 Y10.612 E12.13690
G1 X-22.315 Y3.977 E12.52462
G1 X-21.398 Y3.620 F3600.000
G1 X-21.614 Y3.107 E12.55369 F1200.000
G1 X-22.521 Y3.107 E12.60105
G1 X-24.652 Y-7.265 E13.15426
G1 X-18.941 Y-9.715 E13.47887
G1 X-18.106 Y-9.948 E13.52420
G1 X-16.673 Y-10.147 E13.59977
G1 X-16.225 Y-10.178 E13.62325
G1 X16.225 Y-10.178 E15.31857
G1 X16.673 Y-10.147 E15.34205
G1 X18.106 Y-9.948 E15.41763
G1 X18.941 Y-9.715 E15.46295
G1 X24.652 Y-7.265 E15.78756
