; generated by Slic3r 1.2.9 on 2016-02-10 at 13:57:37

; external perimeters extrusion width = 0.40mm
; perimeters extrusion width = 0.67mm
; infill extrusion width = 0.67mm
; solid infill extrusion width = 0.67mm
; top infill extrusion width = 0.67mm
; support material extrusion width = 0.40mm

M107
M104 S220 ; set temperature
G28 ; home all axes
G1 X70Y70Z10 F5000 
M109 S220 ; wait for temperature to be reached
G21 ; set units to millimeters
G90 ; use absolute coordinates
M82 ; use absolute distances for extrusion
G92 E0
G1 E-3.50000 F1800.00000
G92 E0
G1 Z0.300 F6000.000
G1 X20.060 Y14.244 F6000.000
G1 E3.50000 F1800.00000
G1 X19.039 Y15.735 E3.59441 F2045.916
G1 X17.359 Y17.590 E3.72516
G1 X16.775 Y18.159 E3.76778
G1 X15.451 Y19.303 E3.85917
G1 X15.019 Y19.646 E3.88800
G1 X13.836 Y20.508 E3.96446
G1 X13.383 Y20.811 E3.99296
G1 X12.301 Y21.471 E4.05916
G1 X10.897 Y22.221 E4.14234
G1 X9.222 Y22.973 E4.23823
G1 X7.964 Y23.444 E4.30843
G1 X6.741 Y23.831 E4.37546
G1 X5.511 Y24.150 E4.44180
G1 X4.380 Y24.380 E4.50214
G1 X3.286 Y24.552 E4.56000
G1 X2.487 Y24.648 E4.60204
G1 X1.443 Y24.737 E4.65676
G1 X0.340 Y24.778 E4.71442
G1 X-0.694 Y24.769 E4.76846
G1 X-1.914 Y24.709 E4.83230
G1 X-2.973 Y24.608 E4.88785
G1 X-4.564 Y24.362 E4.97198
G1 X-5.476 Y24.178 E5.02057
G1 X-6.476 Y23.926 E5.07444
G1 X-7.545 Y23.613 E5.13264
G1 X-8.487 Y23.293 E5.18459
G1 X-9.898 Y22.729 E5.26400
G1 X-11.013 Y22.210 E5.32829
G1 X-12.349 Y21.498 E5.40736
G1 X-13.212 Y20.976 E5.46006
G1 X-14.111 Y20.380 E5.51643
G1 X-14.966 Y19.766 E5.57142
G1 X-16.186 Y18.771 E5.65364
G1 X-17.131 Y17.919 E5.72015
G1 X-17.773 Y17.273 E5.76772
G1 X-18.884 Y16.053 E5.85393
G1 X-19.576 Y15.194 E5.91154
G1 X-20.316 Y14.182 E5.97704
G1 X-20.898 Y13.311 E6.03178
G1 X-21.497 Y12.319 E6.09229
G1 X-22.017 Y11.349 E6.14983
G1 X-22.515 Y10.316 E6.20972
G1 X-22.985 Y9.214 E6.27234
G1 X-23.422 Y8.031 E6.33819
G1 X-23.818 Y6.757 E6.40789
G1 X-24.162 Y5.377 E6.48220
G1 X-24.373 Y4.299 E6.53958
G1 X-24.596 Y2.682 E6.62490
G1 X-24.639 Y2.222 E6.64900
G1 X-24.718 Y0.882 E6.71913
G1 X-24.728 Y0.366 E6.74611
G1 X-24.700 Y-1.189 E6.82736
G1 X-24.655 Y-1.851 E6.86205
G1 X-24.423 Y-3.813 E6.96522
G1 X-24.219 Y-4.838 E7.01987
G1 X-23.255 Y-8.260 E7.20560
G1 X-22.797 Y-9.441 E7.27175
G1 X-21.208 Y-12.612 E7.45710
G1 X-20.536 Y-13.685 E7.52322
G1 X-18.371 Y-16.506 E7.70902
G1 X-17.670 Y-17.285 E7.76375
G1 X-16.238 Y-18.644 E7.86687
G1 X-15.739 Y-19.073 E7.90128
G1 X-14.509 Y-20.028 E7.98263
G1 X-14.084 Y-20.333 E8.00996
G1 X-12.963 Y-21.070 E8.08004
G1 X-11.524 Y-21.899 E8.16682
G1 X-11.142 Y-22.099 E8.18933
G1 X-9.786 Y-22.738 E8.26766
G1 X-8.492 Y-23.256 E8.34047
G1 X-7.253 Y-23.675 E8.40878
G1 X-6.063 Y-24.010 E8.47338
G1 X-4.916 Y-24.274 E8.53488
G1 X-3.808 Y-24.478 E8.59376
G1 X-2.617 Y-24.640 E8.65652
G1 X-1.570 Y-24.726 E8.71145
G1 X-0.557 Y-24.770 E8.76438
G1 X0.468 Y-24.777 E8.81797
G1 X1.554 Y-24.736 E8.87473
G1 X3.197 Y-24.577 E8.96096
G1 X4.480 Y-24.382 E9.02876
G1 X6.018 Y-24.045 E9.11104
G1 X6.889 Y-23.816 E9.15807
G1 X8.043 Y-23.447 E9.22139
G1 X9.534 Y-22.886 E9.30463
G1 X10.670 Y-22.367 E9.36985
G1 X11.914 Y-21.737 E9.44272
G1 X12.860 Y-21.192 E9.49973
G1 X13.855 Y-20.559 E9.56137
G1 X15.144 Y-19.622 E9.64462
G1 X16.102 Y-18.850 E9.70887
G1 X16.782 Y-18.240 E9.75663
G1 X17.932 Y-17.113 E9.84074
G1 X18.657 Y-16.313 E9.89716
G1 X19.426 Y-15.383 E9.96018
G1 X20.061 Y-14.548 E10.01501
G1 X20.679 Y-13.650 E10.07196
G1 X21.233 Y-12.761 E10.12668
G1 X21.769 Y-11.819 E10.18330
G1 X22.284 Y-10.817 E10.24215
G1 X22.798 Y-9.687 E10.30704
G1 X23.244 Y-8.542 E10.37123
G1 X23.652 Y-7.316 E10.43871
G1 X24.016 Y-5.996 E10.51024
G1 X24.323 Y-4.567 E10.58663
G1 X24.562 Y-3.001 E10.66938
G1 X24.682 Y-1.742 E10.73547
G1 X24.711 Y-1.187 E10.76451
G1 X24.728 Y0.278 E10.84103
G1 X24.712 Y0.824 E10.86956
G1 X24.589 Y2.567 E10.96086
G1 X24.481 Y3.380 E11.00370
G1 X24.000 Y5.838 E11.13456
G1 X23.417 Y7.547 E11.22889
G1 X20.087 Y14.190 E11.61715
G1 X19.685 Y14.056 F6000.000
G1 X18.729 Y15.454 E11.70563 F2045.916
G1 X17.048 Y17.308 E11.83638
G1 X16.501 Y17.842 E11.87633
G1 X15.177 Y18.986 E11.96772
G1 X14.772 Y19.307 E11.99474
G1 X13.589 Y20.169 E12.07120
G1 X13.164 Y20.453 E12.09791
G1 X12.083 Y21.113 E12.16411
G1 X10.703 Y21.850 E12.24584
G1 X9.073 Y22.582 E12.33918
G1 X7.835 Y23.046 E12.40824
G1 X6.632 Y23.427 E12.47416
G1 X5.426 Y23.740 E12.53928
G1 X4.312 Y23.966 E12.59864
G1 X3.236 Y24.136 E12.65558
G1 X2.437 Y24.232 E12.69762
G1 X1.410 Y24.319 E12.75148
G1 X0.328 Y24.359 E12.80802
G1 X-0.688 Y24.350 E12.86112
G1 X-1.878 Y24.292 E12.92335
G1 X-2.915 Y24.193 E12.97779
G1 X-4.494 Y23.949 E13.06126
G1 X-5.391 Y23.768 E13.10908
G1 X-6.370 Y23.521 E13.16182
G1 X-7.413 Y23.216 E13.21861
G1 X-8.336 Y22.903 E13.26952
G1 X-9.737 Y22.342 E13.34836
G1 X-10.821 Y21.838 E13.41081
G1 X-12.147 Y21.131 E13.48933
G1 X-12.992 Y20.619 E13.54093
G1 X-13.870 Y20.037 E13.59598
G1 X-14.706 Y19.437 E13.64975
G1 X-15.917 Y18.450 E13.73132
G1 X-16.835 Y17.622 E13.79593
G1 X-17.468 Y16.986 E13.84283
G1 X-18.570 Y15.776 E13.92835
G1 X-19.248 Y14.934 E13.98478
G1 X-19.969 Y13.947 E14.04864
G1 X-20.541 Y13.091 E14.10247
G1 X-21.129 Y12.120 E14.16177
G1 X-21.641 Y11.165 E14.21838
G1 X-22.130 Y10.149 E14.27727
G1 X-22.593 Y9.066 E14.33883
G1 X-23.023 Y7.904 E14.40355
G1 X-23.412 Y6.652 E14.47202
G1 X-23.751 Y5.297 E14.54502
G1 X-23.962 Y4.219 E14.60240
G1 X-24.180 Y2.628 E14.68630
G1 X-24.221 Y2.197 E14.70889
G1 X-24.300 Y0.858 E14.77902
G1 X-24.310 Y0.373 E14.80431
G1 X-24.281 Y-1.181 E14.88555
G1 X-24.239 Y-1.802 E14.91807
G1 X-24.007 Y-3.763 E15.02124
G1 X-23.816 Y-4.725 E15.07246
G1 X-22.852 Y-8.147 E15.25819
G1 X-22.423 Y-9.253 E15.32019
G1 X-20.833 Y-12.425 E15.50553
G1 X-20.204 Y-13.430 E15.56751
G1 X-18.039 Y-16.251 E15.75331
G1 X-17.382 Y-16.981 E15.80460
G1 X-15.950 Y-18.340 E15.90773
G1 X-15.482 Y-18.742 E15.93998
G1 X-14.252 Y-19.697 E16.02133
G1 X-13.853 Y-19.983 E16.04694
G1 X-12.733 Y-20.720 E16.11702
G1 X-11.318 Y-21.534 E16.20230
G1 X-10.960 Y-21.721 E16.22339
G1 X-9.627 Y-22.350 E16.30041
G1 X-8.355 Y-22.860 E16.37199
G1 X-7.137 Y-23.272 E16.43916
G1 X-5.967 Y-23.602 E16.50270
G1 X-4.838 Y-23.862 E16.56322
G1 X-3.747 Y-24.063 E16.62117
G1 X-2.581 Y-24.223 E16.68268
G1 X-1.550 Y-24.308 E16.73674
G1 X-0.553 Y-24.351 E16.78888
G1 X0.456 Y-24.358 E16.84158
G1 X1.520 Y-24.319 E16.89720
G1 X3.150 Y-24.160 E16.98274
G1 X4.396 Y-23.971 E17.04860
G1 X5.923 Y-23.637 E17.13027
G1 X6.780 Y-23.411 E17.17659
G1 X7.903 Y-23.052 E17.23816
G1 X9.380 Y-22.496 E17.32060
G1 X10.482 Y-21.992 E17.38393
G1 X11.724 Y-21.364 E17.45663
G1 X12.646 Y-20.832 E17.51227
G1 X13.615 Y-20.216 E17.57225
G1 X14.892 Y-19.288 E17.65474
G1 X15.823 Y-18.537 E17.71721
G1 X16.493 Y-17.936 E17.76424
G1 X17.634 Y-16.818 E17.84770
G1 X18.344 Y-16.034 E17.90295
G1 X19.094 Y-15.128 E17.96442
G1 X19.718 Y-14.307 E18.01826
G1 X20.325 Y-13.427 E18.07413
G1 X20.870 Y-12.552 E18.12799
G1 X21.397 Y-11.625 E18.18370
G1 X21.904 Y-10.640 E18.24157
G1 X22.409 Y-9.532 E18.30519
G1 X22.848 Y-8.407 E18.36830
G1 X23.249 Y-7.202 E18.43463
G1 X23.607 Y-5.905 E18.50493
G1 X23.910 Y-4.500 E18.58001
G1 X24.145 Y-2.961 E18.66133
G1 X24.265 Y-1.702 E18.72742
G1 X24.292 Y-1.182 E18.75464
G1 X24.309 Y0.283 E18.83116
G1 X24.294 Y0.794 E18.85790
G1 X24.171 Y2.537 E18.94920
G1 X24.070 Y3.299 E18.98936
G1 X23.589 Y5.757 E19.12021
G1 X23.042 Y7.359 E19.20863
G1 X19.712 Y14.003 E19.59688
G1 X19.311 Y13.869 F6000.000
G1 X18.418 Y15.172 E19.67944 F2045.916
G1 X16.738 Y17.027 E19.81019
G1 X16.227 Y17.525 E19.84746
G1 X14.903 Y18.669 E19.93885
G1 X14.526 Y18.969 E19.96406
G1 X13.343 Y19.831 E20.04052
G1 X12.946 Y20.096 E20.06544
G1 X11.864 Y20.756 E20.13165
G1 X10.509 Y21.479 E20.21191
G1 X8.923 Y22.191 E20.30272
G1 X7.706 Y22.647 E20.37064
G1 X6.524 Y23.022 E20.43543
G1 X5.340 Y23.330 E20.49933
G1 X4.245 Y23.553 E20.55772
G1 X3.186 Y23.720 E20.61375
G1 X2.387 Y23.816 E20.65579
G1 X1.376 Y23.902 E20.70879
G1 X0.316 Y23.940 E20.76421
G1 X-0.682 Y23.932 E20.81635
G1 X-1.841 Y23.875 E20.87699
G1 X-2.857 Y23.778 E20.93031
G1 X-4.424 Y23.536 E21.01313
G1 X-5.307 Y23.357 E21.06017
G1 X-6.264 Y23.116 E21.11178
G1 X-7.282 Y22.818 E21.16715
G1 X-8.186 Y22.512 E21.21703
G1 X-9.577 Y21.956 E21.29531
G1 X-10.629 Y21.466 E21.35593
G1 X-11.946 Y20.764 E21.43388
G1 X-12.772 Y20.263 E21.48439
G1 X-13.629 Y19.695 E21.53811
G1 X-14.447 Y19.108 E21.59066
G1 X-15.647 Y18.130 E21.67158
G1 X-16.539 Y17.326 E21.73429
G1 X-17.163 Y16.698 E21.78053
G1 X-18.256 Y15.498 E21.86535
G1 X-18.919 Y14.674 E21.92059
G1 X-19.622 Y13.713 E21.98282
G1 X-20.185 Y12.871 E22.03574
G1 X-20.761 Y11.920 E22.09383
G1 X-21.265 Y10.981 E22.14952
G1 X-21.746 Y9.982 E22.20742
G1 X-22.201 Y8.917 E22.26792
G1 X-22.624 Y7.776 E22.33149
G1 X-23.007 Y6.547 E22.39874
G1 X-23.340 Y5.217 E22.47042
G1 X-23.551 Y4.139 E22.52780
G1 X-23.765 Y2.574 E22.61029
G1 X-23.802 Y2.173 E22.63137
G1 X-23.882 Y0.833 E22.70149
G1 X-23.891 Y0.381 E22.72509
G1 X-23.862 Y-1.174 E22.80634
G1 X-23.823 Y-1.753 E22.83667
G1 X-23.591 Y-3.714 E22.93985
G1 X-23.413 Y-4.611 E22.98764
G1 X-22.448 Y-8.033 E23.17336
G1 X-22.048 Y-9.065 E23.23121
G1 X-20.459 Y-12.237 E23.41656
G1 X-19.871 Y-13.175 E23.47439
G1 X-17.706 Y-15.996 E23.66018
G1 X-17.093 Y-16.677 E23.70804
G1 X-15.661 Y-18.036 E23.81117
G1 X-15.225 Y-18.411 E23.84126
G1 X-13.995 Y-19.367 E23.92261
G1 X-13.623 Y-19.633 E23.94651
G1 X-12.503 Y-20.370 E24.01659
G1 X-11.113 Y-21.170 E24.10036
G1 X-9.468 Y-21.963 E24.19573
G1 X-8.219 Y-22.464 E24.26609
G1 X-7.021 Y-22.870 E24.33212
G1 X-5.870 Y-23.194 E24.39460
G1 X-4.760 Y-23.451 E24.45413
G1 X-3.687 Y-23.649 E24.51115
G1 X-2.544 Y-23.805 E24.57141
G1 X-1.530 Y-23.889 E24.62461
G1 X-0.548 Y-23.933 E24.67595
G1 X0.444 Y-23.939 E24.72776
G1 X1.486 Y-23.901 E24.78225
G1 X3.103 Y-23.744 E24.86709
G1 X4.312 Y-23.561 E24.93102
G1 X5.828 Y-23.229 E25.01206
G1 X6.672 Y-23.006 E25.05768
G1 X7.762 Y-22.657 E25.11751
G1 X9.225 Y-22.107 E25.19914
G1 X10.294 Y-21.618 E25.26059
G1 X11.533 Y-20.991 E25.33311
G1 X12.432 Y-20.471 E25.38738
G1 X13.375 Y-19.873 E25.44570
G1 X14.640 Y-18.953 E25.52743
G1 X15.545 Y-18.224 E25.58812
G1 X16.205 Y-17.633 E25.63444
G1 X17.337 Y-16.523 E25.71724
G1 X18.031 Y-15.756 E25.77132
G1 X18.762 Y-14.872 E25.83124
G1 X19.375 Y-14.067 E25.88407
G1 X19.970 Y-13.204 E25.93888
G1 X20.507 Y-12.343 E25.99187
G1 X21.026 Y-11.432 E26.04667
G1 X21.524 Y-10.463 E26.10356
G1 X22.019 Y-9.377 E26.16592
G1 X22.451 Y-8.271 E26.22794
G1 X22.846 Y-7.088 E26.29313
G1 X23.198 Y-5.813 E26.36220
G1 X23.496 Y-4.433 E26.43597
G1 X23.728 Y-2.922 E26.51586
G1 X23.848 Y-1.663 E26.58195
G1 X23.873 Y-1.177 E26.60734
G1 X23.890 Y0.287 E26.68386
G1 X23.876 Y0.765 E26.70881
G1 X23.753 Y2.508 E26.80012
G1 X23.659 Y3.219 E26.83758
G1 X23.178 Y5.677 E26.96844
G1 X22.668 Y7.171 E27.05093
G1 X19.338 Y13.815 E27.43918
G1 X18.936 Y13.681 F6000.000
G1 X18.108 Y14.891 E27.51582 F2045.916
G1 X16.427 Y16.746 E27.64657
G1 X15.954 Y17.208 E27.68117
G1 X14.630 Y18.352 E27.77256
G1 X14.279 Y18.630 E27.79596
G1 X13.096 Y19.492 E27.87242
G1 X12.728 Y19.738 E27.89555
G1 X11.646 Y20.398 E27.96176
G1 X10.315 Y21.107 E28.04057
G1 X8.773 Y21.799 E28.12884
G1 X7.577 Y22.249 E28.19561
G1 X6.415 Y22.617 E28.25928
G1 X5.254 Y22.920 E28.32197
G1 X4.178 Y23.139 E28.37937
G1 X3.136 Y23.304 E28.43449
G1 X2.337 Y23.400 E28.47653
G1 X1.342 Y23.484 E28.52867
G1 X0.304 Y23.522 E28.58297
G1 X-0.676 Y23.513 E28.63417
G1 X-1.805 Y23.457 E28.69320
G1 X-2.800 Y23.363 E28.74540
G1 X-4.354 Y23.123 E28.82757
G1 X-5.222 Y22.947 E28.87384
G1 X-6.159 Y22.710 E28.92432
G1 X-7.150 Y22.420 E28.97828
G1 X-8.035 Y22.121 E29.02712
G1 X-9.416 Y21.569 E29.10483
G1 X-10.437 Y21.094 E29.16361
G1 X-11.744 Y20.397 E29.24101
G1 X-12.552 Y19.906 E29.29042
G1 X-13.388 Y19.352 E29.34282
G1 X-14.187 Y18.780 E29.39414
G1 X-15.378 Y17.809 E29.47441
G1 X-16.243 Y17.030 E29.53523
G1 X-16.858 Y16.411 E29.58080
G1 X-17.942 Y15.221 E29.66493
G1 X-18.590 Y14.415 E29.71899
G1 X-19.275 Y13.478 E29.77958
G1 X-19.828 Y12.651 E29.83159
G1 X-20.393 Y11.720 E29.88847
G1 X-20.888 Y10.796 E29.94323
G1 X-21.362 Y9.816 E30.00014
G1 X-21.809 Y8.769 E30.05957
G1 X-22.225 Y7.649 E30.12201
G1 X-22.601 Y6.443 E30.18803
G1 X-22.929 Y5.136 E30.25840
G1 X-23.140 Y4.058 E30.31578
G1 X-23.349 Y2.521 E30.39685
G1 X-23.384 Y2.148 E30.41642
G1 X-23.472 Y0.389 E30.50843
G1 X-23.444 Y-1.166 E30.58968
G1 X-23.407 Y-1.704 E30.61784
G1 X-23.175 Y-3.665 E30.72101
G1 X-23.009 Y-4.498 E30.76537
G1 X-22.045 Y-7.919 E30.95110
G1 X-21.674 Y-8.878 E31.00480
G1 X-20.084 Y-12.049 E31.19015
G1 X-19.539 Y-12.920 E31.24383
G1 X-17.374 Y-15.741 E31.42962
G1 X-16.805 Y-16.373 E31.47405
G1 X-15.373 Y-17.732 E31.57717
G1 X-14.968 Y-18.080 E31.60510
G1 X-13.738 Y-19.036 E31.68645
G1 X-13.393 Y-19.283 E31.70863
G1 X-12.272 Y-20.020 E31.77872
G1 X-10.907 Y-20.805 E31.86098
G1 X-9.310 Y-21.575 E31.95362
G1 X-8.082 Y-22.069 E32.02276
G1 X-6.905 Y-22.467 E32.08766
G1 X-5.774 Y-22.787 E32.14908
G1 X-4.683 Y-23.039 E32.20761
G1 X-3.627 Y-23.234 E32.26371
G1 X-2.508 Y-23.388 E32.32271
G1 X-1.510 Y-23.471 E32.37505
G1 X-0.543 Y-23.514 E32.42559
G1 X0.432 Y-23.520 E32.47652
G1 X1.452 Y-23.484 E32.52987
G1 X3.055 Y-23.328 E32.61402
G1 X4.229 Y-23.151 E32.67601
G1 X5.732 Y-22.822 E32.75643
G1 X6.563 Y-22.602 E32.80134
G1 X7.622 Y-22.263 E32.85942
G1 X9.070 Y-21.718 E32.94026
G1 X10.107 Y-21.243 E32.99982
G1 X11.342 Y-20.618 E33.07217
G1 X12.219 Y-20.111 E33.12507
G1 X13.135 Y-19.530 E33.18173
G1 X14.388 Y-18.619 E33.26269
G1 X15.266 Y-17.911 E33.32160
G1 X15.916 Y-17.329 E33.36720
G1 X17.039 Y-16.229 E33.44935
G1 X17.718 Y-15.477 E33.50225
G1 X18.430 Y-14.616 E33.56063
G1 X19.031 Y-13.827 E33.61246
G1 X19.616 Y-12.981 E33.66620
G1 X20.144 Y-12.134 E33.71833
G1 X20.655 Y-11.238 E33.77221
G1 X21.145 Y-10.286 E33.82812
G1 X21.630 Y-9.223 E33.88922
G1 X22.055 Y-8.136 E33.95016
G1 X22.443 Y-6.974 E34.01420
G1 X22.790 Y-5.722 E34.08205
G1 X23.083 Y-4.367 E34.15450
G1 X23.311 Y-2.882 E34.23296
G1 X23.431 Y-1.623 E34.29905
G1 X23.455 Y-1.172 E34.32262
G1 X23.471 Y0.292 E34.39914
G1 X23.458 Y0.735 E34.42230
G1 X23.335 Y2.479 E34.51360
G1 X23.248 Y3.138 E34.54838
G1 X22.767 Y5.596 E34.67923
G1 X22.293 Y6.984 E34.75581
G1 X18.963 Y13.627 E35.14406
G1 E31.64406 F1800.00000
G92 E0
G1 X3.366 Y-4.964 F6000.000
G1 E3.50000 F1800.00000
G1 X3.883 Y-4.571 E3.53393 F2045.916
G1 X4.354 Y-4.125 E3.56786
G1 X4.775 Y-3.630 E3.60178
G1 X5.139 Y-3.092 E3.63571
G1 X5.443 Y-2.518 E3.66964
G1 X5.684 Y-1.915 E3.70357
G1 X5.857 Y-1.289 E3.73750
G1 X5.962 Y-0.648 E3.77143
G1 X5.998 Y0.000 E3.80535
G1 X5.962 Y0.648 E3.83928
G1 X5.857 Y1.289 E3.87321
G1 X5.684 Y1.915 E3.90714
G1 X5.443 Y2.518 E3.94107
G1 X5.139 Y3.092 E3.97499
G1 X4.775 Y3.630 E4.00892
G1 X4.354 Y4.125 E4.04285
G1 X3.883 Y4.571 E4.07678
G1 X3.366 Y4.964 E4.11071
G1 X2.809 Y5.299 E4.14463
G1 X2.220 Y5.572 E4.17856
G1 X1.605 Y5.779 E4.21249
G1 X0.970 Y5.919 E4.24642
G1 X0.325 Y5.989 E4.28035
G1 X-0.325 Y5.989 E4.31428
G1 X-0.974 Y5.918 E4.34840
G1 X-1.647 Y5.765 E4.38444
G1 X-2.220 Y5.572 E4.41605
G1 X-2.809 Y5.299 E4.44998
G1 X-3.366 Y4.964 E4.48391
G1 X-3.883 Y4.571 E4.51783
G1 X-4.354 Y4.125 E4.55176
G1 X-4.775 Y3.630 E4.58569
G1 X-5.139 Y3.092 E4.61962
G1 X-5.443 Y2.518 E4.65355
G1 X-5.684 Y1.915 E4.68747
G1 X-5.858 Y1.286 E4.72160
G1 X-5.965 Y0.604 E4.75764
G1 X-5.998 Y0.000 E4.78925
G1 X-5.962 Y-0.648 E4.82318
G1 X-5.857 Y-1.289 E4.85710
G1 X-5.684 Y-1.915 E4.89103
G1 X-5.443 Y-2.518 E4.92496
G1 X-5.139 Y-3.092 E4.95889
G1 X-4.775 Y-3.630 E4.99282
G1 X-4.354 Y-4.125 E5.02674
G1 X-3.883 Y-4.571 E5.06067
G1 X-3.363 Y-4.966 E5.09480
G1 X-2.769 Y-5.318 E5.13084
G1 X-2.220 Y-5.572 E5.16245
G1 X-1.605 Y-5.779 E5.19637
G1 X-0.970 Y-5.919 E5.23030
G1 X-0.325 Y-5.989 E5.26423
G1 X0.325 Y-5.989 E5.29816
G1 X0.970 Y-5.919 E5.33209
G1 X1.605 Y-5.779 E5.36601
G1 X2.220 Y-5.572 E5.39994
G1 X2.809 Y-5.299 E5.43387
G1 X3.314 Y-4.995 E5.46466
G1 X3.130 Y-4.617 F6000.000
G1 X3.611 Y-4.251 E5.49622 F2045.916
G1 X4.050 Y-3.836 E5.52777
G1 X4.441 Y-3.376 E5.55933
G1 X4.780 Y-2.876 E5.59088
G1 X5.063 Y-2.342 E5.62244
G1 X5.286 Y-1.781 E5.65399
