; generated by Slic3r 1.2.9 on 2016-02-10 at 13:49:53

; external perimeters extrusion width = 0.40mm
; perimeters extrusion width = 0.67mm
; infill extrusion width = 0.67mm
; solid infill extrusion width = 0.67mm
; top infill extrusion width = 0.67mm
; support material extrusion width = 0.40mm

M107
M104 S220 ; set temperature
G28 ; home all axes
G1 X70Y70Z10 F5000 
M109 S220 ; wait for temperature to be reached
G21 ; set units to millimeters
G90 ; use absolute coordinates
M82 ; use absolute distances for extrusion
G92 E0
G1 E-3.50000 F1800.00000
G92 E0
G1 Z0.300 F6000.000
G1 X-19.131 Y-15.257 F6000.000
G1 E3.50000 F1800.00000
G1 X-17.695 Y-17.168 E3.62490 F2045.916
G1 X-16.296 Y-18.462 E3.72443
G1 X-14.698 Y-19.771 E3.83237
G1 X-14.211 Y-20.130 E3.86395
G1 X-13.082 Y-20.884 E3.93488
G1 X-11.686 Y-21.716 E4.01981
G1 X-11.105 Y-22.019 E4.05401
G1 X-10.129 Y-22.469 E4.11019
G1 X-8.965 Y-22.961 E4.17621
G1 X-7.773 Y-23.408 E4.24273
G1 X-6.597 Y-23.790 E4.30730
G1 X-5.871 Y-23.978 E4.34650
G1 X-4.203 Y-24.309 E4.43535
G1 X-3.778 Y-24.380 E4.45785
G1 X-2.083 Y-24.592 E4.54712
G1 X-1.517 Y-24.635 E4.57677
G1 X0.086 Y-24.678 E4.66051
G1 X1.959 Y-24.617 E4.75843
G1 X2.662 Y-24.552 E4.79532
G1 X4.065 Y-24.346 E4.86943
G1 X5.764 Y-24.017 E4.95980
G1 X6.757 Y-23.775 E5.01323
G1 X7.438 Y-23.565 E5.05048
G1 X9.432 Y-22.817 E5.16168
G1 X11.039 Y-22.091 E5.25383
G1 X11.531 Y-21.839 E5.28275
G1 X12.701 Y-21.177 E5.35298
G1 X13.107 Y-20.928 E5.37785
G1 X14.234 Y-20.179 E5.44850
G1 X14.673 Y-19.861 E5.47687
G1 X15.750 Y-19.012 E5.54848
G1 X16.101 Y-18.715 E5.57252
G1 X17.691 Y-17.255 E5.68528
G1 X18.309 Y-16.601 E5.73233
G1 X19.787 Y-14.754 E5.85590
G1 X20.095 Y-14.331 E5.88323
G1 X20.953 Y-13.047 E5.96392
G1 X21.270 Y-12.522 E5.99594
G1 X22.111 Y-10.929 E6.09007
G1 X22.556 Y-10.009 E6.14349
G1 X22.803 Y-9.425 E6.17658
G1 X23.122 Y-8.563 E6.22463
G1 X23.589 Y-7.175 E6.30114
G1 X24.129 Y-5.257 E6.40522
G1 X24.348 Y-4.102 E6.46664
G1 X24.587 Y-1.454 E6.60557
G1 X24.609 Y-0.933 E6.63280
G1 X24.615 Y0.554 E6.71046
G1 X24.591 Y1.153 E6.74179
G1 X24.435 Y2.962 E6.83665
G1 X24.305 Y3.816 E6.88181
G1 X23.723 Y6.476 E7.02406
G1 X23.170 Y8.039 E7.11071
G1 X20.295 Y13.775 E7.44589
G1 X19.370 Y15.158 E7.53280
G1 X17.591 Y17.209 E7.67463
G1 X16.971 Y17.835 E7.72067
G1 X15.622 Y19.028 E7.81476
G1 X15.169 Y19.395 E7.84521
G1 X13.976 Y20.277 E7.92276
G1 X13.556 Y20.564 E7.94934
G1 X12.172 Y21.423 E8.03442
G1 X11.128 Y22.008 E8.09692
G1 X10.545 Y22.298 E8.13099
G1 X9.265 Y22.849 E8.20376
G1 X7.368 Y23.558 E8.30959
G1 X6.639 Y23.780 E8.34938
G1 X5.504 Y24.051 E8.41034
G1 X3.713 Y24.388 E8.50558
G1 X2.747 Y24.539 E8.55665
G1 X2.139 Y24.604 E8.58860
G1 X1.364 Y24.652 E8.62915
G1 X0.309 Y24.676 E8.68429
G1 X-1.438 Y24.649 E8.77559
G1 X-2.398 Y24.598 E8.82582
G1 X-3.223 Y24.500 E8.86921
G1 X-4.598 Y24.248 E8.94226
G1 X-6.064 Y23.957 E9.02031
G1 X-6.836 Y23.755 E9.06200
G1 X-7.717 Y23.462 E9.11053
G1 X-9.272 Y22.881 E9.19726
G1 X-10.511 Y22.357 E9.26755
G1 X-11.523 Y21.863 E9.32636
G1 X-11.998 Y21.598 E9.35478
G1 X-13.370 Y20.752 E9.43899
G1 X-14.495 Y20.000 E9.50968
G1 X-15.057 Y19.580 E9.54637
G1 X-16.377 Y18.470 E9.63646
G1 X-17.403 Y17.521 E9.70948
G1 X-18.129 Y16.794 E9.76315
G1 X-18.612 Y16.246 E9.80129
G1 X-19.673 Y14.893 E9.89113
G1 X-20.604 Y13.607 E9.97408
G1 X-20.999 Y12.985 E10.01259
G1 X-21.791 Y11.570 E10.09732
G1 X-22.005 Y11.155 E10.12169
G1 X-22.753 Y9.551 E10.21418
G1 X-22.994 Y8.955 E10.24775
G1 X-23.927 Y6.227 E10.39835
G1 X-24.234 Y4.870 E10.47108
G1 X-24.521 Y2.446 E10.59859
G1 X-24.626 Y0.622 E10.69404
G1 X-24.631 Y0.102 E10.72120
G1 X-24.559 Y-1.905 E10.82614
G1 X-24.391 Y-3.740 E10.92239
G1 X-23.711 Y-6.120 E11.05170
G1 X-19.158 Y-15.204 E11.58257
G1 X-18.757 Y-15.070 F6000.000
G1 X-17.410 Y-16.861 E11.69963 F2045.916
G1 X-15.697 Y-18.426 E11.82089
G1 X-14.435 Y-19.446 E11.90565
G1 X-13.978 Y-19.781 E11.93525
G1 X-12.849 Y-20.536 E12.00618
G1 X-11.474 Y-21.354 E12.08982
G1 X-10.930 Y-21.638 E12.12188
G1 X-9.953 Y-22.089 E12.17805
G1 X-8.803 Y-22.575 E12.24331
G1 X-7.628 Y-23.015 E12.30888
G1 X-6.470 Y-23.391 E12.37247
G1 X-5.789 Y-23.567 E12.40921
G1 X-4.121 Y-23.899 E12.49806
G1 X-3.723 Y-23.964 E12.51915
G1 X-2.033 Y-24.177 E12.60811
G1 X-1.503 Y-24.217 E12.63590
G1 X0.094 Y-24.259 E12.71937
G1 X1.942 Y-24.198 E12.81598
G1 X2.601 Y-24.137 E12.85055
G1 X4.005 Y-23.932 E12.92465
G1 X5.682 Y-23.606 E13.01391
G1 X6.655 Y-23.369 E13.06625
G1 X7.293 Y-23.172 E13.10116
G1 X9.280 Y-22.427 E13.21203
G1 X10.863 Y-21.711 E13.30280
G1 X11.325 Y-21.474 E13.32990
G1 X12.875 Y-20.579 E13.42342
G1 X14.002 Y-19.831 E13.49408
G1 X14.414 Y-19.532 E13.52066
G1 X15.490 Y-18.684 E13.59227
G1 X15.820 Y-18.405 E13.61481
G1 X17.406 Y-16.948 E13.72736
G1 X17.986 Y-16.334 E13.77146
G1 X19.458 Y-14.495 E13.89454
G1 X19.747 Y-14.098 E13.92015
G1 X20.605 Y-12.814 E14.00084
G1 X20.901 Y-12.323 E14.03085
G1 X21.738 Y-10.738 E14.12449
G1 X22.179 Y-9.827 E14.17734
G1 X22.410 Y-9.280 E14.20835
G1 X22.729 Y-8.418 E14.25640
G1 X23.186 Y-7.061 E14.33120
G1 X23.726 Y-5.144 E14.43527
G1 X23.931 Y-4.061 E14.49284
G1 X24.170 Y-1.419 E14.63141
G1 X24.191 Y-0.931 E14.65693
G1 X24.196 Y0.555 E14.73459
G1 X24.173 Y1.117 E14.76395
G1 X24.017 Y2.926 E14.85881
G1 X23.896 Y3.727 E14.90113
G1 X23.314 Y6.386 E15.04338
G1 X22.795 Y7.852 E15.12460
G1 X19.920 Y13.587 E15.45978
G1 X19.054 Y14.883 E15.54123
G1 X17.275 Y16.934 E15.68307
G1 X16.694 Y17.521 E15.72622
G1 X15.345 Y18.714 E15.82031
G1 X14.920 Y19.058 E15.84885
G1 X13.727 Y19.941 E15.92639
G1 X13.333 Y20.210 E15.95131
G1 X11.968 Y21.058 E16.03529
G1 X10.924 Y21.642 E16.09779
G1 X10.377 Y21.914 E16.12973
G1 X9.117 Y22.457 E16.20137
G1 X7.223 Y23.165 E16.30702
G1 X6.540 Y23.373 E16.34432
G1 X5.422 Y23.640 E16.40434
G1 X3.639 Y23.976 E16.49914
G1 X2.683 Y24.125 E16.54970
G1 X2.113 Y24.186 E16.57965
G1 X1.339 Y24.234 E16.62020
G1 X0.302 Y24.257 E16.67435
G1 X-1.429 Y24.230 E16.76481
G1 X-2.375 Y24.180 E16.81429
G1 X-3.148 Y24.088 E16.85495
G1 X-4.523 Y23.836 E16.92800
G1 X-5.982 Y23.546 E17.00572
G1 X-6.705 Y23.357 E17.04479
G1 X-7.572 Y23.069 E17.09250
G1 X-9.109 Y22.495 E17.17822
G1 X-10.348 Y21.971 E17.24851
G1 X-11.334 Y21.489 E17.30583
G1 X-11.779 Y21.241 E17.33246
G1 X-13.137 Y20.404 E17.41581
G1 X-14.262 Y19.652 E17.48649
G1 X-14.789 Y19.258 E17.52088
G1 X-16.093 Y18.162 E17.60985
G1 X-17.119 Y17.214 E17.68286
G1 X-17.830 Y16.500 E17.73549
G1 X-18.283 Y15.987 E17.77124
G1 X-19.335 Y14.646 E17.86030
G1 X-20.263 Y13.363 E17.94300
G1 X-20.633 Y12.780 E17.97909
G1 X-21.426 Y11.365 E18.06383
G1 X-21.626 Y10.976 E18.08667
G1 X-22.373 Y9.375 E18.17897
G1 X-22.598 Y8.817 E18.21043
G1 X-23.530 Y6.093 E18.36084
G1 X-23.818 Y4.820 E18.42900
G1 X-24.105 Y2.397 E18.55652
G1 X-24.207 Y0.602 E18.65045
G1 X-24.212 Y0.114 E18.67591
G1 X-24.142 Y-1.867 E18.77948
G1 X-23.973 Y-3.701 E18.87573
G1 X-23.337 Y-5.932 E18.99693
G1 X-18.784 Y-15.016 E19.52780
G1 X-18.382 Y-14.882 F6000.000
G1 X-17.126 Y-16.553 E19.63702 F2045.916
G1 X-15.433 Y-18.100 E19.75683
G1 X-14.171 Y-19.120 E19.84159
G1 X-13.746 Y-19.433 E19.86920
G1 X-12.617 Y-20.187 E19.94014
G1 X-11.262 Y-20.993 E20.02248
G1 X-10.755 Y-21.258 E20.05240
G1 X-9.778 Y-21.708 E20.10857
G1 X-8.641 Y-22.189 E20.17306
G1 X-7.483 Y-22.622 E20.23768
G1 X-6.343 Y-22.992 E20.30029
G1 X-5.707 Y-23.156 E20.33458
G1 X-4.039 Y-23.488 E20.42342
G1 X-1.984 Y-23.761 E20.53174
G1 X-1.489 Y-23.798 E20.55767
G1 X0.103 Y-23.840 E20.64088
G1 X1.926 Y-23.779 E20.73618
G1 X2.541 Y-23.723 E20.76844
G1 X3.944 Y-23.517 E20.84252
G1 X5.600 Y-23.195 E20.93067
G1 X6.553 Y-22.963 E20.98191
G1 X7.148 Y-22.779 E21.01448
G1 X9.129 Y-22.036 E21.12501
G1 X10.688 Y-21.330 E21.21440
G1 X11.119 Y-21.110 E21.23969
G1 X12.644 Y-20.230 E21.33165
G1 X13.770 Y-19.482 E21.40231
G1 X14.155 Y-19.203 E21.42712
G1 X15.231 Y-18.355 E21.49872
G1 X15.538 Y-18.095 E21.51975
G1 X17.122 Y-16.640 E21.63209
G1 X17.663 Y-16.068 E21.67324
G1 X19.129 Y-14.236 E21.79583
G1 X19.398 Y-13.866 E21.81973
G1 X20.256 Y-12.582 E21.90042
G1 X20.533 Y-12.123 E21.92842
G1 X21.366 Y-10.546 E22.02156
G1 X21.801 Y-9.645 E22.07384
G1 X22.017 Y-9.135 E22.10277
G1 X22.336 Y-8.273 E22.15083
G1 X22.782 Y-6.947 E22.22390
G1 X23.323 Y-5.030 E22.32798
G1 X23.514 Y-4.020 E22.38169
G1 X23.752 Y-1.385 E22.51990
G1 X23.772 Y-0.930 E22.54371
G1 X23.778 Y0.557 E22.62137
G1 X23.756 Y1.081 E22.64876
G1 X23.600 Y2.890 E22.74363
G1 X23.487 Y3.637 E22.78311
G1 X22.904 Y6.297 E22.92537
G1 X22.421 Y7.664 E23.00114
G1 X19.546 Y13.400 E23.33632
G1 X18.737 Y14.609 E23.41233
G1 X16.958 Y16.660 E23.55416
G1 X16.416 Y17.207 E23.59442
G1 X15.067 Y18.401 E23.68851
G1 X14.671 Y18.721 E23.71514
G1 X13.478 Y19.604 E23.79269
G1 X13.110 Y19.855 E23.81593
G1 X11.763 Y20.692 E23.89882
G1 X10.719 Y21.277 E23.96132
G1 X10.208 Y21.531 E23.99112
G1 X8.969 Y22.065 E24.06164
G1 X7.078 Y22.772 E24.16711
G1 X6.441 Y22.966 E24.20191
G1 X5.341 Y23.229 E24.26100
G1 X3.566 Y23.563 E24.35535
G1 X2.619 Y23.711 E24.40540
G1 X2.088 Y23.768 E24.43335
G1 X1.313 Y23.816 E24.47390
G1 X0.295 Y23.838 E24.52708
G1 X-1.420 Y23.811 E24.61668
G1 X-2.351 Y23.762 E24.66541
G1 X-3.072 Y23.676 E24.70335
G1 X-4.447 Y23.424 E24.77640
G1 X-5.900 Y23.136 E24.85378
G1 X-6.575 Y22.959 E24.89024
G1 X-7.427 Y22.676 E24.93713
G1 X-8.946 Y22.109 E25.02184
G1 X-10.185 Y21.585 E25.09212
G1 X-11.145 Y21.115 E25.14795
G1 X-11.561 Y20.884 E25.17280
G1 X-12.904 Y20.055 E25.25528
G1 X-14.029 Y19.304 E25.32597
G1 X-14.521 Y18.936 E25.35805
G1 X-15.808 Y17.855 E25.44588
G1 X-16.835 Y16.906 E25.51889
G1 X-17.532 Y16.207 E25.57048
G1 X-17.954 Y15.727 E25.60384
G1 X-18.997 Y14.398 E25.69213
G1 X-19.922 Y13.120 E25.77458
G1 X-20.268 Y12.576 E25.80826
G1 X-21.060 Y11.160 E25.89299
G1 X-21.247 Y10.798 E25.91430
G1 X-21.992 Y9.200 E26.00641
G1 X-22.203 Y8.679 E26.03577
G1 X-23.133 Y5.959 E26.18598
G1 X-23.402 Y4.771 E26.24958
G1 X-23.689 Y2.347 E26.37709
G1 X-23.789 Y0.581 E26.46952
G1 X-23.793 Y0.127 E26.49328
G1 X-23.725 Y-1.829 E26.59548
G1 X-23.556 Y-3.663 E26.69173
G1 X-22.962 Y-5.744 E26.80481
G1 X-18.409 Y-14.828 E27.33568
G1 X-18.008 Y-14.694 F6000.000
G1 X-16.842 Y-16.246 E27.43707 F2045.916
G1 X-15.170 Y-17.774 E27.55542
G1 X-13.908 Y-18.794 E27.64018
G1 X-13.513 Y-19.085 E27.66581
G1 X-12.384 Y-19.839 E27.73675
G1 X-11.050 Y-20.632 E27.81780
G1 X-10.579 Y-20.878 E27.84557
G1 X-9.603 Y-21.328 E27.90174
G1 X-8.479 Y-21.803 E27.96547
G1 X-7.338 Y-22.229 E28.02913
G1 X-6.215 Y-22.593 E28.09077
G1 X-5.626 Y-22.745 E28.12259
G1 X-3.958 Y-23.077 E28.21144
G1 X-1.935 Y-23.345 E28.31804
G1 X-1.476 Y-23.379 E28.34211
G1 X0.112 Y-23.422 E28.42506
G1 X1.909 Y-23.361 E28.51904
G1 X2.480 Y-23.308 E28.54899
G1 X3.883 Y-23.103 E28.62305
G1 X5.518 Y-22.784 E28.71010
G1 X6.451 Y-22.557 E28.76024
G1 X7.003 Y-22.386 E28.79047
G1 X8.978 Y-21.645 E28.90066
G1 X10.513 Y-20.950 E28.98868
G1 X10.913 Y-20.745 E29.01215
G1 X12.412 Y-19.881 E29.10255
G1 X13.538 Y-19.133 E29.17321
G1 X13.895 Y-18.874 E29.19624
G1 X14.972 Y-18.026 E29.26784
G1 X15.773 Y-17.316 E29.32376
G1 X16.838 Y-16.333 E29.39949
G1 X17.340 Y-15.801 E29.43768
G1 X18.800 Y-13.977 E29.55979
G1 X19.050 Y-13.633 E29.58197
G1 X19.908 Y-12.349 E29.66266
G1 X20.165 Y-11.923 E29.68866
G1 X20.993 Y-10.355 E29.78129
G1 X21.424 Y-9.464 E29.83300
G1 X21.624 Y-8.990 E29.85986
G1 X21.985 Y-8.010 E29.91443
G1 X22.379 Y-6.833 E29.97927
G1 X22.920 Y-4.916 E30.08335
G1 X23.097 Y-3.978 E30.13321
G1 X23.335 Y-1.351 E30.27105
G1 X23.353 Y-0.928 E30.29315
G1 X23.359 Y0.558 E30.37081
G1 X23.339 Y1.045 E30.39624
G1 X23.183 Y2.854 E30.49111
G1 X23.077 Y3.547 E30.52776
G1 X22.495 Y6.207 E30.67001
G1 X22.046 Y7.476 E30.74035
G1 X19.171 Y13.212 E31.07553
G1 X18.421 Y14.334 E31.14608
G1 X16.642 Y16.385 E31.28792
G1 X16.139 Y16.894 E31.32529
G1 X14.790 Y18.087 E31.41938
G1 X14.422 Y18.385 E31.44410
G1 X13.229 Y19.267 E31.52164
G1 X12.888 Y19.500 E31.54322
G1 X11.558 Y20.327 E31.62501
G1 X10.514 Y20.911 E31.68751
G1 X10.040 Y21.147 E31.71517
G1 X8.821 Y21.673 E31.78456
G1 X6.933 Y22.379 E31.88986
G1 X6.341 Y22.559 E31.92217
G1 X5.259 Y22.818 E31.98032
G1 X3.493 Y23.151 E32.07422
G1 X2.556 Y23.297 E32.12377
G1 X2.062 Y23.350 E32.14971
G1 X1.287 Y23.398 E32.19026
G1 X0.288 Y23.420 E32.24246
G1 X-1.410 Y23.392 E32.33122
G1 X-2.327 Y23.344 E32.37919
G1 X-2.997 Y23.264 E32.41441
G1 X-4.372 Y23.012 E32.48746
G1 X-5.819 Y22.725 E32.56451
G1 X-6.445 Y22.561 E32.59835
G1 X-7.282 Y22.283 E32.64442
G1 X-8.783 Y21.723 E32.72811
G1 X-10.022 Y21.199 E32.79840
G1 X-10.956 Y20.742 E32.85273
G1 X-11.342 Y20.527 E32.87581
G1 X-12.672 Y19.707 E32.95742
G1 X-13.797 Y18.956 E33.02810
G1 X-14.253 Y18.614 E33.05789
G1 X-15.524 Y17.547 E33.14458
G1 X-16.550 Y16.598 E33.21759
G1 X-17.233 Y15.913 E33.26814
G1 X-17.625 Y15.468 E33.29910
G1 X-18.659 Y14.151 E33.38661
G1 X-19.582 Y12.876 E33.46883
G1 X-19.902 Y12.371 E33.50009
G1 X-20.695 Y10.956 E33.58482
G1 X-21.612 Y9.025 E33.69651
G1 X-21.807 Y8.541 E33.72376
G1 X-22.737 Y5.824 E33.87378
G1 X-22.986 Y4.722 E33.93281
G1 X-23.273 Y2.298 E34.06032
G1 X-23.370 Y0.561 E34.15124
G1 X-23.375 Y0.139 E34.17329
G1 X-23.308 Y-1.790 E34.27413
G1 X-23.139 Y-3.625 E34.37038
G1 X-22.588 Y-5.557 E34.47535
G1 X-18.035 Y-14.641 E35.00622
G1 E31.50622 F1800.00000
G92 E0
G1 X-4.377 Y-4.110 F6000.000
G1 E3.50000 F1800.00000
G1 X-3.217 Y-5.069 E3.57863 F2045.916
G1 X-1.855 Y-5.710 E3.65726
G1 X-0.377 Y-5.992 E3.73589
G1 X1.125 Y-5.898 E3.81452
G1 X2.556 Y-5.433 E3.89315
G1 X3.827 Y-4.626 E3.97178
G1 X4.857 Y-3.529 E4.05040
G1 X5.582 Y-2.210 E4.12903
G1 X5.957 Y-0.753 E4.20766
G1 X5.957 Y0.753 E4.28629
G1 X5.582 Y2.210 E4.36492
G1 X4.857 Y3.529 E4.44355
G1 X3.827 Y4.626 E4.52218
G1 X2.556 Y5.433 E4.60081
G1 X1.125 Y5.898 E4.67944
G1 X-0.377 Y5.992 E4.75807
G1 X-1.639 Y5.751 E4.82521
G1 X-1.855 Y5.710 E4.83670
G1 X-3.217 Y5.069 E4.91533
G1 X-4.377 Y4.110 E4.99396
G1 X-5.261 Y2.892 E5.07259
G1 X-5.815 Y1.493 E5.15121
G1 X-6.004 Y0.000 E5.22984
G1 X-5.815 Y-1.493 E5.30847
G1 X-5.261 Y-2.892 E5.38710
G1 X-4.412 Y-4.062 E5.46260
G1 X-4.069 Y-3.821 F6000.000
G1 X-2.991 Y-4.713 E5.53570 F2045.916
G1 X-1.725 Y-5.309 E5.60880
G1 X-0.350 Y-5.571 E5.68190
G1 X1.046 Y-5.483 E5.75500
G1 X2.377 Y-5.051 E5.82810
G1 X3.558 Y-4.301 E5.90120
G1 X4.516 Y-3.281 E5.97430
G1 X5.190 Y-2.055 E6.04740
G1 X5.538 Y-0.700 E6.12050
G1 X5.538 Y0.700 E6.19360
G1 X5.190 Y2.055 E6.26670
G1 X4.516 Y3.281 E6.33980
G1 X3.558 Y4.301 E6.41290
G1 X2.377 Y5.051 E6.48600
G1 X1.046 Y5.483 E6.55910
G1 X-0.350 Y5.571 E6.63220
G1 X-1.561 Y5.340 E6.69658
G1 X-1.725 Y5.309 E6.70530
G1 X-2.991 Y4.713 E6.77840
G1 X-4.069 Y3.821 E6.85150
G1 X-4.891 Y2.689 E6.92460
G1 X-5.406 Y1.388 E6.99770
G1 X-5.582 Y0.000 E7.07080
G1 X-5.406 Y-1.388 E7.14390
G1 X-4.891 Y-2.689 E7.21700
G1 X-4.104 Y-3.772 E7.28696
G1 X-3.792 Y-3.561 F6000.000
G1 X-2.787 Y-4.392 E7.34154 F2553.461
G1 X-1.607 Y-4.947 E7.39612
G1 X-0.327 Y-5.191 E7.45070
G1 X0.975 Y-5.109 E7.50528
G1 X2.215 Y-4.707 E7.55986
G1 X3.316 Y-4.008 E7.61444
G1 X4.208 Y-3.057 E7.66902
G1 X4.836 Y-1.915 E7.72360
G1 X5.161 Y-0.652 E7.77818
G1 X5.161 Y0.652 E7.83276
G1 X4.836 Y1.915 E7.88734
G1 X4.208 Y3.057 E7.94192
G1 X3.316 Y4.008 E7.99650
G1 X2.215 Y4.707 E8.05108
G1 X0.975 Y5.109 E8.10566
G1 X-0.327 Y5.191 E8.16024
G1 X-1.490 Y4.969 E8.20983
G1 X-1.607 Y4.947 E8.21482
G1 X-2.787 Y4.392 E8.26940
G1 X-3.792 Y3.561 E8.32398
G1 X-4.558 Y2.506 E8.37856
G1 X-5.038 Y1.294 E8.43314
G1 X-5.202 Y0.000 E8.48773
G1 X-5.038 Y-1.294 E8.54231
G1 X-4.558 Y-2.506 E8.59689
G1 X-3.827 Y-3.512 E8.64895
G1 X-3.891 Y-3.948 F6000.000
G1 E5.14895 F1800.00000
G92 E0
G1 X-11.229 Y-11.226 F6000.000
G1 E3.50000 F1800.00000
G1 X-10.236 Y-12.134 E3.57031 F2045.916
G1 X-9.333 Y-12.846 E3.63040
G1 X-8.296 Y-13.538 E3.69554
G1 X-7.209 Y-14.147 E3.76067
G1 X-6.076 Y-14.669 E3.82581
G1 X-4.907 Y-15.101 E3.89094
G1 X-3.800 Y-15.413 E3.95103
G1 X-2.481 Y-15.683 E4.02134
G1 X-1.248 Y-15.829 E4.08619
G1 X0.097 Y-15.874 E4.15651
G1 X1.246 Y-15.829 E4.21659
G1 X2.484 Y-15.683 E4.28173
G1 X3.707 Y-15.439 E4.34687
G1 X4.907 Y-15.101 E4.41200
G1 X6.076 Y-14.669 E4.47714
G1 X7.209 Y-14.147 E4.54227
G1 X8.296 Y-13.538 E4.60741
G1 X9.333 Y-12.846 E4.67255
