; generated by Slic3r 1.2.9 on 2016-02-04 at 12:37:15

; external perimeters extrusion width = 0.40mm
; perimeters extrusion width = 0.67mm
; infill extrusion width = 0.67mm
; solid infill extrusion width = 0.67mm
; top infill extrusion width = 0.67mm
; support material extrusion width = 0.40mm

M107
M104 S220 ; set temperature
G28 ; home all axes
G1 X70Y70Z5 F5000 
M109 S220 ; wait for temperature to be reached
G21 ; set units to millimeters
G90 ; use absolute coordinates
M82 ; use absolute distances for extrusion
G92 E0
G1 E-3.50000 F1800.00000
G92 E0
G1 Z0.300 F6000.000
G1 X19.684 Y14.994 F6000.000
G1 E3.50000 F1800.00000
G1 X18.455 Y16.704 E3.61003 F1363.944
G1 X16.938 Y18.234 E3.72260
G1 X16.534 Y18.608 E3.75136
G1 X15.221 Y19.729 E3.84156
G1 X14.595 Y20.204 E3.88263
G1 X13.466 Y20.958 E3.95357
G1 X12.083 Y21.786 E4.03777
G1 X10.909 Y22.445 E4.10812
G1 X10.022 Y22.860 E4.15928
G1 X7.188 Y23.917 E4.31731
G1 X6.269 Y24.183 E4.36726
G1 X3.747 Y24.720 E4.50198
G1 X2.617 Y24.862 E4.56149
G1 X0.319 Y24.952 E4.68162
G1 X-0.132 Y24.955 E4.70522
G1 X-2.418 Y24.873 E4.82470
G1 X-3.064 Y24.817 E4.85858
G1 X-5.171 Y24.527 E4.96971
G1 X-6.574 Y24.177 E5.04524
G1 X-9.402 Y23.125 E5.20292
G1 X-10.641 Y22.600 E5.27320
G1 X-11.298 Y22.278 E5.31143
G1 X-12.659 Y21.512 E5.39302
G1 X-13.494 Y21.000 E5.44420
G1 X-15.181 Y19.872 E5.55023
G1 X-15.828 Y19.381 E5.59267
G1 X-17.402 Y18.026 E5.70115
G1 X-18.289 Y17.100 E5.76814
G1 X-19.666 Y15.353 E5.88435
G1 X-20.679 Y14.004 E5.97249
G1 X-21.045 Y13.459 E6.00678
G1 X-21.651 Y12.427 E6.06930
G1 X-22.473 Y10.809 E6.16413
G1 X-23.270 Y9.085 E6.26338
G1 X-23.650 Y8.040 E6.32146
G1 X-24.178 Y6.097 E6.42665
G1 X-24.282 Y5.654 E6.45044
G1 X-24.559 Y4.213 E6.52711
G1 X-24.725 Y3.045 E6.58873
G1 X-24.883 Y1.067 E6.69239
G1 X-24.938 Y-0.322 E6.76502
G1 X-24.899 Y-1.346 E6.81858
G1 X-24.676 Y-3.290 E6.92081
G1 X-24.556 Y-3.997 E6.95824
G1 X-23.942 Y-6.720 E7.10411
G1 X-23.398 Y-8.243 E7.18858
G1 X-20.590 Y-13.844 E7.51592
G1 X-19.691 Y-15.197 E7.60077
G1 X-17.883 Y-17.307 E7.74599
G1 X-17.408 Y-17.806 E7.78195
G1 X-15.977 Y-19.165 E7.88505
G1 X-15.091 Y-19.872 E7.94429
G1 X-13.842 Y-20.705 E8.02271
G1 X-12.412 Y-21.604 E8.11097
G1 X-11.368 Y-22.189 E8.17348
G1 X-10.845 Y-22.452 E8.20409
G1 X-9.875 Y-22.888 E8.25963
G1 X-8.631 Y-23.383 E8.32957
G1 X-6.671 Y-24.107 E8.43873
G1 X-5.348 Y-24.446 E8.51009
G1 X-2.913 Y-24.811 E8.63872
G1 X-2.188 Y-24.879 E8.67678
G1 X-0.438 Y-24.944 E8.76830
G1 X0.621 Y-24.944 E8.82362
G1 X2.094 Y-24.886 E8.90062
G1 X2.857 Y-24.812 E8.94068
G1 X5.643 Y-24.379 E9.08799
G1 X6.929 Y-24.046 E9.15736
G1 X8.830 Y-23.344 E9.26322
G1 X10.194 Y-22.816 E9.33964
G1 X10.989 Y-22.444 E9.38552
G1 X12.799 Y-21.437 E9.49372
G1 X13.235 Y-21.171 E9.52041
G1 X14.934 Y-20.037 E9.62713
G1 X15.659 Y-19.477 E9.67499
G1 X17.737 Y-17.631 E9.82021
G1 X18.519 Y-16.808 E9.87952
G1 X20.364 Y-14.498 E10.03399
G1 X20.849 Y-13.805 E10.07818
G1 X21.673 Y-12.453 E10.16091
G1 X22.040 Y-11.764 E10.20169
G1 X23.117 Y-9.418 E10.33654
G1 X23.396 Y-8.704 E10.37661
G1 X23.692 Y-7.796 E10.42648
G1 X24.302 Y-5.773 E10.53685
G1 X24.538 Y-4.637 E10.59749
G1 X24.823 Y-2.157 E10.72790
G1 X24.859 Y-1.678 E10.75302
G1 X24.914 Y-0.289 E10.82565
G1 X24.908 Y0.357 E10.85939
G1 X24.811 Y2.049 E10.94796
G1 X24.543 Y4.412 E11.07216
G1 X23.882 Y6.618 E11.19250
G1 X19.711 Y14.940 E11.67883
G1 X19.310 Y14.806 F6000.000
G1 X18.158 Y16.409 E11.78196 F1363.944
G1 X16.640 Y17.939 E11.89452
G1 X16.262 Y18.290 E11.92148
G1 X14.949 Y19.411 E12.01168
G1 X14.362 Y19.856 E12.05018
G1 X13.233 Y20.610 E12.12111
G1 X11.870 Y21.425 E12.20409
G1 X10.704 Y22.080 E12.27394
G1 X9.873 Y22.469 E12.32189
G1 X7.043 Y23.524 E12.47970
G1 X6.182 Y23.773 E12.52651
G1 X3.660 Y24.311 E12.66124
G1 X2.601 Y24.444 E12.71701
G1 X-0.120 Y24.536 E12.85925
G1 X-2.401 Y24.455 E12.97849
G1 X-3.007 Y24.402 E13.01024
G1 X-5.114 Y24.112 E13.12138
G1 X-6.429 Y23.784 E13.19217
G1 X-9.239 Y22.739 E13.34881
G1 X-10.478 Y22.214 E13.41909
G1 X-11.093 Y21.913 E13.45492
G1 X-12.442 Y21.153 E13.53579
G1 X-13.261 Y20.651 E13.58598
G1 X-14.949 Y19.524 E13.69200
G1 X-15.555 Y19.063 E13.73178
G1 X-17.128 Y17.708 E13.84026
G1 X-17.960 Y16.840 E13.90305
G1 X-19.337 Y15.094 E14.01926
G1 X-20.343 Y13.754 E14.10678
G1 X-20.686 Y13.243 E14.13893
G1 X-21.279 Y12.233 E14.20013
G1 X-22.097 Y10.623 E14.29448
G1 X-22.890 Y8.909 E14.39314
G1 X-23.246 Y7.930 E14.44757
G1 X-23.871 Y5.572 E14.57504
G1 X-24.144 Y4.154 E14.65049
G1 X-24.310 Y2.986 E14.71211
G1 X-24.465 Y1.051 E14.81354
G1 X-24.519 Y-0.338 E14.88617
G1 X-24.483 Y-1.299 E14.93637
G1 X-24.260 Y-3.243 E15.03860
G1 X-24.147 Y-3.904 E15.07368
G1 X-23.533 Y-6.628 E15.21955
G1 X-23.023 Y-8.055 E15.29872
G1 X-20.216 Y-13.656 E15.62606
G1 X-19.373 Y-14.924 E15.70559
G1 X-17.565 Y-17.035 E15.85081
G1 X-17.120 Y-17.502 E15.88451
G1 X-15.689 Y-18.861 E15.98761
G1 X-14.858 Y-19.524 E16.04314
G1 X-13.617 Y-20.352 E16.12109
G1 X-12.207 Y-21.238 E16.20810
G1 X-11.163 Y-21.823 E16.27060
G1 X-10.673 Y-22.070 E16.29930
G1 X-9.703 Y-22.506 E16.35483
G1 X-8.479 Y-22.993 E16.42367
G1 X-6.526 Y-23.714 E16.53242
G1 X-5.286 Y-24.032 E16.59930
G1 X-2.851 Y-24.396 E16.72793
G1 X-2.171 Y-24.460 E16.76361
G1 X-0.435 Y-24.525 E16.85440
G1 X0.605 Y-24.525 E16.90872
G1 X2.078 Y-24.468 E16.98572
G1 X2.793 Y-24.398 E17.02327
G1 X5.579 Y-23.965 E17.17058
G1 X6.784 Y-23.653 E17.23560
G1 X8.685 Y-22.951 E17.34146
G1 X10.042 Y-22.425 E17.41751
G1 X10.788 Y-22.077 E17.46050
G1 X12.595 Y-21.072 E17.56853
G1 X13.003 Y-20.822 E17.59354
G1 X14.701 Y-19.689 E17.70021
G1 X15.381 Y-19.164 E17.74507
G1 X17.459 Y-17.318 E17.89030
G1 X18.191 Y-16.546 E17.94588
G1 X20.037 Y-14.236 E18.10035
G1 X20.492 Y-13.587 E18.14177
G1 X21.316 Y-12.235 E18.22449
G1 X21.659 Y-11.589 E18.26272
G1 X22.736 Y-9.243 E18.39757
G1 X22.998 Y-8.574 E18.43513
G1 X23.294 Y-7.666 E18.48499
G1 X23.901 Y-5.653 E18.59485
G1 X24.122 Y-4.588 E18.65168
G1 X24.407 Y-2.111 E18.78195
G1 X24.495 Y-0.272 E18.87812
G1 X24.490 Y0.333 E18.90974
G1 X24.392 Y2.025 E18.99830
G1 X24.127 Y4.362 E19.12119
G1 X23.507 Y6.430 E19.23398
G1 X19.337 Y14.752 E19.72031
G1 X18.935 Y14.618 F6000.000
G1 X17.861 Y16.114 E19.81653 F1363.944
G1 X16.343 Y17.644 E19.92909
G1 X15.990 Y17.971 E19.95425
G1 X14.677 Y19.092 E20.04445
G1 X14.129 Y19.507 E20.08037
G1 X13.000 Y20.262 E20.15130
G1 X11.657 Y21.065 E20.23305
G1 X10.500 Y21.715 E20.30241
G1 X9.724 Y22.077 E20.34716
G1 X6.898 Y23.131 E20.50474
G1 X6.095 Y23.363 E20.54842
G1 X3.573 Y23.901 E20.68314
G1 X2.584 Y24.025 E20.73518
G1 X-0.108 Y24.117 E20.87594
G1 X-2.385 Y24.036 E20.99494
G1 X-2.950 Y23.987 E21.02457
G1 X-5.057 Y23.697 E21.13571
G1 X-6.284 Y23.391 E21.20176
G1 X-9.076 Y22.354 E21.35736
G1 X-10.314 Y21.829 E21.42764
G1 X-10.889 Y21.547 E21.46107
G1 X-12.061 Y20.891 E21.53128
G1 X-13.029 Y20.303 E21.59041
G1 X-14.716 Y19.176 E21.69643
G1 X-15.282 Y18.746 E21.73355
G1 X-16.855 Y17.391 E21.84203
G1 X-17.631 Y16.581 E21.90061
G1 X-19.008 Y14.834 E22.01682
G1 X-20.007 Y13.504 E22.10373
G1 X-20.327 Y13.027 E22.13373
G1 X-20.908 Y12.040 E22.19361
G1 X-21.722 Y10.438 E22.28748
G1 X-22.509 Y8.734 E22.38554
G1 X-22.842 Y7.820 E22.43633
G1 X-23.461 Y5.490 E22.56231
G1 X-23.730 Y4.095 E22.63653
G1 X-23.895 Y2.927 E22.69815
G1 X-24.046 Y1.034 E22.79736
G1 X-24.101 Y-0.355 E22.86999
G1 X-24.067 Y-1.251 E22.91683
G1 X-23.844 Y-3.195 E23.01906
G1 X-23.739 Y-3.812 E23.05179
G1 X-23.125 Y-6.536 E23.19767
G1 X-22.649 Y-7.867 E23.27153
G1 X-19.841 Y-13.469 E23.59887
G1 X-19.055 Y-14.652 E23.67308
G1 X-17.247 Y-16.762 E23.81829
G1 X-16.832 Y-17.199 E23.84975
G1 X-15.400 Y-18.557 E23.95284
G1 X-14.626 Y-19.176 E24.00465
G1 X-13.392 Y-19.999 E24.08213
G1 X-12.002 Y-20.873 E24.16790
G1 X-10.959 Y-21.458 E24.23040
G1 X-10.501 Y-21.688 E24.25717
G1 X-9.531 Y-22.124 E24.31271
G1 X-8.327 Y-22.603 E24.38044
G1 X-6.381 Y-23.321 E24.48878
G1 X-5.224 Y-23.618 E24.55118
G1 X-2.789 Y-23.982 E24.67981
G1 X-2.155 Y-24.042 E24.71310
G1 X-0.432 Y-24.106 E24.80318
G1 X0.588 Y-24.107 E24.85650
G1 X2.061 Y-24.049 E24.93350
G1 X2.729 Y-23.984 E24.96853
G1 X5.515 Y-23.551 E25.11584
G1 X6.639 Y-23.260 E25.17651
G1 X8.540 Y-22.558 E25.28237
G1 X9.890 Y-22.035 E25.35804
G1 X10.586 Y-21.710 E25.39816
G1 X12.390 Y-20.707 E25.50600
G1 X12.771 Y-20.474 E25.52934
G1 X14.469 Y-19.341 E25.63597
G1 X15.103 Y-18.851 E25.67782
G1 X17.181 Y-17.005 E25.82305
G1 X17.864 Y-16.285 E25.87491
G1 X19.710 Y-13.975 E26.02938
G1 X20.134 Y-13.369 E26.06803
G1 X20.958 Y-12.017 E26.15075
G1 X21.279 Y-11.414 E26.18642
G1 X22.355 Y-9.068 E26.32127
G1 X22.600 Y-8.444 E26.35631
G1 X22.896 Y-7.536 E26.40617
G1 X23.500 Y-5.532 E26.51552
G1 X23.706 Y-4.539 E26.56854
G1 X23.991 Y-2.064 E26.69867
G1 X24.077 Y-0.256 E26.79327
G1 X24.072 Y0.309 E26.82277
G1 X23.974 Y2.001 E26.91133
G1 X23.711 Y4.313 E27.03290
G1 X23.133 Y6.243 E27.13814
G1 X18.962 Y14.565 E27.62446
G1 X18.561 Y14.431 F6000.000
G1 X17.563 Y15.819 E27.71378 F1363.944
G1 X16.046 Y17.349 E27.82635
G1 X15.718 Y17.653 E27.84970
G1 X14.405 Y18.774 E27.93990
G1 X13.897 Y19.159 E27.97324
G1 X12.510 Y20.075 E28.06004
G1 X11.339 Y20.765 E28.13106
G1 X10.295 Y21.349 E28.19357
G1 X9.575 Y21.686 E28.23510
G1 X6.753 Y22.738 E28.39246
G1 X6.007 Y22.954 E28.43300
G1 X3.485 Y23.491 E28.56773
G1 X2.568 Y23.606 E28.61603
G1 X-0.097 Y23.699 E28.75531
G1 X-2.368 Y23.618 E28.87408
G1 X-2.893 Y23.572 E28.90158
G1 X-5.000 Y23.282 E29.01272
G1 X-6.139 Y22.998 E29.07403
G1 X-8.912 Y21.968 E29.22859
G1 X-10.151 Y21.443 E29.29887
G1 X-10.684 Y21.182 E29.32990
G1 X-11.857 Y20.525 E29.40012
G1 X-12.796 Y19.955 E29.45752
G1 X-14.483 Y18.827 E29.56355
G1 X-15.008 Y18.428 E29.59800
G1 X-16.582 Y17.074 E29.70648
G1 X-17.302 Y16.322 E29.76086
G1 X-18.679 Y14.575 E29.87707
G1 X-19.671 Y13.254 E29.96337
G1 X-19.968 Y12.812 E29.99121
G1 X-20.537 Y11.846 E30.04978
G1 X-21.346 Y10.252 E30.14317
G1 X-22.129 Y8.559 E30.24064
G1 X-22.437 Y7.711 E30.28778
G1 X-23.050 Y5.408 E30.41227
G1 X-23.315 Y4.036 E30.48526
G1 X-23.480 Y2.868 E30.54688
G1 X-23.628 Y1.018 E30.64387
G1 X-23.682 Y-0.371 E30.71650
G1 X-23.651 Y-1.203 E30.75998
G1 X-23.428 Y-3.147 E30.86221
G1 X-23.330 Y-3.720 E30.89259
G1 X-22.716 Y-6.444 E31.03846
G1 X-22.274 Y-7.680 E31.10703
G1 X-19.467 Y-13.281 E31.43437
G1 X-18.737 Y-14.379 E31.50325
G1 X-16.929 Y-16.490 E31.64846
G1 X-16.543 Y-16.895 E31.67766
G1 X-15.112 Y-18.253 E31.78076
G1 X-14.393 Y-18.827 E31.82885
G1 X-13.167 Y-19.645 E31.90586
G1 X-11.798 Y-20.508 E31.99038
G1 X-10.754 Y-21.092 E32.05288
G1 X-10.329 Y-21.306 E32.07773
G1 X-9.360 Y-21.742 E32.13326
G1 X-8.174 Y-22.212 E32.19989
G1 X-6.236 Y-22.928 E32.30782
G1 X-5.162 Y-23.204 E32.36574
G1 X-2.727 Y-23.568 E32.49438
G1 X-2.139 Y-23.623 E32.52528
G1 X-0.429 Y-23.688 E32.61464
G1 X0.572 Y-23.688 E32.66695
G1 X2.045 Y-23.631 E32.74395
G1 X2.664 Y-23.570 E32.77647
G1 X5.450 Y-23.137 E32.92379
G1 X6.494 Y-22.867 E32.98010
G1 X8.395 Y-22.165 E33.08596
G1 X9.738 Y-21.644 E33.16126
G1 X10.384 Y-21.343 E33.19850
G1 X12.185 Y-20.341 E33.30616
G1 X12.539 Y-20.125 E33.32782
G1 X14.236 Y-18.993 E33.43440
G1 X14.825 Y-18.538 E33.47326
G1 X16.903 Y-16.692 E33.61848
G1 X17.537 Y-16.023 E33.66662
G1 X19.382 Y-13.714 E33.82109
G1 X19.776 Y-13.151 E33.85697
G1 X20.600 Y-11.799 E33.93969
G1 X20.898 Y-11.239 E33.97280
G1 X21.975 Y-8.894 E34.10765
G1 X22.201 Y-8.314 E34.14017
G1 X22.497 Y-7.406 E34.19004
G1 X23.098 Y-5.412 E34.29887
G1 X23.290 Y-4.489 E34.34809
G1 X23.574 Y-2.018 E34.47808
G1 X23.658 Y-0.239 E34.57109
G1 X23.654 Y0.285 E34.59848
G1 X23.556 Y1.977 E34.68705
G1 X23.295 Y4.264 E34.80729
G1 X22.759 Y6.055 E34.90498
G1 X18.588 Y14.377 E35.39131
G1 E31.89131 F1800.00000
G92 E0
G1 X3.668 Y-4.434 F6000.000
G1 E3.50000 F1800.00000
G1 X4.655 Y-3.382 E3.57536 F1363.944
G1 X5.350 Y-2.118 E3.65071
G1 X5.709 Y-0.721 E3.72607
G1 X5.709 Y0.721 E3.80142
G1 X5.350 Y2.118 E3.87678
G1 X4.655 Y3.382 E3.95213
G1 X3.668 Y4.434 E4.02749
G1 X2.450 Y5.206 E4.10284
G1 X1.078 Y5.652 E4.17820
G1 X-0.361 Y5.743 E4.25355
G1 X-1.778 Y5.472 E4.32891
G1 X-3.083 Y4.858 E4.40426
G1 X-4.195 Y3.939 E4.47962
G1 X-5.042 Y2.772 E4.55497
G1 X-5.573 Y1.431 E4.63033
G1 X-5.754 Y-0.000 E4.70568
G1 X-5.573 Y-1.431 E4.78104
G1 X-5.042 Y-2.772 E4.85639
G1 X-4.195 Y-3.939 E4.93175
G1 X-3.083 Y-4.858 E5.00710
G1 X-1.778 Y-5.472 E5.08246
G1 X-0.361 Y-5.743 E5.15782
G1 X1.078 Y-5.652 E5.23317
G1 X2.450 Y-5.206 E5.30853
G1 X3.617 Y-4.466 E5.38075
G1 X3.399 Y-4.108 F6000.000
G1 X4.314 Y-3.134 E5.45057 F1363.944
G1 X4.957 Y-1.963 E5.52040
G1 X5.290 Y-0.668 E5.59022
G1 X5.290 Y0.668 E5.66005
G1 X4.957 Y1.963 E5.72988
G1 X4.314 Y3.134 E5.79970
G1 X3.399 Y4.108 E5.86953
G1 X2.270 Y4.824 E5.93935
G1 X0.999 Y5.237 E6.00918
G1 X-0.335 Y5.321 E6.07901
G1 X-1.648 Y5.071 E6.14883
G1 X-2.857 Y4.502 E6.21866
G1 X-3.887 Y3.650 E6.28848
G1 X-4.672 Y2.569 E6.35831
G1 X-5.164 Y1.326 E6.42814
G1 X-5.332 Y-0.000 E6.49796
G1 X-5.164 Y-1.326 E6.56779
G1 X-4.672 Y-2.569 E6.63761
G1 X-3.887 Y-3.650 E6.70744
G1 X-2.857 Y-4.502 E6.77727
G1 X-1.648 Y-5.071 E6.84709
G1 X-0.335 Y-5.321 E6.91692
G1 X0.999 Y-5.237 E6.98674
G1 X2.270 Y-4.824 E7.05657
G1 X3.348 Y-4.140 E7.12326
G1 X3.156 Y-3.815 F6000.000
G1 X4.006 Y-2.910 E7.17522 F1702.307
G1 X4.604 Y-1.823 E7.22718
G1 X4.913 Y-0.621 E7.27913
G1 X4.913 Y0.621 E7.33109
G1 X4.604 Y1.823 E7.38305
G1 X4.006 Y2.910 E7.43500
G1 X3.156 Y3.815 E7.48696
G1 X2.108 Y4.480 E7.53892
G1 X0.928 Y4.864 E7.59087
G1 X-0.311 Y4.942 E7.64283
G1 X-1.530 Y4.709 E7.69479
G1 X-2.653 Y4.181 E7.74674
G1 X-3.610 Y3.390 E7.79870
G1 X-4.339 Y2.385 E7.85066
G1 X-4.796 Y1.231 E7.90261
G1 X-4.952 Y-0.000 E7.95457
G1 X-4.796 Y-1.231 E8.00653
G1 X-4.339 Y-2.385 E8.05849
G1 X-3.610 Y-3.390 E8.11044
G1 X-2.653 Y-4.181 E8.16240
G1 X-1.530 Y-4.709 E8.21436
G1 X-0.311 Y-4.942 E8.26631
G1 X0.928 Y-4.864 E8.31827
G1 X2.108 Y-4.480 E8.37023
G1 X3.106 Y-3.847 E8.41967
G1 X3.537 Y-3.939 F6000.000
G1 E4.91967 F1800.00000
G92 E0
G1 X10.312 Y-12.074 F6000.000
G1 E3.50000 F1800.00000
G1 X11.228 Y-11.228 E3.56514 F1363.944
G1 X12.074 Y-10.312 E3.63027
G1 X12.846 Y-9.333 E3.69541
G1 X13.485 Y-8.377 E3.75549
G1 X14.149 Y-7.206 E3.82581
G1 X14.669 Y-6.076 E3.89080
G1 X15.100 Y-4.909 E3.95579
G1 X15.458 Y-3.612 E4.02611
G1 X15.683 Y-2.484 E4.08619
G1 X15.829 Y-1.246 E4.15133
G1 X15.878 Y-0.000 E4.21647
G1 X15.829 Y1.246 E4.28160
G1 X15.683 Y2.484 E4.34674
G1 X15.458 Y3.612 E4.40682
G1 X15.100 Y4.909 E4.47714
G1 X14.669 Y6.076 E4.54213
G1 X14.147 Y7.209 E4.60727
G1 X13.538 Y8.296 E4.67240
G1 X12.846 Y9.333 E4.73754
G1 X12.134 Y10.236 E4.79763
G1 X11.226 Y11.229 E4.86794
G1 X10.312 Y12.074 E4.93293
G1 X9.333 Y12.846 E4.99807
G1 X8.296 Y13.538 E5.06320
G1 X7.209 Y14.147 E5.12834
G1 X6.076 Y14.669 E5.19348
G1 X4.907 Y15.101 E5.25861
G1 X3.707 Y15.439 E5.32375
G1 X2.484 Y15.683 E5.38888
G1 X1.342 Y15.818 E5.44897
G1 X-0.003 Y15.878 E5.51928
G1 X-1.246 Y15.829 E5.58428
G1 X-2.484 Y15.683 E5.64941
G1 X-3.707 Y15.439 E5.71455
G1 X-4.907 Y15.101 E5.77968
G1 X-6.076 Y14.669 E5.84482
G1 X-7.209 Y14.147 E5.90996
G1 X-8.296 Y13.538 E5.97509
G1 X-9.333 Y12.846 E6.04023
G1 X-10.236 Y12.134 E6.10031
G1 X-11.229 Y11.226 E6.17063
G1 X-12.074 Y10.312 E6.23562
G1 X-12.846 Y9.333 E6.30076
G1 X-13.485 Y8.377 E6.36084
G1 X-14.149 Y7.206 E6.43116
G1 X-14.669 Y6.076 E6.49615
G1 X-15.101 Y4.907 E6.56129
G1 X-15.439 Y3.707 E6.62642
G1 X-15.683 Y2.484 E6.69156
G1 X-15.829 Y1.246 E6.75669
G1 X-15.878 Y-0.000 E6.82183
G1 X-15.829 Y-1.246 E6.88697
G1 X-15.683 Y-2.484 E6.95210
G1 X-15.458 Y-3.612 E7.01219
G1 X-15.100 Y-4.909 E7.08250
G1 X-14.669 Y-6.076 E7.14749
G1 X-14.147 Y-7.209 E7.21263
G1 X-13.540 Y-8.294 E7.27762
G1 X-12.786 Y-9.409 E7.34794
G1 X-12.074 Y-10.312 E7.40802
G1 X-11.229 Y-11.226 E7.47302
G1 X-10.236 Y-12.134 E7.54333
G1 X-9.333 Y-12.846 E7.60342
G1 X-8.296 Y-13.538 E7.66855
G1 X-7.209 Y-14.147 E7.73369
G1 X-6.076 Y-14.669 E7.79882
G1 X-4.907 Y-15.101 E7.86396
G1 X-3.800 Y-15.413 E7.92405
G1 X-2.481 Y-15.683 E7.99436
G1 X-1.248 Y-15.829 E8.05921
G1 X0.097 Y-15.874 E8.12952
G1 X1.246 Y-15.829 E8.18961
G1 X2.484 Y-15.683 E8.25475
G1 X3.707 Y-15.439 E8.31988
G1 X4.907 Y-15.101 E8.38502
G1 X6.076 Y-14.669 E8.45015
