; generated by Slic3r 1.2.9 on 2016-02-10 at 13:16:21

; external perimeters extrusion width = 0.40mm
; perimeters extrusion width = 0.67mm
; infill extrusion width = 0.67mm
; solid infill extrusion width = 0.67mm
; top infill extrusion width = 0.67mm
; support material extrusion width = 0.40mm

M107
M104 S220 ; set temperature
G28 ; home all axes
G1 X70Y70Z10 F5000 
M109 S220 ; wait for temperature to be reached
G21 ; set units to millimeters
G90 ; use absolute coordinates
M82 ; use absolute distances for extrusion
G92 E0
G1 E-3.50000 F1800.00000
G92 E0
G1 Z0.300 F6000.000
G1 X19.851 Y14.661 F6000.000
G1 E3.50000 F1800.00000
G1 X18.819 Y16.164 E3.59524 F2045.916
G1 X17.149 Y17.999 E3.72487
G1 X16.536 Y18.591 E3.76939
G1 X15.228 Y19.703 E3.85909
G1 X14.368 Y20.323 E3.91447
G1 X12.188 Y21.640 E4.04756
G1 X11.815 Y21.848 E4.06984
G1 X10.475 Y22.529 E4.14840
G1 X9.079 Y23.139 E4.22797
G1 X7.828 Y23.591 E4.29748
G1 X6.938 Y23.867 E4.34613
G1 X5.845 Y24.170 E4.40539
G1 X4.557 Y24.443 E4.47420
G1 X3.517 Y24.617 E4.52926
G1 X2.423 Y24.753 E4.58689
G1 X1.124 Y24.846 E4.65493
G1 X-0.067 Y24.879 E4.71716
G1 X-1.644 Y24.829 E4.79962
G1 X-2.106 Y24.795 E4.82378
G1 X-3.588 Y24.626 E4.90171
G1 X-4.734 Y24.425 E4.96252
G1 X-5.905 Y24.177 E5.02506
G1 X-7.303 Y23.792 E5.10080
G1 X-8.941 Y23.241 E5.19110
G1 X-9.567 Y22.990 E5.22633
G1 X-10.787 Y22.427 E5.29651
G1 X-11.639 Y21.997 E5.34639
G1 X-12.630 Y21.442 E5.40570
G1 X-13.460 Y20.932 E5.45663
G1 X-14.717 Y20.069 E5.53627
G1 X-15.641 Y19.351 E5.59739
G1 X-16.470 Y18.656 E5.65396
G1 X-17.572 Y17.620 E5.73295
G1 X-18.429 Y16.710 E5.79828
G1 X-19.169 Y15.861 E5.85712
G1 X-20.178 Y14.548 E5.94362
G1 X-21.674 Y12.328 E6.08346
G1 X-22.289 Y11.178 E6.15163
G1 X-22.969 Y9.538 E6.24435
G1 X-23.474 Y8.168 E6.32065
G1 X-23.852 Y6.977 E6.38596
G1 X-24.118 Y6.009 E6.43837
G1 X-24.229 Y5.541 E6.46350
G1 X-24.656 Y3.396 E6.57775
G1 X-24.782 Y2.259 E6.63756
G1 X-24.817 Y0.831 E6.71217
G1 X-24.804 Y-0.925 E6.80394
G1 X-24.773 Y-1.507 E6.83438
G1 X-24.592 Y-3.366 E6.93195
G1 X-24.429 Y-4.319 E6.98247
G1 X-23.701 Y-7.270 E7.14126
G1 X-23.188 Y-8.662 E7.21877
G1 X-20.837 Y-13.353 E7.49291
G1 X-20.033 Y-14.591 E7.57002
G1 X-18.098 Y-16.955 E7.72961
G1 X-17.465 Y-17.627 E7.77784
G1 X-16.066 Y-18.920 E7.87740
G1 X-15.574 Y-19.333 E7.91096
G1 X-14.361 Y-20.255 E7.99055
G1 X-13.949 Y-20.544 E8.01684
G1 X-12.838 Y-21.264 E8.08602
G1 X-11.423 Y-22.071 E8.17112
G1 X-10.962 Y-22.305 E8.19813
G1 X-9.661 Y-22.894 E8.27271
G1 X-8.450 Y-23.370 E8.34071
G1 X-7.540 Y-23.687 E8.39105
G1 X-6.280 Y-24.055 E8.45964
G1 X-4.922 Y-24.370 E8.53248
G1 X-4.088 Y-24.536 E8.57690
G1 X-3.572 Y-24.617 E8.60420
G1 X-2.657 Y-24.725 E8.65234
G1 X-1.460 Y-24.833 E8.71509
G1 X-0.502 Y-24.867 E8.76520
G1 X0.584 Y-24.871 E8.82196
G1 X1.550 Y-24.829 E8.87245
G1 X3.744 Y-24.661 E8.98743
G1 X5.040 Y-24.431 E9.05619
G1 X7.014 Y-23.874 E9.16332
G1 X7.826 Y-23.625 E9.20774
G1 X8.903 Y-23.236 E9.26753
G1 X9.911 Y-22.831 E9.32431
G1 X11.315 Y-22.156 E9.40568
G1 X12.766 Y-21.370 E9.49186
G1 X13.205 Y-21.101 E9.51880
G1 X14.713 Y-20.076 E9.61406
G1 X15.841 Y-19.195 E9.68884
G1 X16.758 Y-18.390 E9.75257
G1 X17.560 Y-17.632 E9.81023
G1 X18.621 Y-16.504 E9.89115
G1 X19.427 Y-15.535 E9.95698
G1 X20.156 Y-14.585 E10.01952
G1 X21.062 Y-13.241 E10.10423
G1 X21.329 Y-12.804 E10.13097
G1 X22.182 Y-11.241 E10.22399
G1 X22.709 Y-10.122 E10.28862
G1 X23.174 Y-8.989 E10.35261
G1 X23.572 Y-7.904 E10.41301
G1 X23.722 Y-7.440 E10.43848
G1 X24.077 Y-6.147 E10.50853
G1 X24.348 Y-4.940 E10.57314
G1 X24.779 Y-2.724 E10.69112
G1 X24.893 Y-1.283 E10.76660
G1 X24.832 Y0.594 E10.86473
G1 X24.706 Y2.345 E10.95644
G1 X24.631 Y2.965 E10.98906
G1 X24.255 Y5.213 E11.10818
G1 X23.639 Y7.103 E11.21201
G1 X19.878 Y14.608 E11.65059
G1 X19.476 Y14.474 F6000.000
G1 X18.509 Y15.882 E11.73985 F2045.916
G1 X16.839 Y17.717 E11.86949
G1 X16.265 Y18.272 E11.91121
G1 X14.956 Y19.384 E12.00091
G1 X14.151 Y19.965 E12.05282
G1 X11.623 Y21.476 E12.20667
G1 X10.303 Y22.147 E12.28404
G1 X8.934 Y22.746 E12.36210
G1 X7.703 Y23.191 E12.43047
G1 X6.814 Y23.467 E12.47912
G1 X5.735 Y23.766 E12.53762
G1 X4.475 Y24.032 E12.60489
G1 X3.450 Y24.204 E12.65922
G1 X2.373 Y24.337 E12.71587
G1 X1.107 Y24.427 E12.78219
G1 X-0.057 Y24.460 E12.84302
G1 X-1.628 Y24.410 E12.92516
G1 X-2.060 Y24.378 E12.94780
G1 X-3.539 Y24.210 E13.02553
G1 X-4.656 Y24.014 E13.08481
G1 X-5.797 Y23.773 E13.14571
G1 X-7.189 Y23.389 E13.22118
G1 X-8.805 Y22.845 E13.31025
G1 X-9.391 Y22.609 E13.34328
G1 X-10.611 Y22.047 E13.41345
G1 X-11.447 Y21.624 E13.46241
G1 X-12.413 Y21.084 E13.52020
G1 X-13.227 Y20.584 E13.57014
G1 X-14.475 Y19.727 E13.64923
G1 X-15.375 Y19.028 E13.70876
G1 X-16.186 Y18.348 E13.76403
G1 X-17.282 Y17.317 E13.84265
G1 X-18.117 Y16.431 E13.90624
G1 X-18.841 Y15.602 E13.96375
G1 X-19.843 Y14.297 E14.04972
G1 X-21.325 Y12.096 E14.18838
G1 X-21.902 Y11.017 E14.25227
G1 X-22.582 Y9.378 E14.34499
G1 X-23.076 Y8.039 E14.41952
G1 X-23.448 Y6.865 E14.48387
G1 X-23.714 Y5.898 E14.53628
G1 X-23.818 Y5.460 E14.55983
G1 X-24.245 Y3.315 E14.67408
G1 X-24.363 Y2.248 E14.73013
G1 X-24.398 Y0.821 E14.80475
G1 X-24.385 Y-0.921 E14.89577
G1 X-24.356 Y-1.467 E14.92430
G1 X-24.175 Y-3.326 E15.02187
G1 X-24.022 Y-4.219 E15.06922
G1 X-23.294 Y-7.170 E15.22801
G1 X-22.813 Y-8.474 E15.30065
G1 X-20.462 Y-13.165 E15.57479
G1 X-19.709 Y-14.326 E15.64707
G1 X-17.774 Y-16.689 E15.80665
G1 X-17.181 Y-17.319 E15.85186
G1 X-15.782 Y-18.613 E15.95142
G1 X-15.320 Y-19.000 E15.98287
G1 X-14.107 Y-19.922 E16.06247
G1 X-13.722 Y-20.193 E16.08710
G1 X-12.610 Y-20.912 E16.15628
G1 X-11.218 Y-21.705 E16.23996
G1 X-10.786 Y-21.925 E16.26527
G1 X-9.810 Y-22.375 E16.32145
G1 X-8.568 Y-22.879 E16.39147
G1 X-7.402 Y-23.292 E16.45608
G1 X-6.166 Y-23.652 E16.52335
G1 X-5.004 Y-23.924 E16.58571
G1 X-4.006 Y-24.125 E16.63888
G1 X-3.522 Y-24.202 E16.66448
G1 X-1.824 Y-24.387 E16.75374
G1 X-0.678 Y-24.444 E16.81369
G1 X0.257 Y-24.456 E16.86255
G1 X1.519 Y-24.411 E16.92852
G1 X3.712 Y-24.244 E17.04343
G1 X4.927 Y-24.027 E17.10788
G1 X6.900 Y-23.471 E17.21500
G1 X7.703 Y-23.224 E17.25886
G1 X8.751 Y-22.846 E17.31712
G1 X9.736 Y-22.451 E17.37254
G1 X11.127 Y-21.781 E17.45321
G1 X12.561 Y-21.005 E17.53838
G1 X12.973 Y-20.753 E17.56364
G1 X14.457 Y-19.744 E17.65735
G1 X15.582 Y-18.866 E17.73193
G1 X16.473 Y-18.082 E17.79394
G1 X17.257 Y-17.342 E17.85027
G1 X18.314 Y-16.219 E17.93081
G1 X19.098 Y-15.276 E17.99491
G1 X19.810 Y-14.349 E18.05596
G1 X20.713 Y-13.009 E18.14041
G1 X20.964 Y-12.600 E18.16547
G1 X21.812 Y-11.045 E18.25801
G1 X22.329 Y-9.947 E18.32140
G1 X22.786 Y-8.833 E18.38431
G1 X23.178 Y-7.761 E18.44395
G1 X23.318 Y-7.326 E18.46783
G1 X23.668 Y-6.054 E18.53674
G1 X23.938 Y-4.859 E18.60077
G1 X24.368 Y-2.646 E18.71855
G1 X24.475 Y-1.296 E18.78930
G1 X24.414 Y0.564 E18.88649
G1 X24.288 Y2.314 E18.97820
G1 X24.218 Y2.895 E19.00877
G1 X23.842 Y5.144 E19.12789
G1 X23.265 Y6.915 E19.22521
G1 X19.503 Y14.420 E19.66378
G1 X19.102 Y14.286 F6000.000
G1 X18.200 Y15.600 E19.74707 F2045.916
G1 X16.529 Y17.435 E19.87671
G1 X15.993 Y17.953 E19.91563
G1 X14.685 Y19.065 E20.00534
G1 X13.933 Y19.607 E20.05377
G1 X12.854 Y20.262 E20.11972
G1 X11.756 Y20.922 E20.18664
G1 X10.417 Y21.627 E20.26571
G1 X9.162 Y22.201 E20.33781
G1 X8.789 Y22.353 E20.35886
G1 X7.579 Y22.791 E20.42608
G1 X6.690 Y23.067 E20.47473
G1 X5.625 Y23.362 E20.53247
G1 X4.393 Y23.621 E20.59822
G1 X3.382 Y23.790 E20.65180
G1 X2.324 Y23.922 E20.70747
G1 X1.091 Y24.009 E20.77208
G1 X-0.047 Y24.042 E20.83152
G1 X-1.612 Y23.992 E20.91333
G1 X-3.489 Y23.794 E21.01197
G1 X-4.578 Y23.602 E21.06972
G1 X-5.688 Y23.368 E21.12898
G1 X-7.076 Y22.986 E21.20418
G1 X-8.669 Y22.448 E21.29203
G1 X-9.216 Y22.229 E21.32284
G1 X-10.436 Y21.667 E21.39302
G1 X-11.256 Y21.251 E21.44104
G1 X-12.196 Y20.725 E21.49732
G1 X-12.995 Y20.236 E21.54627
G1 X-14.234 Y19.385 E21.62480
G1 X-15.109 Y18.704 E21.68274
G1 X-15.902 Y18.041 E21.73672
G1 X-16.993 Y17.015 E21.81498
G1 X-17.804 Y16.152 E21.87682
G1 X-18.512 Y15.343 E21.93301
G1 X-19.508 Y14.046 E22.01844
G1 X-20.977 Y11.863 E22.15591
G1 X-21.515 Y10.857 E22.21553
G1 X-22.195 Y9.217 E22.30825
G1 X-22.677 Y7.911 E22.38100
G1 X-23.044 Y6.754 E22.44440
G1 X-23.310 Y5.787 E22.49681
G1 X-23.407 Y5.378 E22.51878
G1 X-23.834 Y3.233 E22.63304
G1 X-23.944 Y2.238 E22.68533
G1 X-23.979 Y0.810 E22.75995
G1 X-23.966 Y-0.917 E22.85022
G1 X-23.939 Y-1.426 E22.87684
G1 X-23.758 Y-3.285 E22.97441
G1 X-23.616 Y-4.118 E23.01858
G1 X-22.888 Y-7.069 E23.17738
G1 X-22.439 Y-8.287 E23.24515
G1 X-20.088 Y-12.978 E23.51930
G1 X-19.385 Y-14.061 E23.58674
G1 X-17.450 Y-16.424 E23.74632
G1 X-16.896 Y-17.012 E23.78850
G1 X-15.497 Y-18.305 E23.88806
G1 X-15.067 Y-18.666 E23.91740
G1 X-13.854 Y-19.588 E23.99700
G1 X-12.382 Y-20.561 E24.08915
G1 X-11.014 Y-21.339 E24.17141
G1 X-10.611 Y-21.544 E24.19503
G1 X-9.351 Y-22.116 E24.26730
G1 X-8.174 Y-22.579 E24.33338
G1 X-7.264 Y-22.896 E24.38372
G1 X-6.053 Y-23.249 E24.44966
G1 X-4.912 Y-23.516 E24.51089
G1 X-3.925 Y-23.714 E24.56347
G1 X-3.473 Y-23.786 E24.58735
G1 X-1.782 Y-23.971 E24.67623
G1 X-0.662 Y-24.026 E24.73485
G1 X0.262 Y-24.038 E24.78308
G1 X1.488 Y-23.993 E24.84721
G1 X3.680 Y-23.826 E24.96203
G1 X4.813 Y-23.624 E25.02217
G1 X6.786 Y-23.068 E25.12930
G1 X7.579 Y-22.824 E25.17260
G1 X8.600 Y-22.455 E25.22932
G1 X9.560 Y-22.070 E25.28339
G1 X10.939 Y-21.407 E25.36335
G1 X12.356 Y-20.639 E25.44752
G1 X12.741 Y-20.404 E25.47108
G1 X14.200 Y-19.413 E25.56326
G1 X15.322 Y-18.537 E25.63763
G1 X16.189 Y-17.775 E25.69792
G1 X16.955 Y-17.052 E25.75293
G1 X18.006 Y-15.935 E25.83307
G1 X18.769 Y-15.016 E25.89546
G1 X19.464 Y-14.113 E25.95501
G1 X20.365 Y-12.777 E26.03919
G1 X20.598 Y-12.395 E26.06258
G1 X21.442 Y-10.848 E26.15464
G1 X21.949 Y-9.772 E26.21679
G1 X22.397 Y-8.677 E26.27862
G1 X22.785 Y-7.618 E26.33751
G1 X22.915 Y-7.212 E26.35978
G1 X23.260 Y-5.961 E26.42757
G1 X23.527 Y-4.777 E26.49101
G1 X23.956 Y-2.567 E26.60860
G1 X24.056 Y-1.308 E26.67461
G1 X23.997 Y0.533 E26.77086
G1 X23.870 Y2.284 E26.86257
G1 X23.805 Y2.826 E26.89109
G1 X23.429 Y5.075 E27.01021
G1 X22.890 Y6.728 E27.10101
G1 X19.129 Y14.232 E27.53959
G1 X18.727 Y14.098 F6000.000
G1 X17.890 Y15.318 E27.61690 F2045.916
G1 X16.219 Y17.153 E27.74654
G1 X15.722 Y17.634 E27.78267
G1 X14.414 Y18.746 E27.87237
G1 X13.716 Y19.249 E27.91733
G1 X12.615 Y19.918 E27.98464
G1 X11.541 Y20.563 E28.05010
G1 X10.225 Y21.255 E28.12777
G1 X8.644 Y21.960 E28.21821
G1 X7.455 Y22.391 E28.28429
G1 X6.566 Y22.667 E28.33294
G1 X5.514 Y22.957 E28.38991
G1 X4.312 Y23.210 E28.45413
G1 X3.314 Y23.377 E28.50698
G1 X2.275 Y23.506 E28.56166
G1 X1.074 Y23.590 E28.62455
G1 X-0.036 Y23.623 E28.68260
G1 X-1.595 Y23.573 E28.76408
G1 X-3.440 Y23.378 E28.86101
G1 X-4.500 Y23.191 E28.91723
G1 X-5.579 Y22.964 E28.97485
G1 X-6.962 Y22.583 E29.04978
G1 X-8.533 Y22.052 E29.13641
G1 X-9.041 Y21.849 E29.16501
G1 X-10.261 Y21.286 E29.23518
G1 X-11.065 Y20.879 E29.28228
G1 X-11.979 Y20.367 E29.33703
G1 X-12.762 Y19.887 E29.38500
G1 X-13.992 Y19.042 E29.46297
G1 X-14.844 Y18.380 E29.51933
G1 X-15.617 Y17.733 E29.57201
G1 X-16.704 Y16.712 E29.64991
G1 X-17.491 Y15.874 E29.71000
G1 X-18.183 Y15.083 E29.76486
G1 X-19.173 Y13.795 E29.84975
G1 X-20.629 Y11.630 E29.98605
G1 X-21.128 Y10.696 E30.04139
G1 X-21.808 Y9.057 E30.13411
G1 X-22.278 Y7.782 E30.20509
G1 X-22.640 Y6.643 E30.26753
G1 X-22.906 Y5.676 E30.31994
G1 X-23.423 Y3.151 E30.45457
G1 X-23.525 Y2.228 E30.50312
G1 X-23.561 Y0.800 E30.57774
G1 X-23.547 Y-0.913 E30.66725
G1 X-23.522 Y-1.386 E30.69196
G1 X-23.341 Y-3.244 E30.78953
G1 X-23.209 Y-4.018 E30.83054
G1 X-22.481 Y-6.969 E30.98934
G1 X-22.064 Y-8.099 E31.05225
G1 X-19.713 Y-12.790 E31.32639
G1 X-19.061 Y-13.795 E31.38899
G1 X-17.126 Y-16.158 E31.54857
G1 X-16.612 Y-16.704 E31.58773
G1 X-15.213 Y-17.998 E31.68728
G1 X-14.813 Y-18.333 E31.71453
G1 X-13.600 Y-19.255 E31.79412
G1 X-12.155 Y-20.209 E31.88462
G1 X-10.810 Y-20.973 E31.96545
G1 X-10.436 Y-21.164 E31.98738
G1 X-9.196 Y-21.727 E32.05850
G1 X-8.036 Y-22.184 E32.12363
G1 X-7.127 Y-22.501 E32.17397
G1 X-5.939 Y-22.846 E32.23858
G1 X-4.819 Y-23.107 E32.29867
G1 X-3.843 Y-23.303 E32.35067
G1 X-3.424 Y-23.370 E32.37283
G1 X-1.740 Y-23.554 E32.46133
G1 X-0.645 Y-23.607 E32.51861
G1 X0.266 Y-23.619 E32.56621
G1 X1.457 Y-23.575 E32.62851
G1 X3.647 Y-23.408 E32.74324
G1 X4.699 Y-23.221 E32.79906
G1 X6.673 Y-22.665 E32.90619
G1 X7.455 Y-22.424 E32.94894
G1 X8.448 Y-22.065 E33.00412
G1 X9.385 Y-21.690 E33.05684
G1 X10.752 Y-21.032 E33.13609
G1 X12.152 Y-20.274 E33.21926
G1 X12.509 Y-20.056 E33.24113
G1 X13.944 Y-19.082 E33.33176
G1 X15.063 Y-18.208 E33.40593
G1 X15.905 Y-17.467 E33.46451
G1 X16.652 Y-16.762 E33.51818
G1 X17.699 Y-15.651 E33.59794
G1 X18.440 Y-14.757 E33.65861
G1 X19.118 Y-13.876 E33.71667
G1 X20.016 Y-12.545 E33.80058
G1 X20.233 Y-12.190 E33.82229
G1 X21.072 Y-10.651 E33.91388
G1 X21.568 Y-9.596 E33.97479
G1 X22.008 Y-8.520 E34.03553
G1 X22.391 Y-7.475 E34.09366
G1 X22.512 Y-7.099 E34.11434
G1 X22.852 Y-5.869 E34.18099
G1 X23.116 Y-4.695 E34.24384
G1 X23.545 Y-2.489 E34.36124
G1 X23.637 Y-1.320 E34.42251
G1 X23.579 Y0.503 E34.51783
G1 X23.452 Y2.254 E34.60954
G1 X23.392 Y2.757 E34.63601
G1 X23.016 Y5.006 E34.75514
G1 X22.516 Y6.540 E34.83942
G1 X18.754 Y14.045 E35.27800
G1 E31.77800 F1800.00000
G92 E0
G1 X3.827 Y-4.626 F6000.000
G1 E3.50000 F1800.00000
G1 X4.857 Y-3.529 E3.57863 F2045.916
G1 X5.582 Y-2.210 E3.65726
G1 X5.957 Y-0.753 E3.73589
G1 X5.957 Y0.753 E3.81452
G1 X5.582 Y2.210 E3.89315
G1 X4.857 Y3.529 E3.97178
G1 X3.827 Y4.626 E4.05040
G1 X2.556 Y5.433 E4.12903
G1 X1.125 Y5.898 E4.20766
G1 X-0.377 Y5.992 E4.28629
G1 X-1.639 Y5.751 E4.35344
G1 X-1.855 Y5.710 E4.36492
G1 X-3.217 Y5.069 E4.44355
G1 X-4.377 Y4.110 E4.52218
G1 X-5.261 Y2.892 E4.60081
G1 X-5.815 Y1.493 E4.67944
G1 X-6.004 Y0.000 E4.75807
G1 X-5.976 Y-0.218 E4.76955
G1 X-5.815 Y-1.493 E4.83670
G1 X-5.261 Y-2.892 E4.91533
G1 X-4.377 Y-4.110 E4.99396
G1 X-3.217 Y-5.069 E5.07259
G1 X-1.855 Y-5.710 E5.15121
G1 X-0.377 Y-5.992 E5.22984
G1 X1.125 Y-5.898 E5.30847
G1 X2.556 Y-5.433 E5.38710
G1 X3.776 Y-4.658 E5.46260
G1 X3.558 Y-4.301 F6000.000
G1 X4.516 Y-3.281 E5.53570 F2045.916
G1 X5.190 Y-2.055 E5.60880
G1 X5.538 Y-0.700 E5.68190
G1 X5.538 Y0.700 E5.75500
G1 X5.190 Y2.055 E5.82810
G1 X4.516 Y3.281 E5.90120
G1 X3.558 Y4.301 E5.97430
G1 X2.377 Y5.051 E6.04740
G1 X1.046 Y5.483 E6.12050
G1 X-0.350 Y5.571 E6.19360
G1 X-1.561 Y5.340 E6.25798
G1 X-1.725 Y5.309 E6.26670
G1 X-2.991 Y4.713 E6.33980
G1 X-4.069 Y3.821 E6.41290
G1 X-4.891 Y2.689 E6.48600
G1 X-5.406 Y1.388 E6.55910
G1 X-5.582 Y0.000 E6.63220
G1 X-5.561 Y-0.166 E6.64092
G1 X-5.406 Y-1.388 E6.70530
G1 X-4.891 Y-2.689 E6.77840
G1 X-4.069 Y-3.821 E6.85150
G1 X-2.991 Y-4.713 E6.92460
G1 X-1.725 Y-5.309 E6.99770
G1 X-0.350 Y-5.571 E7.07080
G1 X1.046 Y-5.483 E7.14390
G1 X2.377 Y-5.051 E7.21700
G1 X3.507 Y-4.333 E7.28696
G1 X3.316 Y-4.008 F6000.000
G1 X4.208 Y-3.057 E7.34154 F2553.461
G1 X4.836 Y-1.915 E7.39612
G1 X5.161 Y-0.652 E7.45070
G1 X5.161 Y0.652 E7.50528
G1 X4.836 Y1.915 E7.55986
G1 X4.208 Y3.057 E7.61444
G1 X3.316 Y4.008 E7.66902
G1 X2.215 Y4.707 E7.72360
G1 X0.975 Y5.109 E7.77818
G1 X-0.327 Y5.191 E7.83276
G1 X-1.490 Y4.969 E7.88235
G1 X-1.607 Y4.947 E7.88734
G1 X-2.787 Y4.392 E7.94192
G1 X-3.792 Y3.561 E7.99650
G1 X-4.558 Y2.506 E8.05108
G1 X-5.038 Y1.294 E8.10566
G1 X-5.202 Y0.000 E8.16024
G1 X-5.187 Y-0.118 E8.16524
G1 X-5.038 Y-1.294 E8.21482
G1 X-4.558 Y-2.506 E8.26940
G1 X-3.792 Y-3.561 E8.32398
G1 X-2.787 Y-4.392 E8.37856
G1 X-1.607 Y-4.947 E8.43314
G1 X-0.327 Y-5.191 E8.48773
G1 X0.975 Y-5.109 E8.54231
G1 X2.215 Y-4.707 E8.59689
G1 X3.265 Y-4.040 E8.64895
G1 X3.696 Y-4.132 F6000.000
G1 E5.14895 F1800.00000
G92 E0
G1 X10.312 Y-12.074 F6000.000
G1 E3.50000 F1800.00000
G1 X11.228 Y-11.228 E3.56514 F2045.916
G1 X12.074 Y-10.312 E3.63027
G1 X12.846 Y-9.333 E3.69541
G1 X13.485 Y-8.377 E3.75549
G1 X14.149 Y-7.206 E3.82581
G1 X14.669 Y-6.076 E3.89080
G1 X15.100 Y-4.909 E3.95579
G1 X15.458 Y-3.612 E4.02611
G1 X15.683 Y-2.484 E4.08619
G1 X15.829 Y-1.246 E4.15133
G1 X15.878 Y-0.000 E4.21647
G1 X15.829 Y1.246 E4.28160
