; generated by Slic3r 1.2.9 on 2016-02-03 at 13:15:56

; external perimeters extrusion width = 0.40mm
; perimeters extrusion width = 0.67mm
; infill extrusion width = 0.67mm
; solid infill extrusion width = 0.67mm
; top infill extrusion width = 0.67mm
; support material extrusion width = 0.40mm

M107
M104 S220 ; set temperature
G28 ; home all axes
G1 X70Y70Z5 F5000 
M109 S220 ; wait for temperature to be reached
G21 ; set units to millimeters
G90 ; use absolute coordinates
M82 ; use absolute distances for extrusion
G92 E0
G1 E-3.50000 F1800.00000
G92 E0
G1 Z0.300 F6000.000
G1 X-44.958 Y-10.255 F6000.000
G1 E3.50000 F1800.00000
G1 X45.042 Y-10.255 E8.20204 F1363.944
G1 X45.859 Y-10.202 E8.24480
G1 X46.713 Y-10.089 E8.28981
G1 X47.241 Y-9.999 E8.31780
G1 X48.463 Y-9.634 E8.38443
G1 X49.687 Y-9.110 E8.45399
G1 X50.832 Y-8.413 E8.52404
G1 X51.695 Y-7.745 E8.58101
G1 X51.830 Y-7.634 E8.59018
G1 X52.806 Y-6.621 E8.66363
G1 X53.531 Y-5.665 E8.72636
G1 X54.250 Y-4.381 E8.80320
G1 X54.681 Y-3.331 E8.86250
G1 X55.067 Y-1.845 E8.94275
G1 X55.184 Y-0.958 E8.98946
G1 X55.206 Y-0.784 E8.99863
G1 X55.206 Y0.784 E9.08057
G1 X55.067 Y1.845 E9.13645
G1 X54.681 Y3.332 E9.21672
G1 X54.250 Y4.381 E9.27600
G1 X53.531 Y5.665 E9.35285
G1 X53.428 Y5.807 E9.36202
G1 X52.806 Y6.621 E9.41557
G1 X51.830 Y7.634 E9.48902
G1 X50.832 Y8.413 E9.55516
G1 X49.687 Y9.110 E9.62521
G1 X49.259 Y9.304 E9.64977
G1 X48.463 Y9.634 E9.69478
G1 X47.241 Y9.999 E9.76141
G1 X46.713 Y10.089 E9.78940
G1 X45.859 Y10.202 E9.83441
G1 X45.042 Y10.255 E9.87716
G1 X-44.958 Y10.255 E14.57921
G1 X-45.526 Y10.232 E14.60891
G1 X-45.949 Y10.191 E14.63115
G1 X-46.804 Y10.078 E14.67616
G1 X-47.920 Y9.826 E14.73598
G1 X-48.548 Y9.601 E14.77081
G1 X-49.344 Y9.272 E14.81581
G1 X-50.302 Y8.774 E14.87222
G1 X-50.907 Y8.361 E14.91047
G1 X-51.590 Y7.837 E14.95548
G1 X-52.462 Y7.028 E15.01763
G1 X-52.865 Y6.554 E15.05012
G1 X-53.389 Y5.870 E15.09513
G1 X-53.908 Y5.076 E15.14471
G1 X-54.291 Y4.302 E15.18980
G1 X-54.620 Y3.506 E15.23481
G1 X-54.900 Y2.668 E15.28098
G1 X-55.087 Y1.759 E15.32947
G1 X-55.199 Y0.904 E15.37448
G1 X-55.253 Y-0.088 E15.42639
G1 X-55.199 Y-0.904 E15.46915
G1 X-55.087 Y-1.759 E15.51416
G1 X-54.900 Y-2.668 E15.56265
G1 X-54.620 Y-3.506 E15.60882
G1 X-54.291 Y-4.302 E15.65383
G1 X-53.908 Y-5.076 E15.69891
G1 X-53.389 Y-5.870 E15.74850
G1 X-52.865 Y-6.554 E15.79350
G1 X-52.342 Y-7.156 E15.83516
G1 X-51.590 Y-7.837 E15.88817
G1 X-50.907 Y-8.361 E15.93317
G1 X-50.302 Y-8.774 E15.97142
G1 X-49.344 Y-9.272 E16.02783
G1 X-48.548 Y-9.601 E16.07284
G1 X-47.920 Y-9.826 E16.10767
G1 X-46.804 Y-10.078 E16.16749
G1 X-45.949 Y-10.191 E16.21249
G1 X-45.526 Y-10.232 E16.23474
G1 X-45.018 Y-10.253 E16.26130
G1 X-44.958 Y-9.836 F6000.000
G1 X45.042 Y-9.836 E20.96335 F1363.944
G1 X45.804 Y-9.786 E21.00324
G1 X47.163 Y-9.588 E21.07497
G1 X48.303 Y-9.247 E21.13714
G1 X49.509 Y-8.731 E21.20567
G1 X50.577 Y-8.080 E21.27102
G1 X51.428 Y-7.423 E21.32720
G1 X51.563 Y-7.311 E21.33637
G1 X52.474 Y-6.366 E21.40490
G1 X53.193 Y-5.419 E21.46706
G1 X53.863 Y-4.221 E21.53875
G1 X54.292 Y-3.177 E21.59771
G1 X54.652 Y-1.790 E21.67258
G1 X54.768 Y-0.906 E21.71919
G1 X54.790 Y-0.732 E21.72835
G1 X54.790 Y0.732 E21.80481
G1 X54.652 Y1.790 E21.86057
G1 X54.292 Y3.178 E21.93547
G1 X53.863 Y4.221 E21.99440
G1 X53.192 Y5.419 E22.06612
G1 X53.089 Y5.561 E22.07528
G1 X52.474 Y6.366 E22.12826
G1 X51.563 Y7.311 E22.19679
G1 X50.577 Y8.080 E22.26213
G1 X49.509 Y8.731 E22.32749
G1 X49.099 Y8.917 E22.35102
G1 X48.303 Y9.247 E22.39603
G1 X47.163 Y9.588 E22.45819
G1 X45.804 Y9.786 E22.52992
G1 X45.042 Y9.836 E22.56982
G1 X-44.958 Y9.836 E27.27186
G1 X-45.499 Y9.814 E27.30018
G1 X-45.895 Y9.775 E27.32094
G1 X-46.749 Y9.663 E27.36595
G1 X-47.791 Y9.427 E27.42176
G1 X-48.388 Y9.214 E27.45487
G1 X-49.184 Y8.885 E27.49988
G1 X-50.078 Y8.420 E27.55251
G1 X-50.652 Y8.029 E27.58881
G1 X-51.335 Y7.504 E27.63382
G1 X-52.157 Y6.741 E27.69242
G1 X-52.533 Y6.299 E27.72274
G1 X-53.057 Y5.615 E27.76775
G1 X-53.541 Y4.874 E27.81401
G1 X-53.904 Y4.142 E27.85669
G1 X-54.233 Y3.346 E27.90170
G1 X-54.494 Y2.564 E27.94478
G1 X-54.671 Y1.704 E27.99064
G1 X-54.784 Y0.850 E28.03565
G1 X-54.834 Y-0.088 E28.08469
G1 X-54.784 Y-0.850 E28.12459
G1 X-54.671 Y-1.704 E28.16960
G1 X-54.494 Y-2.564 E28.21546
G1 X-54.233 Y-3.346 E28.25854
G1 X-53.904 Y-4.142 E28.30355
G1 X-53.541 Y-4.874 E28.34623
G1 X-53.057 Y-5.615 E28.39249
G1 X-52.533 Y-6.299 E28.43750
G1 X-52.037 Y-6.869 E28.47698
G1 X-51.335 Y-7.504 E28.52644
G1 X-50.652 Y-8.029 E28.57144
G1 X-50.078 Y-8.420 E28.60774
G1 X-49.184 Y-8.885 E28.66038
G1 X-48.388 Y-9.214 E28.70538
G1 X-47.791 Y-9.427 E28.73850
G1 X-46.749 Y-9.663 E28.79431
G1 X-45.895 Y-9.775 E28.83932
G1 X-45.018 Y-9.834 E28.88525
G1 X-44.958 Y-9.417 F6000.000
G1 X45.042 Y-9.417 E33.58729 F1363.944
G1 X45.750 Y-9.371 E33.62432
G1 X47.084 Y-9.176 E33.69479
G1 X48.143 Y-8.860 E33.75249
G1 X49.331 Y-8.352 E33.81999
G1 X50.322 Y-7.748 E33.88066
G1 X51.161 Y-7.100 E33.93603
G1 X51.296 Y-6.988 E33.94520
G1 X52.141 Y-6.111 E34.00882
G1 X52.854 Y-5.172 E34.07040
G1 X53.476 Y-4.061 E34.13696
G1 X53.902 Y-3.023 E34.19557
G1 X54.237 Y-1.735 E34.26507
G1 X54.353 Y-0.853 E34.31156
G1 X54.375 Y-0.679 E34.32072
G1 X54.375 Y0.679 E34.39169
G1 X54.237 Y1.735 E34.44734
G1 X53.902 Y3.023 E34.51686
G1 X53.476 Y4.061 E34.57546
G1 X52.854 Y5.173 E34.64203
G1 X52.750 Y5.314 E34.65119
G1 X52.141 Y6.111 E34.70360
G1 X51.296 Y6.988 E34.76721
G1 X50.322 Y7.748 E34.83175
G1 X49.331 Y8.352 E34.89242
G1 X48.938 Y8.530 E34.91492
G1 X48.143 Y8.860 E34.95992
G1 X47.084 Y9.176 E35.01763
G1 X45.750 Y9.371 E35.08810
G1 X45.042 Y9.417 E35.12513
G1 X-44.958 Y9.417 E39.82717
G1 X-45.840 Y9.360 E39.87337
G1 X-46.694 Y9.248 E39.91838
G1 X-47.661 Y9.029 E39.97019
G1 X-48.227 Y8.827 E40.00158
G1 X-49.023 Y8.498 E40.04659
G1 X-49.853 Y8.067 E40.09544
G1 X-50.397 Y7.696 E40.12980
G1 X-51.080 Y7.172 E40.17481
G1 X-51.852 Y6.454 E40.22986
G1 X-52.200 Y6.044 E40.25800
G1 X-52.725 Y5.360 E40.30301
G1 X-53.174 Y4.672 E40.34596
G1 X-53.517 Y3.981 E40.38623
G1 X-53.846 Y3.186 E40.43124
G1 X-54.089 Y2.459 E40.47123
G1 X-54.256 Y1.649 E40.51445
G1 X-54.369 Y0.795 E40.55946
G1 X-54.415 Y-0.088 E40.60565
G1 X-54.369 Y-0.795 E40.64268
G1 X-54.256 Y-1.649 E40.68769
G1 X-54.089 Y-2.459 E40.73092
G1 X-53.846 Y-3.186 E40.77090
G1 X-53.517 Y-3.981 E40.81591
G1 X-53.174 Y-4.672 E40.85618
G1 X-52.725 Y-5.360 E40.89913
G1 X-52.200 Y-6.044 E40.94414
G1 X-51.731 Y-6.582 E40.98144
G1 X-51.080 Y-7.172 E41.02735
G1 X-50.397 Y-7.696 E41.07236
G1 X-49.853 Y-8.067 E41.10671
G1 X-49.023 Y-8.498 E41.15557
G1 X-48.227 Y-8.827 E41.20058
G1 X-47.661 Y-9.029 E41.23197
G1 X-46.694 Y-9.248 E41.28378
G1 X-45.840 Y-9.360 E41.32878
G1 X-45.018 Y-9.416 E41.37185
G1 E37.87185 F1800.00000
G92 E0
G1 X-47.893 Y-0.796 F6000.000
G1 E3.50000 F1800.00000
G1 X-47.589 Y-1.515 E3.54079 F1363.944
G1 X-47.141 Y-2.099 E3.57925
G1 X-46.494 Y-2.600 E3.62200
G1 X-45.739 Y-2.902 E3.66449
G1 X-44.963 Y-2.995 E3.70530
G1 X-44.222 Y-2.895 E3.74438
G1 X-43.485 Y-2.582 E3.78620
G1 X-42.872 Y-2.106 E3.82676
G1 X-42.402 Y-1.488 E3.86733
G1 X-42.107 Y-0.769 E3.90792
G1 X-42.012 Y-0.047 E3.94601
G1 X-42.107 Y0.770 E3.98896
G1 X-42.432 Y1.533 E4.03229
G1 X-42.870 Y2.105 E4.06993
G1 X-43.485 Y2.582 E4.11061
G1 X-44.262 Y2.902 E4.15451
G1 X-44.963 Y2.995 E4.19147
G1 X-45.739 Y2.902 E4.23227
G1 X-46.527 Y2.580 E4.27673
G1 X-47.111 Y2.132 E4.31518
G1 X-47.589 Y1.515 E4.35597
G1 X-47.904 Y0.752 E4.39908
G1 X-48.000 Y0.022 E4.43754
G1 X-47.906 Y-0.737 E4.47754
G1 X-48.291 Y-0.929 F6000.000
G1 X-47.941 Y-1.745 E4.52394 F1363.944
G1 X-47.461 Y-2.371 E4.56515
G1 X-47.393 Y-2.443 E4.57036
G1 X-46.686 Y-2.975 E4.61657
G1 X-45.843 Y-3.311 E4.66396
G1 X-44.961 Y-3.417 E4.71038
G1 X-44.100 Y-3.298 E4.75580
G1 X-43.271 Y-2.947 E4.80282
G1 X-42.572 Y-2.403 E4.84910
G1 X-42.035 Y-1.698 E4.89538
G1 X-41.699 Y-0.878 E4.94169
G1 X-41.596 Y-0.100 E4.98268
G1 X-41.584 Y-0.001 E4.98790
G1 X-41.699 Y0.879 E5.03425
G1 X-42.038 Y1.704 E5.08087
G1 X-42.096 Y1.784 E5.08603
G1 X-42.571 Y2.402 E5.12677
G1 X-43.271 Y2.947 E5.17312
G1 X-44.100 Y3.298 E5.22013
G1 X-44.195 Y3.316 E5.22522
G1 X-44.961 Y3.417 E5.26557
G1 X-45.843 Y3.311 E5.31199
G1 X-46.686 Y2.975 E5.35938
G1 X-46.767 Y2.924 E5.36439
G1 X-47.393 Y2.443 E5.40560
G1 X-47.941 Y1.745 E5.45200
G1 X-48.291 Y0.929 E5.49840
G1 X-48.316 Y0.832 E5.50362
G1 X-48.419 Y-0.050 E5.55000
G1 X-48.306 Y-0.871 E5.59328
G1 X-48.650 Y-1.048 F6000.000
G1 X-48.330 Y-1.821 E5.62829 F1702.307
G1 X-48.258 Y-1.952 E5.63454
G1 X-47.749 Y-2.615 E5.66954
G1 X-47.647 Y-2.724 E5.67579
G1 X-46.858 Y-3.312 E5.71697
G1 X-45.937 Y-3.680 E5.75848
G1 X-44.959 Y-3.797 E5.79973
G1 X-43.990 Y-3.661 E5.84070
G1 X-43.079 Y-3.275 E5.88211
G1 X-42.301 Y-2.671 E5.92332
G1 X-41.705 Y-1.887 E5.96454
G1 X-41.331 Y-0.976 E6.00576
G1 X-41.222 Y-0.148 E6.04071
G1 X-41.203 Y-0.000 E6.04695
G1 X-41.331 Y0.976 E6.08819
G1 X-41.706 Y1.889 E6.12950
G1 X-41.794 Y2.010 E6.13573
G1 X-42.301 Y2.670 E6.17061
G1 X-43.079 Y3.275 E6.21184
G1 X-43.990 Y3.661 E6.25325
G1 X-44.135 Y3.689 E6.25947
G1 X-44.959 Y3.797 E6.29423
G1 X-45.937 Y3.680 E6.33548
G1 X-46.858 Y3.312 E6.37699
G1 X-46.983 Y3.233 E6.38318
G1 X-47.647 Y2.724 E6.41819
G1 X-47.749 Y2.615 E6.42444
G1 X-48.258 Y1.952 E6.45944
G1 X-48.330 Y1.821 E6.46569
G1 X-48.650 Y1.048 E6.50070
G1 X-48.687 Y0.904 E6.50695
G1 X-48.796 Y0.075 E6.54196
G1 X-48.796 Y-0.075 E6.54820
G1 X-48.665 Y-0.990 E6.58692
G1 X-48.259 Y-1.133 F6000.000
G1 X-46.858 Y-1.877 F6000.000
G1 X-46.317 Y-2.288 E6.62412 F1300.752
G1 X-45.650 Y-2.554 E6.66347
G1 X-44.965 Y-2.636 E6.70125
G1 X-44.355 Y-2.555 E6.73501
G1 X-43.665 Y-2.272 E6.77585
G1 X-43.127 Y-1.854 E6.81317
G1 X-42.714 Y-1.310 E6.85061
G1 X-42.454 Y-0.677 E6.88808
G1 X-42.370 Y-0.044 E6.92305
G1 X-42.455 Y0.678 E6.96286
G1 X-42.742 Y1.352 E7.00302
G1 X-43.125 Y1.852 E7.03751
G1 X-43.665 Y2.272 E7.07500
G1 X-44.355 Y2.555 E7.11584
G1 X-44.965 Y2.636 E7.14960
G1 X-45.649 Y2.554 E7.18730
G1 X-46.348 Y2.268 E7.22866
G1 X-46.857 Y1.877 E7.26385
G1 X-47.279 Y1.335 E7.30147
G1 X-47.557 Y0.660 E7.34149
G1 X-47.641 Y0.021 E7.37677
G1 X-47.556 Y-0.661 E7.41442
G1 X-47.279 Y-1.335 E7.45436
G1 X-46.895 Y-1.829 E7.48865
G1 X-46.546 Y-1.562 F6000.000
G1 X-46.099 Y-1.902 E7.51941 F1300.752
G1 X-45.541 Y-2.124 E7.55234
G1 X-44.968 Y-2.193 E7.58395
G1 X-44.469 Y-2.127 E7.61154
G1 X-43.888 Y-1.888 E7.64596
G1 X-43.442 Y-1.542 E7.67688
G1 X-43.098 Y-1.089 E7.70802
G1 X-42.882 Y-0.563 E7.73920
G1 X-42.813 Y-0.041 E7.76806
G1 X-42.883 Y0.564 E7.80141
G1 X-43.124 Y1.129 E7.83505
G1 X-43.439 Y1.539 E7.86340
G1 X-43.888 Y1.888 E7.89453
G1 X-44.469 Y2.127 E7.92895
G1 X-44.968 Y2.193 E7.95654
G1 X-45.538 Y2.125 E7.98797
G1 X-46.127 Y1.884 E8.02286
G1 X-46.545 Y1.563 E8.05173
G1 X-46.895 Y1.113 E8.08299
G1 X-47.129 Y0.545 E8.11660
G1 X-47.198 Y0.019 E8.14566
G1 X-47.128 Y-0.548 E8.17699
G1 X-46.895 Y-1.113 E8.21043
G1 X-46.583 Y-1.514 E8.23831
G1 X-46.235 Y-1.247 F6000.000
G1 X-45.881 Y-1.516 E8.26265 F1300.752
G1 X-45.432 Y-1.695 E8.28915
G1 X-44.971 Y-1.750 E8.31459
G1 X-44.583 Y-1.699 E8.33601
G1 X-44.110 Y-1.505 E8.36402
G1 X-43.757 Y-1.230 E8.38852
G1 X-43.482 Y-0.869 E8.41337
G1 X-43.310 Y-0.449 E8.43827
G1 X-43.255 Y-0.038 E8.46100
G1 X-43.312 Y0.450 E8.48790
G1 X-43.506 Y0.906 E8.51502
G1 X-43.753 Y1.227 E8.53723
G1 X-44.110 Y1.505 E8.56200
G1 X-44.583 Y1.699 E8.59001
G1 X-44.971 Y1.750 E8.61143
G1 X-45.426 Y1.696 E8.63659
G1 X-45.906 Y1.500 E8.66499
G1 X-46.233 Y1.249 E8.68754
G1 X-46.512 Y0.890 E8.71244
G1 X-46.701 Y0.431 E8.73965
G1 X-46.755 Y0.018 E8.76248
G1 X-46.699 Y-0.435 E8.78750
G1 X-46.512 Y-0.890 E8.81444
G1 X-46.271 Y-1.200 E8.83591
G1 X-45.923 Y-0.932 F6000.000
G1 X-45.663 Y-1.130 E8.85382 F1300.752
G1 X-45.322 Y-1.266 E8.87390
G1 X-44.973 Y-1.308 E8.89317
G1 X-44.697 Y-1.271 E8.90842
G1 X-44.332 Y-1.121 E8.93002
G1 X-44.072 Y-0.919 E8.94810
G1 X-43.867 Y-0.649 E8.96666
G1 X-43.738 Y-0.335 E8.98528
G1 X-43.698 Y-0.034 E9.00189
G1 X-43.741 Y0.336 E9.02233
G1 X-43.889 Y0.683 E9.04294
G1 X-44.067 Y0.915 E9.05900
G1 X-44.332 Y1.121 E9.07741
G1 X-44.697 Y1.271 E9.09901
G1 X-44.973 Y1.308 E9.11426
G1 X-45.315 Y1.267 E9.13314
G1 X-45.686 Y1.115 E9.15507
G1 X-45.921 Y0.935 E9.17129
G1 X-46.128 Y0.668 E9.18984
G1 X-46.273 Y0.317 E9.21063
G1 X-46.313 Y0.016 E9.22725
G1 X-46.271 Y-0.323 E9.24595
G1 X-46.128 Y-0.668 E9.26640
G1 X-45.960 Y-0.885 E9.28146
G1 X-45.611 Y-0.617 F6000.000
G1 X-45.444 Y-0.744 E9.29294 F1300.752
G1 X-45.213 Y-0.837 E9.30659
G1 X-44.976 Y-0.865 E9.31969
G1 X-44.811 Y-0.843 E9.32877
G1 X-44.555 Y-0.738 E9.34396
G1 X-44.387 Y-0.607 E9.35562
G1 X-44.251 Y-0.429 E9.36789
G1 X-44.166 Y-0.221 E9.38023
G1 X-44.141 Y-0.031 E9.39071
G1 X-44.170 Y0.223 E9.40470
G1 X-44.271 Y0.459 E9.41879
G1 X-44.381 Y0.603 E9.42871
G1 X-44.555 Y0.738 E9.44076
G1 X-44.811 Y0.843 E9.45595
G1 X-44.976 Y0.865 E9.46503
G1 X-45.204 Y0.838 E9.47764
G1 X-45.465 Y0.731 E9.49309
G1 X-45.608 Y0.621 E9.50298
G1 X-45.745 Y0.445 E9.51517
G1 X-45.845 Y0.202 E9.52956
G1 X-45.870 Y0.014 E9.53995
G1 X-45.842 Y-0.210 E9.55234
G1 X-45.745 Y-0.445 E9.56629
G1 X-45.648 Y-0.570 E9.57494
G1 X-45.300 Y-0.303 F6000.000
G1 X-45.226 Y-0.358 E9.57999 F1300.752
G1 X-45.104 Y-0.407 E9.58723
G1 X-44.950 Y-0.426 E9.59568
G1 X-44.777 Y-0.354 E9.60594
G1 X-44.702 Y-0.296 E9.61118
G1 X-44.636 Y-0.209 E9.61715
G1 X-44.583 Y-0.028 E9.62749
G1 X-44.599 Y0.109 E9.63502
G1 X-44.695 Y0.291 E9.64630
G1 X-44.777 Y0.354 E9.65198
G1 X-44.950 Y0.426 E9.66224
G1 X-45.093 Y0.409 E9.67010
G1 X-45.296 Y0.307 E9.68255
G1 X-45.362 Y0.223 E9.68839
G1 X-45.417 Y0.088 E9.69637
G1 X-45.427 Y0.013 E9.70054
G1 X-45.413 Y-0.097 E9.70661
G1 X-45.336 Y-0.255 E9.71624
G1 E6.21624 F1800.00000
G92 E0
G1 X-41.002 Y-0.000 F6000.000
G1 X-35.003 Y-0.000 F6000.000
G1 X35.093 Y-0.088 F6000.000
G1 X41.004 Y-0.088 F6000.000
G1 X42.000 Y-0.022 F6000.000
G1 E3.50000 F1800.00000
G1 X42.107 Y-0.796 E3.54079 F1363.944
G1 X42.389 Y-1.476 E3.57925
G1 X42.889 Y-2.132 E3.62235
G1 X43.506 Y-2.600 E3.66280
G1 X44.261 Y-2.902 E3.70529
G1 X45.037 Y-2.995 E3.74609
G1 X45.778 Y-2.895 E3.78518
G1 X46.515 Y-2.582 E3.82700
G1 X47.128 Y-2.106 E3.86756
G1 X47.598 Y-1.488 E3.90812
G1 X47.893 Y-0.769 E3.94871
G1 X47.994 Y-0.002 E3.98914
G1 X47.893 Y0.770 E4.02982
G1 X47.594 Y1.498 E4.07096
G1 X47.130 Y2.105 E4.11085
G1 X46.515 Y2.582 E4.15153
G1 X45.778 Y2.895 E4.19335
G1 X45.037 Y2.995 E4.23244
G1 X44.261 Y2.902 E4.27324
G1 X43.506 Y2.600 E4.31573
G1 X42.889 Y2.132 E4.35618
G1 X42.389 Y1.476 E4.39928
G1 X42.107 Y0.796 E4.43774
G1 X42.002 Y0.037 E4.47774
G1 X41.581 Y-0.050 F6000.000
G1 X41.709 Y-0.929 E4.52413 F1363.944
G1 X42.011 Y-1.657 E4.56535
G1 X42.059 Y-1.745 E4.57056
G1 X42.607 Y-2.443 E4.61696
G1 X43.314 Y-2.975 E4.66317
G1 X44.157 Y-3.311 E4.71056
G1 X45.039 Y-3.417 E4.75698
G1 X45.900 Y-3.298 E4.80240
G1 X46.729 Y-2.947 E4.84942
G1 X47.428 Y-2.403 E4.89570
G1 X47.965 Y-1.698 E4.94198
G1 X48.301 Y-0.878 E4.98829
G1 X48.416 Y-0.001 E5.03450
G1 X48.301 Y0.879 E5.08085
G1 X47.962 Y1.704 E5.12747
G1 X47.429 Y2.402 E5.17337
G1 X46.729 Y2.947 E5.21972
G1 X45.900 Y3.298 E5.26673
G1 X45.039 Y3.417 E5.31216
G1 X44.157 Y3.311 E5.35858
G1 X43.314 Y2.975 E5.40597
G1 X42.607 Y2.443 E5.45218
G1 X42.059 Y1.745 E5.49858
G1 X42.011 Y1.657 E5.50379
G1 X41.709 Y0.929 E5.54500
G1 X41.581 Y0.010 E5.59345
G1 X41.204 Y-0.075 F6000.000
G1 X41.313 Y-0.904 E5.62846 F1702.307
G1 X41.350 Y-1.048 E5.63471
G1 X41.670 Y-1.821 E5.66972
G1 X41.742 Y-1.952 E5.67597
G1 X42.251 Y-2.615 E5.71097
G1 X42.353 Y-2.724 E5.71722
G1 X43.142 Y-3.312 E5.75840
G1 X44.063 Y-3.680 E5.79991
G1 X45.041 Y-3.797 E5.84116
G1 X46.010 Y-3.661 E5.88213
G1 X46.921 Y-3.275 E5.92354
G1 X47.699 Y-2.671 E5.96475
G1 X48.295 Y-1.887 E6.00597
G1 X48.669 Y-0.976 E6.04719
G1 X48.797 Y-0.000 E6.08838
G1 X48.669 Y0.976 E6.12962
G1 X48.294 Y1.889 E6.17093
G1 X47.699 Y2.670 E6.21204
G1 X46.921 Y3.275 E6.25327
G1 X46.010 Y3.661 E6.29468
G1 X45.041 Y3.797 E6.33565
G1 X44.063 Y3.680 E6.37690
G1 X43.142 Y3.312 E6.41841
G1 X42.353 Y2.724 E6.45959
G1 X42.251 Y2.615 E6.46584
G1 X41.742 Y1.952 E6.50084
G1 X41.670 Y1.821 E6.50709
