; generated by Slic3r 1.2.9 on 2016-06-13 at 17:58:49

; external perimeters extrusion width = 0.40mm
; perimeters extrusion width = 0.67mm
; infill extrusion width = 0.67mm
; solid infill extrusion width = 0.67mm
; top infill extrusion width = 0.67mm
; support material extrusion width = 0.40mm

M107
M190 S60 ; set bed temperature
M104 S205 ; set temperature
G28 ; home all axes

M109 S205 ; wait for temperature to be reached
G21 ; set units to millimeters
G90 ; use absolute coordinates
M82 ; use absolute distances for extrusion
G92 E0
G1 E-4.00000 F4800.00000
G92 E0
G1 Z1.000 F6000.000
G1 X-0.001 Y31.206 F6000.000
G1 Z0.300 F6000.000
G1 E4.00000 F4800.00000
G1 X-41.427 Y31.206 E6.16431 F1200.000
G1 X-42.317 Y31.142 E6.21095
G1 X-45.142 Y30.736 E6.36003
G1 X-46.014 Y30.546 E6.40667
G1 X-48.752 Y29.742 E6.55575
G1 X-49.588 Y29.430 E6.60239
G1 X-52.184 Y28.245 E6.75148
G1 X-52.968 Y27.817 E6.79811
G1 X-55.368 Y26.274 E6.94720
G1 X-55.922 Y25.874 E6.98287
G1 X-57.065 Y24.949 E7.05969
G1 X-57.555 Y24.508 E7.09418
G1 X-59.542 Y22.519 E7.24103
G1 X-60.124 Y21.847 E7.28749
G1 X-61.834 Y19.562 E7.43657
G1 X-62.316 Y18.811 E7.48321
G1 X-63.684 Y16.307 E7.63230
G1 X-64.055 Y15.495 E7.67894
G1 X-65.052 Y12.821 E7.82802
G1 X-65.304 Y11.965 E7.87466
G1 X-65.910 Y9.176 E8.02374
G1 X-66.037 Y8.293 E8.07038
G1 X-66.241 Y5.446 E8.21947
G1 X-66.257 Y5.000 E8.24280
G1 X-66.257 Y-25.000 E9.81015
G1 X-65.860 Y-27.193 E9.92656
G1 X-64.720 Y-29.107 E10.04298
G1 X-62.981 Y-30.501 E10.15940
G1 X-60.000 Y-31.257 E10.32007
G1 X60.000 Y-31.257 E16.58946
G1 X62.193 Y-30.860 E16.70587
G1 X64.107 Y-29.720 E16.82229 F1200.000
G1 X65.501 Y-27.981 E16.93871
G1 X66.257 Y-25.000 E17.09938
G1 X66.257 Y5.000 E18.66673
G1 X66.241 Y5.446 E18.69006
G1 X66.037 Y8.293 E18.83914
G1 X65.954 Y8.957 E18.87414
G1 X65.700 Y10.362 E18.94873
G1 X65.547 Y11.011 E18.98354
G1 X64.757 Y13.708 E19.13039
G1 X64.538 Y14.331 E19.16488
G1 X63.978 Y15.691 E19.24170
G1 X63.787 Y16.109 E19.26571
G1 X63.148 Y17.386 E19.34030
G1 X62.817 Y17.968 E19.37530
G1 X61.274 Y20.368 E19.52438
G1 X60.739 Y21.083 E19.57102
G1 X58.871 Y23.239 E19.72010
G1 X58.406 Y23.721 E19.75509
G1 X57.361 Y24.694 E19.82968
G1 X56.847 Y25.124 E19.86468
G1 X54.562 Y26.834 E20.01376
G1 X54.005 Y27.206 E20.04875
G1 X52.778 Y27.934 E20.12334
G1 X52.184 Y28.245 E20.15833
G1 X49.588 Y29.430 E20.30742
G1 X48.965 Y29.675 E20.34241
G1 X47.610 Y30.126 E20.41700
G1 X45.799 Y30.605 E20.51491
G1 X45.142 Y30.736 E20.54990
G1 X42.317 Y31.142 E20.69899
G1 X41.430 Y31.206 E20.74545
G1 X0.059 Y31.206 E22.90686
G1 X-0.001 Y30.788 F6000.000
G1 X-41.427 Y30.787 E25.07117 F1200.000
G1 X-42.258 Y30.727 E25.11468
G1 X-45.082 Y30.321 E25.26377
G1 X-45.896 Y30.144 E25.30728
G1 X-48.634 Y29.340 E25.45637
G1 X-49.414 Y29.049 E25.49989
G1 X-52.010 Y27.864 E25.64897
G1 X-52.741 Y27.465 E25.69248
G1 X-55.142 Y25.922 E25.84157
G1 X-55.658 Y25.549 E25.87485
G1 X-56.801 Y24.624 E25.95167
G1 X-57.259 Y24.211 E25.98386
G1 X-59.245 Y22.223 E26.13070
G1 X-59.788 Y21.596 E26.17405
G1 X-61.498 Y19.311 E26.32314
G1 X-61.949 Y18.611 E26.36665
G1 X-63.316 Y16.106 E26.51574
G1 X-63.662 Y15.348 E26.55925
G1 X-64.660 Y12.675 E26.70834
G1 X-64.894 Y11.876 E26.75185
G1 X-65.501 Y9.087 E26.90094
G1 X-65.619 Y8.263 E26.94445
G1 X-65.823 Y5.416 E27.09354
G1 X-65.838 Y5.000 E27.11531
G1 X-65.838 Y-25.000 E28.68266
G1 X-65.441 Y-27.115 E28.79508
G1 X-64.305 Y-28.943 E28.90750
G1 X-62.585 Y-30.234 E29.01992
G1 X-60.000 Y-30.838 E29.15858
G1 X60.000 Y-30.838 E35.42797
G1 X62.115 Y-30.441 E35.54039
G1 X63.943 Y-29.305 E35.65281 F1200.000
G1 X65.234 Y-27.585 E35.76523
G1 X65.838 Y-25.000 E35.90389
G1 X65.838 Y5.000 E37.47123
G1 X65.823 Y5.416 E37.49300
G1 X65.619 Y8.263 E37.64209
G1 X65.541 Y8.883 E37.67474
G1 X65.288 Y10.288 E37.74933
G1 X65.145 Y10.893 E37.78181
G1 X64.355 Y13.590 E37.92866
G1 X64.151 Y14.171 E37.96084
G1 X63.413 Y15.921 E38.06006
G1 X62.774 Y17.198 E38.13465
G1 X62.465 Y17.741 E38.16730
G1 X60.922 Y20.142 E38.31638
G1 X60.423 Y20.808 E38.35990
G1 X58.554 Y22.965 E38.50898
G1 X58.120 Y23.415 E38.54163
G1 X57.075 Y24.388 E38.61622
G1 X56.596 Y24.788 E38.64887
G1 X54.311 Y26.498 E38.79795
G1 X53.792 Y26.846 E38.83060
G1 X52.564 Y27.574 E38.90519
G1 X52.010 Y27.864 E38.93784
G1 X49.414 Y29.049 E39.08692
G1 X48.833 Y29.278 E39.11958
G1 X47.478 Y29.729 E39.19417
G1 X45.695 Y30.199 E39.29051
G1 X45.082 Y30.321 E39.32316
G1 X42.258 Y30.727 E39.47225
G1 X41.430 Y30.787 E39.51560
G1 X0.059 Y30.788 E41.67700
G1 X-0.001 Y30.369 F6000.000
G1 X-41.427 Y30.368 E43.84131 F1200.000
G1 X-42.198 Y30.313 E43.88170
G1 X-45.022 Y29.907 E44.03078
G1 X-45.778 Y29.742 E44.07118
G1 X-48.516 Y28.938 E44.22026
G1 X-49.240 Y28.668 E44.26066
G1 X-51.836 Y27.483 E44.40974
G1 X-52.515 Y27.112 E44.45013
G1 X-54.915 Y25.569 E44.59922
G1 X-55.395 Y25.223 E44.63011
G1 X-56.538 Y24.298 E44.70693
G1 X-56.962 Y23.915 E44.73681
G1 X-58.949 Y21.927 E44.88365
G1 X-59.453 Y21.345 E44.92389
G1 X-61.163 Y19.060 E45.07298
G1 X-61.581 Y18.410 E45.11337
G1 X-62.949 Y15.905 E45.26246
G1 X-63.270 Y15.202 E45.30285
G1 X-64.267 Y12.528 E45.45193
G1 X-64.485 Y11.787 E45.49233
G1 X-65.091 Y8.998 E45.64141
G1 X-65.202 Y8.233 E45.68181
G1 X-65.419 Y5.000 E45.85109
G1 X-65.419 Y-25.000 E47.41844
G1 X-65.023 Y-27.034 E47.52671
G1 X-63.892 Y-28.771 E47.63499
G1 X-62.191 Y-29.956 E47.74326
G1 X-60.000 Y-30.419 E47.86028
G1 X60.000 Y-30.419 E54.12967
G1 X62.034 Y-30.023 E54.23794
G1 X63.771 Y-28.892 E54.34622 F1200.000
G1 X64.956 Y-27.191 E54.45449
G1 X65.419 Y-25.000 E54.57151
G1 X65.419 Y5.000 E56.13886
G1 X65.202 Y8.233 E56.30814
G1 X65.129 Y8.808 E56.33845
G1 X64.876 Y10.213 E56.41304
G1 X64.743 Y10.775 E56.44319
G1 X63.953 Y13.472 E56.59004
G1 X63.763 Y14.012 E56.61991
G1 X63.038 Y15.734 E56.71752
G1 X62.399 Y17.011 E56.79211
G1 X62.112 Y17.515 E56.82242
G1 X60.569 Y19.915 E56.97150
G1 X60.106 Y20.534 E57.01189
G1 X58.237 Y22.691 E57.16098
G1 X57.835 Y23.108 E57.19128
G1 X56.790 Y24.081 E57.26587
G1 X56.345 Y24.453 E57.29618
G1 X54.060 Y26.163 E57.44526
G1 X53.578 Y26.485 E57.47557
G1 X52.350 Y27.214 E57.55016
G1 X51.836 Y27.483 E57.58047
G1 X49.240 Y28.668 E57.72955
G1 X48.701 Y28.881 E57.75986
G1 X47.346 Y29.331 E57.83445
G1 X45.591 Y29.793 E57.92923
G1 X45.022 Y29.907 E57.95954
G1 X42.198 Y30.313 E58.10863
G1 X41.430 Y30.368 E58.14887
G1 X0.059 Y30.369 E60.31025
G1 F4800
G1 X-3.941 Y30.369 E56.51025
G1 E56.31025 F4800.00000
G92 E0
G1 Z1.300 F6000.000
G1 X-58.198 Y-2.811 F6000.000
G1 Z0.300 F6000.000
G1 E4.00000 F4800.00000
G1 X-51.311 Y-2.811 E4.35983 F1200.000
G1 X-51.311 Y4.954 E4.76550
G1 X-51.114 Y7.078 E4.87692
G1 X-50.537 Y9.107 E4.98714
G1 X-50.133 Y10.020 E5.03930
G1 X-49.010 Y11.833 E5.15073
G1 X-48.373 Y12.601 E5.20289
G1 X-46.814 Y14.023 E5.31311
G1 X-45.040 Y15.121 E5.42212
G1 X-43.094 Y15.875 E5.53112
G1 X-41.020 Y16.262 E5.64134
G1 X-40.023 Y16.309 E5.69350
G1 X-37.899 Y16.112 E5.80493
G1 X-36.927 Y15.883 E5.85711
G1 X-34.990 Y15.134 E5.96560
G1 X-33.186 Y14.022 E6.07635
G1 X-31.644 Y12.617 E6.18532
G1 X-30.391 Y10.960 E6.29383
G1 X-29.887 Y10.060 E6.34775
G1 X-29.117 Y8.073 E6.45911
G1 X-28.888 Y7.101 E6.51127
G1 X-28.689 Y4.954 E6.62390
G1 X-28.689 Y-2.811 E7.02958
G1 X-21.796 Y-2.811 E7.38974
G1 X-21.856 Y6.431 E7.87261
G1 X-22.302 Y9.249 E8.02165
G1 X-23.184 Y11.965 E8.17085
G1 X-24.452 Y14.456 E8.31687
G1 X-25.287 Y15.712 E8.39570
G1 X-27.130 Y17.870 E8.54393
G1 X-29.254 Y19.686 E8.68995
G1 X-30.506 Y20.527 E8.76878
G1 X-33.035 Y21.816 E8.91702
G1 X-35.751 Y22.698 E9.06624
G1 X-38.553 Y23.142 E9.21443
G1 X-40.000 Y23.199 E9.29011
G1 X-41.447 Y23.142 E9.36579
G1 X-44.249 Y22.698 E9.51398
G1 X-46.965 Y21.816 E9.66318
G1 X-49.456 Y20.548 E9.80919
G1 X-50.712 Y19.713 E9.88802
G1 X-52.870 Y17.870 E10.03627
G1 X-54.725 Y15.698 E10.18548
G1 X-56.217 Y13.263 E10.33470
G1 X-57.310 Y10.624 E10.48392
G1 X-57.977 Y7.847 E10.63313
G1 X-58.198 Y5.039 E10.78030
G1 X-58.198 Y-2.751 E11.18729
G1 X-57.779 Y-2.392 F6000.000
G1 X-51.730 Y-2.392 E11.50334 F1200.000
G1 X-51.730 Y4.973 E11.88815
G1 X-51.527 Y7.155 E12.00261
G1 X-50.931 Y9.249 E12.11637
G1 X-50.505 Y10.216 E12.17157
G1 X-49.351 Y12.079 E12.28604
G1 X-48.676 Y12.891 E12.34124
G1 X-47.067 Y14.358 E12.45500
G1 X-45.227 Y15.498 E12.56806
G1 X-43.209 Y16.279 E12.68113
G1 X-41.069 Y16.679 E12.79489
G1 X-40.013 Y16.728 E12.85009
G1 X-37.832 Y16.526 E12.96455
G1 X-36.803 Y16.284 E13.01977
G1 X-34.803 Y15.511 E13.13178
G1 X-32.932 Y14.358 E13.24660
G1 X-31.333 Y12.900 E13.35964
G1 X-30.040 Y11.190 E13.47166
G1 X-29.507 Y10.239 E13.52863
G1 X-28.716 Y8.197 E13.64305
G1 X-28.474 Y7.168 E13.69825
G1 X-28.270 Y4.973 E13.81342
G1 X-28.270 Y-2.392 E14.19822
G1 X-22.217 Y-2.392 E14.51447
G1 X-22.274 Y6.397 E14.97366
G1 X-22.710 Y9.151 E15.11933
G1 X-23.573 Y11.804 E15.26510
G1 X-24.814 Y14.244 E15.40812
G1 X-25.622 Y15.459 E15.48437
G1 X-27.427 Y17.573 E15.62957
G1 X-29.508 Y19.352 E15.77259
G1 X-30.719 Y20.166 E15.84884
G1 X-33.196 Y21.427 E15.99405
G1 X-35.849 Y22.290 E16.13982
G1 X-38.594 Y22.724 E16.28499
G1 X-40.000 Y22.780 E16.35852
G1 X-41.406 Y22.724 E16.43205
G1 X-44.151 Y22.290 E16.57723
G1 X-46.804 Y21.427 E16.72299
G1 X-49.244 Y20.186 E16.86601
G1 X-50.459 Y19.378 E16.94226
G1 X-52.573 Y17.573 E17.08747
G1 X-54.385 Y15.451 E17.23324
G1 X-55.843 Y13.072 E17.37901
G1 X-56.911 Y10.495 E17.52478
G1 X-57.562 Y7.782 E17.67055
G1 X-57.779 Y5.023 E17.81513
G1 X-57.779 Y-2.332 E18.19938
G1 X-57.402 Y-2.015 F6000.000
G1 X-52.107 Y-2.015 E18.42103 F1200.000
G1 X-52.107 Y4.991 E18.71429
G1 X-51.900 Y7.224 E18.80819
G1 X-51.287 Y9.378 E18.90190
G1 X-50.839 Y10.392 E18.94832
G1 X-49.658 Y12.299 E19.04223
G1 X-48.950 Y13.153 E19.08865
G1 X-47.295 Y14.661 E19.18236
G1 X-45.396 Y15.837 E19.27587
G1 X-43.313 Y16.644 E19.36939
G1 X-41.112 Y17.055 E19.46310
G1 X-40.005 Y17.106 E19.50952
G1 X-37.771 Y16.899 E19.60343
G1 X-36.691 Y16.645 E19.64985
G1 X-34.635 Y15.850 E19.74214
G1 X-32.704 Y14.661 E19.83707
G1 X-31.054 Y13.156 E19.93058
G1 X-29.724 Y11.397 E20.02287
G1 X-29.165 Y10.400 E20.07072
G1 X-28.355 Y8.309 E20.16461
G1 X-28.101 Y7.229 E20.21103
G1 X-27.893 Y4.991 E20.30513
G1 X-27.893 Y-2.015 E20.59838
G1 X-22.597 Y-2.015 E20.82009
G1 X-22.651 Y6.366 E21.17092
G1 X-23.078 Y9.063 E21.28520
G1 X-23.922 Y11.660 E21.39951
G1 X-25.140 Y14.054 E21.51195
G1 X-25.924 Y15.232 E21.57117
G1 X-27.695 Y17.305 E21.68533
G1 X-29.736 Y19.051 E21.79777
G1 X-30.911 Y19.840 E21.85699
G1 X-33.340 Y21.078 E21.97114
G1 X-35.937 Y21.922 E22.08545
G1 X-38.631 Y22.348 E22.19960
G1 X-40.000 Y22.402 E22.25696
G1 X-41.369 Y22.348 E22.31432
G1 X-44.063 Y21.922 E22.42847
G1 X-46.660 Y21.078 E22.54278
G1 X-49.054 Y19.860 E22.65522
G1 X-50.232 Y19.076 E22.71444
G1 X-52.305 Y17.305 E22.82860
G1 X-54.079 Y15.229 E22.94291
G1 X-55.506 Y12.901 E23.05722
G1 X-56.551 Y10.378 E23.17153
G1 X-57.188 Y7.722 E23.28584
G1 X-57.402 Y5.008 E23.39982
G1 X-57.402 Y-1.955 E23.69128
G1 X-57.402 Y-2.415 F6000.000
G1 F4800
G1 X-53.402 Y-2.000 E19.89128
G1 E19.69128 F4800.00000
G92 E0
G1 Z1.300 F6000.000
G1 X-55.228 Y-9.336 F6000.000
G1 Z0.300 F6000.000
G1 E4.00000 F4800.00000
G1 X-55.228 Y-20.906 E4.60446 F1200.000
G1 X-19.446 Y-20.815 E6.47387
G1 X-19.219 Y-19.087 E6.56491
G1 X-55.170 Y-9.352 E8.51081
G1 X-54.809 Y-9.884 F6000.000
G1 X-54.809 Y-20.486 E9.06474 F1200.000
G1 X-19.814 Y-20.397 E10.89306
G1 X-19.682 Y-19.396 E10.94582
G1 X-54.751 Y-9.899 E12.84398
G1 X-54.432 Y-10.377 F6000.000
G1 X-54.432 Y-20.108 E13.25133 F1200.000
G1 X-20.145 Y-20.020 E14.68660
G1 X-20.099 Y-19.673 E14.70125
G1 X-54.374 Y-10.392 E16.18767
G1 X-54.830 Y-10.341 F6000.000
G1 F4800
G1 X-54.397 Y-14.392 E12.38767
G1 E12.18767 F4800.00000
G92 E0
G1 Z1.300 F6000.000
G1 X-40.817 Y-11.364 F6000.000
G1 Z0.300 F6000.000
G1 E4.00000 F4800.00000
G1 X-39.119 Y-12.019 E4.09508 F1200.000
G1 X-0.090 Y-23.120 E6.21500
G1 X40.801 Y-11.541 E8.43538
G1 X40.564 Y-9.823 E8.52596
G1 X-40.513 Y-9.735 E12.76180
G1 X-40.806 Y-11.305 E12.84521
G1 X-40.341 Y-11.098 F6000.000
G1 X-38.986 Y-11.621 E12.92110 F1200.000
G1 X-0.090 Y-22.684 E15.03381
G1 X40.337 Y-11.237 E17.22893
G1 X40.199 Y-10.242 E17.28143
G1 X-40.165 Y-10.155 E21.48003
G1 X-40.330 Y-11.039 E21.52704
G1 X-39.913 Y-10.859 F6000.000
G1 X-38.866 Y-11.263 E21.57400 F1200.000
G1 X-0.090 Y-22.292 E23.26157
G1 X39.918 Y-10.963 E25.00215
G1 X39.870 Y-10.619 E25.01672
G1 X-39.852 Y-10.532 E28.35390
G1 X-39.902 Y-10.800 E28.36531
G1 X-40.034 Y-11.240 F6000.000
G1 F4800
G1 X-38.866 Y-11.263 E27.28790
G1 F4800
G1 X-36.110 Y-12.047 E24.56531
G1 E24.36531 F4800.00000
G92 E0
G1 Z1.300 F6000.000
G1 X-0.090 Y-23.124 F6000.000
G1 X0.031 Y-23.553 F6000.000
G1 X18.040 Y-19.705 F6000.000
G1 X19.674 Y-19.476 F6000.000
G1 X19.678 Y-19.478 F6000.000
G1 Z0.300 F6000.000
G1 E4.00000 F4800.00000
G1 X19.919 Y-21.194 E4.09052 F1200.000
G1 X55.228 Y-21.194 E5.93523
G1 X55.228 Y-9.317 E6.55574
G1 X19.736 Y-19.462 E8.48426
G1 X20.144 Y-19.781 F6000.000
G1 X20.283 Y-20.775 E8.53672 F1200.000
G1 X54.809 Y-20.775 E10.34051
G1 X54.809 Y-9.873 E10.91012
G1 X20.201 Y-19.765 E12.79059
G1 X20.563 Y-20.054 F6000.000
G1 X20.611 Y-20.398 E12.80516 F1200.000
G1 X54.432 Y-20.398 E14.22089
G1 X54.432 Y-10.373 E14.64055
G1 X20.620 Y-20.037 E16.11257
G1 X20.221 Y-20.118 F6000.000
G1 F4800
G1 X20.611 Y-20.398 E15.76952
G1 F4800
G1 X24.250 Y-20.398 E12.31257
G1 E12.11257 F4800.00000
G92 E0
G1 Z1.300 F6000.000
G1 X19.674 Y-19.476 F6000.000
G1 X41.054 Y-12.419 F6000.000
G1 X40.000 Y1.488 F6000.000
G1 X24.480 Y-6.308 F6000.000
G1 X21.798 Y-3.613 F6000.000
G1 X21.798 Y-2.815 F6000.000
G1 X21.802 Y-2.811 F6000.000
G1 Z0.300 F6000.000
G1 E4.00000 F4800.00000
G1 X28.689 Y-2.811 E4.35983 F1200.000
G1 X28.689 Y4.954 E4.76550
G1 X28.886 Y7.078 E4.87694
G1 X29.453 Y9.076 E4.98545
G1 X29.867 Y10.021 E5.03937
G1 X30.990 Y11.833 E5.15072
G1 X31.627 Y12.601 E5.20289
G1 X33.186 Y14.023 E5.31310
G1 X34.980 Y15.133 E5.42332
G1 X35.893 Y15.537 E5.47548
G1 X37.922 Y16.114 E5.58570
G1 X40.023 Y16.309 E5.69592
G1 X41.020 Y16.262 E5.74808
G1 X43.094 Y15.875 E5.85830
G1 X45.040 Y15.121 E5.96730
G1 X46.814 Y14.023 E6.07631
G1 X48.373 Y12.601 E6.18652
G1 X49.010 Y11.833 E6.23869
G1 X50.133 Y10.021 E6.35004
G1 X50.547 Y9.076 E6.40397
G1 X51.114 Y7.078 E6.51247
G1 X51.311 Y4.954 E6.62391
G1 X51.311 Y-2.811 E7.02959
G1 X58.204 Y-2.811 E7.38975
G1 X58.144 Y6.431 E7.87262
G1 X57.698 Y9.249 E8.02166
G1 X56.816 Y11.965 E8.17088
G1 X55.519 Y14.510 E8.32008
G1 X53.878 Y16.772 E8.46609
G1 X52.856 Y17.882 E8.54491
G1 X50.746 Y19.686 E8.68995
G1 X49.494 Y20.527 E8.76878
G1 X46.965 Y21.816 E8.91703
G1 X44.249 Y22.698 E9.06625
G1 X41.447 Y23.142 E9.21444
G1 X40.000 Y23.199 E9.29012
G1 X38.553 Y23.142 E9.36580
G1 X35.751 Y22.698 E9.51399
G1 X33.035 Y21.816 E9.66320
G1 X30.507 Y20.528 E9.81139
G1 X29.287 Y19.712 E9.88808
G1 X27.161 Y17.898 E10.03411
G1 X25.275 Y15.699 E10.18544
G1 X23.783 Y13.263 E10.33470
G1 X22.690 Y10.624 E10.48392
G1 X22.023 Y7.847 E10.63313
G1 X21.802 Y5.039 E10.78030
G1 X21.802 Y-2.751 E11.18729
G1 X22.221 Y-2.392 F6000.000
G1 X28.270 Y-2.392 E11.50334 F1200.000
G1 X28.270 Y4.973 E11.88815
G1 X28.473 Y7.155 E12.00262
G1 X29.058 Y9.218 E12.11464
G1 X29.496 Y10.216 E12.17161
G1 X30.649 Y12.079 E12.28603
G1 X31.324 Y12.891 E12.34123
G1 X32.933 Y14.358 E12.45500
G1 X34.784 Y15.505 E12.56876
G1 X35.751 Y15.931 E12.62396
G1 X37.845 Y16.527 E12.73773
G1 X40.013 Y16.728 E12.85149
G1 X41.069 Y16.679 E12.90669
G1 X43.209 Y16.279 E13.02045
G1 X45.227 Y15.498 E13.13351
G1 X47.067 Y14.358 E13.24658
G1 X48.676 Y12.891 E13.36034
G1 X49.351 Y12.079 E13.41554
G1 X50.504 Y10.216 E13.52996
G1 X50.942 Y9.218 E13.58693
G1 X51.527 Y7.155 E13.69895
G1 X51.730 Y4.973 E13.81343
G1 X51.730 Y-2.392 E14.19823
G1 X57.783 Y-2.392 E14.51448
G1 X57.726 Y6.397 E14.97367
G1 X57.290 Y9.151 E15.11934
G1 X56.427 Y11.804 E15.26511
G1 X55.161 Y14.290 E15.41088
G1 X53.553 Y16.506 E15.55390
G1 X52.565 Y17.580 E15.63014
G1 X50.492 Y19.352 E15.77260
G1 X49.281 Y20.166 E15.84884
G1 X46.804 Y21.427 E15.99405
G1 X44.151 Y22.290 E16.13983
G1 X41.406 Y22.724 E16.28500
G1 X40.000 Y22.780 E16.35853
G1 X38.594 Y22.724 E16.43206
G1 X35.849 Y22.290 E16.57724
