; generated by Slic3r 1.2.9 on 2016-06-09 at 13:27:28

; external perimeters extrusion width = 0.40mm
; perimeters extrusion width = 0.67mm
; infill extrusion width = 0.67mm
; solid infill extrusion width = 0.67mm
; top infill extrusion width = 0.67mm
; support material extrusion width = 0.40mm

M107
M190 S60 ; set bed temperature
M104 S205 ; set temperature
G28 ; home all axes

M109 S205 ; wait for temperature to be reached
G21 ; set units to millimeters
G90 ; use absolute coordinates
M82 ; use absolute distances for extrusion
G92 E0
G1 E-4.00000 F4800.00000
G92 E0
G1 Z1.000 F6000.000
G1 X0.000 Y30.952 F6000.000
G1 Z0.400 F6000.000
G1 E4.00000 F4800.00000
G1 X-41.427 Y30.952 E6.30212 F1200.000
G1 X-42.281 Y30.890 E6.34972
G1 X-45.106 Y30.484 E6.50829
G1 X-45.942 Y30.302 E6.55588
G1 X-48.680 Y29.498 E6.71446
G1 X-49.286 Y29.285 E6.75017
G1 X-50.605 Y28.738 E6.82951
G1 X-51.185 Y28.461 E6.86521
G1 X-53.690 Y27.093 E7.02379
G1 X-54.410 Y26.630 E7.07138
G1 X-56.694 Y24.920 E7.22996
G1 X-57.342 Y24.359 E7.27755
G1 X-59.359 Y22.342 E7.43612
G1 X-59.920 Y21.694 E7.48372
G1 X-61.630 Y19.410 E7.64229
G1 X-62.093 Y18.689 E7.68988
G1 X-63.461 Y16.185 E7.84846
G1 X-63.817 Y15.406 E7.89605
G1 X-64.814 Y12.732 E8.05463
G1 X-65.055 Y11.911 E8.10222
G1 X-65.662 Y9.122 E8.26079
G1 X-65.784 Y8.275 E8.30839
G1 X-65.987 Y5.428 E8.46696
G1 X-66.002 Y5.000 E8.49077
G1 X-66.002 Y-25.000 E10.15790
G1 X-65.606 Y-27.146 E10.27917
G1 X-64.468 Y-29.008 E10.40043
G1 X-62.740 Y-30.341 E10.52170
G1 X-60.000 Y-31.002 E10.67835
G1 X60.000 Y-31.002 E17.34686
G1 X62.146 Y-30.606 E17.46813
G1 X64.008 Y-29.468 E17.58939 F1200.000
G1 X65.341 Y-27.740 E17.71066
G1 X66.002 Y-25.000 E17.86731
G1 X66.002 Y5.000 E19.53444
G1 X65.987 Y5.428 E19.55825
G1 X65.784 Y8.274 E19.71682
G1 X65.704 Y8.912 E19.75253
G1 X65.356 Y10.747 E19.85633
G1 X64.990 Y12.169 E19.93793
G1 X64.800 Y12.774 E19.97315
G1 X63.816 Y15.409 E20.12946
G1 X63.560 Y15.995 E20.16499
G1 X62.921 Y17.272 E20.24433
G1 X62.603 Y17.830 E20.28004
G1 X61.060 Y20.231 E20.43861
G1 X60.685 Y20.752 E20.47432
G1 X59.789 Y21.864 E20.55366
G1 X59.359 Y22.342 E20.58937
G1 X57.342 Y24.359 E20.74794
G1 X56.864 Y24.789 E20.78365
G1 X55.752 Y25.685 E20.86299
G1 X55.231 Y26.060 E20.89870
G1 X52.830 Y27.603 E21.05727
G1 X52.261 Y27.926 E21.09364
G1 X50.947 Y28.581 E21.17524
G1 X50.365 Y28.833 E21.21046
G1 X47.729 Y29.815 E21.36677
G1 X47.108 Y30.009 E21.40296
G1 X45.684 Y30.369 E21.48456
G1 X45.062 Y30.492 E21.51978
G1 X42.278 Y30.891 E21.67609
G1 X41.427 Y30.952 E21.72351
G1 X0.060 Y30.952 E24.02230
G1 X0.000 Y30.617 F6000.000
G1 X-41.427 Y30.617 E26.32443 F1200.000
G1 X-42.233 Y30.560 E26.36937
G1 X-45.058 Y30.154 E26.52794
G1 X-45.848 Y29.982 E26.57289
G1 X-48.586 Y29.178 E26.73146
G1 X-49.158 Y28.976 E26.76518
G1 X-50.477 Y28.429 E26.84452
G1 X-51.025 Y28.168 E26.87824
G1 X-53.529 Y26.800 E27.03682
G1 X-54.210 Y26.363 E27.08176
G1 X-56.494 Y24.653 E27.24033
G1 X-57.105 Y24.123 E27.28528
G1 X-59.123 Y22.105 E27.44385
G1 X-59.653 Y21.494 E27.48879
G1 X-61.363 Y19.210 E27.64737
G1 X-61.800 Y18.529 E27.69231
G1 X-63.168 Y16.025 E27.85089
G1 X-63.504 Y15.289 E27.89583
G1 X-64.501 Y12.616 E28.05441
G1 X-64.729 Y11.840 E28.09935
G1 X-65.335 Y9.051 E28.25792
G1 X-65.450 Y8.251 E28.30287
G1 X-65.654 Y5.404 E28.46144
G1 X-65.668 Y5.000 E28.48393
G1 X-65.668 Y-25.000 E30.15106
G1 X-65.272 Y-27.083 E30.26887
G1 X-64.138 Y-28.874 E30.38668
G1 X-62.425 Y-30.123 E30.50450
G1 X-60.000 Y-30.668 E30.64262
G1 X60.000 Y-30.668 E37.31113
G1 X62.083 Y-30.272 E37.42895
G1 X63.874 Y-29.138 E37.54676 F1200.000
G1 X65.123 Y-27.425 E37.66457
G1 X65.668 Y-25.000 E37.80270
G1 X65.668 Y5.000 E39.46983
G1 X65.654 Y5.404 E39.49231
G1 X65.450 Y8.251 E39.65089
G1 X65.375 Y8.853 E39.68461
G1 X65.032 Y10.664 E39.78704
G1 X64.666 Y12.086 E39.86864
G1 X64.487 Y12.657 E39.90190
G1 X63.503 Y15.292 E40.05821
G1 X63.261 Y15.846 E40.09177
G1 X62.622 Y17.122 E40.17110
G1 X62.322 Y17.650 E40.20483
G1 X60.779 Y20.050 E40.36340
G1 X60.424 Y20.542 E40.39712
G1 X59.529 Y21.654 E40.47646
G1 X59.123 Y22.105 E40.51018
G1 X57.105 Y24.123 E40.66875
G1 X56.654 Y24.529 E40.70247
G1 X55.542 Y25.424 E40.78181
G1 X55.050 Y25.779 E40.81553
G1 X52.650 Y27.322 E40.97411
G1 X52.112 Y27.627 E41.00845
G1 X50.798 Y28.282 E41.09005
G1 X50.249 Y28.520 E41.12331
G1 X47.613 Y29.502 E41.27962
G1 X47.026 Y29.685 E41.31380
G1 X45.602 Y30.045 E41.39540
G1 X45.015 Y30.161 E41.42866
G1 X42.231 Y30.560 E41.58497
G1 X41.427 Y30.617 E41.62975
G1 X0.060 Y30.617 E43.92854
G1 X0.000 Y30.283 F6000.000
G1 X-41.427 Y30.283 E46.23066 F1200.000
G1 X-42.186 Y30.229 E46.27295
G1 X-45.010 Y29.823 E46.43153
G1 X-45.754 Y29.661 E46.47382
G1 X-48.492 Y28.857 E46.63240
G1 X-49.031 Y28.667 E46.66413
G1 X-50.350 Y28.121 E46.74347
G1 X-50.865 Y27.874 E46.77520
G1 X-53.369 Y26.507 E46.93378
G1 X-54.009 Y26.095 E46.97607
G1 X-56.294 Y24.385 E47.13464
G1 X-56.869 Y23.887 E47.17694
G1 X-58.887 Y21.869 E47.33551
G1 X-59.385 Y21.294 E47.37781
G1 X-61.095 Y19.009 E47.53638
G1 X-61.507 Y18.369 E47.57867
G1 X-62.874 Y15.865 E47.73725
G1 X-63.190 Y15.172 E47.77954
G1 X-64.188 Y12.499 E47.93812
G1 X-64.402 Y11.769 E47.98041
G1 X-65.009 Y8.980 E48.13899
G1 X-65.117 Y8.227 E48.18128
G1 X-65.334 Y5.000 E48.36100
G1 X-65.334 Y-25.000 E50.02813
G1 X-64.938 Y-27.018 E50.14239
G1 X-63.808 Y-28.735 E50.25664
G1 X-62.112 Y-29.898 E50.37090
G1 X-60.000 Y-30.334 E50.49076
G1 X60.000 Y-30.334 E57.15927
G1 X62.018 Y-29.938 E57.27353
G1 X63.735 Y-28.808 E57.38779 F1200.000
G1 X64.898 Y-27.112 E57.50204
G1 X65.334 Y-25.000 E57.62190
G1 X65.334 Y5.000 E59.28903
G1 X65.117 Y8.227 E59.46876
G1 X65.046 Y8.793 E59.50049
G1 X64.709 Y10.581 E59.60156
G1 X64.343 Y12.003 E59.68316
G1 X64.174 Y12.540 E59.71446
G1 X63.190 Y15.175 E59.87077
G1 X62.963 Y15.696 E59.90235
G1 X62.324 Y16.973 E59.98168
G1 X62.041 Y17.469 E60.01342
G1 X60.498 Y19.869 E60.17199
G1 X60.164 Y20.333 E60.20372
G1 X59.268 Y21.444 E60.28306
G1 X58.887 Y21.869 E60.31479
G1 X56.869 Y23.887 E60.47337
G1 X56.444 Y24.268 E60.50510
G1 X55.333 Y25.164 E60.58444
G1 X54.869 Y25.498 E60.61617
G1 X52.469 Y27.041 E60.77475
G1 X51.963 Y27.328 E60.80706
G1 X50.649 Y27.983 E60.88866
G1 X50.132 Y28.207 E60.91996
G1 X47.496 Y29.189 E61.07627
G1 X46.944 Y29.361 E61.10844
G1 X45.520 Y29.721 E61.19004
G1 X44.968 Y29.830 E61.22134
G1 X42.183 Y30.229 E61.37765
G1 X41.427 Y30.283 E61.41979
G1 X0.060 Y30.283 E63.71858
G1 F4800
G1 X-3.940 Y30.283 E59.91858
G1 E59.71858 F4800.00000
G92 E0
G1 Z1.400 F6000.000
G1 X-20.858 Y-5.858 F6000.000
G1 Z0.400 F6000.000
G1 E4.00000 F4800.00000
G1 X-20.858 Y4.984 E4.60251 F1200.000
G1 X-20.911 Y6.390 E4.68069
G1 X-21.300 Y9.083 E4.83188
G1 X-21.643 Y10.415 E4.90837
G1 X-22.590 Y12.951 E5.05876
G1 X-23.899 Y15.348 E5.21052
G1 X-25.545 Y17.546 E5.36313
G1 X-26.455 Y18.524 E5.43736
G1 X-28.530 Y20.322 E5.58996
G1 X-30.827 Y21.798 E5.74172
G1 X-33.311 Y22.933 E5.89347
G1 X-35.932 Y23.702 E6.04522
G1 X-38.635 Y24.091 E6.19697
G1 X-41.365 Y24.091 E6.34873
G1 X-44.068 Y23.702 E6.50048
G1 X-46.703 Y22.928 E6.65309
G1 X-47.937 Y22.417 E6.72731
G1 X-50.348 Y21.101 E6.87992
G1 X-52.534 Y19.465 E7.03167
G1 X-54.465 Y17.534 E7.18342
G1 X-56.101 Y15.348 E7.33518
G1 X-57.410 Y12.951 E7.48693
G1 X-58.364 Y10.392 E7.63868
G1 X-58.945 Y7.724 E7.79043
G1 X-59.142 Y4.969 E7.94389
G1 X-59.142 Y-24.142 E9.56162
G1 X59.142 Y-24.142 E16.13474
G1 X59.142 Y4.969 E17.75246
G1 X58.944 Y7.739 E17.90678
G1 X58.704 Y9.068 E17.98181
G1 X58.357 Y10.415 E18.05913
G1 X57.405 Y12.965 E18.21038
G1 X56.807 Y14.160 E18.28462
G1 X55.314 Y16.483 E18.43808
G1 X54.476 Y17.523 E18.51230
G1 X52.523 Y19.476 E18.66577
G1 X51.483 Y20.314 E18.73999
G1 X49.160 Y21.806 E18.89340
G1 X47.929 Y22.420 E18.96988
G1 X45.379 Y23.369 E19.12108
G1 X44.045 Y23.707 E19.19756
G1 X41.366 Y24.091 E19.34795
G1 X38.619 Y24.091 E19.50057
G1 X37.276 Y23.946 E19.57565
G1 X35.946 Y23.706 E19.65073
G1 X33.311 Y22.933 E19.80333
G1 X30.827 Y21.798 E19.95510
G1 X28.550 Y20.336 E20.10549
G1 X27.477 Y19.475 E20.18196
G1 X25.535 Y17.534 E20.33452
G1 X23.890 Y15.335 E20.48713
G1 X23.208 Y14.187 E20.56135
G1 X22.061 Y11.675 E20.71477
G1 X21.629 Y10.369 E20.79124
G1 X21.055 Y7.724 E20.94163
G1 X20.858 Y4.969 E21.09511
G1 X20.858 Y-5.858 E21.69681
G1 X-20.798 Y-5.858 E24.01171
G1 X-20.524 Y-5.524 F6000.000
G1 X-20.524 Y4.990 E24.59599 F1200.000
G1 X-20.578 Y6.420 E24.67551
G1 X-20.972 Y9.148 E24.82869
G1 X-21.324 Y10.516 E24.90717
G1 X-22.285 Y13.090 E25.05986
G1 X-23.617 Y15.529 E25.21428
G1 X-25.288 Y17.761 E25.36921
G1 X-26.222 Y18.764 E25.44543
G1 X-28.329 Y20.590 E25.60036
G1 X-30.667 Y22.092 E25.75477
G1 X-33.194 Y23.247 E25.90918
G1 X-35.860 Y24.029 E26.06358
G1 X-38.611 Y24.425 E26.21799
G1 X-41.389 Y24.425 E26.37240
G1 X-44.140 Y24.029 E26.52681
G1 X-46.815 Y23.244 E26.68174
G1 X-48.082 Y22.719 E26.75796
G1 X-50.529 Y21.383 E26.91289
G1 X-52.753 Y19.718 E27.06730
G1 X-54.718 Y17.753 E27.22171
G1 X-56.383 Y15.529 E27.37611
G1 X-57.715 Y13.090 E27.53052
G1 X-58.686 Y10.487 E27.68493
G1 X-59.276 Y7.772 E27.83934
G1 X-59.476 Y4.981 E27.99479
G1 X-59.476 Y-24.476 E29.63175
G1 X59.476 Y-24.476 E36.24200
G1 X59.476 Y4.981 E37.87896
G1 X59.276 Y7.781 E38.03494
G1 X59.031 Y9.139 E38.11165
G1 X58.676 Y10.516 E38.19064
G1 X57.711 Y13.099 E38.34385
G1 X57.097 Y14.325 E38.42007
G1 X55.585 Y16.679 E38.57553
G1 X54.724 Y17.746 E38.65174
G1 X52.746 Y19.724 E38.80720
G1 X51.679 Y20.585 E38.88341
G1 X49.326 Y22.097 E39.03884
G1 X48.062 Y22.727 E39.11730
G1 X45.478 Y23.689 E39.27049
G1 X44.109 Y24.035 E39.34897
G1 X41.389 Y24.425 E39.50166
G1 X38.601 Y24.425 E39.65660
G1 X37.228 Y24.277 E39.73334
G1 X35.869 Y24.032 E39.81007
G1 X33.194 Y23.247 E39.96501
G1 X30.667 Y22.092 E40.11942
G1 X28.354 Y20.608 E40.27212
G1 X27.253 Y19.724 E40.35059
G1 X25.282 Y17.753 E40.50549
G1 X23.611 Y15.521 E40.66042
G1 X22.912 Y14.342 E40.73663
G1 X21.750 Y11.798 E40.89206
G1 X21.306 Y10.457 E40.97053
G1 X20.724 Y7.772 E41.12322
G1 X20.524 Y4.981 E41.27868
G1 X20.524 Y-5.524 E41.86248
G1 X-20.464 Y-5.524 E44.14024
G1 X-20.200 Y-5.200 F6000.000
G1 X-20.200 Y4.996 E44.67294 F1200.000
G1 X-20.255 Y6.449 E44.74890
G1 X-20.653 Y9.212 E44.89474
G1 X-21.014 Y10.613 E44.97033
G1 X-21.990 Y13.225 E45.11599
G1 X-23.344 Y15.704 E45.26358
G1 X-25.039 Y17.969 E45.41136
G1 X-25.997 Y18.998 E45.48483
G1 X-28.135 Y20.850 E45.63261
G1 X-30.511 Y22.378 E45.78020
G1 X-33.081 Y23.551 E45.92779
G1 X-35.791 Y24.347 E46.07538
G1 X-38.588 Y24.749 E46.22297
G1 X-41.412 Y24.749 E46.37056
G1 X-44.209 Y24.347 E46.51815
G1 X-46.923 Y23.550 E46.66592
G1 X-48.222 Y23.012 E46.73939
G1 X-50.704 Y21.656 E46.88717
G1 X-52.966 Y19.963 E47.03476
G1 X-54.963 Y17.966 E47.18235
G1 X-56.656 Y15.704 E47.32994
G1 X-58.010 Y13.225 E47.47753
G1 X-58.997 Y10.578 E47.62512
G1 X-59.598 Y7.818 E47.77271
G1 X-59.800 Y4.993 E47.92067
G1 X-59.800 Y-24.800 E49.47720
G1 X59.800 Y-24.800 E55.72569
G1 X59.800 Y4.993 E57.28221
G1 X59.598 Y7.821 E57.43036
G1 X59.347 Y9.209 E57.50401
G1 X58.986 Y10.613 E57.57979
G1 X58.009 Y13.228 E57.72563
G1 X57.380 Y14.486 E57.79910
G1 X55.848 Y16.868 E57.94707
G1 X54.966 Y17.963 E58.02054
G1 X52.963 Y19.966 E58.16850
G1 X51.868 Y20.848 E58.24197
G1 X49.486 Y22.379 E58.38993
G1 X48.191 Y23.025 E58.46552
G1 X45.575 Y23.999 E58.61135
G1 X44.172 Y24.354 E58.68695
G1 X41.413 Y24.749 E58.83261
G1 X38.584 Y24.749 E58.98039
G1 X37.182 Y24.598 E59.05404
G1 X35.795 Y24.348 E59.12770
G1 X33.081 Y23.551 E59.27548
G1 X30.511 Y22.378 E59.42307
G1 X28.165 Y20.871 E59.56873
G1 X27.036 Y19.966 E59.64432
G1 X25.037 Y17.966 E59.79208
G1 X23.341 Y15.702 E59.93986
G1 X22.624 Y14.492 E60.01333
G1 X21.447 Y11.916 E60.16128
G1 X20.993 Y10.542 E60.23688
G1 X20.402 Y7.818 E60.38254
G1 X20.200 Y4.993 E60.53050
G1 X20.200 Y-5.200 E61.06303
G1 X-20.140 Y-5.200 E63.17059
G1 X-20.600 Y-5.200 F6000.000
G1 X-20.177 Y-6.142 F6000.000
G1 X-21.052 Y-7.017 E63.23935 F1200.000
G1 X-7.017 Y-7.017 E64.01927
G1 X-7.017 Y-21.052 E64.79919
G1 X0.000 Y-14.035 E65.35068
G1 X7.017 Y-21.052 E65.90217
G1 X7.017 Y-7.017 E66.68209
G1 X21.052 Y-7.017 E67.46201
G1 X20.177 Y-6.142 E67.53078
G1 X19.509 Y-6.142 F6000.000
G1 X20.050 Y-6.683 E67.57328 F1200.000
G1 X6.683 Y-6.683 E68.31606
G1 X6.683 Y-20.050 E69.05884
G1 X0.000 Y-13.366 E69.58407
G1 X-6.683 Y-20.050 E70.10929
G1 X-6.683 Y-6.683 E70.85208
G1 X-20.050 Y-6.683 E71.59486
G1 X-19.509 Y-6.142 E71.63736
G1 X-18.840 Y-6.142 F6000.000
G1 X-19.047 Y-6.349 E71.65361 F1200.000
G1 X-6.349 Y-6.349 E72.35925
G1 X-6.349 Y-19.047 E73.06489
G1 X0.000 Y-12.698 E73.56386
G1 X6.349 Y-19.047 E74.06282
G1 X6.349 Y-6.349 E74.76846
G1 X19.047 Y-6.349 E75.47411
G1 X18.840 Y-6.142 E75.49035
G1 F4800
G1 X19.047 Y-6.349 E75.21266
G1 F4800
G1 X15.339 Y-6.349 E71.69035
G1 E71.49035 F4800.00000
G92 E0
G1 Z1.400 F6000.000
G1 X20.845 Y-6.142 F6000.000
G1 Z0.400 F6000.000
G1 E4.00000 F4800.00000
G1 X22.055 Y-7.352 E4.09503 F1200.000
G1 X7.352 Y-7.352 E4.91209
G1 X7.352 Y-22.055 E5.72915
G1 X0.000 Y-14.703 E6.30690
G1 X-7.352 Y-22.055 E6.88464
G1 X-7.352 Y-7.352 E7.70170
G1 X-22.055 Y-7.352 E8.51876
G1 X-20.845 Y-6.142 E8.61379
G1 X-21.142 Y-5.771 F6000.000
G1 X-23.057 Y-7.686 E8.76426 F1200.000
G1 X-7.686 Y-7.686 E9.61846
G1 X-7.686 Y-23.057 E10.47266
G1 X0.000 Y-15.371 E11.07667
G1 X7.686 Y-23.057 E11.68068
G1 X7.686 Y-7.686 E12.53488
G1 X23.057 Y-7.686 E13.38908
G1 X21.142 Y-5.771 E13.53955
G1 X21.142 Y-5.103 F6000.000
G1 X24.059 Y-8.020 E13.76880 F1200.000
G1 X8.020 Y-8.020 E14.66014
G1 X8.020 Y-23.858 E15.54026
G1 X7.818 Y-23.858 F6000.000
G1 X0.000 Y-16.040 E16.15468 F1200.000
G1 X-7.818 Y-23.858 E16.76909
G1 X-8.020 Y-23.858 F6000.000
G1 X-8.020 Y-8.020 E17.64921 F1200.000
G1 X-24.059 Y-8.020 E18.54055
G1 X-21.142 Y-5.103 E18.76980
G1 X-21.142 Y-4.434 F6000.000
G1 X-25.062 Y-8.354 E19.07784 F1200.000
G1 X-8.354 Y-8.354 E20.00632
G1 X-8.354 Y-23.858 E20.86787
G1 X-8.688 Y-23.858 F6000.000
G1 X-8.688 Y-8.688 E21.71086 F1200.000
G1 X-26.064 Y-8.688 E22.67647
G1 X-21.142 Y-3.766 E23.06330
G1 X-21.142 Y-3.098 F6000.000
G1 X-27.067 Y-9.022 E23.52890 F1200.000
G1 X-9.022 Y-9.022 E24.53166
G1 X-9.022 Y-23.858 E25.35607
G1 X-9.356 Y-23.858 F6000.000
G1 X-9.356 Y-9.356 E26.16192 F1200.000
G1 X-28.069 Y-9.356 E27.20181
G1 X-21.142 Y-2.429 E27.74620
G1 X-21.142 Y-1.761 F6000.000
G1 X-29.072 Y-9.691 E28.36938 F1200.000
G1 X-9.691 Y-9.691 E29.44641
G1 X-9.691 Y-23.858 E30.23369
G1 X-10.025 Y-23.858 F6000.000
G1 X-10.025 Y-10.025 E31.00239 F1200.000
G1 X-30.074 Y-10.025 E32.11657
G1 X-21.142 Y-1.093 E32.81852
G1 X-21.142 Y-0.424 F6000.000
G1 X-31.077 Y-10.359 E33.59927 F1200.000
G1 X-10.359 Y-10.359 E34.75058
G1 X-10.359 Y-23.858 E35.50071
G1 X-10.693 Y-23.858 F6000.000
G1 X-10.693 Y-10.693 E36.23228 F1200.000
G1 X-32.079 Y-10.693 E37.42073
G1 X-21.386 Y0.000 E38.26109
G1 X-32.079 Y10.693 E39.10145
G1 X-22.050 Y10.693 E39.65880
G1 X-22.175 Y11.027 F6000.000
G1 X-33.082 Y11.027 E40.26492 F1200.000
G1 X-22.055 Y0.000 E41.13154
G1 X-33.082 Y-11.027 E41.99816
G1 X-11.027 Y-11.027 E43.22375
G1 X-11.027 Y-23.858 E43.93675
G1 X-11.361 Y-23.858 F6000.000
G1 X-11.361 Y-11.361 E44.63118 F1200.000
G1 X-34.084 Y-11.361 E45.89391
G1 X-22.723 Y0.000 E46.78679
G1 X-34.084 Y11.361 E47.67967
G1 X-22.300 Y11.361 E48.33456
G1 X-22.424 Y11.696 F6000.000
G1 X-35.087 Y11.696 E49.03822 F1200.000
G1 X-23.391 Y0.000 E49.95737
G1 X-35.087 Y-11.696 E50.87651
G1 X-11.696 Y-11.696 E52.17638
G1 X-11.696 Y-23.858 E52.85224
G1 X-12.030 Y-23.858 F6000.000
G1 X-12.030 Y-12.030 E53.50953 F1200.000
G1 X-36.089 Y-12.030 E54.84654
G1 X-24.059 Y0.000 E55.79194
G1 X-36.089 Y12.030 E56.73735
G1 X-22.549 Y12.030 E57.48978
G1 X-22.674 Y12.364 F6000.000
G1 X-37.092 Y12.364 E58.29099 F1200.000
G1 X-24.728 Y0.000 E59.26265
G1 X-37.092 Y-12.364 E60.23432
G1 X-12.364 Y-12.364 E61.60847
G1 X-12.364 Y-23.858 E62.24719
G1 X-12.698 Y-23.858 F6000.000
G1 X-12.698 Y-12.698 E62.86734 F1200.000
G1 X-38.094 Y-12.698 E64.27862
G1 X-25.396 Y0.000 E65.27655
G1 X-38.094 Y12.698 E66.27448
G1 X-22.799 Y12.698 E67.12445
G1 X-22.958 Y13.032 F6000.000
G1 X-39.097 Y13.032 E68.02129 F1200.000
G1 X-26.064 Y0.000 E69.04548
G1 X-39.097 Y-13.032 E70.06967
