; generated by Slic3r 1.2.9 on 2016-02-11 at 13:24:13

; external perimeters extrusion width = 0.40mm
; perimeters extrusion width = 0.67mm
; infill extrusion width = 0.67mm
; solid infill extrusion width = 0.67mm
; top infill extrusion width = 0.67mm

M107
M104 S210 ; set temperature
G28 ; home all axes
G1 X70Y70Z10 F5000 
M109 S210 ; wait for temperature to be reached
G21 ; set units to millimeters
G90 ; use absolute coordinates
M82 ; use absolute distances for extrusion
G92 E0
G1 E-3.50000 F1800.00000
G92 E0
G1 Z0.300 F6000.000
G1 X75.000 Y-23.757 F6000.000
G1 E3.50000 F1800.00000
G1 X77.193 Y-23.360 E3.61642 F2045.916
G1 X79.107 Y-22.220 E3.73283
G1 X80.501 Y-20.481 E3.84925
G1 X81.257 Y-17.500 E4.00992
G1 X81.257 Y17.500 E5.83849
G1 X80.860 Y19.693 E5.95491
G1 X79.720 Y21.607 E6.07133
G1 X77.981 Y23.001 E6.18775
G1 X75.000 Y23.757 E6.34842
G1 X-75.000 Y23.757 E14.18515
G1 X-77.193 Y23.360 E14.30157
G1 X-79.107 Y22.220 E14.41799
G1 X-80.501 Y20.481 E14.53440
G1 X-81.257 Y17.500 E14.69507
G1 X-81.257 Y-17.500 E16.52364
G1 X-80.860 Y-19.693 E16.64006
G1 X-79.720 Y-21.607 E16.75648
G1 X-77.981 Y-23.001 E16.87290
G1 X-75.000 Y-23.757 E17.03357
G1 X74.940 Y-23.757 E24.86717
G1 X75.000 Y-23.338 F6000.000
G1 X77.115 Y-22.941 E24.97959 F2045.916
G1 X78.943 Y-21.805 E25.09201
G1 X80.234 Y-20.085 E25.20443
G1 X80.838 Y-17.500 E25.34309
G1 X80.838 Y17.500 E27.17166
G1 X80.441 Y19.615 E27.28408
G1 X79.305 Y21.443 E27.39650
G1 X77.585 Y22.734 E27.50892
G1 X75.000 Y23.338 E27.64758
G1 X-75.000 Y23.338 E35.48431
G1 X-77.115 Y22.941 E35.59673
G1 X-78.943 Y21.805 E35.70916
G1 X-80.234 Y20.085 E35.82158
G1 X-80.838 Y17.500 E35.96023
G1 X-80.838 Y-17.500 E37.78881
G1 X-80.441 Y-19.615 E37.90123
G1 X-79.305 Y-21.443 E38.01365
G1 X-77.585 Y-22.734 E38.12607
G1 X-75.000 Y-23.338 E38.26473
G1 X74.940 Y-23.338 E46.09833
G1 X75.000 Y-22.919 F6000.000
G1 X77.034 Y-22.523 E46.20660 F2045.916
G1 X78.771 Y-21.392 E46.31488
G1 X79.956 Y-19.691 E46.42315
G1 X80.419 Y-17.500 E46.54017
G1 X80.419 Y17.500 E48.36874
G1 X80.023 Y19.534 E48.47702
G1 X78.892 Y21.271 E48.58529
G1 X77.191 Y22.456 E48.69357
G1 X75.000 Y22.919 E48.81059
G1 X-75.000 Y22.919 E56.64732
G1 X-77.034 Y22.523 E56.75560
G1 X-78.771 Y21.392 E56.86387
G1 X-79.956 Y19.691 E56.97215
G1 X-80.419 Y17.500 E57.08917
G1 X-80.419 Y-17.500 E58.91774
G1 X-80.023 Y-19.534 E59.02601
G1 X-78.892 Y-21.271 E59.13429
G1 X-77.191 Y-22.456 E59.24256
G1 X-75.000 Y-22.919 E59.35958
G1 X74.940 Y-22.919 E67.19318
G1 E63.69318 F1800.00000
G92 E0
G1 X-66.804 Y-11.504 F6000.000
G1 E3.50000 F1800.00000
G1 X-66.804 Y-16.504 E3.76122 F2045.916
G1 X67.004 Y-16.504 E10.75200
G1 X67.004 Y-11.504 E11.01322
G1 X72.196 Y-11.504 E11.28449
G1 X72.196 Y-16.504 E11.54572
G1 X74.004 Y-16.504 E11.64016
G1 X74.004 Y16.504 E13.36465
G1 X65.996 Y16.504 E13.78301
G1 X65.996 Y-8.496 E15.08913
G1 X-65.996 Y-8.496 E21.98506
G1 X-65.996 Y16.504 E23.29118
G1 X-74.004 Y16.504 E23.70954
G1 X-74.004 Y-16.504 E25.43403
G1 X-71.996 Y-16.504 E25.53892
G1 X-71.996 Y-11.504 E25.80015
G1 X-66.864 Y-11.504 E26.06828
G1 X-67.223 Y-11.923 F6000.000
G1 X-67.223 Y-16.923 E26.32951 F2045.916
G1 X67.423 Y-16.923 E33.36405
G1 X67.423 Y-11.923 E33.62527
G1 X71.777 Y-11.923 E33.85277
G1 X71.777 Y-16.923 E34.11400
G1 X74.423 Y-16.923 E34.25221
G1 X74.423 Y16.923 E36.02047
G1 X65.577 Y16.923 E36.48260
G1 X65.577 Y-8.077 E37.78872
G1 X-65.577 Y-8.077 E44.64087
G1 X-65.577 Y16.923 E45.94700
G1 X-74.423 Y16.923 E46.40913
G1 X-74.423 Y-16.923 E48.17738
G1 X-71.577 Y-16.923 E48.32605
G1 X-71.577 Y-11.923 E48.58727
G1 X-67.283 Y-11.923 E48.81164
G1 X-67.600 Y-12.300 F6000.000
G1 X-67.600 Y-17.300 E49.02094 F600.000
G1 X67.800 Y-17.300 E54.68882
G1 X67.800 Y-12.300 E54.89813
G1 X71.400 Y-12.300 E55.04882
G1 X71.400 Y-17.300 E55.25812
G1 X74.800 Y-17.300 E55.40045
G1 X74.800 Y17.300 E56.84882
G1 X65.200 Y17.300 E57.25067
G1 X65.200 Y-7.700 E58.29718
G1 X-65.200 Y-7.700 E63.75577
G1 X-65.200 Y17.300 E64.80227
G1 X-74.800 Y17.300 E65.20413
G1 X-74.800 Y-17.300 E66.65250
G1 X-71.200 Y-17.300 E66.80320
G1 X-71.200 Y-12.300 E67.01250
G1 X-67.660 Y-12.300 E67.16068
G1 X-67.200 Y-12.300 F6000.000
G1 E63.66068 F1800.00000
G92 E0
G1 X-72.010 Y-11.257 F6000.000
G1 E3.50000 F1800.00000
G1 X-66.243 Y-5.490 E3.92628 F2044.789
G1 X-66.243 Y-6.083 E3.95726
G1 X-71.417 Y-11.257 E4.33972
G1 X-70.824 Y-11.257 E4.37071
G1 X-66.243 Y-6.676 E4.70935
G1 X-66.243 Y-7.269 E4.74034
G1 X-70.231 Y-11.257 E5.03516
G1 X-69.639 Y-11.257 E5.06615
G1 X-66.243 Y-7.861 E5.31716
G1 X-66.243 Y-8.454 E5.34814
G1 X-69.046 Y-11.257 E5.55534
G1 X-68.453 Y-11.257 E5.58632
G1 X-65.940 Y-8.743 E5.77213
G1 X-65.347 Y-8.743 E5.80311
G1 X-67.861 Y-11.257 E5.98892
G1 X-67.268 Y-11.257 E6.01990
G1 X-64.754 Y-8.743 E6.20570
G1 X-64.162 Y-8.743 E6.23669
G1 X-66.675 Y-11.257 E6.42249
G1 X-66.557 Y-11.731 E6.44805
G1 X-63.569 Y-8.743 E6.66891
G1 X-62.976 Y-8.743 E6.69989
G1 X-66.557 Y-12.324 E6.96458
G1 X-66.557 Y-12.916 E6.99556
G1 X-62.384 Y-8.743 E7.30406
G1 X-61.791 Y-8.743 E7.33504
G1 X-66.557 Y-13.509 E7.68736
G1 X-66.557 Y-14.102 E7.71834
G1 X-61.198 Y-8.743 E8.11447
G1 X-60.606 Y-8.743 E8.14546
G1 X-66.557 Y-14.694 E8.58541
G1 X-66.557 Y-15.287 E8.61639
G1 X-60.013 Y-8.743 E9.10015
G1 X-59.420 Y-8.743 E9.13114
G1 X-66.557 Y-15.880 E9.65872
G1 X-66.341 Y-16.257 E9.68142
G1 X-58.827 Y-8.743 E10.23686
G1 X-58.235 Y-8.743 E10.26784
G1 X-65.748 Y-16.257 E10.82328
G1 X-65.155 Y-16.257 E10.85426
G1 X-57.642 Y-8.743 E11.40970
G1 X-57.049 Y-8.743 E11.44068
G1 X-64.563 Y-16.257 E11.99612
G1 X-63.970 Y-16.257 E12.02710
G1 X-56.457 Y-8.743 E12.58254
G1 X-55.864 Y-8.743 E12.61352
G1 X-63.377 Y-16.257 E13.16896
G1 X-62.785 Y-16.257 E13.19994
G1 X-55.271 Y-8.743 E13.75538
G1 X-54.678 Y-8.743 E13.78637
G1 X-62.192 Y-16.257 E14.34180
G1 X-61.599 Y-16.257 E14.37279
G1 X-54.086 Y-8.743 E14.92822
G1 X-53.493 Y-8.743 E14.95921
G1 X-61.006 Y-16.257 E15.51464
G1 X-60.414 Y-16.257 E15.54563
G1 X-52.900 Y-8.743 E16.10106
G1 X-52.308 Y-8.743 E16.13205
G1 X-59.821 Y-16.257 E16.68748
G1 X-59.228 Y-16.257 E16.71847
G1 X-51.715 Y-8.743 E17.27390
G1 X-51.122 Y-8.743 E17.30489
G1 X-58.636 Y-16.257 E17.86032
G1 X-58.043 Y-16.257 E17.89131
G1 X-50.529 Y-8.743 E18.44675
G1 X-49.937 Y-8.743 E18.47773
G1 X-57.450 Y-16.257 E19.03317
G1 X-56.857 Y-16.257 E19.06415
G1 X-49.344 Y-8.743 E19.61959
G1 X-48.751 Y-8.743 E19.65057
G1 X-56.265 Y-16.257 E20.20601
G1 X-55.672 Y-16.257 E20.23699
G1 X-48.159 Y-8.743 E20.79243
G1 X-47.566 Y-8.743 E20.82341
G1 X-55.079 Y-16.257 E21.37885
G1 X-54.487 Y-16.257 E21.40983
G1 X-46.973 Y-8.743 E21.96527
G1 X-46.380 Y-8.743 E21.99625
G1 X-53.894 Y-16.257 E22.55169
G1 X-53.301 Y-16.257 E22.58267
G1 X-45.788 Y-8.743 E23.13811
G1 X-45.195 Y-8.743 E23.16909
G1 X-52.708 Y-16.257 E23.72453
G1 X-52.116 Y-16.257 E23.75551
G1 X-44.602 Y-8.743 E24.31095
G1 X-44.010 Y-8.743 E24.34193
G1 X-51.523 Y-16.257 E24.89737
G1 X-50.930 Y-16.257 E24.92835
G1 X-43.417 Y-8.743 E25.48379
G1 X-42.824 Y-8.743 E25.51477
G1 X-50.338 Y-16.257 E26.07021
G1 X-49.745 Y-16.257 E26.10119
G1 X-42.231 Y-8.743 E26.65663
G1 X-41.639 Y-8.743 E26.68761
G1 X-49.152 Y-16.257 E27.24305
G1 X-48.559 Y-16.257 E27.27404
G1 X-41.046 Y-8.743 E27.82947
G1 X-40.453 Y-8.743 E27.86046
G1 X-47.967 Y-16.257 E28.41589
G1 X-47.374 Y-16.257 E28.44688
G1 X-39.861 Y-8.743 E29.00231
G1 X-39.268 Y-8.743 E29.03330
G1 X-46.781 Y-16.257 E29.58873
G1 X-46.189 Y-16.257 E29.61972
G1 X-38.675 Y-8.743 E30.17515
G1 X-38.082 Y-8.743 E30.20614
G1 X-45.596 Y-16.257 E30.76157
G1 X-45.003 Y-16.257 E30.79256
G1 X-37.490 Y-8.743 E31.34799
G1 X-36.897 Y-8.743 E31.37898
G1 X-44.410 Y-16.257 E31.93442
G1 X-43.818 Y-16.257 E31.96540
G1 X-36.304 Y-8.743 E32.52084
G1 X-35.712 Y-8.743 E32.55182
G1 X-43.225 Y-16.257 E33.10726
G1 X-42.632 Y-16.257 E33.13824
G1 X-35.119 Y-8.743 E33.69368
G1 X-34.526 Y-8.743 E33.72466
G1 X-42.040 Y-16.257 E34.28010
G1 X-41.447 Y-16.257 E34.31108
G1 X-33.934 Y-8.743 E34.86652
G1 X-33.341 Y-8.743 E34.89750
G1 X-40.854 Y-16.257 E35.45294
G1 X-40.262 Y-16.257 E35.48392
G1 X-32.748 Y-8.743 E36.03936
G1 X-32.155 Y-8.743 E36.07034
G1 X-39.669 Y-16.257 E36.62578
G1 X-39.076 Y-16.257 E36.65676
G1 X-31.563 Y-8.743 E37.21220
G1 X-30.970 Y-8.743 E37.24318
G1 X-38.483 Y-16.257 E37.79862
G1 X-37.891 Y-16.257 E37.82960
G1 X-30.377 Y-8.743 E38.38504
G1 X-29.785 Y-8.743 E38.41602
G1 X-37.298 Y-16.257 E38.97146
G1 X-36.705 Y-16.257 E39.00244
G1 X-29.192 Y-8.743 E39.55788
G1 X-28.599 Y-8.743 E39.58886
G1 X-36.113 Y-16.257 E40.14430
G1 X-35.520 Y-16.257 E40.17528
G1 X-28.006 Y-8.743 E40.73072
G1 X-27.414 Y-8.743 E40.76170
G1 X-34.927 Y-16.257 E41.31714
G1 X-34.334 Y-16.257 E41.34813
G1 X-26.821 Y-8.743 E41.90356
G1 X-26.228 Y-8.743 E41.93455
G1 X-33.742 Y-16.257 E42.48998
G1 X-33.149 Y-16.257 E42.52097
G1 X-25.636 Y-8.743 E43.07640
G1 X-25.043 Y-8.743 E43.10739
G1 X-32.556 Y-16.257 E43.66282
G1 X-31.964 Y-16.257 E43.69381
G1 X-24.450 Y-8.743 E44.24924
G1 X-23.857 Y-8.743 E44.28023
G1 X-31.371 Y-16.257 E44.83566
G1 X-30.778 Y-16.257 E44.86665
G1 X-23.265 Y-8.743 E45.42209
G1 X-22.672 Y-8.743 E45.45307
G1 X-30.185 Y-16.257 E46.00851
G1 X-29.593 Y-16.257 E46.03949
G1 X-22.079 Y-8.743 E46.59493
G1 X-21.487 Y-8.743 E46.62591
G1 X-29.000 Y-16.257 E47.18135
G1 X-28.407 Y-16.257 E47.21233
G1 X-20.894 Y-8.743 E47.76777
G1 X-20.301 Y-8.743 E47.79875
G1 X-27.815 Y-16.257 E48.35419
G1 X-27.222 Y-16.257 E48.38517
G1 X-19.708 Y-8.743 E48.94061
G1 X-19.116 Y-8.743 E48.97159
G1 X-26.629 Y-16.257 E49.52703
G1 X-26.036 Y-16.257 E49.55801
G1 X-18.523 Y-8.743 E50.11345
G1 X-17.930 Y-8.743 E50.14443
G1 X-25.444 Y-16.257 E50.69987
G1 X-24.851 Y-16.257 E50.73085
G1 X-17.338 Y-8.743 E51.28629
G1 X-16.745 Y-8.743 E51.31727
G1 X-24.258 Y-16.257 E51.87271
G1 X-23.666 Y-16.257 E51.90369
G1 X-16.152 Y-8.743 E52.45913
G1 X-15.559 Y-8.743 E52.49011
G1 X-23.073 Y-16.257 E53.04555
G1 X-22.480 Y-16.257 E53.07653
G1 X-14.967 Y-8.743 E53.63197
G1 X-14.374 Y-8.743 E53.66295
G1 X-21.887 Y-16.257 E54.21839
G1 X-21.295 Y-16.257 E54.24937
G1 X-13.781 Y-8.743 E54.80481
G1 X-13.189 Y-8.743 E54.83580
G1 X-20.702 Y-16.257 E55.39123
G1 X-20.109 Y-16.257 E55.42222
G1 X-12.596 Y-8.743 E55.97765
G1 X-12.003 Y-8.743 E56.00864
G1 X-19.517 Y-16.257 E56.56407
G1 X-18.924 Y-16.257 E56.59506
G1 X-11.411 Y-8.743 E57.15049
G1 X-10.818 Y-8.743 E57.18148
G1 X-18.331 Y-16.257 E57.73691
G1 X-17.738 Y-16.257 E57.76790
G1 X-10.225 Y-8.743 E58.32333
G1 X-9.632 Y-8.743 E58.35432
G1 X-17.146 Y-16.257 E58.90975
G1 X-16.553 Y-16.257 E58.94074
G1 X-9.040 Y-8.743 E59.49618
G1 X-8.447 Y-8.743 E59.52716
G1 X-15.960 Y-16.257 E60.08260
G1 X-15.368 Y-16.257 E60.11358
G1 X-7.854 Y-8.743 E60.66902
G1 X-7.262 Y-8.743 E60.70000
G1 X-14.775 Y-16.257 E61.25544
G1 X-14.182 Y-16.257 E61.28642
G1 X-6.669 Y-8.743 E61.84186
G1 X-6.076 Y-8.743 E61.87284
G1 X-13.590 Y-16.257 E62.42828
G1 X-12.997 Y-16.257 E62.45926
G1 X-5.483 Y-8.743 E63.01470
G1 X-4.891 Y-8.743 E63.04568
G1 X-12.404 Y-16.257 E63.60112
G1 X-11.811 Y-16.257 E63.63210
G1 X-4.298 Y-8.743 E64.18754
G1 X-3.705 Y-8.743 E64.21852
G1 X-11.219 Y-16.257 E64.77396
G1 X-10.626 Y-16.257 E64.80494
G1 X-3.113 Y-8.743 E65.36038
G1 X-2.520 Y-8.743 E65.39136
G1 X-10.033 Y-16.257 E65.94680
G1 X-9.441 Y-16.257 E65.97778
G1 X-1.927 Y-8.743 E66.53322
G1 X-1.334 Y-8.743 E66.56420
G1 X-8.848 Y-16.257 E67.11964
G1 X-8.255 Y-16.257 E67.15062
G1 X-0.742 Y-8.743 E67.70606
G1 X-0.149 Y-8.743 E67.73704
G1 X-7.662 Y-16.257 E68.29248
G1 X-7.070 Y-16.257 E68.32346
G1 X0.444 Y-8.743 E68.87890
G1 X1.036 Y-8.743 E68.90989
G1 X-6.477 Y-16.257 E69.46532
G1 X-5.884 Y-16.257 E69.49631
G1 X1.629 Y-8.743 E70.05174
G1 X2.222 Y-8.743 E70.08273
G1 X-5.292 Y-16.257 E70.63816
G1 X-4.699 Y-16.257 E70.66915
G1 X2.815 Y-8.743 E71.22458
G1 X3.407 Y-8.743 E71.25557
G1 X-4.106 Y-16.257 E71.81100
G1 X-3.513 Y-16.257 E71.84199
G1 X4.000 Y-8.743 E72.39742
G1 X4.593 Y-8.743 E72.42841
G1 X-2.921 Y-16.257 E72.98384
G1 X-2.328 Y-16.257 E73.01483
G1 X5.185 Y-8.743 E73.57027
G1 X5.778 Y-8.743 E73.60125
G1 X-1.735 Y-16.257 E74.15669
G1 X-1.143 Y-16.257 E74.18767
G1 X6.371 Y-8.743 E74.74311
G1 X6.964 Y-8.743 E74.77409
G1 X-0.550 Y-16.257 E75.32953
G1 X0.043 Y-16.257 E75.36051
G1 X7.556 Y-8.743 E75.91595
G1 X8.149 Y-8.743 E75.94693
G1 X0.636 Y-16.257 E76.50237
G1 X1.228 Y-16.257 E76.53335
G1 X8.742 Y-8.743 E77.08879
G1 X9.334 Y-8.743 E77.11977
G1 X1.821 Y-16.257 E77.67521
G1 X2.414 Y-16.257 E77.70619
G1 X9.927 Y-8.743 E78.26163
G1 X10.520 Y-8.743 E78.29261
G1 X3.006 Y-16.257 E78.84805
G1 X3.599 Y-16.257 E78.87903
G1 X11.113 Y-8.743 E79.43447
G1 X11.705 Y-8.743 E79.46545
G1 X4.192 Y-16.257 E80.02089
G1 X4.785 Y-16.257 E80.05187
G1 X12.298 Y-8.743 E80.60731
G1 X12.891 Y-8.743 E80.63829
G1 X5.377 Y-16.257 E81.19373
G1 X5.970 Y-16.257 E81.22471
G1 X13.483 Y-8.743 E81.78015
G1 X14.076 Y-8.743 E81.81113
G1 X6.563 Y-16.257 E82.36657
G1 X7.155 Y-16.257 E82.39755
G1 X14.669 Y-8.743 E82.95299
G1 X15.261 Y-8.743 E82.98398
G1 X7.748 Y-16.257 E83.53941
G1 X8.341 Y-16.257 E83.57040
G1 X15.854 Y-8.743 E84.12583
G1 X16.447 Y-8.743 E84.15682
G1 X8.934 Y-16.257 E84.71225
G1 X9.526 Y-16.257 E84.74324
G1 X17.040 Y-8.743 E85.29867
G1 X17.632 Y-8.743 E85.32966
G1 X10.119 Y-16.257 E85.88509
G1 X10.712 Y-16.257 E85.91608
G1 X18.225 Y-8.743 E86.47151
G1 X18.818 Y-8.743 E86.50250
G1 X11.304 Y-16.257 E87.05793
G1 X11.897 Y-16.257 E87.08892
G1 X19.410 Y-8.743 E87.64436
G1 X20.003 Y-8.743 E87.67534
G1 X12.490 Y-16.257 E88.23078
G1 X13.082 Y-16.257 E88.26176
G1 X20.596 Y-8.743 E88.81720
G1 X21.189 Y-8.743 E88.84818
G1 X13.675 Y-16.257 E89.40362
G1 X14.268 Y-16.257 E89.43460
G1 X21.781 Y-8.743 E89.99004
G1 X22.374 Y-8.743 E90.02102
G1 X14.861 Y-16.257 E90.57646
G1 X15.453 Y-16.257 E90.60744
G1 X22.967 Y-8.743 E91.16288
G1 X23.559 Y-8.743 E91.19386
G1 X16.046 Y-16.257 E91.74930
G1 X16.639 Y-16.257 E91.78028
G1 X24.152 Y-8.743 E92.33572
G1 X24.745 Y-8.743 E92.36670
G1 X17.231 Y-16.257 E92.92214
G1 X17.824 Y-16.257 E92.95312
G1 X25.338 Y-8.743 E93.50856
G1 X25.930 Y-8.743 E93.53954
G1 X18.417 Y-16.257 E94.09498
G1 X19.010 Y-16.257 E94.12596
G1 X26.523 Y-8.743 E94.68140
G1 X27.116 Y-8.743 E94.71238
G1 X19.602 Y-16.257 E95.26782
G1 X20.195 Y-16.257 E95.29880
G1 X27.708 Y-8.743 E95.85424
G1 X28.301 Y-8.743 E95.88522
G1 X20.788 Y-16.257 E96.44066
G1 X21.380 Y-16.257 E96.47165
G1 X28.894 Y-8.743 E97.02708
G1 X29.487 Y-8.743 E97.05807
G1 X21.973 Y-16.257 E97.61350
G1 X22.566 Y-16.257 E97.64449
G1 X30.079 Y-8.743 E98.19992
G1 X30.672 Y-8.743 E98.23091
G1 X23.159 Y-16.257 E98.78634
G1 X23.751 Y-16.257 E98.81733
G1 X31.265 Y-8.743 E99.37276
G1 X31.857 Y-8.743 E99.40375
G1 X24.344 Y-16.257 E99.95918
G1 X24.937 Y-16.257 E99.99017
G1 X32.450 Y-8.743 E100.54560
G1 X33.043 Y-8.743 E100.57659
G1 X25.529 Y-16.257 E101.13203
G1 X26.122 Y-16.257 E101.16301
G1 X33.636 Y-8.743 E101.71845
G1 X34.228 Y-8.743 E101.74943
G1 X26.715 Y-16.257 E102.30487
G1 X27.308 Y-16.257 E102.33585
G1 X34.821 Y-8.743 E102.89129
G1 X35.414 Y-8.743 E102.92227
G1 X27.900 Y-16.257 E103.47771
G1 X28.493 Y-16.257 E103.50869
G1 X36.006 Y-8.743 E104.06413
G1 X36.599 Y-8.743 E104.09511
G1 X29.086 Y-16.257 E104.65055
G1 X29.678 Y-16.257 E104.68153
G1 X37.192 Y-8.743 E105.23697
G1 X37.784 Y-8.743 E105.26795
G1 X30.271 Y-16.257 E105.82339
G1 X30.864 Y-16.257 E105.85437
G1 X38.377 Y-8.743 E106.40981
G1 X38.970 Y-8.743 E106.44079
G1 X31.457 Y-16.257 E106.99623
G1 X32.049 Y-16.257 E107.02721
G1 X39.563 Y-8.743 E107.58265
G1 X40.155 Y-8.743 E107.61363
G1 X32.642 Y-16.257 E108.16907
G1 X33.235 Y-16.257 E108.20005
G1 X40.748 Y-8.743 E108.75549
G1 X41.341 Y-8.743 E108.78647
G1 X33.827 Y-16.257 E109.34191
G1 X34.420 Y-16.257 E109.37289
G1 X41.933 Y-8.743 E109.92833
G1 X42.526 Y-8.743 E109.95931
G1 X35.013 Y-16.257 E110.51475
G1 X35.605 Y-16.257 E110.54574
G1 X43.119 Y-8.743 E111.10117
G1 X43.712 Y-8.743 E111.13216
G1 X36.198 Y-16.257 E111.68759
G1 X36.791 Y-16.257 E111.71858
G1 X44.304 Y-8.743 E112.27401
G1 X44.897 Y-8.743 E112.30500
G1 X37.384 Y-16.257 E112.86043
G1 X37.976 Y-16.257 E112.89142
G1 X45.490 Y-8.743 E113.44685
G1 X46.082 Y-8.743 E113.47784
G1 X38.569 Y-16.257 E114.03327
G1 X39.162 Y-16.257 E114.06426
