; generated by Slic3r 1.2.9 on 2016-02-11 at 11:28:12

; external perimeters extrusion width = 0.40mm
; perimeters extrusion width = 0.67mm
; infill extrusion width = 0.67mm
; solid infill extrusion width = 0.67mm
; top infill extrusion width = 0.67mm

M107
M104 S210 ; set temperature
G28 ; home all axes
G1 X70Y70Z10 F5000 
M109 S210 ; wait for temperature to be reached
G21 ; set units to millimeters
G90 ; use absolute coordinates
M82 ; use absolute distances for extrusion
G92 E0
G1 E-3.50000 F1800.00000
G92 E0
G1 Z0.300 F6000.000
G1 X50.000 Y-21.257 F6000.000
G1 E3.50000 F1800.00000
G1 X52.193 Y-20.860 E3.61642 F2045.916
G1 X54.107 Y-19.720 E3.73283
G1 X55.501 Y-17.981 E3.84925
G1 X56.257 Y-15.000 E4.00992
G1 X56.257 Y15.000 E5.57727
G1 X55.860 Y17.193 E5.69369
G1 X54.720 Y19.107 E5.81010
G1 X52.981 Y20.501 E5.92652
G1 X50.000 Y21.257 E6.08719
G1 X-50.000 Y21.257 E11.31168
G1 X-52.193 Y20.860 E11.42810
G1 X-54.107 Y19.720 E11.54452
G1 X-55.501 Y17.981 E11.66093
G1 X-56.257 Y15.000 E11.82160
G1 X-56.257 Y-15.000 E13.38895
G1 X-55.860 Y-17.193 E13.50537
G1 X-54.720 Y-19.107 E13.62178
G1 X-52.981 Y-20.501 E13.73820
G1 X-50.000 Y-21.257 E13.89887
G1 X49.940 Y-21.257 E19.12023
G1 X50.000 Y-20.838 F6000.000
G1 X52.115 Y-20.441 E19.23265 F2045.916
G1 X53.943 Y-19.305 E19.34507
G1 X55.234 Y-17.585 E19.45749
G1 X55.838 Y-15.000 E19.59615
G1 X55.838 Y15.000 E21.16350
G1 X55.441 Y17.115 E21.27592
G1 X54.305 Y18.943 E21.38834
G1 X52.585 Y20.234 E21.50076
G1 X50.000 Y20.838 E21.63942
G1 X-50.000 Y20.838 E26.86391
G1 X-52.115 Y20.441 E26.97633
G1 X-53.943 Y19.305 E27.08875
G1 X-55.234 Y17.585 E27.20117
G1 X-55.838 Y15.000 E27.33983
G1 X-55.838 Y-15.000 E28.90717
G1 X-55.441 Y-17.115 E29.01959
G1 X-54.305 Y-18.943 E29.13201
G1 X-52.585 Y-20.234 E29.24443
G1 X-50.000 Y-20.838 E29.38309
G1 X49.940 Y-20.838 E34.60445
G1 X50.000 Y-20.419 F6000.000
G1 X52.034 Y-20.023 E34.71272 F2045.916
G1 X53.771 Y-18.892 E34.82100
G1 X54.956 Y-17.191 E34.92928
G1 X55.419 Y-15.000 E35.04629
G1 X55.419 Y15.000 E36.61364
G1 X55.023 Y17.034 E36.72192
G1 X53.892 Y18.771 E36.83019
G1 X52.191 Y19.956 E36.93847
G1 X50.000 Y20.419 E37.05548
G1 X-50.000 Y20.419 E42.27997
G1 X-52.034 Y20.023 E42.38825
G1 X-53.771 Y18.892 E42.49653
G1 X-54.956 Y17.191 E42.60480
G1 X-55.419 Y15.000 E42.72182
G1 X-55.419 Y-15.000 E44.28916
G1 X-55.023 Y-17.034 E44.39744
G1 X-53.892 Y-18.771 E44.50572
G1 X-52.191 Y-19.956 E44.61399
G1 X-50.000 Y-20.419 E44.73101
G1 X49.940 Y-20.419 E49.95236
G1 E46.45236 F1800.00000
G92 E0
G1 X42.004 Y-9.004 F6000.000
G1 E3.50000 F1800.00000
G1 X46.996 Y-9.004 E3.76082 F2045.916
G1 X46.996 Y-14.004 E4.02204
G1 X49.004 Y-14.004 E4.12694
G1 X49.004 Y14.004 E5.59020
G1 X40.996 Y14.004 E6.00856
G1 X40.996 Y-5.996 E7.05346
G1 X-40.996 Y-5.996 E11.33714
G1 X-40.996 Y14.004 E12.38204
G1 X-49.004 Y14.004 E12.80040
G1 X-49.004 Y-14.004 E14.26366
G1 X-46.996 Y-14.004 E14.36856
G1 X-46.996 Y-9.004 E14.62978
G1 X-42.004 Y-9.004 E14.89060
G1 X-42.004 Y-14.004 E15.15183
G1 X42.004 Y-14.004 E19.54080
G1 X42.004 Y-9.064 E19.79889
G1 X42.423 Y-9.423 F6000.000
G1 X46.577 Y-9.423 E20.01594 F2045.916
G1 X46.577 Y-14.423 E20.27717
G1 X49.423 Y-14.423 E20.42583
G1 X49.423 Y14.423 E21.93286
G1 X40.577 Y14.423 E22.39499
G1 X40.577 Y-5.577 E23.43989
G1 X-40.577 Y-5.577 E27.67980
G1 X-40.577 Y14.423 E28.72470
G1 X-49.423 Y14.423 E29.18683
G1 X-49.423 Y-14.423 E30.69386
G1 X-46.577 Y-14.423 E30.84252
G1 X-46.577 Y-9.423 E31.10375
G1 X-42.423 Y-9.423 E31.32080
G1 X-42.423 Y-14.423 E31.58203
G1 X42.423 Y-14.423 E36.01477
G1 X42.423 Y-9.483 E36.27286
G1 X42.800 Y-9.800 F6000.000
G1 X46.200 Y-9.800 E36.41519 F600.000
G1 X46.200 Y-14.800 E36.62449
G1 X49.800 Y-14.800 E36.77518
G1 X49.800 Y14.800 E38.01425
G1 X40.200 Y14.800 E38.41611
G1 X40.200 Y-5.200 E39.25331
G1 X-40.200 Y-5.200 E42.61888
G1 X-40.200 Y14.800 E43.45609
G1 X-49.800 Y14.800 E43.85795
G1 X-49.800 Y-14.800 E45.09701
G1 X-46.200 Y-14.800 E45.24771
G1 X-46.200 Y-9.800 E45.45701
G1 X-42.800 Y-9.800 E45.59934
G1 X-42.800 Y-14.800 E45.80864
G1 X42.800 Y-14.800 E49.39188
G1 X42.800 Y-9.860 E49.59867
G1 X42.800 Y-9.400 F6000.000
G1 E46.09867 F1800.00000
G92 E0
G1 X41.419 Y-13.757 F6000.000
G1 E3.50000 F1800.00000
G1 X41.757 Y-13.419 E3.52495 F2042.785
G1 X41.757 Y-12.826 E3.55600
G1 X40.826 Y-13.757 E3.62486
G1 X40.233 Y-13.757 E3.65590
G1 X41.757 Y-12.233 E3.76866
G1 X41.757 Y-11.640 E3.79970
G1 X39.640 Y-13.757 E3.95637
G1 X39.046 Y-13.757 E3.98741
G1 X41.757 Y-11.046 E4.18798
G1 X41.757 Y-10.453 E4.21902
G1 X38.453 Y-13.757 E4.46349
G1 X37.860 Y-13.757 E4.49453
G1 X41.757 Y-9.860 E4.78290
G1 X41.757 Y-9.266 E4.81395
G1 X37.266 Y-13.757 E5.14622
G1 X36.673 Y-13.757 E5.17726
G1 X48.757 Y-1.673 E6.07143
G1 X48.757 Y-2.266 E6.10248
G1 X42.266 Y-8.757 E6.58275
G1 X42.860 Y-8.757 E6.61379
G1 X48.757 Y-2.860 E7.05016
G1 X48.757 Y-3.453 E7.08120
G1 X43.453 Y-8.757 E7.47367
G1 X44.046 Y-8.757 E7.50471
G1 X48.757 Y-4.046 E7.85328
G1 X48.757 Y-4.640 E7.88432
G1 X44.640 Y-8.757 E8.18898
G1 X45.233 Y-8.757 E8.22003
G1 X48.757 Y-5.233 E8.48078
G1 X48.757 Y-5.826 E8.51183
G1 X45.826 Y-8.757 E8.72868
G1 X46.419 Y-8.757 E8.75972
G1 X48.757 Y-6.419 E8.93268
G1 X48.757 Y-7.013 E8.96372
G1 X47.013 Y-8.757 E9.09277
G1 X47.243 Y-9.119 F6000.000
G1 X48.757 Y-7.606 E9.20476 F2042.785
G1 X48.757 Y-8.199 E9.23580
G1 X47.243 Y-9.713 E9.34779
G1 X47.243 Y-10.306 E9.37884
G1 X48.757 Y-8.793 E9.49083
G1 X48.757 Y-9.386 E9.52187
G1 X47.243 Y-10.899 E9.63386
G1 X47.243 Y-11.493 E9.66490
G1 X48.757 Y-9.979 E9.77689
G1 X48.757 Y-10.573 E9.80794
G1 X47.243 Y-12.086 E9.91993
G1 X47.243 Y-12.679 E9.95097
G1 X48.757 Y-11.166 E10.06296
G1 X48.757 Y-11.759 E10.09401
G1 X47.243 Y-13.273 E10.20600
G1 X47.352 Y-13.757 E10.23197
G1 X48.757 Y-12.352 E10.33588
G1 X48.757 Y-12.946 E10.36693
G1 X47.946 Y-13.757 E10.42694
G1 X48.539 Y-13.757 E10.45798
G1 X48.757 Y-13.539 E10.47410
G1 E6.97410 F1800.00000
G92 E0
G1 X48.000 Y-9.000 F6000.000
G1 X45.000 Y-5.000 F6000.000
G1 X44.000 Y-6.000 F6000.000
G1 X41.000 Y-6.000 F6000.000
G1 X40.627 Y-6.243 F6000.000
G1 E3.50000 F1800.00000
G1 X33.113 Y-13.757 E4.05598 F2042.785
G1 X32.520 Y-13.757 E4.08703
G1 X40.033 Y-6.243 E4.64301
G1 X39.440 Y-6.243 E4.67405
G1 X31.927 Y-13.757 E5.23003
G1 X31.334 Y-13.757 E5.26108
G1 X38.847 Y-6.243 E5.81706
G1 X38.254 Y-6.243 E5.84810
G1 X30.740 Y-13.757 E6.40409
G1 X30.147 Y-13.757 E6.43513
G1 X37.660 Y-6.243 E6.99111
G1 X37.067 Y-6.243 E7.02216
G1 X29.554 Y-13.757 E7.57814
G1 X28.960 Y-13.757 E7.60918
G1 X36.474 Y-6.243 E8.16517
G1 X35.880 Y-6.243 E8.19621
G1 X28.367 Y-13.757 E8.75219
G1 X27.774 Y-13.757 E8.78324
G1 X35.287 Y-6.243 E9.33922
G1 X34.694 Y-6.243 E9.37026
G1 X27.180 Y-13.757 E9.92624
G1 X26.587 Y-13.757 E9.95729
G1 X34.101 Y-6.243 E10.51327
G1 X33.507 Y-6.243 E10.54431
G1 X25.994 Y-13.757 E11.10030
G1 X25.401 Y-13.757 E11.13134
G1 X32.914 Y-6.243 E11.68732
G1 X32.321 Y-6.243 E11.71837
G1 X24.807 Y-13.757 E12.27435
G1 X24.214 Y-13.757 E12.30539
G1 X31.727 Y-6.243 E12.86137
G1 X31.134 Y-6.243 E12.89242
G1 X23.621 Y-13.757 E13.44840
G1 X23.027 Y-13.757 E13.47944
G1 X30.541 Y-6.243 E14.03543
G1 X29.948 Y-6.243 E14.06647
G1 X22.434 Y-13.757 E14.62245
G1 X21.841 Y-13.757 E14.65350
G1 X29.354 Y-6.243 E15.20948
G1 X28.761 Y-6.243 E15.24052
G1 X21.248 Y-13.757 E15.79650
G1 X20.654 Y-13.757 E15.82755
G1 X28.168 Y-6.243 E16.38353
G1 X27.574 Y-6.243 E16.41457
G1 X20.061 Y-13.757 E16.97056
G1 X19.468 Y-13.757 E17.00160
G1 X26.981 Y-6.243 E17.55758
G1 X26.388 Y-6.243 E17.58863
G1 X18.874 Y-13.757 E18.14461
G1 X18.281 Y-13.757 E18.17565
G1 X25.794 Y-6.243 E18.73163
G1 X25.201 Y-6.243 E18.76268
G1 X17.688 Y-13.757 E19.31866
G1 X17.094 Y-13.757 E19.34970
G1 X24.608 Y-6.243 E19.90569
G1 X24.015 Y-6.243 E19.93673
G1 X16.501 Y-13.757 E20.49271
G1 X15.908 Y-13.757 E20.52376
G1 X23.421 Y-6.243 E21.07974
G1 X22.828 Y-6.243 E21.11078
G1 X15.315 Y-13.757 E21.66677
G1 X14.721 Y-13.757 E21.69781
G1 X22.235 Y-6.243 E22.25379
G1 X21.641 Y-6.243 E22.28484
G1 X14.128 Y-13.757 E22.84082
G1 X13.535 Y-13.757 E22.87186
G1 X21.048 Y-6.243 E23.42784
G1 X20.455 Y-6.243 E23.45889
G1 X12.941 Y-13.757 E24.01487
G1 X12.348 Y-13.757 E24.04591
G1 X19.862 Y-6.243 E24.60190
G1 X19.268 Y-6.243 E24.63294
G1 X11.755 Y-13.757 E25.18892
G1 X11.162 Y-13.757 E25.21997
G1 X18.675 Y-6.243 E25.77595
G1 X18.082 Y-6.243 E25.80699
G1 X10.568 Y-13.757 E26.36297
G1 X9.975 Y-13.757 E26.39402
G1 X17.488 Y-6.243 E26.95000
G1 X16.895 Y-6.243 E26.98104
G1 X9.382 Y-13.757 E27.53703
G1 X8.788 Y-13.757 E27.56807
G1 X16.302 Y-6.243 E28.12405
G1 X15.709 Y-6.243 E28.15510
G1 X8.195 Y-13.757 E28.71108
G1 X7.602 Y-13.757 E28.74212
G1 X15.115 Y-6.243 E29.29810
G1 X14.522 Y-6.243 E29.32915
G1 X7.009 Y-13.757 E29.88513
G1 X6.415 Y-13.757 E29.91617
G1 X13.929 Y-6.243 E30.47216
G1 X13.335 Y-6.243 E30.50320
G1 X5.822 Y-13.757 E31.05918
G1 X5.229 Y-13.757 E31.09023
G1 X12.742 Y-6.243 E31.64621
G1 X12.149 Y-6.243 E31.67725
G1 X4.635 Y-13.757 E32.23323
G1 X4.042 Y-13.757 E32.26428
G1 X11.555 Y-6.243 E32.82026
G1 X10.962 Y-6.243 E32.85130
G1 X3.449 Y-13.757 E33.40729
G1 X2.855 Y-13.757 E33.43833
G1 X10.369 Y-6.243 E33.99431
G1 X9.776 Y-6.243 E34.02536
G1 X2.262 Y-13.757 E34.58134
G1 X1.669 Y-13.757 E34.61238
G1 X9.182 Y-6.243 E35.16836
G1 X8.589 Y-6.243 E35.19941
G1 X1.076 Y-13.757 E35.75539
G1 X0.482 Y-13.757 E35.78643
G1 X7.996 Y-6.243 E36.34242
G1 X7.402 Y-6.243 E36.37346
G1 X-0.111 Y-13.757 E36.92944
G1 X-0.704 Y-13.757 E36.96049
G1 X6.809 Y-6.243 E37.51647
G1 X6.216 Y-6.243 E37.54751
G1 X-1.298 Y-13.757 E38.10349
G1 X-1.891 Y-13.757 E38.13454
G1 X5.623 Y-6.243 E38.69052
G1 X5.029 Y-6.243 E38.72156
G1 X-2.484 Y-13.757 E39.27755
G1 X-3.077 Y-13.757 E39.30859
G1 X4.436 Y-6.243 E39.86457
G1 X3.843 Y-6.243 E39.89562
G1 X-3.671 Y-13.757 E40.45160
G1 X-4.264 Y-13.757 E40.48264
G1 X3.249 Y-6.243 E41.03863
G1 X2.656 Y-6.243 E41.06967
G1 X-4.857 Y-13.757 E41.62565
G1 X-5.451 Y-13.757 E41.65670
G1 X2.063 Y-6.243 E42.21268
G1 X1.469 Y-6.243 E42.24372
G1 X-6.044 Y-13.757 E42.79970
G1 X-6.637 Y-13.757 E42.83075
G1 X0.876 Y-6.243 E43.38673
G1 X0.283 Y-6.243 E43.41777
G1 X-7.230 Y-13.757 E43.97376
G1 X-7.824 Y-13.757 E44.00480
G1 X-0.310 Y-6.243 E44.56078
G1 X-0.904 Y-6.243 E44.59183
G1 X-8.417 Y-13.757 E45.14781
G1 X-9.010 Y-13.757 E45.17885
G1 X-1.497 Y-6.243 E45.73483
G1 X-2.090 Y-6.243 E45.76588
G1 X-9.604 Y-13.757 E46.32186
G1 X-10.197 Y-13.757 E46.35290
G1 X-2.684 Y-6.243 E46.90889
G1 X-3.277 Y-6.243 E46.93993
G1 X-10.790 Y-13.757 E47.49591
G1 X-11.384 Y-13.757 E47.52696
G1 X-3.870 Y-6.243 E48.08294
G1 X-4.463 Y-6.243 E48.11398
G1 X-11.977 Y-13.757 E48.66996
G1 X-12.570 Y-13.757 E48.70101
G1 X-5.057 Y-6.243 E49.25699
G1 X-5.650 Y-6.243 E49.28803
G1 X-13.163 Y-13.757 E49.84402
G1 X-13.757 Y-13.757 E49.87506
G1 X-6.243 Y-6.243 E50.43104
G1 X-6.837 Y-6.243 E50.46209
G1 X-14.350 Y-13.757 E51.01807
G1 X-14.943 Y-13.757 E51.04911
G1 X-7.430 Y-6.243 E51.60509
G1 X-8.023 Y-6.243 E51.63614
G1 X-15.537 Y-13.757 E52.19212
G1 X-16.130 Y-13.757 E52.22316
G1 X-8.616 Y-6.243 E52.77915
G1 X-9.210 Y-6.243 E52.81019
G1 X-16.723 Y-13.757 E53.36617
G1 X-17.316 Y-13.757 E53.39722
G1 X-9.803 Y-6.243 E53.95320
G1 X-10.396 Y-6.243 E53.98424
G1 X-17.910 Y-13.757 E54.54022
G1 X-18.503 Y-13.757 E54.57127
G1 X-10.990 Y-6.243 E55.12725
G1 X-11.583 Y-6.243 E55.15829
G1 X-19.096 Y-13.757 E55.71428
G1 X-19.690 Y-13.757 E55.74532
G1 X-12.176 Y-6.243 E56.30130
G1 X-12.770 Y-6.243 E56.33235
G1 X-20.283 Y-13.757 E56.88833
G1 X-20.876 Y-13.757 E56.91937
G1 X-13.363 Y-6.243 E57.47536
G1 X-13.956 Y-6.243 E57.50640
G1 X-21.470 Y-13.757 E58.06238
G1 X-22.063 Y-13.757 E58.09343
G1 X-14.549 Y-6.243 E58.64941
G1 X-15.143 Y-6.243 E58.68045
G1 X-22.656 Y-13.757 E59.23643
G1 X-23.249 Y-13.757 E59.26748
G1 X-15.736 Y-6.243 E59.82346
G1 X-16.329 Y-6.243 E59.85450
G1 X-23.843 Y-13.757 E60.41049
G1 X-24.436 Y-13.757 E60.44153
G1 X-16.923 Y-6.243 E60.99751
G1 X-17.516 Y-6.243 E61.02856
G1 X-25.029 Y-13.757 E61.58454
G1 X-25.623 Y-13.757 E61.61558
G1 X-18.109 Y-6.243 E62.17156
G1 X-18.702 Y-6.243 E62.20261
G1 X-26.216 Y-13.757 E62.75859
G1 X-26.809 Y-13.757 E62.78963
G1 X-19.296 Y-6.243 E63.34562
G1 X-19.889 Y-6.243 E63.37666
G1 X-27.402 Y-13.757 E63.93264
G1 X-27.996 Y-13.757 E63.96369
G1 X-20.482 Y-6.243 E64.51967
G1 X-21.076 Y-6.243 E64.55071
G1 X-28.589 Y-13.757 E65.10669
G1 X-29.182 Y-13.757 E65.13774
G1 X-21.669 Y-6.243 E65.69372
G1 X-22.262 Y-6.243 E65.72476
G1 X-29.776 Y-13.757 E66.28075
G1 X-30.369 Y-13.757 E66.31179
G1 X-22.855 Y-6.243 E66.86777
G1 X-23.449 Y-6.243 E66.89882
G1 X-30.962 Y-13.757 E67.45480
G1 X-31.555 Y-13.757 E67.48584
G1 X-24.042 Y-6.243 E68.04182
G1 X-24.635 Y-6.243 E68.07287
G1 X-32.149 Y-13.757 E68.62885
G1 X-32.742 Y-13.757 E68.65989
G1 X-25.229 Y-6.243 E69.21588
G1 X-25.822 Y-6.243 E69.24692
G1 X-33.335 Y-13.757 E69.80290
G1 X-33.929 Y-13.757 E69.83395
G1 X-26.415 Y-6.243 E70.38993
G1 X-27.009 Y-6.243 E70.42097
G1 X-34.522 Y-13.757 E70.97695
G1 X-35.115 Y-13.757 E71.00800
G1 X-27.602 Y-6.243 E71.56398
G1 X-28.195 Y-6.243 E71.59502
G1 X-35.709 Y-13.757 E72.15101
G1 X-36.302 Y-13.757 E72.18205
G1 X-28.788 Y-6.243 E72.73803
G1 X-29.382 Y-6.243 E72.76908
G1 X-36.895 Y-13.757 E73.32506
G1 X-37.488 Y-13.757 E73.35610
G1 X-29.975 Y-6.243 E73.91208
G1 X-30.568 Y-6.243 E73.94313
G1 X-38.082 Y-13.757 E74.49911
G1 X-38.675 Y-13.757 E74.53015
G1 X-31.162 Y-6.243 E75.08614
G1 X-31.755 Y-6.243 E75.11718
G1 X-39.268 Y-13.757 E75.67316
G1 X-39.862 Y-13.757 E75.70421
G1 X-32.348 Y-6.243 E76.26019
G1 X-32.941 Y-6.243 E76.29123
G1 X-40.455 Y-13.757 E76.84722
G1 X-41.048 Y-13.757 E76.87826
G1 X-33.535 Y-6.243 E77.43424
G1 X-34.128 Y-6.243 E77.46529
G1 X-41.641 Y-13.757 E78.02127
G1 X-41.757 Y-13.279 E78.04700
G1 X-34.721 Y-6.243 E78.56761
G1 X-35.315 Y-6.243 E78.59865
G1 X-41.757 Y-12.685 E79.07535
G1 X-41.757 Y-12.092 E79.10640
G1 X-35.908 Y-6.243 E79.53920
G1 X-36.501 Y-6.243 E79.57024
G1 X-41.757 Y-11.499 E79.95914
G1 X-41.757 Y-10.905 E79.99019
G1 X-37.095 Y-6.243 E80.33518
G1 X-37.688 Y-6.243 E80.36623
G1 X-41.757 Y-10.312 E80.66732
G1 X-41.757 Y-9.719 E80.69837
G1 X-38.281 Y-6.243 E80.95556
G1 X-38.874 Y-6.243 E80.98660
G1 X-41.757 Y-9.126 E81.19989
G1 X-41.981 Y-8.757 F6000.000
G1 X-39.468 Y-6.243 E81.38588 F2042.785
G1 X-40.061 Y-6.243 E81.41692
G1 X-42.574 Y-8.757 E81.60291
G1 X-43.168 Y-8.757 E81.63395
G1 X-40.654 Y-6.243 E81.81994
G1 X-41.243 Y-6.239 E81.85077
G1 X-43.761 Y-8.757 E82.03707
G1 X-44.354 Y-8.757 E82.06811
G1 X-41.243 Y-5.646 E82.29832
G1 X-41.243 Y-5.052 E82.32936
G1 X-44.948 Y-8.757 E82.60347
G1 X-45.541 Y-8.757 E82.63452
G1 X-41.243 Y-4.459 E82.95253
G1 X-41.243 Y-3.866 E82.98357
G1 X-46.134 Y-8.757 E83.34549
G1 X-46.727 Y-8.757 E83.37653
G1 X-41.243 Y-3.273 E83.78235
G1 X-41.243 Y-2.679 E83.81339
G1 X-48.757 Y-10.193 E84.36937
G1 X-48.757 Y-9.599 E84.40042
G1 X-41.243 Y-2.086 E84.95640
G1 X-41.243 Y-1.493 E84.98744
G1 X-48.757 Y-9.006 E85.54343
G1 X-48.757 Y-8.413 E85.57447
G1 X-41.243 Y-0.899 E86.13045
G1 X-41.243 Y-0.306 E86.16150
G1 X-48.757 Y-7.820 E86.71748
G1 X-48.757 Y-7.226 E86.74852
G1 X-41.243 Y0.287 E87.30450
G1 X-41.243 Y0.880 E87.33555
G1 X-48.757 Y-6.633 E87.89153
G1 X-48.757 Y-6.040 E87.92257
G1 X-41.243 Y1.474 E88.47856
G1 X-41.243 Y2.067 E88.50960
G1 X-48.757 Y-5.446 E89.06558
G1 X-48.757 Y-4.853 E89.09663
G1 X-41.243 Y2.660 E89.65261
G1 X-41.243 Y3.254 E89.68365
G1 X-48.757 Y-4.260 E90.23963
G1 X-48.757 Y-3.666 E90.27068
G1 X-41.243 Y3.847 E90.82666
G1 X-41.243 Y4.440 E90.85770
G1 X-48.757 Y-3.073 E91.41369
G1 X-48.757 Y-2.480 E91.44473
G1 X-41.243 Y5.034 E92.00071
G1 X-41.243 Y5.627 E92.03176
G1 X-48.757 Y-1.887 E92.58774
G1 X-48.757 Y-1.293 E92.61878
G1 X-41.243 Y6.220 E93.17476
G1 X-41.243 Y6.813 E93.20581
G1 X-48.757 Y-0.700 E93.76179
G1 X-48.757 Y-0.107 E93.79283
G1 X-41.243 Y7.407 E94.34882
G1 X-41.243 Y8.000 E94.37986
G1 X-48.757 Y0.487 E94.93584
G1 X-48.757 Y1.080 E94.96689
G1 X-41.243 Y8.593 E95.52287
G1 X-41.243 Y9.187 E95.55391
G1 X-48.757 Y1.673 E96.10989
G1 X-48.757 Y2.266 E96.14094
G1 X-41.243 Y9.780 E96.69692
G1 X-41.243 Y10.373 E96.72796
G1 X-48.757 Y2.860 E97.28395
G1 X-48.757 Y3.453 E97.31499
