; generated by Slic3r 1.2.9 on 2016-06-09 at 12:16:24

; external perimeters extrusion width = 0.40mm
; perimeters extrusion width = 0.67mm
; infill extrusion width = 0.67mm
; solid infill extrusion width = 0.67mm
; top infill extrusion width = 0.67mm
; support material extrusion width = 0.40mm

M107
M190 S60 ; set bed temperature
M104 S205 ; set temperature
G28 ; home all axes

M109 S205 ; wait for temperature to be reached
G21 ; set units to millimeters
G90 ; use absolute coordinates
M82 ; use absolute distances for extrusion
G92 E0
G1 E-4.00000 F4800.00000
G92 E0
G1 Z1.000 F6000.000
G1 X0.000 Y31.206 F6000.000
G1 Z0.300 F6000.000
G1 E4.00000 F4800.00000
G1 X-41.427 Y31.206 E6.16434 F1200.000
G1 X-42.317 Y31.142 E6.21098
G1 X-45.142 Y30.736 E6.36006
G1 X-46.014 Y30.546 E6.40670
G1 X-48.752 Y29.742 E6.55578
G1 X-49.384 Y29.519 E6.59078
G1 X-50.703 Y28.973 E6.66537
G1 X-51.307 Y28.684 E6.70036
G1 X-53.811 Y27.316 E6.84944
G1 X-54.562 Y26.834 E6.89608
G1 X-56.847 Y25.124 E7.04516
G1 X-57.521 Y24.539 E7.09180
G1 X-59.539 Y22.521 E7.24089
G1 X-60.124 Y21.847 E7.28753
G1 X-61.834 Y19.562 E7.43661
G1 X-62.316 Y18.811 E7.48325
G1 X-63.684 Y16.307 E7.63233
G1 X-64.055 Y15.495 E7.67897
G1 X-65.052 Y12.821 E7.82805
G1 X-65.304 Y11.965 E7.87469
G1 X-65.910 Y9.176 E8.02378
G1 X-66.037 Y8.293 E8.07042
G1 X-66.241 Y5.446 E8.21950
G1 X-66.257 Y5.000 E8.24283
G1 X-66.257 Y-25.000 E9.81018
G1 X-65.860 Y-27.193 E9.92660
G1 X-64.720 Y-29.107 E10.04302
G1 X-62.981 Y-30.501 E10.15943
G1 X-60.000 Y-31.257 E10.32010
G1 X60.000 Y-31.257 E16.58949
G1 X62.193 Y-30.860 E16.70591
G1 X64.107 Y-29.720 E16.82233 F1200.000
G1 X65.501 Y-27.981 E16.93874
G1 X66.257 Y-25.000 E17.09941
G1 X66.257 Y5.000 E18.66676
G1 X66.241 Y5.446 E18.69009
G1 X66.037 Y8.293 E18.83918
G1 X65.954 Y8.957 E18.87417
G1 X65.605 Y10.799 E18.97208
G1 X65.252 Y12.182 E19.04667
G1 X65.052 Y12.821 E19.08166
G1 X64.055 Y15.495 E19.23075
G1 X63.783 Y16.117 E19.26623
G1 X63.129 Y17.420 E19.34241
G1 X62.800 Y17.996 E19.37704
G1 X61.273 Y20.370 E19.52453
G1 X60.741 Y21.081 E19.57092
G1 X58.893 Y23.215 E19.71840
G1 X58.433 Y23.693 E19.75303
G1 X57.367 Y24.688 E19.82922
G1 X57.023 Y24.987 E19.85304
G1 X55.911 Y25.882 E19.92763
G1 X55.368 Y26.274 E19.96262
G1 X52.968 Y27.817 E20.11171
G1 X52.184 Y28.245 E20.15834
G1 X49.588 Y29.430 E20.30743
G1 X48.965 Y29.675 E20.34242
G1 X47.610 Y30.126 E20.41701
G1 X45.799 Y30.605 E20.51492
G1 X45.142 Y30.736 E20.54991
G1 X42.317 Y31.142 E20.69900
G1 X41.427 Y31.206 E20.74564
G1 X0.060 Y31.206 E22.90684
G1 X0.000 Y30.787 F6000.000
G1 X-41.427 Y30.787 E25.07118 F1200.000
G1 X-42.258 Y30.727 E25.11469
G1 X-45.082 Y30.321 E25.26378
G1 X-45.896 Y30.144 E25.30729
G1 X-48.634 Y29.340 E25.45638
G1 X-49.223 Y29.132 E25.48903
G1 X-50.542 Y28.586 E25.56362
G1 X-51.106 Y28.316 E25.59627
G1 X-53.611 Y26.949 E25.74535
G1 X-54.311 Y26.498 E25.78887
G1 X-56.596 Y24.788 E25.93795
G1 X-57.225 Y24.243 E25.98147
G1 X-59.243 Y22.225 E26.13055
G1 X-59.788 Y21.596 E26.17407
G1 X-61.498 Y19.311 E26.32315
G1 X-61.949 Y18.611 E26.36667
G1 X-63.316 Y16.106 E26.51575
G1 X-63.662 Y15.348 E26.55927
G1 X-64.660 Y12.675 E26.70835
G1 X-64.894 Y11.876 E26.75187
G1 X-65.501 Y9.087 E26.90095
G1 X-65.619 Y8.263 E26.94447
G1 X-65.823 Y5.416 E27.09355
G1 X-65.838 Y5.000 E27.11532
G1 X-65.838 Y-25.000 E28.68267
G1 X-65.441 Y-27.115 E28.79509
G1 X-64.305 Y-28.943 E28.90751
G1 X-62.585 Y-30.234 E29.01993
G1 X-60.000 Y-30.838 E29.15859
G1 X60.000 Y-30.838 E35.42798
G1 X62.115 Y-30.441 E35.54040
G1 X63.943 Y-29.305 E35.65282 F1200.000
G1 X65.234 Y-27.585 E35.76524
G1 X65.838 Y-25.000 E35.90390
G1 X65.838 Y5.000 E37.47125
G1 X65.823 Y5.416 E37.49302
G1 X65.619 Y8.263 E37.64210
G1 X65.541 Y8.883 E37.67475
G1 X65.288 Y10.288 E37.74934
G1 X64.846 Y12.078 E37.84569
G1 X64.660 Y12.675 E37.87834
G1 X63.662 Y15.348 E38.02743
G1 X63.409 Y15.929 E38.06053
G1 X62.754 Y17.232 E38.13671
G1 X62.448 Y17.769 E38.16903
G1 X60.921 Y20.144 E38.31651
G1 X60.424 Y20.807 E38.35979
G1 X58.576 Y22.941 E38.50728
G1 X58.147 Y23.386 E38.53959
G1 X57.082 Y24.382 E38.61578
G1 X55.649 Y25.556 E38.71258
G1 X55.142 Y25.922 E38.74523
G1 X52.741 Y27.465 E38.89432
G1 X52.010 Y27.864 E38.93783
G1 X49.414 Y29.049 E39.08692
G1 X48.833 Y29.278 E39.11957
G1 X47.478 Y29.729 E39.19416
G1 X45.695 Y30.199 E39.29050
G1 X45.082 Y30.321 E39.32315
G1 X42.258 Y30.727 E39.47224
G1 X41.427 Y30.787 E39.51575
G1 X0.060 Y30.787 E41.67696
G1 X0.000 Y30.368 F6000.000
G1 X-41.427 Y30.368 E43.84130 F1200.000
G1 X-42.198 Y30.313 E43.88169
G1 X-45.022 Y29.907 E44.03078
G1 X-45.778 Y29.742 E44.07117
G1 X-48.516 Y28.938 E44.22025
G1 X-49.063 Y28.745 E44.25056
G1 X-50.382 Y28.199 E44.32515
G1 X-50.905 Y27.949 E44.35546
G1 X-53.410 Y26.581 E44.50454
G1 X-54.060 Y26.163 E44.54493
G1 X-56.345 Y24.453 E44.69402
G1 X-56.929 Y23.947 E44.73441
G1 X-58.947 Y21.929 E44.88350
G1 X-59.453 Y21.345 E44.92389
G1 X-61.163 Y19.060 E45.07297
G1 X-61.581 Y18.410 E45.11337
G1 X-62.949 Y15.905 E45.26245
G1 X-63.270 Y15.202 E45.30284
G1 X-64.267 Y12.528 E45.45193
G1 X-64.485 Y11.787 E45.49232
G1 X-65.091 Y8.998 E45.64141
G1 X-65.202 Y8.233 E45.68180
G1 X-65.419 Y5.000 E45.85108
G1 X-65.419 Y-25.000 E47.41843
G1 X-65.023 Y-27.034 E47.52671
G1 X-63.892 Y-28.771 E47.63498
G1 X-62.191 Y-29.956 E47.74326
G1 X-60.000 Y-30.419 E47.86027
G1 X60.000 Y-30.419 E54.12966
G1 X62.034 Y-30.023 E54.23794
G1 X63.771 Y-28.892 E54.34621 F1200.000
G1 X64.956 Y-27.191 E54.45449
G1 X65.419 Y-25.000 E54.57151
G1 X65.419 Y5.000 E56.13885
G1 X65.202 Y8.233 E56.30814
G1 X65.129 Y8.808 E56.33844
G1 X64.876 Y10.213 E56.41303
G1 X64.440 Y11.975 E56.50782
G1 X64.267 Y12.528 E56.53813
G1 X63.270 Y15.202 E56.68721
G1 X63.035 Y15.741 E56.71794
G1 X62.380 Y17.044 E56.79412
G1 X62.095 Y17.543 E56.82412
G1 X60.568 Y19.917 E56.97161
G1 X60.108 Y20.533 E57.01178
G1 X58.260 Y22.667 E57.15927
G1 X57.861 Y23.080 E57.18926
G1 X56.796 Y24.075 E57.26544
G1 X55.386 Y25.230 E57.36065
G1 X54.915 Y25.569 E57.39096
G1 X52.515 Y27.112 E57.54005
G1 X51.836 Y27.483 E57.58044
G1 X49.240 Y28.668 E57.72952
G1 X48.701 Y28.881 E57.75983
G1 X47.346 Y29.331 E57.83442
G1 X45.591 Y29.793 E57.92921
G1 X45.022 Y29.907 E57.95952
G1 X42.198 Y30.313 E58.10860
G1 X41.427 Y30.368 E58.14899
G1 X0.060 Y30.368 E60.31020
G1 F4800
G1 X-3.940 Y30.368 E56.51020
G1 E56.31020 F4800.00000
G92 E0
G1 Z1.300 F6000.000
G1 X-20.996 Y-5.996 F6000.000
G1 Z0.300 F6000.000
G1 E4.00000 F4800.00000
G1 X-20.996 Y4.982 E4.57356 F1200.000
G1 X-21.045 Y6.338 E4.64443
G1 X-21.435 Y9.056 E4.78790
G1 X-21.771 Y10.365 E4.85850
G1 X-22.716 Y12.893 E4.99951
G1 X-24.015 Y15.273 E5.14116
G1 X-25.650 Y17.457 E5.28369
G1 X-26.572 Y18.444 E5.35429
G1 X-28.613 Y20.211 E5.49530
G1 X-30.894 Y21.677 E5.63695
G1 X-33.360 Y22.803 E5.77859
G1 X-35.961 Y23.567 E5.92023
G1 X-38.644 Y23.953 E6.06187
G1 X-41.356 Y23.953 E6.20351
G1 X-44.039 Y23.567 E6.34515
G1 X-46.657 Y22.798 E6.48773
G1 X-47.878 Y22.293 E6.55674
G1 X-50.273 Y20.985 E6.69931
G1 X-52.443 Y19.360 E6.84095
G1 X-54.360 Y17.443 E6.98259
G1 X-55.985 Y15.273 E7.12423
G1 X-57.284 Y12.893 E7.26587
G1 X-58.232 Y10.353 E7.40751
G1 X-58.808 Y7.704 E7.54915
G1 X-59.004 Y4.964 E7.69265
G1 X-59.004 Y-24.004 E9.20610
G1 X59.004 Y-24.004 E15.37140
G1 X59.004 Y4.964 E16.88485
G1 X58.807 Y7.722 E17.02928
G1 X58.569 Y9.039 E17.09922
G1 X58.238 Y10.337 E17.16917
G1 X57.278 Y12.909 E17.31263
G1 X56.672 Y14.117 E17.38323
G1 X55.211 Y16.387 E17.52425
G1 X53.444 Y18.428 E17.66528
G1 X52.444 Y19.362 E17.73680
G1 X51.402 Y20.202 E17.80670
G1 X49.106 Y21.677 E17.94928
G1 X46.624 Y22.811 E18.09185
G1 X45.354 Y23.233 E18.16179
G1 X44.057 Y23.565 E18.23173
G1 X41.356 Y23.953 E18.37430
G1 X38.627 Y23.953 E18.51688
G1 X37.296 Y23.810 E18.58682
G1 X35.978 Y23.572 E18.65676
G1 X33.360 Y22.803 E18.79933
G1 X30.893 Y21.677 E18.94098
G1 X28.622 Y20.219 E19.08200
G1 X27.569 Y19.372 E19.15259
G1 X25.640 Y17.443 E19.29513
G1 X24.004 Y15.259 E19.43770
G1 X23.331 Y14.123 E19.50668
G1 X22.187 Y11.612 E19.65083
G1 X21.428 Y9.022 E19.79184
G1 X21.193 Y7.722 E19.86086
G1 X20.996 Y4.964 E20.00529
G1 X20.996 Y-5.996 E20.57793
G1 X-20.936 Y-5.996 E22.76867
G1 X-20.577 Y-5.577 F6000.000
G1 X-20.577 Y4.990 E23.32074 F1200.000
G1 X-20.627 Y6.375 E23.39318
G1 X-21.024 Y9.138 E23.53901
G1 X-21.371 Y10.490 E23.61195
G1 X-22.334 Y13.068 E23.75569
G1 X-23.662 Y15.500 E23.90046
G1 X-25.328 Y17.726 E24.04575
G1 X-26.281 Y18.747 E24.11870
G1 X-28.361 Y20.547 E24.26243
G1 X-30.692 Y22.046 E24.40721
G1 X-33.213 Y23.197 E24.55198
G1 X-35.872 Y23.977 E24.69675
G1 X-38.615 Y24.372 E24.84152
G1 X-41.386 Y24.372 E24.98629
G1 X-44.128 Y23.977 E25.13106
G1 X-46.797 Y23.194 E25.27637
G1 X-48.059 Y22.671 E25.34773
G1 X-50.500 Y21.338 E25.49304
G1 X-52.718 Y19.678 E25.63781
G1 X-54.678 Y17.718 E25.78258
G1 X-56.338 Y15.500 E25.92735
G1 X-57.666 Y13.068 E26.07212
G1 X-58.635 Y10.472 E26.21689
G1 X-59.224 Y7.764 E26.36166
G1 X-59.423 Y4.979 E26.50751
G1 X-59.423 Y-24.423 E28.04362
G1 X59.423 Y-24.423 E34.25270
G1 X59.423 Y4.979 E35.78881
G1 X59.223 Y7.774 E35.93520
G1 X58.979 Y9.129 E36.00709
G1 X58.638 Y10.462 E36.07899
G1 X57.663 Y13.077 E36.22482
G1 X57.036 Y14.325 E36.29776
G1 X55.548 Y16.639 E36.44151
G1 X53.747 Y18.719 E36.58525
G1 X52.719 Y19.679 E36.65873
G1 X51.647 Y20.542 E36.73061
G1 X49.308 Y22.046 E36.87592
G1 X46.778 Y23.201 E37.02123
G1 X45.472 Y23.636 E37.09312
G1 X44.139 Y23.976 E37.16502
G1 X41.386 Y24.372 E37.31033
G1 X38.604 Y24.372 E37.45564
G1 X37.236 Y24.225 E37.52754
G1 X35.882 Y23.980 E37.59943
G1 X33.213 Y23.197 E37.74474
G1 X30.692 Y22.046 E37.88952
G1 X28.377 Y20.559 E38.03326
G1 X27.289 Y19.685 E38.10620
G1 X25.322 Y17.718 E38.25149
G1 X23.656 Y15.492 E38.39680
G1 X22.959 Y14.317 E38.46814
G1 X21.794 Y11.758 E38.61503
G1 X21.020 Y9.118 E38.75877
G1 X20.777 Y7.774 E38.83013
G1 X20.577 Y4.979 E38.97652
G1 X20.577 Y-5.577 E39.52805
G1 X-20.517 Y-5.577 E41.67503
G1 X-20.200 Y-5.200 F6000.000
G1 X-20.200 Y4.996 E42.10185 F1200.000
G1 X-20.250 Y6.409 E42.16102
G1 X-20.653 Y9.212 E42.27957
G1 X-21.011 Y10.604 E42.33971
G1 X-21.990 Y13.225 E42.45684
G1 X-23.344 Y15.704 E42.57509
G1 X-25.039 Y17.969 E42.69349
G1 X-26.019 Y19.019 E42.75363
G1 X-28.135 Y20.850 E42.87076
G1 X-30.511 Y22.378 E42.98902
G1 X-33.081 Y23.551 E43.10727
G1 X-35.791 Y24.347 E43.22553
G1 X-38.588 Y24.749 E43.34378
G1 X-41.412 Y24.749 E43.46203
G1 X-44.209 Y24.347 E43.58029
G1 X-46.923 Y23.550 E43.69869
G1 X-48.222 Y23.012 E43.75756
G1 X-50.704 Y21.656 E43.87596
G1 X-52.966 Y19.963 E43.99421
G1 X-54.963 Y17.966 E44.11247
G1 X-56.656 Y15.704 E44.23072
G1 X-58.010 Y13.225 E44.34897
G1 X-58.997 Y10.578 E44.46723
G1 X-59.598 Y7.818 E44.58548
G1 X-59.800 Y4.993 E44.70404
G1 X-59.800 Y-24.800 E45.95117
G1 X59.800 Y-24.800 E50.95767
G1 X59.800 Y4.993 E52.20480
G1 X59.598 Y7.821 E52.32351
G1 X59.347 Y9.209 E52.38252
G1 X58.999 Y10.575 E52.44154
G1 X58.009 Y13.228 E52.56009
G1 X57.364 Y14.512 E52.62023
G1 X55.850 Y16.865 E52.73736
G1 X54.019 Y18.981 E52.85449
G1 X52.966 Y19.964 E52.91478
G1 X51.868 Y20.848 E52.97379
G1 X49.489 Y22.378 E53.09220
G1 X46.916 Y23.553 E53.21060
G1 X45.578 Y23.998 E53.26962
G1 X44.212 Y24.346 E53.32863
G1 X41.412 Y24.749 E53.44704
G1 X38.584 Y24.749 E53.56544
G1 X37.182 Y24.598 E53.62446
G1 X35.795 Y24.348 E53.68347
G1 X33.081 Y23.551 E53.80188
G1 X30.511 Y22.378 E53.92013
G1 X28.157 Y20.866 E54.03726
G1 X27.037 Y19.966 E54.09740
G1 X25.037 Y17.966 E54.21580
G1 X23.341 Y15.702 E54.33420
G1 X22.624 Y14.492 E54.39307
G1 X21.439 Y11.890 E54.51274
G1 X20.652 Y9.205 E54.62987
G1 X20.402 Y7.821 E54.68874
G1 X20.200 Y4.993 E54.80744
G1 X20.200 Y-5.200 E55.23412
G1 X-20.140 Y-5.200 E56.92276
G1 X-20.600 Y-5.200 F6000.000
G1 X-19.756 Y-6.352 F6000.000
G1 X-20.106 Y-6.702 E56.94862 F1200.000
G1 X-6.702 Y-6.702 E57.64891
G1 X-6.702 Y-20.106 E58.34921
G1 X0.000 Y-13.404 E58.84439
G1 X6.702 Y-20.106 E59.33958
G1 X6.702 Y-6.702 E60.03988
G1 X20.106 Y-6.702 E60.74017
G1 X19.756 Y-6.352 E60.76603
G1 X20.594 Y-6.352 F6000.000
G1 X21.363 Y-7.121 E60.82283 F1200.000
G1 X7.121 Y-7.121 E61.56690
G1 X7.121 Y-21.363 E62.31096
G1 X0.000 Y-14.242 E62.83710
G1 X-7.121 Y-21.363 E63.36323
G1 X-7.121 Y-7.121 E64.10730
G1 X-21.363 Y-7.121 E64.85136
G1 X-20.594 Y-6.352 E64.90816
G1 X-21.352 Y-6.273 F6000.000
G1 X-22.619 Y-7.540 E65.00180 F1200.000
G1 X-7.540 Y-7.540 E65.78963
G1 X-7.540 Y-22.619 E66.57747
G1 X0.000 Y-15.080 E67.13455
G1 X7.540 Y-22.619 E67.69164
G1 X7.540 Y-7.540 E68.47947
G1 X22.619 Y-7.540 E69.26730
G1 X21.352 Y-6.273 E69.36094
G1 X21.352 Y-5.435 F6000.000
G1 X23.876 Y-7.959 E69.54742 F1200.000
G1 X7.959 Y-7.959 E70.37903
G1 X7.959 Y-23.648 E71.19870
G1 X7.730 Y-23.648 F6000.000
G1 X0.000 Y-15.917 E71.76987 F1200.000
G1 X-7.730 Y-23.648 E72.34104
G1 X-7.959 Y-23.648 F6000.000
G1 X-7.959 Y-7.959 E73.16072 F1200.000
G1 X-23.876 Y-7.959 E73.99232
G1 X-21.352 Y-5.435 E74.17880
G1 X-21.352 Y-4.597 F6000.000
G1 X-25.133 Y-8.378 E74.45813 F1200.000
G1 X-8.378 Y-8.378 E75.33351
G1 X-8.378 Y-23.648 E76.13130
G1 X-8.796 Y-23.648 F6000.000
G1 X-8.796 Y-8.796 E76.90721 F1200.000
G1 X-26.389 Y-8.796 E77.82635
G1 X-21.352 Y-3.759 E78.19853
G1 X-21.352 Y-2.921 F6000.000
G1 X-27.646 Y-9.215 E78.66355 F1200.000
G1 X-9.215 Y-9.215 E79.62646
G1 X-9.215 Y-23.648 E80.38048
G1 X-9.634 Y-23.648 F6000.000
G1 X-9.634 Y-9.634 E81.11263 F1200.000
G1 X-28.903 Y-9.634 E82.11930
G1 X-21.352 Y-2.084 E82.67717
G1 X-21.352 Y-1.246 F6000.000
G1 X-30.159 Y-10.053 E83.32789 F1200.000
G1 X-10.053 Y-10.053 E84.37834
G1 X-10.053 Y-23.648 E85.08860
G1 X-10.472 Y-23.648 F6000.000
G1 X-10.472 Y-10.472 E85.77697 F1200.000
G1 X-31.416 Y-10.472 E86.87118
G1 X-21.352 Y-0.408 E87.61475
G1 X-21.352 Y0.408 F6000.000
G1 X-31.416 Y10.472 E88.35831 F1200.000
G1 X-22.192 Y10.472 E88.84024
G1 X-22.059 Y10.053 F6000.000
G1 X-30.159 Y10.053 E89.26344 F1200.000
G1 X-21.352 Y1.246 E89.91416
G1 X-21.352 Y2.084 F6000.000
G1 X-28.903 Y9.634 E90.47203 F1200.000
G1 X-21.951 Y9.634 E90.83519
G1 X-21.844 Y9.215 F6000.000
G1 X-27.646 Y9.215 E91.13833 F1200.000
G1 X-21.352 Y2.921 E91.60335
G1 X-21.352 Y3.759 F6000.000
G1 X-26.389 Y8.796 E91.97553 F1200.000
G1 X-21.758 Y8.796 E92.21751
G1 X-21.698 Y8.378 F6000.000
G1 X-25.133 Y8.378 E92.39698 F1200.000
G1 X-21.352 Y4.597 E92.67631
G1 X-21.369 Y5.452 F6000.000
G1 X-23.876 Y7.959 E92.86154 F1200.000
G1 X-21.637 Y7.959 E92.97851
G1 X-21.577 Y7.540 F6000.000
G1 X-22.619 Y7.540 E93.03297 F1200.000
G1 X-21.402 Y6.322 E93.12292
G1 F4800
G1 X-22.619 Y7.540 E91.48726
G1 F4800
G1 X-21.577 Y7.540 E90.49696
G1 E89.12292 F4800.00000
G92 E0
G1 Z1.300 F6000.000
G1 X-22.348 Y10.891 F6000.000
G1 Z0.300 F6000.000
G1 E4.00000 F4800.00000
G1 X-32.673 Y10.891 E4.53941 F1200.000
G1 X-21.782 Y0.000 E5.34408
G1 X-32.673 Y-10.891 E6.14876
G1 X-10.891 Y-10.891 E7.28674
G1 X-10.891 Y-23.648 E7.95323
G1 X-11.310 Y-23.648 F6000.000
G1 X-11.310 Y-11.310 E8.59783 F1200.000
G1 X-33.929 Y-11.310 E9.77958
G1 X-22.619 Y0.000 E10.61521
G1 X-33.929 Y11.310 E11.45083
G1 X-22.504 Y11.310 E12.04772
G1 X-22.661 Y11.729 F6000.000
G1 X-35.186 Y11.729 E12.70209 F1200.000
G1 X-23.457 Y0.000 E13.56866
G1 X-35.186 Y-11.729 E14.43524
G1 X-11.729 Y-11.729 E15.66076
G1 X-11.729 Y-23.648 E16.28348
G1 X-12.147 Y-23.648 F6000.000
G1 X-12.147 Y-12.147 E16.88431 F1200.000
G1 X-36.442 Y-12.147 E18.15360
G1 X-24.295 Y0.000 E19.05112
G1 X-36.442 Y12.147 E19.94865
G1 X-22.817 Y12.147 E20.66049
G1 X-22.974 Y12.566 F6000.000
G1 X-37.699 Y12.566 E21.42982 F1200.000
G1 X-25.133 Y0.000 E22.35830
G1 X-37.699 Y-12.566 E23.28677
G1 X-12.566 Y-12.566 E24.59983
G1 X-12.566 Y-23.648 E25.17878
G1 X-12.985 Y-23.648 F6000.000
G1 X-12.985 Y-12.985 E25.73584 F1200.000
G1 X-38.956 Y-12.985 E27.09267
G1 X-25.971 Y0.000 E28.05209
G1 X-38.956 Y12.985 E29.01151
G1 X-23.172 Y12.985 E29.83615
G1 X-23.400 Y13.404 F6000.000
G1 X-40.212 Y13.404 E30.71450 F1200.000
G1 X-26.808 Y0.000 E31.70487
G1 X-40.212 Y-13.404 E32.69524
G1 X-13.404 Y-13.404 E34.09584
G1 X-13.404 Y-23.648 E34.63102
G1 X-13.823 Y-23.648 F6000.000
G1 X-13.823 Y-13.823 E35.14432 F1200.000
G1 X-41.469 Y-13.823 E36.58868
G1 X-27.646 Y0.000 E37.61000
G1 X-41.469 Y13.823 E38.63132
