; generated by Slic3r 1.2.9 on 2016-02-11 at 13:34:40

; external perimeters extrusion width = 0.40mm
; perimeters extrusion width = 0.67mm
; infill extrusion width = 0.67mm
; solid infill extrusion width = 0.67mm
; top infill extrusion width = 0.67mm

M107
M104 S210 ; set temperature
G28 ; home all axes
G1 X70Y70Z10 F5000 
M109 S210 ; wait for temperature to be reached
G21 ; set units to millimeters
G90 ; use absolute coordinates
M82 ; use absolute distances for extrusion
G92 E0
G1 E-3.50000 F1800.00000
G92 E0
G1 Z0.300 F6000.000
G1 X-11.257 Y-50.000 F6000.000
G1 E3.50000 F1800.00000
G1 X-10.860 Y-52.193 E3.61642 F2045.916
G1 X-9.720 Y-54.107 E3.73283
G1 X-7.981 Y-55.501 E3.84925
G1 X-5.000 Y-56.257 E4.00992
G1 X5.000 Y-56.257 E4.53237
G1 X7.193 Y-55.860 E4.64879
G1 X9.107 Y-54.720 E4.76521
G1 X10.501 Y-52.981 E4.88162
G1 X11.257 Y-50.000 E5.04229
G1 X11.257 Y50.000 E10.26678
G1 X10.860 Y52.193 E10.38320
G1 X9.720 Y54.107 E10.49962
G1 X7.981 Y55.501 E10.61603
G1 X5.000 Y56.257 E10.77671
G1 X-5.000 Y56.257 E11.29915
G1 X-7.193 Y55.860 E11.41557
G1 X-9.107 Y54.720 E11.53199
G1 X-10.501 Y52.981 E11.64841
G1 X-11.257 Y50.000 E11.80908
G1 X-11.257 Y-49.940 E17.03043
G1 X-10.838 Y-50.000 F6000.000
G1 X-10.441 Y-52.115 E17.14285 F2045.916
G1 X-9.305 Y-53.943 E17.25527
G1 X-7.585 Y-55.234 E17.36769
G1 X-5.000 Y-55.838 E17.50635
G1 X5.000 Y-55.838 E18.02880
G1 X7.115 Y-55.441 E18.14122
G1 X8.943 Y-54.305 E18.25364
G1 X10.234 Y-52.585 E18.36606
G1 X10.838 Y-50.000 E18.50472
G1 X10.838 Y50.000 E23.72921
G1 X10.441 Y52.115 E23.84163
G1 X9.305 Y53.943 E23.95405
G1 X7.585 Y55.234 E24.06647
G1 X5.000 Y55.838 E24.20513
G1 X-5.000 Y55.838 E24.72758
G1 X-7.115 Y55.441 E24.84000
G1 X-8.943 Y54.305 E24.95242
G1 X-10.234 Y52.585 E25.06484
G1 X-10.838 Y50.000 E25.20350
G1 X-10.838 Y-49.940 E30.42486
G1 X-10.419 Y-50.000 F6000.000
G1 X-10.023 Y-52.034 E30.53313 F2045.916
G1 X-8.892 Y-53.771 E30.64141
G1 X-7.191 Y-54.956 E30.74968
G1 X-5.000 Y-55.419 E30.86670
G1 X5.000 Y-55.419 E31.38915
G1 X7.034 Y-55.023 E31.49743
G1 X8.771 Y-53.892 E31.60570
G1 X9.956 Y-52.191 E31.71398
G1 X10.419 Y-50.000 E31.83099
G1 X10.419 Y50.000 E37.05548
G1 X10.023 Y52.034 E37.16376
G1 X8.892 Y53.771 E37.27204
G1 X7.191 Y54.956 E37.38031
G1 X5.000 Y55.419 E37.49733
G1 X-5.000 Y55.419 E38.01978
G1 X-7.034 Y55.023 E38.12805
G1 X-8.771 Y53.892 E38.23633
G1 X-9.956 Y52.191 E38.34460
G1 X-10.419 Y50.000 E38.46162
G1 X-10.419 Y-49.940 E43.68298
G1 E40.18298 F1800.00000
G92 E0
G1 X0.996 Y-46.996 F6000.000
G1 E3.50000 F1800.00000
G1 X-4.004 Y-46.996 E3.76122 F2045.916
G1 X-4.004 Y-49.004 E3.86612
G1 X4.004 Y-49.004 E4.28448
G1 X4.004 Y49.004 E9.40489
G1 X-4.004 Y49.004 E9.82325
G1 X-4.004 Y47.196 E9.91770
G1 X0.996 Y47.196 E10.17892
G1 X0.996 Y42.004 E10.45019
G1 X-4.004 Y42.004 E10.71141
G1 X-4.004 Y-41.804 E15.08994
G1 X0.996 Y-41.804 E15.35117
G1 X0.996 Y-46.936 E15.61930
G1 X0.577 Y-46.577 F6000.000
G1 X-4.423 Y-46.577 E15.88053 F2045.916
G1 X-4.423 Y-49.423 E16.02919
G1 X4.423 Y-49.423 E16.49132
G1 X4.423 Y49.423 E21.65549
G1 X-4.423 Y49.423 E22.11763
G1 X-4.423 Y46.777 E22.25584
G1 X0.577 Y46.777 E22.51706
G1 X0.577 Y42.423 E22.74457
G1 X-4.423 Y42.423 E23.00579
G1 X-4.423 Y-42.223 E27.42809
G1 X0.577 Y-42.223 E27.68931
G1 X0.577 Y-46.517 E27.91368
G1 X0.200 Y-46.200 F6000.000
G1 X-4.800 Y-46.200 E28.12298 F600.000
G1 X-4.800 Y-49.800 E28.27367
G1 X4.800 Y-49.800 E28.67553
G1 X4.800 Y49.800 E32.84482
G1 X-4.800 Y49.800 E33.24668
G1 X-4.800 Y46.400 E33.38900
G1 X0.200 Y46.400 E33.59831
G1 X0.200 Y42.800 E33.74900
G1 X-4.800 Y42.800 E33.95830
G1 X-4.800 Y-42.600 E37.53317
G1 X0.200 Y-42.600 E37.74248
G1 X0.200 Y-46.140 E37.89066
G1 X0.200 Y-46.600 F6000.000
G1 X1.243 Y-46.893 F6000.000
G1 X3.757 Y-44.379 E38.07696 F2039.427
G1 X3.757 Y-43.785 E38.10810
G1 X1.243 Y-46.298 E38.29440
G1 X1.243 Y-45.704 E38.32554
G1 X3.757 Y-43.191 E38.51184
G1 X3.757 Y-42.596 E38.54298
G1 X1.243 Y-45.110 E38.72928
G1 X1.243 Y-44.515 E38.76043
G1 X3.757 Y-42.002 E38.94672
G1 X3.757 Y-41.408 E38.97787
G1 X1.243 Y-43.921 E39.16416
G1 X1.243 Y-43.327 E39.19531
G1 X3.757 Y-40.813 E39.38160
G1 X3.757 Y-40.219 E39.41275
G1 X1.243 Y-42.733 E39.59904
G1 X1.243 Y-42.138 E39.63019
G1 X3.757 Y-39.625 E39.81648
G1 X3.757 Y-39.031 E39.84763
G1 X1.231 Y-41.557 E40.03486
G1 X0.636 Y-41.557 E40.06601
G1 X3.757 Y-38.436 E40.29728
G1 X3.757 Y-37.842 E40.32843
G1 X0.042 Y-41.557 E40.60376
G1 X-0.552 Y-41.557 E40.63490
G1 X3.757 Y-37.248 E40.95428
G1 X3.757 Y-36.654 E40.98542
G1 X-1.146 Y-41.557 E41.34884
G1 X-1.741 Y-41.557 E41.37999
G1 X3.757 Y-36.059 E41.78746
G1 X3.757 Y-35.465 E41.81860
G1 X-2.335 Y-41.557 E42.27012
G1 X-2.929 Y-41.557 E42.30126
G1 X3.757 Y-34.871 E42.79683
G1 X3.757 Y-34.277 E42.82797
G1 X-3.523 Y-41.557 E43.36758
G1 X-3.757 Y-41.196 E43.39011
G1 X3.757 Y-33.682 E43.94701
G1 X3.757 Y-33.088 E43.97815
G1 X-3.757 Y-40.601 E44.53505
G1 X-3.757 Y-40.007 E44.56620
G1 X3.757 Y-32.494 E45.12310
G1 X3.757 Y-31.899 E45.15424
G1 X-3.757 Y-39.413 E45.71114
G1 X-3.757 Y-38.819 E45.74229
G1 X3.757 Y-31.305 E46.29918
G1 X3.757 Y-30.711 E46.33033
G1 X-3.757 Y-38.224 E46.88723
G1 X-3.757 Y-37.630 E46.91837
G1 X3.757 Y-30.117 E47.47527
G1 X3.757 Y-29.522 E47.50642
G1 X-3.757 Y-37.036 E48.06331
G1 X-3.757 Y-36.442 E48.09446
G1 X3.757 Y-28.928 E48.65136
G1 X3.757 Y-28.334 E48.68250
G1 X-3.757 Y-35.847 E49.23940
G1 X-3.757 Y-35.253 E49.27055
G1 X3.757 Y-27.740 E49.82745
G1 X3.757 Y-27.145 E49.85859
G1 X-3.757 Y-34.659 E50.41549
G1 X-3.757 Y-34.064 E50.44664
G1 X3.757 Y-26.551 E51.00353
G1 X3.757 Y-25.957 E51.03468
G1 X-3.757 Y-33.470 E51.59158
G1 X-3.757 Y-32.876 E51.62272
G1 X3.757 Y-25.362 E52.17962
G1 X3.757 Y-24.768 E52.21077
G1 X-3.757 Y-32.282 E52.76767
G1 X-3.757 Y-31.687 E52.79881
G1 X3.757 Y-24.174 E53.35571
G1 X3.757 Y-23.580 E53.38686
G1 X-3.757 Y-31.093 E53.94375
G1 X-3.757 Y-30.499 E53.97490
G1 X3.757 Y-22.985 E54.53180
G1 X3.757 Y-22.391 E54.56294
G1 X-3.757 Y-29.905 E55.11984
G1 X-3.757 Y-29.310 E55.15099
G1 X3.757 Y-21.797 E55.70788
G1 X3.757 Y-21.203 E55.73903
G1 X-3.757 Y-28.716 E56.29593
G1 X-3.757 Y-28.122 E56.32707
G1 X3.757 Y-20.608 E56.88397
G1 X3.757 Y-20.014 E56.91512
G1 X-3.757 Y-27.527 E57.47202
G1 X-3.757 Y-26.933 E57.50316
G1 X3.757 Y-19.420 E58.06006
G1 X3.757 Y-18.826 E58.09121
G1 X-3.757 Y-26.339 E58.64810
G1 X-3.757 Y-25.745 E58.67925
G1 X3.757 Y-18.231 E59.23615
G1 X3.757 Y-17.637 E59.26729
G1 X-3.757 Y-25.150 E59.82419
G1 X-3.757 Y-24.556 E59.85534
G1 X3.757 Y-17.043 E60.41223
G1 X3.757 Y-16.448 E60.44338
G1 X-3.757 Y-23.962 E61.00028
G1 X-3.757 Y-23.368 E61.03142
G1 X3.757 Y-15.854 E61.58832
G1 X3.757 Y-15.260 E61.61947
G1 X-3.757 Y-22.773 E62.17637
G1 X-3.757 Y-22.179 E62.20751
G1 X3.757 Y-14.666 E62.76441
G1 X3.757 Y-14.071 E62.79556
G1 X-3.757 Y-21.585 E63.35245
G1 X-3.757 Y-20.991 E63.38360
G1 X3.757 Y-13.477 E63.94050
G1 X3.757 Y-12.883 E63.97164
G1 X-3.757 Y-20.396 E64.52854
G1 X-3.757 Y-19.802 E64.55969
G1 X3.757 Y-12.289 E65.11658
G1 X3.757 Y-11.694 E65.14773
G1 X-3.757 Y-19.208 E65.70463
G1 X-3.757 Y-18.613 E65.73577
G1 X3.757 Y-11.100 E66.29267
G1 X3.757 Y-10.506 E66.32382
G1 X-3.757 Y-18.019 E66.88072
G1 X-3.757 Y-17.425 E66.91186
G1 X3.757 Y-9.911 E67.46876
G1 X3.757 Y-9.317 E67.49991
G1 X-3.757 Y-16.831 E68.05680
G1 X-3.757 Y-16.236 E68.08795
G1 X3.757 Y-8.723 E68.64485
G1 X3.757 Y-8.129 E68.67599
G1 X-3.757 Y-15.642 E69.23289
G1 X-3.757 Y-15.048 E69.26404
G1 X3.757 Y-7.534 E69.82093
G1 X3.757 Y-6.940 E69.85208
G1 X-3.757 Y-14.454 E70.40898
G1 X-3.757 Y-13.859 E70.44012
G1 X3.757 Y-6.346 E70.99702
G1 X3.757 Y-5.752 E71.02817
G1 X-3.757 Y-13.265 E71.58507
G1 X-3.757 Y-12.671 E71.61621
G1 X3.757 Y-5.157 E72.17311
G1 X3.757 Y-4.563 E72.20426
G1 X-3.757 Y-12.076 E72.76115
G1 X-3.757 Y-11.482 E72.79230
G1 X3.757 Y-3.969 E73.34920
G1 X3.757 Y-3.375 E73.38034
G1 X-3.757 Y-10.888 E73.93724
G1 X-3.757 Y-10.294 E73.96839
G1 X3.757 Y-2.780 E74.52528
G1 X3.757 Y-2.186 E74.55643
G1 X-3.757 Y-9.699 E75.11333
G1 X-3.757 Y-9.105 E75.14447
G1 X3.757 Y-1.592 E75.70137
G1 X3.757 Y-0.997 E75.73252
G1 X-3.757 Y-8.511 E76.28942
G1 X-3.757 Y-7.917 E76.32056
G1 X3.757 Y-0.403 E76.87746
G1 X3.757 Y0.191 E76.90861
G1 X-3.757 Y-7.322 E77.46550
G1 X-3.757 Y-6.728 E77.49665
G1 X3.757 Y0.785 E78.05355
G1 X3.757 Y1.380 E78.08469
G1 X-3.757 Y-6.134 E78.64159
G1 X-3.757 Y-5.540 E78.67274
G1 X3.757 Y1.974 E79.22963
G1 X3.757 Y2.568 E79.26078
G1 X-3.757 Y-4.945 E79.81768
G1 X-3.757 Y-4.351 E79.84883
G1 X3.757 Y3.162 E80.40572
G1 X3.757 Y3.757 E80.43687
G1 X-3.757 Y-3.757 E80.99377
G1 X-3.757 Y-3.162 E81.02491
G1 X3.757 Y4.351 E81.58181
G1 X3.757 Y4.945 E81.61296
G1 X-3.757 Y-2.568 E82.16985
G1 X-3.757 Y-1.974 E82.20100
G1 X3.757 Y5.540 E82.75790
G1 X3.757 Y6.134 E82.78904
G1 X-3.757 Y-1.380 E83.34594
G1 X-3.757 Y-0.785 E83.37709
G1 X3.757 Y6.728 E83.93399
G1 X3.757 Y7.322 E83.96513
G1 X-3.757 Y-0.191 E84.52203
G1 X-3.757 Y0.403 E84.55318
G1 X3.757 Y7.917 E85.11007
G1 X3.757 Y8.511 E85.14122
G1 X-3.757 Y0.997 E85.69812
G1 X-3.757 Y1.592 E85.72926
G1 X3.757 Y9.105 E86.28616
G1 X3.757 Y9.699 E86.31731
G1 X-3.757 Y2.186 E86.87421
G1 X-3.757 Y2.780 E86.90535
G1 X3.757 Y10.294 E87.46225
G1 X3.757 Y10.888 E87.49340
G1 X-3.757 Y3.375 E88.05029
G1 X-3.757 Y3.969 E88.08144
G1 X3.757 Y11.482 E88.63834
G1 X3.757 Y12.076 E88.66948
G1 X-3.757 Y4.563 E89.22638
G1 X-3.757 Y5.157 E89.25753
G1 X3.757 Y12.671 E89.81442
G1 X3.757 Y13.265 E89.84557
G1 X-3.757 Y5.752 E90.40247
G1 X-3.757 Y6.346 E90.43361
G1 X3.757 Y13.859 E90.99051
G1 X3.757 Y14.454 E91.02166
G1 X-3.757 Y6.940 E91.57856
G1 X-3.757 Y7.534 E91.60970
G1 X3.757 Y15.048 E92.16660
G1 X3.757 Y15.642 E92.19775
G1 X-3.757 Y8.129 E92.75464
G1 X-3.757 Y8.723 E92.78579
G1 X3.757 Y16.236 E93.34269
G1 X3.757 Y16.831 E93.37383
G1 X-3.757 Y9.317 E93.93073
G1 X-3.757 Y9.911 E93.96188
G1 X3.757 Y17.425 E94.51878
G1 X3.757 Y18.019 E94.54992
G1 X-3.757 Y10.506 E95.10682
G1 X-3.757 Y11.100 E95.13797
G1 X3.757 Y18.613 E95.69486
G1 X3.757 Y19.208 E95.72601
G1 X-3.757 Y11.694 E96.28291
G1 X-3.757 Y12.289 E96.31405
G1 X3.757 Y19.802 E96.87095
G1 X3.757 Y20.396 E96.90210
G1 X-3.757 Y12.883 E97.45900
G1 X-3.757 Y13.477 E97.49014
G1 X3.757 Y20.991 E98.04704
G1 X3.757 Y21.585 E98.07819
G1 X-3.757 Y14.071 E98.63508
G1 X-3.757 Y14.666 E98.66623
G1 X3.757 Y22.179 E99.22313
G1 X3.757 Y22.773 E99.25427
G1 X-3.757 Y15.260 E99.81117
G1 X-3.757 Y15.854 E99.84232
G1 X3.757 Y23.368 E100.39921
G1 X3.757 Y23.962 E100.43036
G1 X-3.757 Y16.448 E100.98726
G1 X-3.757 Y17.043 E101.01840
G1 X3.757 Y24.556 E101.57530
G1 X3.757 Y25.150 E101.60645
G1 X-3.757 Y17.637 E102.16335
G1 X-3.757 Y18.231 E102.19449
G1 X3.757 Y25.745 E102.75139
G1 X3.757 Y26.339 E102.78254
G1 X-3.757 Y18.826 E103.33943
G1 X-3.757 Y19.420 E103.37058
G1 X3.757 Y26.933 E103.92748
G1 X3.757 Y27.527 E103.95862
G1 X-3.757 Y20.014 E104.51552
G1 X-3.757 Y20.608 E104.54667
G1 X3.757 Y28.122 E105.10357
G1 X3.757 Y28.716 E105.13471
G1 X-3.757 Y21.203 E105.69161
G1 X-3.757 Y21.797 E105.72276
G1 X3.757 Y29.310 E106.27965
G1 X3.757 Y29.905 E106.31080
G1 X-3.757 Y22.391 E106.86770
G1 X-3.757 Y22.985 E106.89884
G1 X3.757 Y30.499 E107.45574
G1 X3.757 Y31.093 E107.48689
G1 X-3.757 Y23.580 E108.04379
G1 X-3.757 Y24.174 E108.07493
G1 X3.757 Y31.687 E108.63183
G1 X3.757 Y32.282 E108.66298
G1 X-3.757 Y24.768 E109.21987
G1 X-3.757 Y25.362 E109.25102
G1 X3.757 Y32.876 E109.80792
G1 X3.757 Y33.470 E109.83906
G1 X-3.757 Y25.957 E110.39596
G1 X-3.757 Y26.551 E110.42711
G1 X3.757 Y34.064 E110.98400
G1 X3.757 Y34.659 E111.01515
G1 X-3.757 Y27.145 E111.57205
G1 X-3.757 Y27.740 E111.60320
G1 X3.757 Y35.253 E112.16009
G1 X3.757 Y35.847 E112.19124
G1 X-3.757 Y28.334 E112.74814
G1 X-3.757 Y28.928 E112.77928
G1 X3.757 Y36.442 E113.33618
G1 X3.757 Y37.036 E113.36733
G1 X-3.757 Y29.522 E113.92422
G1 X-3.757 Y30.117 E113.95537
G1 X3.757 Y37.630 E114.51227
G1 X3.757 Y38.224 E114.54342
G1 X-3.757 Y30.711 E115.10031
G1 X-3.757 Y31.305 E115.13146
G1 X3.757 Y38.819 E115.68836
G1 X3.757 Y39.413 E115.71950
G1 X-3.757 Y31.899 E116.27640
G1 X-3.757 Y32.494 E116.30755
G1 X3.757 Y40.007 E116.86444
G1 X3.757 Y40.601 E116.89559
G1 X-3.757 Y33.088 E117.45249
G1 X-3.757 Y33.682 E117.48363
G1 X3.757 Y41.196 E118.04053
G1 X3.757 Y41.790 E118.07168
G1 X-3.757 Y34.277 E118.62858
G1 X-3.757 Y34.871 E118.65972
G1 X3.757 Y42.384 E119.21662
G1 X3.757 Y42.978 E119.24777
G1 X-3.757 Y35.465 E119.80466
G1 X-3.757 Y36.059 E119.83581
G1 X3.757 Y43.573 E120.39271
G1 X3.757 Y44.167 E120.42385
G1 X-3.757 Y36.654 E120.98075
G1 X-3.757 Y37.248 E121.01190
G1 X0.752 Y41.757 E121.34609
G1 X0.158 Y41.757 E121.37724
G1 X-3.757 Y37.842 E121.66739
G1 X-3.757 Y38.436 E121.69854
G1 X-0.436 Y41.757 E121.94464
G1 X-1.031 Y41.757 E121.97578
G1 X-3.757 Y39.031 E122.17784
G1 X-3.757 Y39.625 E122.20898
G1 X-1.625 Y41.757 E122.36699
G1 X-2.219 Y41.757 E122.39814
G1 X-3.757 Y40.219 E122.51209
G1 X-3.757 Y40.813 E122.54324
G1 X-2.813 Y41.757 E122.61315
G1 X-3.408 Y41.757 E122.64430
G1 X-3.757 Y41.408 E122.67016
G1 E119.17016 F1800.00000
G92 E0
G1 X1.243 Y42.248 F6000.000
G1 E3.50000 F1800.00000
G1 X3.757 Y44.761 E3.68629 F2039.427
G1 X3.757 Y45.356 E3.71744
G1 X1.243 Y42.842 E3.90374
G1 X1.243 Y43.436 E3.93488
G1 X3.757 Y45.950 E4.12118
G1 X3.757 Y46.544 E4.15232
G1 X1.243 Y44.031 E4.33862
G1 X1.243 Y44.625 E4.36977
G1 X3.757 Y47.138 E4.55606
G1 X3.757 Y47.733 E4.58721
G1 X1.243 Y45.219 E4.77350
G1 X1.243 Y45.813 E4.80465
G1 X3.757 Y48.327 E4.99094
G1 X3.592 Y48.757 E5.01506
G1 X1.243 Y46.408 E5.18917
G1 X1.243 Y47.002 E5.22031
G1 X2.998 Y48.757 E5.35037
G1 X2.404 Y48.757 E5.38152
G1 X1.090 Y47.443 E5.47887
G1 X0.496 Y47.443 E5.51001
G1 X1.809 Y48.757 E5.60736
G1 X1.215 Y48.757 E5.63851
G1 X-0.098 Y47.443 E5.73586
G1 X-0.693 Y47.443 E5.76701
G1 X0.621 Y48.757 E5.86436
G1 X0.027 Y48.757 E5.89550
G1 X-1.287 Y47.443 E5.99285
G1 X-1.881 Y47.443 E6.02400
G1 X-0.568 Y48.757 E6.12135
G1 X-1.162 Y48.757 E6.15249
G1 X-2.475 Y47.443 E6.24985
G1 X-3.070 Y47.443 E6.28099
G1 X-1.756 Y48.757 E6.37834
G1 X-2.350 Y48.757 E6.40949
G1 X-3.664 Y47.443 E6.50684
G1 X-3.757 Y47.945 E6.53357
G1 X-2.945 Y48.757 E6.59375
G1 X-3.539 Y48.757 E6.62490
G1 X-3.757 Y48.539 E6.64103
G1 E3.14103 F1800.00000
G92 E0
G1 X1.000 Y48.100 F6000.000
G1 X1.000 Y-38.800 F6000.000
G1 X2.464 Y-47.464 F6000.000
G1 X-3.000 Y-48.000 F6000.000
G1 X-4.000 Y-47.000 F6000.000
G1 X-3.267 Y-47.243 F6000.000
G1 E3.50000 F1800.00000
G1 X-3.757 Y-47.733 E3.53627 F2039.427
G1 X-3.757 Y-48.327 E3.56742
G1 X-2.673 Y-47.243 E3.64773
G1 X-2.079 Y-47.243 E3.67888
G1 X-3.592 Y-48.757 E3.79105
G1 X-2.998 Y-48.757 E3.82220
G1 X-1.485 Y-47.243 E3.93437
G1 X-0.890 Y-47.243 E3.96552
G1 X-2.404 Y-48.757 E4.07769
G1 X-1.809 Y-48.757 E4.10884
G1 X-0.296 Y-47.243 E4.22101
G1 X0.298 Y-47.243 E4.25216
G1 X-1.215 Y-48.757 E4.36433
G1 X0.893 Y-47.243 F6000.000
G1 X-0.621 Y-48.757 E4.47651 F2039.427
G1 X-0.027 Y-48.757 E4.50766
G1 X3.757 Y-44.973 E4.78808
G1 X3.757 Y-45.568 E4.81922
G1 X0.568 Y-48.757 E5.05560
G1 X1.162 Y-48.757 E5.08675
G1 X3.757 Y-46.162 E5.27907
G1 X3.757 Y-46.756 E5.31022
G1 X1.756 Y-48.757 E5.45850
G1 X2.350 Y-48.757 E5.48965
G1 X3.757 Y-47.350 E5.59388
G1 X3.757 Y-47.945 E5.62502
G1 X2.945 Y-48.757 E5.68521
G1 X3.539 Y-48.757 E5.71635
G1 X3.757 Y-48.539 E5.73249
M106 S211.65
G1 E2.23249 F1800.00000
G92 E0
G1 Z0.500 F6000.000
G1 X1.321 Y-47.321 F6000.000
G1 E3.50000 F1800.00000
G1 X-3.679 Y-47.321 E3.76122 F2045.915
G1 X-3.679 Y-48.679 E3.83217
G1 X3.679 Y-48.679 E4.21659
G1 X3.679 Y48.679 E9.30304
G1 X-3.679 Y48.679 E9.68746
G1 X-3.679 Y47.521 E9.74796
G1 X1.321 Y47.521 E10.00918
G1 X1.321 Y41.679 E10.31440
G1 X-3.679 Y41.679 E10.57562
G1 X-3.679 Y-41.479 E14.92020
G1 X1.321 Y-41.479 E15.18143
G1 X1.321 Y-47.261 E15.48351
G1 X0.693 Y-46.693 F6000.000
G1 X-4.307 Y-46.693 E15.74474 F2045.915
G1 X-4.307 Y-49.307 E15.88133
G1 X4.307 Y-49.307 E16.33140
G1 X4.307 Y49.307 E21.48351
G1 X-4.307 Y49.307 E21.93358
G1 X-4.307 Y46.893 E22.05973
G1 X0.693 Y46.893 E22.32096
G1 X0.693 Y42.307 E22.56052
G1 X-4.307 Y42.307 E22.82175
G1 X-4.307 Y-42.107 E27.23198
G1 X0.693 Y-42.107 E27.49320
G1 X0.693 Y-46.633 E27.72963
G1 X0.200 Y-46.200 F6000.000
