; generated by Slic3r 1.2.9 on 2016-06-13 at 13:01:28

; external perimeters extrusion width = 0.40mm
; perimeters extrusion width = 0.67mm
; infill extrusion width = 0.67mm
; solid infill extrusion width = 0.67mm
; top infill extrusion width = 0.67mm

M107
M190 S60 ; set bed temperature
M104 S205 ; set temperature
G28 ; home all axes

M109 S205 ; wait for temperature to be reached
G21 ; set units to millimeters
G90 ; use absolute coordinates
M82 ; use absolute distances for extrusion
G92 E0
G1 E-4.00000 F4800.00000
G92 E0
G1 Z1.000 F6000.000
G1 X0.000 Y31.206 F6000.000
G1 Z0.300 F6000.000
G1 E4.00000 F4800.00000
G1 X-41.427 Y31.206 E6.16434 F1200.000
G1 X-42.317 Y31.142 E6.21098
G1 X-45.142 Y30.736 E6.36006
G1 X-46.014 Y30.546 E6.40670
G1 X-48.752 Y29.742 E6.55578
G1 X-49.384 Y29.519 E6.59078
G1 X-50.703 Y28.973 E6.66537
G1 X-51.307 Y28.684 E6.70036
G1 X-53.811 Y27.316 E6.84944
G1 X-54.562 Y26.834 E6.89608
G1 X-56.847 Y25.124 E7.04516
G1 X-57.521 Y24.539 E7.09180
G1 X-59.539 Y22.521 E7.24089
G1 X-60.124 Y21.847 E7.28753
G1 X-61.834 Y19.562 E7.43661
G1 X-62.316 Y18.811 E7.48325
G1 X-63.684 Y16.307 E7.63233
G1 X-64.055 Y15.495 E7.67897
G1 X-65.052 Y12.821 E7.82805
G1 X-65.304 Y11.965 E7.87469
G1 X-65.910 Y9.176 E8.02378
G1 X-66.037 Y8.293 E8.07042
G1 X-66.241 Y5.446 E8.21950
G1 X-66.257 Y5.000 E8.24283
G1 X-66.257 Y-25.000 E9.81018
G1 X-65.860 Y-27.193 E9.92660
G1 X-64.720 Y-29.107 E10.04302
G1 X-62.981 Y-30.501 E10.15943
G1 X-60.000 Y-31.257 E10.32010
G1 X60.000 Y-31.257 E16.58949
G1 X62.193 Y-30.860 E16.70591
G1 X64.107 Y-29.720 E16.82233 F1200.000
G1 X65.501 Y-27.981 E16.93874
G1 X66.257 Y-25.000 E17.09941
G1 X66.257 Y5.000 E18.66676
G1 X66.241 Y5.446 E18.69009
G1 X66.037 Y8.293 E18.83918
G1 X65.954 Y8.957 E18.87417
G1 X65.700 Y10.362 E18.94876
G1 X65.547 Y11.012 E18.98362
G1 X64.753 Y13.721 E19.13111
G1 X64.533 Y14.346 E19.16574
G1 X63.977 Y15.694 E19.24193
G1 X63.783 Y16.117 E19.26624
G1 X63.129 Y17.420 E19.34242
G1 X62.800 Y17.996 E19.37705
G1 X61.273 Y20.370 E19.52454
G1 X60.741 Y21.081 E19.57092
G1 X58.893 Y23.215 E19.71841
G1 X58.433 Y23.693 E19.75304
G1 X57.367 Y24.688 E19.82922
G1 X57.016 Y24.993 E19.85354
G1 X55.879 Y25.906 E19.92972
G1 X55.341 Y26.293 E19.96435
G1 X52.966 Y27.818 E20.11184
G1 X52.184 Y28.245 E20.15835
G1 X49.588 Y29.430 E20.30743
G1 X48.965 Y29.675 E20.34243
G1 X47.610 Y30.126 E20.41702
G1 X45.799 Y30.605 E20.51493
G1 X45.142 Y30.736 E20.54992
G1 X42.317 Y31.142 E20.69900
G1 X41.427 Y31.206 E20.74564
G1 X0.060 Y31.206 E22.90685
G1 X0.000 Y30.787 F6000.000
G1 X-41.427 Y30.787 E25.07118 F1200.000
G1 X-42.258 Y30.727 E25.11470
G1 X-45.082 Y30.321 E25.26379
G1 X-45.896 Y30.144 E25.30730
G1 X-48.634 Y29.340 E25.45639
G1 X-49.223 Y29.132 E25.48903
G1 X-50.542 Y28.586 E25.56362
G1 X-51.106 Y28.316 E25.59627
G1 X-53.611 Y26.949 E25.74536
G1 X-54.311 Y26.498 E25.78887
G1 X-56.596 Y24.788 E25.93796
G1 X-57.225 Y24.243 E25.98147
G1 X-59.243 Y22.225 E26.13056
G1 X-59.788 Y21.596 E26.17407
G1 X-61.498 Y19.311 E26.32316
G1 X-61.949 Y18.611 E26.36667
G1 X-63.316 Y16.106 E26.51576
G1 X-63.662 Y15.348 E26.55927
G1 X-64.660 Y12.675 E26.70836
G1 X-64.894 Y11.876 E26.75188
G1 X-65.501 Y9.087 E26.90096
G1 X-65.619 Y8.263 E26.94448
G1 X-65.823 Y5.416 E27.09356
G1 X-65.838 Y5.000 E27.11533
G1 X-65.838 Y-25.000 E28.68268
G1 X-65.441 Y-27.115 E28.79510
G1 X-64.305 Y-28.943 E28.90752
G1 X-62.585 Y-30.234 E29.01994
G1 X-60.000 Y-30.838 E29.15860
G1 X60.000 Y-30.838 E35.42799
G1 X62.115 Y-30.441 E35.54041
G1 X63.943 Y-29.305 E35.65283 F1200.000
G1 X65.234 Y-27.585 E35.76525
G1 X65.838 Y-25.000 E35.90391
G1 X65.838 Y5.000 E37.47125
G1 X65.823 Y5.416 E37.49303
G1 X65.619 Y8.263 E37.64211
G1 X65.541 Y8.883 E37.67476
G1 X65.288 Y10.288 E37.74935
G1 X65.145 Y10.894 E37.78188
G1 X64.351 Y13.603 E37.92937
G1 X64.145 Y14.186 E37.96168
G1 X63.409 Y15.929 E38.06053
G1 X62.754 Y17.232 E38.13672
G1 X62.448 Y17.769 E38.16903
G1 X60.921 Y20.144 E38.31652
G1 X60.424 Y20.807 E38.35980
G1 X58.576 Y22.941 E38.50728
G1 X58.147 Y23.386 E38.53959
G1 X57.082 Y24.382 E38.61578
G1 X55.617 Y25.579 E38.71463
G1 X55.115 Y25.941 E38.74695
G1 X52.739 Y27.466 E38.89443
G1 X52.010 Y27.864 E38.93783
G1 X49.414 Y29.049 E39.08692
G1 X48.833 Y29.278 E39.11957
G1 X47.478 Y29.729 E39.19416
G1 X45.695 Y30.199 E39.29050
G1 X45.082 Y30.321 E39.32315
G1 X42.258 Y30.727 E39.47224
G1 X41.427 Y30.787 E39.51575
G1 X0.060 Y30.787 E41.67696
G1 X0.000 Y30.368 F6000.000
G1 X-41.427 Y30.368 E43.84130 F1200.000
G1 X-42.198 Y30.313 E43.88169
G1 X-45.022 Y29.907 E44.03077
G1 X-45.778 Y29.742 E44.07117
G1 X-48.516 Y28.938 E44.22025
G1 X-49.063 Y28.745 E44.25056
G1 X-50.382 Y28.199 E44.32515
G1 X-50.905 Y27.949 E44.35546
G1 X-53.410 Y26.581 E44.50454
G1 X-54.060 Y26.163 E44.54493
G1 X-56.345 Y24.453 E44.69402
G1 X-56.929 Y23.947 E44.73441
G1 X-58.947 Y21.929 E44.88350
G1 X-59.453 Y21.345 E44.92389
G1 X-61.163 Y19.060 E45.07297
G1 X-61.581 Y18.410 E45.11337
G1 X-62.949 Y15.905 E45.26245
G1 X-63.270 Y15.202 E45.30284
G1 X-64.267 Y12.528 E45.45193
G1 X-64.485 Y11.787 E45.49232
G1 X-65.091 Y8.998 E45.64141
G1 X-65.202 Y8.233 E45.68180
G1 X-65.419 Y5.000 E45.85108
G1 X-65.419 Y-25.000 E47.41843
G1 X-65.023 Y-27.034 E47.52671
G1 X-63.892 Y-28.771 E47.63498
G1 X-62.191 Y-29.956 E47.74326
G1 X-60.000 Y-30.419 E47.86027
G1 X60.000 Y-30.419 E54.12966
G1 X62.034 Y-30.023 E54.23794
G1 X63.771 Y-28.892 E54.34621 F1200.000
G1 X64.956 Y-27.191 E54.45449
G1 X65.419 Y-25.000 E54.57151
G1 X65.419 Y5.000 E56.13885
G1 X65.202 Y8.233 E56.30814
G1 X65.129 Y8.808 E56.33844
G1 X64.876 Y10.213 E56.41303
G1 X64.743 Y10.776 E56.44323
G1 X63.949 Y13.485 E56.59071
G1 X63.758 Y14.026 E56.62071
G1 X63.035 Y15.741 E56.71794
G1 X62.380 Y17.044 E56.79412
G1 X62.095 Y17.543 E56.82411
G1 X60.568 Y19.917 E56.97160
G1 X60.108 Y20.533 E57.01178
G1 X58.260 Y22.667 E57.15926
G1 X57.861 Y23.080 E57.18925
G1 X56.796 Y24.075 E57.26544
G1 X55.354 Y25.253 E57.36267
G1 X54.888 Y25.588 E57.39266
G1 X52.513 Y27.113 E57.54015
G1 X51.836 Y27.483 E57.58043
G1 X49.240 Y28.668 E57.72952
G1 X48.701 Y28.881 E57.75982
G1 X46.975 Y29.440 E57.85461
G1 X45.591 Y29.793 E57.92920
G1 X45.022 Y29.907 E57.95951
G1 X42.198 Y30.313 E58.10859
G1 X41.427 Y30.368 E58.14899
G1 X0.060 Y30.368 E60.31019
G1 F4800
G1 X-3.940 Y30.368 E56.51019
G1 E56.31019 F4800.00000
G92 E0
G1 Z1.300 F6000.000
G1 X-20.996 Y-5.996 F6000.000
G1 Z0.300 F6000.000
G1 E4.00000 F4800.00000
G1 X-20.996 Y4.982 E4.57356 F1200.000
G1 X-21.045 Y6.338 E4.64443
G1 X-21.433 Y9.039 E4.78701
G1 X-22.202 Y11.657 E4.92958
G1 X-22.707 Y12.878 E4.99859
G1 X-24.015 Y15.273 E5.14116
G1 X-25.650 Y17.458 E5.28373
G1 X-26.551 Y18.424 E5.35275
G1 X-28.613 Y20.211 E5.49532
G1 X-30.894 Y21.677 E5.63696
G1 X-33.360 Y22.803 E5.77860
G1 X-35.961 Y23.567 E5.92024
G1 X-38.644 Y23.953 E6.06188
G1 X-41.356 Y23.953 E6.20352
G1 X-44.039 Y23.567 E6.34516
G1 X-46.657 Y22.798 E6.48773
G1 X-47.878 Y22.293 E6.55674
G1 X-50.273 Y20.985 E6.69931
G1 X-52.443 Y19.360 E6.84095
G1 X-54.360 Y17.443 E6.98259
G1 X-55.985 Y15.273 E7.12423
G1 X-57.284 Y12.893 E7.26587
G1 X-58.232 Y10.353 E7.40751
G1 X-58.808 Y7.704 E7.54915
G1 X-59.004 Y4.964 E7.69266
G1 X-59.004 Y-24.004 E9.20610
G1 X59.004 Y-24.004 E15.37141
G1 X59.004 Y4.964 E16.88485
G1 X58.807 Y7.722 E17.02929
G1 X58.572 Y9.022 E17.09831
G1 X57.808 Y11.629 E17.24026
G1 X57.286 Y12.894 E17.31174
G1 X56.672 Y14.117 E17.38323
G1 X55.211 Y16.387 E17.52425
G1 X53.444 Y18.428 E17.66528
G1 X52.444 Y19.362 E17.73677
G1 X51.378 Y20.219 E17.80825
G1 X49.107 Y21.677 E17.94927
G1 X46.624 Y22.811 E18.09185
G1 X45.354 Y23.233 E18.16179
G1 X44.057 Y23.565 E18.23173
G1 X41.356 Y23.953 E18.37430
G1 X38.627 Y23.953 E18.51688
G1 X37.296 Y23.810 E18.58682
G1 X35.978 Y23.572 E18.65676
G1 X33.360 Y22.803 E18.79933
G1 X30.893 Y21.677 E18.94098
G1 X28.622 Y20.219 E19.08200
G1 X27.569 Y19.372 E19.15259
G1 X25.640 Y17.443 E19.29514
G1 X24.021 Y15.283 E19.43615
G1 X23.330 Y14.122 E19.50675
G1 X22.190 Y11.625 E19.65017
G1 X21.765 Y10.342 E19.72077
G1 X21.192 Y7.704 E19.86178
G1 X20.996 Y4.964 E20.00530
G1 X20.996 Y-5.996 E20.57793
G1 X-20.936 Y-5.996 E22.76868
G1 X-20.577 Y-5.577 F6000.000
G1 X-20.577 Y4.990 E23.32074 F1200.000
G1 X-20.627 Y6.375 E23.39318
G1 X-21.023 Y9.128 E23.53849
G1 X-21.806 Y11.797 E23.68380
G1 X-22.329 Y13.059 E23.75516
G1 X-23.662 Y15.500 E23.90047
G1 X-25.329 Y17.727 E24.04578
G1 X-26.259 Y18.726 E24.11714
G1 X-28.361 Y20.548 E24.26245
G1 X-30.692 Y22.046 E24.40722
G1 X-33.213 Y23.197 E24.55199
G1 X-35.872 Y23.977 E24.69676
G1 X-38.615 Y24.372 E24.84153
G1 X-41.386 Y24.372 E24.98630
G1 X-44.128 Y23.977 E25.13107
G1 X-46.797 Y23.194 E25.27638
G1 X-48.059 Y22.671 E25.34774
G1 X-50.500 Y21.338 E25.49305
G1 X-52.718 Y19.678 E25.63782
G1 X-54.678 Y17.718 E25.78259
G1 X-56.338 Y15.500 E25.92736
G1 X-57.666 Y13.068 E26.07213
G1 X-58.635 Y10.472 E26.21690
G1 X-59.224 Y7.764 E26.36167
G1 X-59.423 Y4.979 E26.50752
G1 X-59.423 Y-24.423 E28.04363
G1 X59.423 Y-24.423 E34.25270
G1 X59.423 Y4.979 E35.78881
G1 X59.223 Y7.774 E35.93521
G1 X58.980 Y9.118 E36.00657
G1 X58.203 Y11.768 E36.15084
G1 X57.667 Y13.068 E36.22431
G1 X57.036 Y14.325 E36.29777
G1 X55.548 Y16.639 E36.44151
G1 X53.747 Y18.719 E36.58525
G1 X52.719 Y19.678 E36.65872
G1 X51.623 Y20.559 E36.73218
G1 X49.308 Y22.046 E36.87591
G1 X46.778 Y23.201 E37.02123
G1 X45.472 Y23.636 E37.09313
G1 X44.139 Y23.976 E37.16502
G1 X41.386 Y24.372 E37.31033
G1 X38.604 Y24.372 E37.45564
G1 X37.236 Y24.225 E37.52754
G1 X35.882 Y23.980 E37.59944
G1 X33.213 Y23.197 E37.74475
G1 X30.692 Y22.046 E37.88952
G1 X28.377 Y20.559 E38.03326
G1 X27.289 Y19.685 E38.10620
G1 X25.322 Y17.718 E38.25150
G1 X23.673 Y15.516 E38.39523
G1 X22.958 Y14.317 E38.46818
G1 X21.799 Y11.778 E38.61399
G1 X21.360 Y10.453 E38.68693
G1 X20.776 Y7.764 E38.83067
G1 X20.577 Y4.979 E38.97652
G1 X20.577 Y-5.577 E39.52805
G1 X-20.517 Y-5.577 E41.67503
G1 X-20.200 Y-5.200 F6000.000
G1 X-20.200 Y4.996 E42.10186 F1200.000
G1 X-20.250 Y6.409 E42.16102
G1 X-20.653 Y9.209 E42.27943
G1 X-21.450 Y11.923 E42.39783
G1 X-21.988 Y13.222 E42.45670
G1 X-23.344 Y15.704 E42.57510
G1 X-25.039 Y17.969 E42.69350
G1 X-25.997 Y18.998 E42.75237
G1 X-28.135 Y20.850 E42.87077
G1 X-30.511 Y22.378 E42.98903
G1 X-33.081 Y23.551 E43.10728
G1 X-35.791 Y24.347 E43.22554
G1 X-38.588 Y24.749 E43.34379
G1 X-41.412 Y24.749 E43.46204
G1 X-44.209 Y24.347 E43.58030
G1 X-46.923 Y23.550 E43.69870
G1 X-48.222 Y23.012 E43.75757
G1 X-50.704 Y21.656 E43.87597
G1 X-52.966 Y19.963 E43.99422
G1 X-54.963 Y17.966 E44.11248
G1 X-56.656 Y15.704 E44.23073
G1 X-58.010 Y13.225 E44.34898
G1 X-58.997 Y10.578 E44.46724
G1 X-59.598 Y7.818 E44.58549
G1 X-59.800 Y4.993 E44.70404
G1 X-59.800 Y-24.800 E45.95118
G1 X59.800 Y-24.800 E50.95768
G1 X59.800 Y4.993 E52.20481
G1 X59.598 Y7.821 E52.32352
G1 X59.348 Y9.205 E52.38238
G1 X58.560 Y11.894 E52.49966
G1 X58.011 Y13.225 E52.55995
G1 X57.364 Y14.512 E52.62024
G1 X55.850 Y16.865 E52.73737
G1 X54.019 Y18.981 E52.85450
G1 X52.966 Y19.964 E52.91479
G1 X51.843 Y20.866 E52.97507
G1 X49.489 Y22.378 E53.09220
G1 X46.916 Y23.553 E53.21061
G1 X45.578 Y23.998 E53.26962
G1 X44.212 Y24.346 E53.32864
G1 X41.412 Y24.749 E53.44704
G1 X38.584 Y24.749 E53.56545
G1 X37.182 Y24.598 E53.62446
G1 X35.795 Y24.348 E53.68348
G1 X33.081 Y23.551 E53.80188
G1 X30.511 Y22.378 E53.92014
G1 X28.157 Y20.866 E54.03727
G1 X27.037 Y19.966 E54.09741
G1 X25.037 Y17.966 E54.21581
G1 X23.359 Y15.727 E54.33294
G1 X22.624 Y14.492 E54.39308
G1 X21.447 Y11.916 E54.51162
G1 X20.996 Y10.552 E54.57176
G1 X20.402 Y7.818 E54.68889
G1 X20.200 Y4.993 E54.80745
G1 X20.200 Y-5.200 E55.23412
G1 X-20.140 Y-5.200 E56.92277
G1 X-20.600 Y-5.200 F6000.000
G1 X-19.756 Y-6.352 F6000.000
G1 X-20.106 Y-6.702 E56.94862 F1200.000
G1 X-6.702 Y-6.702 E57.64892
G1 X-6.702 Y-20.106 E58.34922
G1 X0.000 Y-13.404 E58.84440
G1 X6.702 Y-20.106 E59.33959
G1 X6.702 Y-6.702 E60.03988
G1 X20.106 Y-6.702 E60.74018
G1 X19.756 Y-6.352 E60.76603
G1 X20.594 Y-6.352 F6000.000
G1 X21.363 Y-7.121 E60.82284 F1200.000
G1 X7.121 Y-7.121 E61.56690
G1 X7.121 Y-21.363 E62.31097
G1 X0.000 Y-14.242 E62.83710
G1 X-7.121 Y-21.363 E63.36324
G1 X-7.121 Y-7.121 E64.10730
G1 X-21.363 Y-7.121 E64.85137
G1 X-20.594 Y-6.352 E64.90817
G1 X-21.352 Y-6.273 F6000.000
G1 X-22.619 Y-7.540 E65.00181 F1200.000
G1 X-7.540 Y-7.540 E65.78964
G1 X-7.540 Y-22.619 E66.57748
G1 X0.000 Y-15.080 E67.13456
G1 X7.540 Y-22.619 E67.69164
G1 X7.540 Y-7.540 E68.47948
G1 X22.619 Y-7.540 E69.26731
G1 X21.352 Y-6.273 E69.36095
G1 X21.352 Y-5.435 F6000.000
G1 X23.876 Y-7.959 E69.54743 F1200.000
G1 X7.959 Y-7.959 E70.37903
G1 X7.959 Y-23.648 E71.19871
G1 X7.730 Y-23.648 F6000.000
G1 X0.000 Y-15.917 E71.76988 F1200.000
G1 X-7.730 Y-23.648 E72.34105
G1 X-7.959 Y-23.648 F6000.000
G1 X-7.959 Y-7.959 E73.16072 F1200.000
G1 X-23.876 Y-7.959 E73.99233
G1 X-21.352 Y-5.435 E74.17881
G1 X-21.352 Y-4.597 F6000.000
G1 X-25.133 Y-8.378 E74.45814 F1200.000
G1 X-8.378 Y-8.378 E75.33351
G1 X-8.378 Y-23.648 E76.13131
G1 X-8.796 Y-23.648 F6000.000
G1 X-8.796 Y-8.796 E76.90722 F1200.000
G1 X-26.389 Y-8.796 E77.82636
G1 X-21.352 Y-3.759 E78.19853
G1 X-21.352 Y-2.921 F6000.000
G1 X-27.646 Y-9.215 E78.66356 F1200.000
G1 X-9.215 Y-9.215 E79.62647
G1 X-9.215 Y-23.648 E80.38049
G1 X-9.634 Y-23.648 F6000.000
G1 X-9.634 Y-9.634 E81.11263 F1200.000
G1 X-28.903 Y-9.634 E82.11931
G1 X-21.352 Y-2.084 E82.67718
G1 X-21.352 Y-1.246 F6000.000
G1 X-30.159 Y-10.053 E83.32790 F1200.000
G1 X-10.053 Y-10.053 E84.37835
G1 X-10.053 Y-23.648 E85.08860
G1 X-10.472 Y-23.648 F6000.000
G1 X-10.472 Y-10.472 E85.77697 F1200.000
G1 X-31.416 Y-10.472 E86.87119
G1 X-21.352 Y-0.408 E87.61476
G1 X-21.352 Y0.408 F6000.000
G1 X-31.416 Y10.472 E88.35832 F1200.000
G1 X-22.225 Y10.472 E88.83851
G1 X-22.102 Y10.053 F6000.000
G1 X-30.159 Y10.053 E89.25948 F1200.000
G1 X-21.352 Y1.246 E89.91020
G1 X-21.352 Y2.084 F6000.000
G1 X-28.903 Y9.634 E90.46807 F1200.000
G1 X-21.979 Y9.634 E90.82981
G1 X-21.856 Y9.215 F6000.000
G1 X-27.646 Y9.215 E91.13232 F1200.000
G1 X-21.352 Y2.921 E91.59735
G1 X-21.352 Y3.759 F6000.000
G1 X-26.389 Y8.796 E91.96952 F1200.000
G1 X-21.758 Y8.796 E92.21150
G1 X-21.698 Y8.378 F6000.000
G1 X-25.133 Y8.378 E92.39098 F1200.000
G1 X-21.352 Y4.597 E92.67031
G1 X-21.369 Y5.452 F6000.000
G1 X-23.876 Y7.959 E92.85554 F1200.000
G1 X-21.637 Y7.959 E92.97250
G1 X-21.577 Y7.540 F6000.000
G1 X-22.619 Y7.540 E93.02696 F1200.000
G1 X-21.402 Y6.322 E93.11692
G1 F4800
G1 X-22.619 Y7.540 E91.48126
G1 F4800
G1 X-21.577 Y7.540 E90.49096
G1 E89.11692 F4800.00000
G92 E0
G1 Z1.300 F6000.000
G1 X-22.348 Y10.891 F6000.000
G1 Z0.300 F6000.000
G1 E4.00000 F4800.00000
G1 X-32.673 Y10.891 E4.53942 F1200.000
G1 X-21.782 Y0.000 E5.34410
G1 X-32.673 Y-10.891 E6.14877
G1 X-10.891 Y-10.891 E7.28675
G1 X-10.891 Y-23.648 E7.95324
G1 X-11.310 Y-23.648 F6000.000
G1 X-11.310 Y-11.310 E8.59785 F1200.000
G1 X-33.929 Y-11.310 E9.77960
G1 X-22.619 Y0.000 E10.61522
G1 X-33.929 Y11.310 E11.45085
G1 X-22.471 Y11.310 E12.04950
G1 X-22.617 Y11.729 F6000.000
G1 X-35.186 Y11.729 E12.70617 F1200.000
G1 X-23.457 Y0.000 E13.57275
G1 X-35.186 Y-11.729 E14.43932
G1 X-11.729 Y-11.729 E15.66484
G1 X-11.729 Y-23.648 E16.28756
G1 X-12.147 Y-23.648 F6000.000
G1 X-12.147 Y-12.147 E16.88840 F1200.000
G1 X-36.442 Y-12.147 E18.15769
G1 X-24.295 Y0.000 E19.05521
G1 X-36.442 Y12.147 E19.95273
G1 X-22.790 Y12.147 E20.66600
G1 X-22.964 Y12.566 F6000.000
G1 X-37.699 Y12.566 E21.43585 F1200.000
G1 X-25.133 Y0.000 E22.36432
G1 X-37.699 Y-12.566 E23.29280
G1 X-12.566 Y-12.566 E24.60585
G1 X-12.566 Y-23.648 E25.18481
G1 X-12.985 Y-23.648 F6000.000
G1 X-12.985 Y-12.985 E25.74187 F1200.000
G1 X-38.956 Y-12.985 E27.09870
G1 X-25.971 Y0.000 E28.05812
G1 X-38.956 Y12.985 E29.01754
G1 X-23.172 Y12.985 E29.84218
G1 X-23.400 Y13.404 F6000.000
G1 X-40.212 Y13.404 E30.72053 F1200.000
G1 X-26.808 Y0.000 E31.71090
G1 X-40.212 Y-13.404 E32.70127
G1 X-13.404 Y-13.404 E34.10186
G1 X-13.404 Y-23.648 E34.63705
G1 X-13.823 Y-23.648 F6000.000
G1 X-13.823 Y-13.823 E35.15034 F1200.000
G1 X-41.469 Y-13.823 E36.59471
G1 X-27.646 Y0.000 E37.61603
G1 X-41.469 Y13.823 E38.63735
G1 X-23.629 Y13.823 E39.56939
