; generated by Slic3r 1.2.9 on 2016-06-15 at 14:41:32

; external perimeters extrusion width = 0.40mm
; perimeters extrusion width = 0.67mm
; infill extrusion width = 0.67mm
; solid infill extrusion width = 0.67mm
; top infill extrusion width = 0.67mm
; support material extrusion width = 0.40mm

M107
M190 S60 ; set bed temperature
M104 S205 ; set temperature
G28 ; home all axes

M109 S205 ; wait for temperature to be reached
G21 ; set units to millimeters
G90 ; use absolute coordinates
M82 ; use absolute distances for extrusion
G92 E0
G1 E-4.00000 F4800.00000
G92 E0
G1 Z1.000 F6000.000
G1 X0.000 Y31.206 F6000.000
G1 Z0.300 F6000.000
G1 E4.00000 F4800.00000
G1 X-41.427 Y31.206 E6.16434 F1200.000
G1 X-42.317 Y31.142 E6.21098
G1 X-45.142 Y30.736 E6.36006
G1 X-46.014 Y30.546 E6.40670
G1 X-48.752 Y29.742 E6.55578
G1 X-49.588 Y29.430 E6.60242
G1 X-52.184 Y28.245 E6.75151
G1 X-52.968 Y27.817 E6.79814
G1 X-55.368 Y26.274 E6.94723
G1 X-56.083 Y25.739 E6.99387
G1 X-58.239 Y23.871 E7.14295
G1 X-58.871 Y23.239 E7.18959
G1 X-60.739 Y21.083 E7.33867
G1 X-61.274 Y20.368 E7.38531
G1 X-62.817 Y17.968 E7.53440
G1 X-63.148 Y17.386 E7.56939
G1 X-63.787 Y16.109 E7.64398
G1 X-64.055 Y15.495 E7.67897
G1 X-65.052 Y12.821 E7.82805
G1 X-65.304 Y11.965 E7.87469
G1 X-65.910 Y9.176 E8.02378
G1 X-66.037 Y8.293 E8.07042
G1 X-66.241 Y5.446 E8.21950
G1 X-66.257 Y5.000 E8.24283
G1 X-66.257 Y-25.000 E9.81018
G1 X-65.860 Y-27.193 E9.92660
G1 X-64.720 Y-29.107 E10.04302
G1 X-62.981 Y-30.501 E10.15943
G1 X-60.000 Y-31.257 E10.32010
G1 X60.000 Y-31.257 E16.58949
G1 X62.193 Y-30.860 E16.70591
G1 X64.107 Y-29.720 E16.82233 F1200.000
G1 X65.501 Y-27.981 E16.93874
G1 X66.257 Y-25.000 E17.09941
G1 X66.257 Y5.000 E18.66676
G1 X66.241 Y5.446 E18.69009
G1 X66.037 Y8.293 E18.83918
G1 X65.954 Y8.957 E18.87417
G1 X65.605 Y10.799 E18.97208
G1 X65.252 Y12.182 E19.04667
G1 X65.052 Y12.821 E19.08167
G1 X64.055 Y15.495 E19.23075
G1 X63.787 Y16.109 E19.26574
G1 X63.148 Y17.386 E19.34033
G1 X62.817 Y17.968 E19.37532
G1 X61.274 Y20.368 E19.52441
G1 X60.739 Y21.083 E19.57104
G1 X58.871 Y23.239 E19.72013
G1 X58.406 Y23.721 E19.75512
G1 X57.361 Y24.694 E19.82971
G1 X56.849 Y25.122 E19.86452
G1 X54.600 Y26.807 E20.01137
G1 X54.052 Y27.175 E20.04586
G1 X52.789 Y27.928 E20.12269
G1 X52.184 Y28.245 E20.15836
G1 X49.588 Y29.430 E20.30744
G1 X48.965 Y29.675 E20.34243
G1 X47.610 Y30.126 E20.41702
G1 X45.799 Y30.605 E20.51493
G1 X45.142 Y30.736 E20.54993
G1 X42.317 Y31.142 E20.69901
G1 X41.427 Y31.206 E20.74565
G1 X0.060 Y31.206 E22.90685
G1 X0.000 Y30.787 F6000.000
G1 X-41.427 Y30.787 E25.07119 F1200.000
G1 X-42.258 Y30.727 E25.11471
G1 X-45.082 Y30.321 E25.26379
G1 X-45.896 Y30.144 E25.30731
G1 X-48.634 Y29.340 E25.45639
G1 X-49.414 Y29.049 E25.49991
G1 X-52.010 Y27.864 E25.64899
G1 X-52.741 Y27.465 E25.69251
G1 X-55.142 Y25.922 E25.84159
G1 X-55.808 Y25.423 E25.88511
G1 X-57.965 Y23.554 E26.03419
G1 X-58.554 Y22.965 E26.07771
G1 X-60.423 Y20.808 E26.22679
G1 X-60.922 Y20.142 E26.27031
G1 X-62.465 Y17.741 E26.41939
G1 X-62.774 Y17.198 E26.45204
G1 X-63.413 Y15.921 E26.52663
G1 X-63.662 Y15.348 E26.55928
G1 X-64.660 Y12.675 E26.70836
G1 X-64.894 Y11.876 E26.75188
G1 X-65.501 Y9.087 E26.90097
G1 X-65.619 Y8.263 E26.94448
G1 X-65.823 Y5.416 E27.09357
G1 X-65.838 Y5.000 E27.11534
G1 X-65.838 Y-25.000 E28.68268
G1 X-65.441 Y-27.115 E28.79510
G1 X-64.305 Y-28.943 E28.90752
G1 X-62.585 Y-30.234 E29.01994
G1 X-60.000 Y-30.838 E29.15860
G1 X60.000 Y-30.838 E35.42799
G1 X62.115 Y-30.441 E35.54041
G1 X63.943 Y-29.305 E35.65283 F1200.000
G1 X65.234 Y-27.585 E35.76525
G1 X65.838 Y-25.000 E35.90391
G1 X65.838 Y5.000 E37.47126
G1 X65.823 Y5.416 E37.49303
G1 X65.619 Y8.263 E37.64212
G1 X65.541 Y8.883 E37.67477
G1 X65.288 Y10.288 E37.74936
G1 X64.846 Y12.078 E37.84570
G1 X64.660 Y12.675 E37.87836
G1 X63.662 Y15.348 E38.02744
G1 X63.413 Y15.921 E38.06009
G1 X62.774 Y17.198 E38.13468
G1 X62.465 Y17.741 E38.16733
G1 X60.922 Y20.142 E38.31641
G1 X60.423 Y20.808 E38.35993
G1 X58.554 Y22.965 E38.50901
G1 X58.120 Y23.415 E38.54166
G1 X57.075 Y24.388 E38.61625
G1 X56.598 Y24.786 E38.64873
G1 X54.349 Y26.472 E38.79558
G1 X53.837 Y26.815 E38.82776
G1 X52.574 Y27.568 E38.90459
G1 X52.010 Y27.864 E38.93787
G1 X49.414 Y29.049 E39.08695
G1 X48.833 Y29.278 E39.11960
G1 X47.478 Y29.729 E39.19419
G1 X45.695 Y30.199 E39.29054
G1 X45.082 Y30.321 E39.32319
G1 X42.258 Y30.727 E39.47227
G1 X41.427 Y30.787 E39.51579
G1 X0.060 Y30.787 E41.67699
G1 X0.000 Y30.368 F6000.000
G1 X-41.427 Y30.368 E43.84133 F1200.000
G1 X-42.198 Y30.313 E43.88173
G1 X-45.022 Y29.907 E44.03081
G1 X-45.778 Y29.742 E44.07120
G1 X-48.516 Y28.938 E44.22029
G1 X-49.240 Y28.668 E44.26068
G1 X-51.836 Y27.483 E44.40977
G1 X-52.515 Y27.112 E44.45016
G1 X-54.915 Y25.569 E44.59924
G1 X-55.534 Y25.106 E44.63964
G1 X-57.691 Y23.237 E44.78872
G1 X-58.237 Y22.691 E44.82912
G1 X-60.106 Y20.534 E44.97820
G1 X-60.569 Y19.915 E45.01859
G1 X-62.112 Y17.515 E45.16768
G1 X-62.399 Y17.011 E45.19798
G1 X-63.038 Y15.734 E45.27257
G1 X-63.270 Y15.202 E45.30288
G1 X-64.267 Y12.528 E45.45196
G1 X-64.485 Y11.787 E45.49236
G1 X-65.091 Y8.998 E45.64144
G1 X-65.202 Y8.233 E45.68184
G1 X-65.419 Y5.000 E45.85112
G1 X-65.419 Y-25.000 E47.41847
G1 X-65.023 Y-27.034 E47.52674
G1 X-63.892 Y-28.771 E47.63502
G1 X-62.191 Y-29.956 E47.74329
G1 X-60.000 Y-30.419 E47.86031
G1 X60.000 Y-30.419 E54.12970
G1 X62.034 Y-30.023 E54.23797
G1 X63.771 Y-28.892 E54.34625 F1200.000
G1 X64.956 Y-27.191 E54.45452
G1 X65.419 Y-25.000 E54.57154
G1 X65.419 Y5.000 E56.13889
G1 X65.202 Y8.233 E56.30817
G1 X65.129 Y8.808 E56.33848
G1 X64.876 Y10.213 E56.41307
G1 X64.440 Y11.975 E56.50786
G1 X64.267 Y12.528 E56.53816
G1 X63.270 Y15.202 E56.68725
G1 X63.038 Y15.734 E56.71755
G1 X62.399 Y17.011 E56.79214
G1 X62.112 Y17.515 E56.82245
G1 X60.569 Y19.915 E56.97153
G1 X60.106 Y20.534 E57.01193
G1 X58.237 Y22.691 E57.16101
G1 X57.835 Y23.108 E57.19132
G1 X56.790 Y24.081 E57.26591
G1 X56.347 Y24.451 E57.29606
G1 X54.098 Y26.137 E57.44291
G1 X53.623 Y26.455 E57.47278
G1 X52.360 Y27.208 E57.54960
G1 X51.836 Y27.483 E57.58050
G1 X49.240 Y28.668 E57.72958
G1 X48.701 Y28.881 E57.75989
G1 X47.346 Y29.331 E57.83448
G1 X45.591 Y29.793 E57.92926
G1 X45.022 Y29.907 E57.95957
G1 X42.198 Y30.313 E58.10866
G1 X41.427 Y30.368 E58.14905
G1 X0.060 Y30.368 E60.31025
G1 F4800
G1 X-3.940 Y30.368 E56.51025
G1 E56.31025 F4800.00000
G92 E0
G1 Z1.300 F6000.000
G1 X21.802 Y-2.811 F6000.000
G1 Z0.300 F6000.000
G1 E4.00000 F4800.00000
G1 X28.689 Y-2.811 E4.35983 F1200.000
G1 X28.689 Y4.954 E4.76550
G1 X28.886 Y7.078 E4.87692
G1 X29.463 Y9.107 E4.98714
G1 X29.867 Y10.020 E5.03931
G1 X30.990 Y11.833 E5.15073
G1 X31.627 Y12.601 E5.20290
G1 X33.186 Y14.023 E5.31311
G1 X34.980 Y15.133 E5.42333
G1 X35.893 Y15.537 E5.47549
G1 X37.922 Y16.114 E5.58571
G1 X40.000 Y16.306 E5.69471
G1 X42.077 Y16.114 E5.80366
G1 X44.114 Y15.530 E5.91442
G1 X45.972 Y14.603 E6.02291
G1 X46.796 Y14.038 E6.07509
G1 X48.373 Y12.601 E6.18652
G1 X49.010 Y11.833 E6.23868
G1 X50.121 Y10.040 E6.34890
G1 X50.883 Y8.073 E6.45911
G1 X51.112 Y7.101 E6.51128
G1 X51.311 Y4.954 E6.62391
G1 X51.311 Y-2.811 E7.02958
G1 X58.204 Y-2.811 E7.38975
G1 X58.144 Y6.431 E7.87262
G1 X57.698 Y9.249 E8.02166
G1 X56.815 Y11.967 E8.17099
G1 X55.461 Y14.597 E8.32550
G1 X53.851 Y16.805 E8.46829
G1 X52.855 Y17.883 E8.54494
G1 X50.746 Y19.686 E8.68993
G1 X49.494 Y20.527 E8.76876
G1 X46.964 Y21.816 E8.91705
G1 X44.208 Y22.706 E9.06838
G1 X41.447 Y23.142 E9.21441
G1 X39.980 Y23.200 E9.29110
G1 X37.172 Y22.979 E9.43826
G1 X35.732 Y22.692 E9.51497
G1 X33.053 Y21.822 E9.66213
G1 X31.720 Y21.207 E9.73883
G1 X29.302 Y19.725 E9.88702
G1 X27.130 Y17.870 E10.03624
G1 X25.275 Y15.698 E10.18545
G1 X23.783 Y13.263 E10.33467
G1 X22.690 Y10.624 E10.48388
G1 X22.023 Y7.847 E10.63310
G1 X21.802 Y5.039 E10.78026
G1 X21.802 Y-2.751 E11.18726
G1 X22.221 Y-2.392 F6000.000
G1 X28.270 Y-2.392 E11.50331 F1200.000
G1 X28.270 Y4.973 E11.88812
G1 X28.473 Y7.155 E12.00258
G1 X29.069 Y9.249 E12.11634
G1 X29.495 Y10.216 E12.17154
G1 X30.649 Y12.079 E12.28601
G1 X31.324 Y12.891 E12.34121
G1 X32.933 Y14.358 E12.45497
G1 X34.784 Y15.505 E12.56874
G1 X35.751 Y15.931 E12.62394
G1 X37.845 Y16.527 E12.73770
G1 X40.000 Y16.727 E12.85076
G1 X42.154 Y16.527 E12.96379
G1 X44.267 Y15.922 E13.07861
G1 X46.185 Y14.965 E13.19062
G1 X47.057 Y14.367 E13.24584
G1 X48.676 Y12.891 E13.36030
G1 X49.351 Y12.079 E13.41550
G1 X50.498 Y10.227 E13.52926
G1 X51.284 Y8.197 E13.64303
G1 X51.526 Y7.168 E13.69823
G1 X51.730 Y4.973 E13.81339
G1 X51.730 Y-2.392 E14.19819
G1 X57.783 Y-2.392 E14.51445
G1 X57.726 Y6.397 E14.97364
G1 X57.290 Y9.151 E15.11931
G1 X56.427 Y11.806 E15.26515
G1 X55.103 Y14.376 E15.41620
G1 X53.527 Y16.539 E15.55602
G1 X52.564 Y17.580 E15.63011
G1 X50.492 Y19.352 E15.77254
G1 X49.281 Y20.166 E15.84879
G1 X46.804 Y21.428 E15.99402
G1 X44.110 Y22.298 E16.14191
G1 X41.406 Y22.724 E16.28494
G1 X39.989 Y22.780 E16.35905
G1 X37.230 Y22.563 E16.50363
G1 X35.838 Y22.286 E16.57776
G1 X33.206 Y21.431 E16.72234
G1 X31.918 Y20.837 E16.79646
G1 X29.549 Y19.385 E16.94164
G1 X27.427 Y17.573 E17.08741
G1 X25.615 Y15.451 E17.23318
G1 X24.157 Y13.072 E17.37895
G1 X23.089 Y10.495 E17.52472
G1 X22.438 Y7.782 E17.67049
G1 X22.221 Y5.023 E17.81507
G1 X22.221 Y-2.332 E18.19932
G1 X22.598 Y-2.015 F6000.000
G1 X27.893 Y-2.015 E18.42097 F1200.000
G1 X27.893 Y4.991 E18.71423
G1 X28.100 Y7.224 E18.80813
G1 X28.713 Y9.378 E18.90184
G1 X29.161 Y10.392 E18.94826
G1 X30.342 Y12.299 E19.04217
G1 X31.050 Y13.153 E19.08859
G1 X32.705 Y14.661 E19.18230
G1 X34.608 Y15.839 E19.27601
G1 X35.622 Y16.287 E19.32243
G1 X37.776 Y16.900 E19.41614
G1 X40.000 Y17.106 E19.50966
G1 X42.224 Y16.900 E19.60316
G1 X44.404 Y16.275 E19.69809
G1 X46.377 Y15.291 E19.79038
G1 X47.292 Y14.664 E19.83681
G1 X48.950 Y13.153 E19.93071
G1 X49.658 Y12.299 E19.97713
G1 X50.837 Y10.396 E20.07084
G1 X51.645 Y8.309 E20.16455
G1 X51.899 Y7.229 E20.21098
G1 X52.107 Y4.991 E20.30507
G1 X52.107 Y-2.015 E20.59833
G1 X57.403 Y-2.015 E20.82004
G1 X57.349 Y6.366 E21.17087
G1 X56.922 Y9.063 E21.28515
G1 X56.078 Y11.660 E21.39948
G1 X54.781 Y14.177 E21.51801
G1 X53.235 Y16.299 E21.62790
G1 X52.302 Y17.308 E21.68542
G1 X50.264 Y19.051 E21.79769
G1 X49.089 Y19.840 E21.85691
G1 X46.659 Y21.078 E21.97108
G1 X44.023 Y21.930 E22.08707
G1 X41.369 Y22.348 E22.19952
G1 X39.996 Y22.402 E22.25704
G1 X37.282 Y22.189 E22.37102
G1 X35.934 Y21.920 E22.42855
G1 X33.344 Y21.079 E22.54253
G1 X32.096 Y20.504 E22.60006
G1 X29.771 Y19.079 E22.71420
G1 X27.695 Y17.305 E22.82851
G1 X25.921 Y15.229 E22.94282
G1 X24.494 Y12.901 E23.05714
G1 X23.449 Y10.378 E23.17145
G1 X22.812 Y7.722 E23.28576
G1 X22.598 Y5.008 E23.39974
G1 X22.598 Y-1.955 E23.69120
G1 X22.598 Y-2.415 F6000.000
G1 F4800
G1 X26.598 Y-2.000 E19.89120
G1 E19.69120 F4800.00000
G92 E0
G1 Z1.300 F6000.000
G1 X21.798 Y-2.815 F6000.000
G1 X24.185 Y-6.000 F6000.000
G1 X43.653 Y-2.815 F6000.000
G1 X42.386 Y-11.325 F6000.000
G1 X19.416 Y-18.574 F6000.000
G1 X19.674 Y-19.476 F6000.000
G1 X19.678 Y-19.478 F6000.000
G1 Z0.300 F6000.000
G1 E4.00000 F4800.00000
G1 X19.919 Y-21.194 E4.09052 F1200.000
G1 X55.228 Y-21.194 E5.93523
G1 X55.228 Y-9.317 E6.55575
G1 X19.736 Y-19.462 E8.48427
G1 X20.144 Y-19.781 F6000.000
G1 X20.283 Y-20.775 E8.53673 F1200.000
G1 X54.809 Y-20.775 E10.34053
G1 X54.809 Y-9.873 E10.91014
G1 X20.201 Y-19.765 E12.79061
G1 X20.563 Y-20.054 F6000.000
G1 X20.611 Y-20.398 E12.80518 F1200.000
G1 X54.432 Y-20.398 E14.22091
G1 X54.432 Y-10.373 E14.64058
G1 X20.620 Y-20.037 E16.11260
G1 X20.221 Y-20.118 F6000.000
G1 F4800
G1 X20.611 Y-20.398 E15.76955
G1 F4800
G1 X24.250 Y-20.398 E12.31260
G1 E12.11260 F4800.00000
G92 E0
G1 Z1.300 F6000.000
G1 X19.674 Y-19.476 F6000.000
G1 X17.073 Y-21.187 F6000.000
G1 X-0.213 Y-23.553 F6000.000
G1 X-39.341 Y-12.798 F6000.000
G1 X-42.462 Y-11.060 F6000.000
G1 X-35.615 Y-2.815 F6000.000
G1 X-24.185 Y-6.000 F6000.000
G1 X-21.792 Y-3.606 F6000.000
G1 X-21.792 Y-2.815 F6000.000
G1 X-21.796 Y-2.811 F6000.000
G1 Z0.300 F6000.000
G1 E4.00000 F4800.00000
G1 X-21.856 Y6.431 E4.48287 F1200.000
G1 X-22.302 Y9.249 E4.63191
G1 X-23.178 Y11.947 E4.78010
G1 X-23.793 Y13.280 E4.85681
G1 X-25.275 Y15.698 E5.00499
G1 X-27.117 Y17.855 E5.15318
G1 X-28.195 Y18.852 E5.22987
G1 X-30.455 Y20.496 E5.37590
G1 X-33.034 Y21.815 E5.52723
G1 X-35.751 Y22.698 E5.67649
G1 X-38.553 Y23.142 E5.82468
G1 X-40.000 Y23.199 E5.90036
G1 X-41.447 Y23.142 E5.97604
G1 X-44.249 Y22.698 E6.12423
G1 X-46.947 Y21.822 E6.27242
G1 X-48.280 Y21.207 E6.34911
G1 X-50.664 Y19.748 E6.49514
G1 X-52.870 Y17.871 E6.64647
G1 X-54.725 Y15.698 E6.79573
G1 X-56.217 Y13.263 E6.94495
G1 X-57.310 Y10.624 E7.09416
G1 X-57.977 Y7.847 E7.24338
G1 X-58.198 Y5.039 E7.39054
G1 X-58.198 Y-2.811 E7.80067
G1 X-51.311 Y-2.811 E8.16050
G1 X-51.311 Y4.954 E8.56617
G1 X-51.114 Y7.078 E8.67759
G1 X-50.537 Y9.107 E8.78781
G1 X-50.133 Y10.020 E8.83997
G1 X-49.010 Y11.833 E8.95140
G1 X-48.373 Y12.601 E9.00356
G1 X-46.814 Y14.023 E9.11378
G1 X-45.040 Y15.121 E9.22279
G1 X-43.094 Y15.875 E9.33179
G1 X-41.020 Y16.262 E9.44201
G1 X-40.023 Y16.308 E9.49417
G1 X-37.922 Y16.114 E9.60439
G1 X-35.893 Y15.537 E9.71460
G1 X-34.980 Y15.133 E9.76677
G1 X-33.186 Y14.023 E9.87698
G1 X-31.627 Y12.601 E9.98720
G1 X-30.990 Y11.833 E10.03936
G1 X-29.879 Y10.040 E10.14958
G1 X-29.117 Y8.073 E10.25979
G1 X-28.888 Y7.101 E10.31196
G1 X-28.689 Y4.954 E10.42459
G1 X-28.689 Y-2.811 E10.83027
G1 X-21.856 Y-2.811 E11.18730
G1 X-22.217 Y-2.392 F6000.000
G1 X-22.274 Y6.397 E11.64649 F1200.000
G1 X-22.710 Y9.151 E11.79216
G1 X-23.569 Y11.794 E11.93734
G1 X-24.163 Y13.082 E12.01146
G1 X-25.615 Y15.451 E12.15663
G1 X-27.420 Y17.564 E12.30181
G1 X-28.461 Y18.527 E12.37593
G1 X-30.675 Y20.138 E12.51896
G1 X-33.195 Y21.427 E12.66684
G1 X-35.849 Y22.290 E12.81264
G1 X-38.594 Y22.724 E12.95781
G1 X-40.000 Y22.780 E13.03134
G1 X-41.406 Y22.724 E13.10487
G1 X-44.151 Y22.290 E13.25005
G1 X-46.794 Y21.431 E13.39523
G1 X-48.082 Y20.837 E13.46934
G1 X-50.417 Y19.408 E13.61237
G1 X-52.573 Y17.573 E13.76026
G1 X-54.385 Y15.451 E13.90605
G1 X-55.843 Y13.072 E14.05182
G1 X-56.911 Y10.495 E14.19760
G1 X-57.562 Y7.782 E14.34337
G1 X-57.779 Y5.023 E14.48795
G1 X-57.779 Y-2.392 E14.87533
G1 X-51.730 Y-2.392 E15.19139
G1 X-51.730 Y4.973 E15.57619
G1 X-51.527 Y7.155 E15.69065
G1 X-50.931 Y9.249 E15.80442
G1 X-50.505 Y10.216 E15.85962
G1 X-49.351 Y12.079 E15.97408
G1 X-48.676 Y12.891 E16.02928
G1 X-47.067 Y14.358 E16.14305
G1 X-45.227 Y15.498 E16.25611
G1 X-43.209 Y16.279 E16.36917
G1 X-41.069 Y16.679 E16.48293
G1 X-40.013 Y16.728 E16.53814
G1 X-37.845 Y16.527 E16.65190
G1 X-35.751 Y15.931 E16.76566
G1 X-34.784 Y15.505 E16.82086
G1 X-32.933 Y14.358 E16.93463
G1 X-31.324 Y12.891 E17.04839
G1 X-30.649 Y12.079 E17.10359
G1 X-29.502 Y10.227 E17.21735
G1 X-28.716 Y8.197 E17.33112
G1 X-28.474 Y7.168 E17.38632
G1 X-28.270 Y4.973 E17.50148
G1 X-28.270 Y-2.392 E17.88628
G1 X-22.277 Y-2.392 E18.19941
G1 X-22.597 Y-2.015 F6000.000
G1 X-22.651 Y6.366 E18.55024 F1200.000
G1 X-23.078 Y9.063 E18.66452
G1 X-23.921 Y11.656 E18.77867
G1 X-24.496 Y12.904 E18.83619
G1 X-25.921 Y15.229 E18.95034
G1 X-27.692 Y17.302 E19.06448
G1 X-28.701 Y18.235 E19.12201
G1 X-30.873 Y19.815 E19.23445
G1 X-33.340 Y21.078 E19.35045
G1 X-35.937 Y21.922 E19.46477
G1 X-38.631 Y22.348 E19.57891
G1 X-40.000 Y22.402 E19.63628
G1 X-41.369 Y22.348 E19.69364
G1 X-44.063 Y21.922 E19.80778
G1 X-46.656 Y21.079 E19.92193
G1 X-47.904 Y20.504 E19.97945
G1 X-50.195 Y19.102 E20.09190
G1 X-52.305 Y17.306 E20.20790
G1 X-54.079 Y15.229 E20.32221
G1 X-55.506 Y12.901 E20.43652
G1 X-56.551 Y10.378 E20.55083
G1 X-57.188 Y7.722 E20.66514
G1 X-57.402 Y5.008 E20.77913
G1 X-57.402 Y-2.015 E21.07310
G1 X-52.107 Y-2.015 E21.29475
G1 X-52.107 Y4.991 E21.58800
G1 X-51.900 Y7.224 E21.68191
G1 X-51.287 Y9.378 E21.77562
G1 X-50.839 Y10.392 E21.82204
G1 X-49.658 Y12.299 E21.91594
G1 X-48.950 Y13.153 E21.96237
G1 X-47.295 Y14.661 E22.05608
G1 X-45.396 Y15.837 E22.14959
G1 X-43.313 Y16.644 E22.24311
G1 X-41.112 Y17.055 E22.33682
G1 X-40.005 Y17.106 E22.38324
G1 X-37.776 Y16.900 E22.47695
G1 X-35.622 Y16.287 E22.57066
