; generated by Slic3r 1.2.9 on 2016-02-11 at 13:02:57

; external perimeters extrusion width = 0.40mm
; perimeters extrusion width = 0.67mm
; infill extrusion width = 0.67mm
; solid infill extrusion width = 0.67mm
; top infill extrusion width = 0.67mm

M107
M104 S210 ; set temperature
G28 ; home all axes
G1 X70Y70Z10 F5000 
M109 S210 ; wait for temperature to be reached
G21 ; set units to millimeters
G90 ; use absolute coordinates
M82 ; use absolute distances for extrusion
G92 E0
G1 E-3.50000 F1800.00000
G92 E0
G1 Z0.300 F6000.000
G1 X-11.257 Y-50.000 F6000.000
G1 E3.50000 F1800.00000
G1 X-10.860 Y-52.193 E3.61642 F2045.916
G1 X-9.720 Y-54.107 E3.73283
G1 X-7.981 Y-55.501 E3.84925
G1 X-5.000 Y-56.257 E4.00992
G1 X5.000 Y-56.257 E4.53237
G1 X7.193 Y-55.860 E4.64879
G1 X9.107 Y-54.720 E4.76521
G1 X10.501 Y-52.981 E4.88162
G1 X11.257 Y-50.000 E5.04229
G1 X11.257 Y50.000 E10.26678
G1 X10.860 Y52.193 E10.38320
G1 X9.720 Y54.107 E10.49962
G1 X7.981 Y55.501 E10.61603
G1 X5.000 Y56.257 E10.77671
G1 X-5.000 Y56.257 E11.29915
G1 X-7.193 Y55.860 E11.41557
G1 X-9.107 Y54.720 E11.53199
G1 X-10.501 Y52.981 E11.64841
G1 X-11.257 Y50.000 E11.80908
G1 X-11.257 Y-49.940 E17.03043
G1 X-10.838 Y-50.000 F6000.000
G1 X-10.441 Y-52.115 E17.14285 F2045.916
G1 X-9.305 Y-53.943 E17.25527
G1 X-7.585 Y-55.234 E17.36769
G1 X-5.000 Y-55.838 E17.50635
G1 X5.000 Y-55.838 E18.02880
G1 X7.115 Y-55.441 E18.14122
G1 X8.943 Y-54.305 E18.25364
G1 X10.234 Y-52.585 E18.36606
G1 X10.838 Y-50.000 E18.50472
G1 X10.838 Y50.000 E23.72921
G1 X10.441 Y52.115 E23.84163
G1 X9.305 Y53.943 E23.95405
G1 X7.585 Y55.234 E24.06647
G1 X5.000 Y55.838 E24.20513
G1 X-5.000 Y55.838 E24.72758
G1 X-7.115 Y55.441 E24.84000
G1 X-8.943 Y54.305 E24.95242
G1 X-10.234 Y52.585 E25.06484
G1 X-10.838 Y50.000 E25.20350
G1 X-10.838 Y-49.940 E30.42486
G1 X-10.419 Y-50.000 F6000.000
G1 X-10.023 Y-52.034 E30.53313 F2045.916
G1 X-8.892 Y-53.771 E30.64141
G1 X-7.191 Y-54.956 E30.74968
G1 X-5.000 Y-55.419 E30.86670
G1 X5.000 Y-55.419 E31.38915
G1 X7.034 Y-55.023 E31.49743
G1 X8.771 Y-53.892 E31.60570
G1 X9.956 Y-52.191 E31.71398
G1 X10.419 Y-50.000 E31.83099
G1 X10.419 Y50.000 E37.05548
G1 X10.023 Y52.034 E37.16376
G1 X8.892 Y53.771 E37.27204
G1 X7.191 Y54.956 E37.38031
G1 X5.000 Y55.419 E37.49733
G1 X-5.000 Y55.419 E38.01978
G1 X-7.034 Y55.023 E38.12805
G1 X-8.771 Y53.892 E38.23633
G1 X-9.956 Y52.191 E38.34460
G1 X-10.419 Y50.000 E38.46162
G1 X-10.419 Y-49.940 E43.68298
G1 E40.18298 F1800.00000
G92 E0
G1 X0.996 Y-46.996 F6000.000
G1 E3.50000 F1800.00000
G1 X-4.004 Y-46.996 E3.76122 F2045.916
G1 X-4.004 Y-49.004 E3.86612
G1 X4.004 Y-49.004 E4.28448
G1 X4.004 Y49.004 E9.40489
G1 X-4.004 Y49.004 E9.82325
G1 X-4.004 Y46.996 E9.92815
G1 X0.996 Y46.996 E10.18937
G1 X0.996 Y42.004 E10.45019
G1 X-4.004 Y42.004 E10.71141
G1 X-4.004 Y-42.004 E15.10039
G1 X0.996 Y-42.004 E15.36162
G1 X0.996 Y-46.936 E15.61930
G1 X0.577 Y-46.577 F6000.000
G1 X-4.423 Y-46.577 E15.88053 F2045.916
G1 X-4.423 Y-49.423 E16.02919
G1 X4.423 Y-49.423 E16.49132
G1 X4.423 Y49.423 E21.65549
G1 X-4.423 Y49.423 E22.11763
G1 X-4.423 Y46.577 E22.26629
G1 X0.577 Y46.577 E22.52751
G1 X0.577 Y42.423 E22.74457
G1 X-4.423 Y42.423 E23.00579
G1 X-4.423 Y-42.423 E27.43853
G1 X0.577 Y-42.423 E27.69976
G1 X0.577 Y-46.517 E27.91368
G1 X0.200 Y-46.200 F6000.000
G1 X-4.800 Y-46.200 E28.12298 F600.000
G1 X-4.800 Y-49.800 E28.27367
G1 X4.800 Y-49.800 E28.67553
G1 X4.800 Y49.800 E32.84482
G1 X-4.800 Y49.800 E33.24668
G1 X-4.800 Y46.200 E33.39738
G1 X0.200 Y46.200 E33.60668
G1 X0.200 Y42.800 E33.74900
G1 X-4.800 Y42.800 E33.95830
G1 X-4.800 Y-42.800 E37.54155
G1 X0.200 Y-42.800 E37.75085
G1 X0.200 Y-46.140 E37.89066
G1 X0.200 Y-46.600 F6000.000
G1 X1.243 Y-46.893 F6000.000
G1 X3.757 Y-44.379 E38.07696 F2039.427
G1 X3.757 Y-43.785 E38.10810
G1 X1.243 Y-46.298 E38.29440
G1 X1.243 Y-45.704 E38.32554
G1 X3.757 Y-43.191 E38.51184
G1 X3.757 Y-42.596 E38.54298
G1 X1.243 Y-45.110 E38.72928
G1 X1.243 Y-44.515 E38.76043
G1 X3.757 Y-42.002 E38.94672
G1 X3.757 Y-41.408 E38.97787
G1 X1.243 Y-43.921 E39.16416
G1 X1.243 Y-43.327 E39.19531
G1 X3.757 Y-40.813 E39.38160
G1 X3.757 Y-40.219 E39.41275
G1 X1.243 Y-42.733 E39.59904
G1 X1.243 Y-42.138 E39.63019
G1 X3.757 Y-39.625 E39.81648
G1 X3.757 Y-39.031 E39.84763
G1 X1.031 Y-41.757 E40.04969
G1 X0.436 Y-41.757 E40.08083
G1 X3.757 Y-38.436 E40.32693
G1 X3.757 Y-37.842 E40.35808
G1 X-0.158 Y-41.757 E40.64823
G1 X-0.752 Y-41.757 E40.67938
G1 X3.757 Y-37.248 E41.01357
G1 X3.757 Y-36.654 E41.04472
G1 X-1.346 Y-41.757 E41.42296
G1 X-1.941 Y-41.757 E41.45411
G1 X3.757 Y-36.059 E41.87640
G1 X3.757 Y-35.465 E41.90755
G1 X-2.535 Y-41.757 E42.37389
G1 X-3.129 Y-41.757 E42.40503
G1 X3.757 Y-34.871 E42.91542
G1 X3.757 Y-34.277 E42.94657
G1 X-3.723 Y-41.757 E43.50100
G1 X-3.757 Y-41.196 E43.53046
G1 X3.757 Y-33.682 E44.08735
G1 X3.757 Y-33.088 E44.11850
G1 X-3.757 Y-40.601 E44.67540
G1 X-3.757 Y-40.007 E44.70655
G1 X3.757 Y-32.494 E45.26344
G1 X3.757 Y-31.899 E45.29459
G1 X-3.757 Y-39.413 E45.85149
G1 X-3.757 Y-38.819 E45.88263
G1 X3.757 Y-31.305 E46.43953
G1 X3.757 Y-30.711 E46.47068
G1 X-3.757 Y-38.224 E47.02757
G1 X-3.757 Y-37.630 E47.05872
G1 X3.757 Y-30.117 E47.61562
G1 X3.757 Y-29.522 E47.64676
G1 X-3.757 Y-37.036 E48.20366
G1 X-3.757 Y-36.442 E48.23481
G1 X3.757 Y-28.928 E48.79171
G1 X3.757 Y-28.334 E48.82285
G1 X-3.757 Y-35.847 E49.37975
G1 X-3.757 Y-35.253 E49.41090
G1 X3.757 Y-27.740 E49.96779
G1 X3.757 Y-27.145 E49.99894
G1 X-3.757 Y-34.659 E50.55584
G1 X-3.757 Y-34.064 E50.58698
G1 X3.757 Y-26.551 E51.14388
G1 X3.757 Y-25.957 E51.17503
G1 X-3.757 Y-33.470 E51.73192
G1 X-3.757 Y-32.876 E51.76307
G1 X3.757 Y-25.362 E52.31997
G1 X3.757 Y-24.768 E52.35111
G1 X-3.757 Y-32.282 E52.90801
G1 X-3.757 Y-31.687 E52.93916
G1 X3.757 Y-24.174 E53.49606
G1 X3.757 Y-23.580 E53.52720
G1 X-3.757 Y-31.093 E54.08410
G1 X-3.757 Y-30.499 E54.11525
G1 X3.757 Y-22.985 E54.67214
G1 X3.757 Y-22.391 E54.70329
G1 X-3.757 Y-29.905 E55.26019
G1 X-3.757 Y-29.310 E55.29133
G1 X3.757 Y-21.797 E55.84823
G1 X3.757 Y-21.203 E55.87938
G1 X-3.757 Y-28.716 E56.43627
G1 X-3.757 Y-28.122 E56.46742
G1 X3.757 Y-20.608 E57.02432
G1 X3.757 Y-20.014 E57.05546
G1 X-3.757 Y-27.527 E57.61236
G1 X-3.757 Y-26.933 E57.64351
G1 X3.757 Y-19.420 E58.20041
G1 X3.757 Y-18.826 E58.23155
G1 X-3.757 Y-26.339 E58.78845
G1 X-3.757 Y-25.745 E58.81960
G1 X3.757 Y-18.231 E59.37649
G1 X3.757 Y-17.637 E59.40764
G1 X-3.757 Y-25.150 E59.96454
G1 X-3.757 Y-24.556 E59.99568
G1 X3.757 Y-17.043 E60.55258
G1 X3.757 Y-16.448 E60.58373
G1 X-3.757 Y-23.962 E61.14062
G1 X-3.757 Y-23.368 E61.17177
G1 X3.757 Y-15.854 E61.72867
G1 X3.757 Y-15.260 E61.75981
G1 X-3.757 Y-22.773 E62.31671
G1 X-3.757 Y-22.179 E62.34786
G1 X3.757 Y-14.666 E62.90476
G1 X3.757 Y-14.071 E62.93590
G1 X-3.757 Y-21.585 E63.49280
G1 X-3.757 Y-20.991 E63.52395
G1 X3.757 Y-13.477 E64.08084
G1 X3.757 Y-12.883 E64.11199
G1 X-3.757 Y-20.396 E64.66889
G1 X-3.757 Y-19.802 E64.70003
G1 X3.757 Y-12.289 E65.25693
G1 X3.757 Y-11.694 E65.28808
G1 X-3.757 Y-19.208 E65.84497
G1 X-3.757 Y-18.613 E65.87612
G1 X3.757 Y-11.100 E66.43302
G1 X3.757 Y-10.506 E66.46416
G1 X-3.757 Y-18.019 E67.02106
G1 X-3.757 Y-17.425 E67.05221
G1 X3.757 Y-9.911 E67.60911
G1 X3.757 Y-9.317 E67.64025
G1 X-3.757 Y-16.831 E68.19715
G1 X-3.757 Y-16.236 E68.22830
G1 X3.757 Y-8.723 E68.78519
G1 X3.757 Y-8.129 E68.81634
G1 X-3.757 Y-15.642 E69.37324
G1 X-3.757 Y-15.048 E69.40438
G1 X3.757 Y-7.534 E69.96128
G1 X3.757 Y-6.940 E69.99243
G1 X-3.757 Y-14.454 E70.54932
G1 X-3.757 Y-13.859 E70.58047
G1 X3.757 Y-6.346 E71.13737
G1 X3.757 Y-5.752 E71.16851
G1 X-3.757 Y-13.265 E71.72541
G1 X-3.757 Y-12.671 E71.75656
G1 X3.757 Y-5.157 E72.31346
G1 X3.757 Y-4.563 E72.34460
G1 X-3.757 Y-12.076 E72.90150
G1 X-3.757 Y-11.482 E72.93265
G1 X3.757 Y-3.969 E73.48954
G1 X3.757 Y-3.375 E73.52069
G1 X-3.757 Y-10.888 E74.07759
G1 X-3.757 Y-10.294 E74.10873
G1 X3.757 Y-2.780 E74.66563
G1 X3.757 Y-2.186 E74.69678
G1 X-3.757 Y-9.699 E75.25367
G1 X-3.757 Y-9.105 E75.28482
G1 X3.757 Y-1.592 E75.84172
G1 X3.757 Y-0.997 E75.87286
G1 X-3.757 Y-8.511 E76.42976
G1 X-3.757 Y-7.917 E76.46091
G1 X3.757 Y-0.403 E77.01781
G1 X3.757 Y0.191 E77.04895
G1 X-3.757 Y-7.322 E77.60585
G1 X-3.757 Y-6.728 E77.63700
G1 X3.757 Y0.785 E78.19389
G1 X3.757 Y1.380 E78.22504
G1 X-3.757 Y-6.134 E78.78194
G1 X-3.757 Y-5.540 E78.81308
G1 X3.757 Y1.974 E79.36998
G1 X3.757 Y2.568 E79.40113
G1 X-3.757 Y-4.945 E79.95803
G1 X-3.757 Y-4.351 E79.98917
G1 X3.757 Y3.162 E80.54607
G1 X3.757 Y3.757 E80.57722
G1 X-3.757 Y-3.757 E81.13411
G1 X-3.757 Y-3.162 E81.16526
G1 X3.757 Y4.351 E81.72216
G1 X3.757 Y4.945 E81.75330
G1 X-3.757 Y-2.568 E82.31020
G1 X-3.757 Y-1.974 E82.34135
G1 X3.757 Y5.540 E82.89824
G1 X3.757 Y6.134 E82.92939
G1 X-3.757 Y-1.380 E83.48629
G1 X-3.757 Y-0.785 E83.51743
G1 X3.757 Y6.728 E84.07433
G1 X3.757 Y7.322 E84.10548
G1 X-3.757 Y-0.191 E84.66238
G1 X-3.757 Y0.403 E84.69352
G1 X3.757 Y7.917 E85.25042
G1 X3.757 Y8.511 E85.28157
G1 X-3.757 Y0.997 E85.83846
G1 X-3.757 Y1.592 E85.86961
G1 X3.757 Y9.105 E86.42651
G1 X3.757 Y9.699 E86.45765
G1 X-3.757 Y2.186 E87.01455
G1 X-3.757 Y2.780 E87.04570
G1 X3.757 Y10.294 E87.60260
G1 X3.757 Y10.888 E87.63374
G1 X-3.757 Y3.375 E88.19064
G1 X-3.757 Y3.969 E88.22179
G1 X3.757 Y11.482 E88.77868
G1 X3.757 Y12.076 E88.80983
G1 X-3.757 Y4.563 E89.36673
G1 X-3.757 Y5.157 E89.39787
G1 X3.757 Y12.671 E89.95477
G1 X3.757 Y13.265 E89.98592
G1 X-3.757 Y5.752 E90.54282
G1 X-3.757 Y6.346 E90.57396
G1 X3.757 Y13.859 E91.13086
G1 X3.757 Y14.454 E91.16201
G1 X-3.757 Y6.940 E91.71890
G1 X-3.757 Y7.534 E91.75005
G1 X3.757 Y15.048 E92.30695
G1 X3.757 Y15.642 E92.33809
G1 X-3.757 Y8.129 E92.89499
G1 X-3.757 Y8.723 E92.92614
G1 X3.757 Y16.236 E93.48303
G1 X3.757 Y16.831 E93.51418
G1 X-3.757 Y9.317 E94.07108
G1 X-3.757 Y9.911 E94.10222
G1 X3.757 Y17.425 E94.65912
G1 X3.757 Y18.019 E94.69027
G1 X-3.757 Y10.506 E95.24717
G1 X-3.757 Y11.100 E95.27831
G1 X3.757 Y18.613 E95.83521
G1 X3.757 Y19.208 E95.86636
G1 X-3.757 Y11.694 E96.42325
G1 X-3.757 Y12.289 E96.45440
G1 X3.757 Y19.802 E97.01130
G1 X3.757 Y20.396 E97.04244
G1 X-3.757 Y12.883 E97.59934
G1 X-3.757 Y13.477 E97.63049
G1 X3.757 Y20.991 E98.18739
G1 X3.757 Y21.585 E98.21853
G1 X-3.757 Y14.071 E98.77543
G1 X-3.757 Y14.666 E98.80658
G1 X3.757 Y22.179 E99.36347
G1 X3.757 Y22.773 E99.39462
G1 X-3.757 Y15.260 E99.95152
G1 X-3.757 Y15.854 E99.98266
G1 X3.757 Y23.368 E100.53956
G1 X3.757 Y23.962 E100.57071
G1 X-3.757 Y16.448 E101.12761
G1 X-3.757 Y17.043 E101.15875
G1 X3.757 Y24.556 E101.71565
G1 X3.757 Y25.150 E101.74680
G1 X-3.757 Y17.637 E102.30369
G1 X-3.757 Y18.231 E102.33484
G1 X3.757 Y25.745 E102.89174
G1 X3.757 Y26.339 E102.92288
G1 X-3.757 Y18.826 E103.47978
G1 X-3.757 Y19.420 E103.51093
G1 X3.757 Y26.933 E104.06782
G1 X3.757 Y27.527 E104.09897
G1 X-3.757 Y20.014 E104.65587
G1 X-3.757 Y20.608 E104.68701
G1 X3.757 Y28.122 E105.24391
G1 X3.757 Y28.716 E105.27506
G1 X-3.757 Y21.203 E105.83196
G1 X-3.757 Y21.797 E105.86310
G1 X3.757 Y29.310 E106.42000
G1 X3.757 Y29.905 E106.45115
G1 X-3.757 Y22.391 E107.00804
G1 X-3.757 Y22.985 E107.03919
G1 X3.757 Y30.499 E107.59609
G1 X3.757 Y31.093 E107.62723
G1 X-3.757 Y23.580 E108.18413
G1 X-3.757 Y24.174 E108.21528
G1 X3.757 Y31.687 E108.77218
G1 X3.757 Y32.282 E108.80332
G1 X-3.757 Y24.768 E109.36022
G1 X-3.757 Y25.362 E109.39137
G1 X3.757 Y32.876 E109.94826
G1 X3.757 Y33.470 E109.97941
G1 X-3.757 Y25.957 E110.53631
G1 X-3.757 Y26.551 E110.56745
G1 X3.757 Y34.064 E111.12435
G1 X3.757 Y34.659 E111.15550
G1 X-3.757 Y27.145 E111.71240
G1 X-3.757 Y27.740 E111.74354
G1 X3.757 Y35.253 E112.30044
G1 X3.757 Y35.847 E112.33159
G1 X-3.757 Y28.334 E112.88848
G1 X-3.757 Y28.928 E112.91963
G1 X3.757 Y36.442 E113.47653
G1 X3.757 Y37.036 E113.50767
G1 X-3.757 Y29.522 E114.06457
G1 X-3.757 Y30.117 E114.09572
G1 X3.757 Y37.630 E114.65262
G1 X3.757 Y38.224 E114.68376
G1 X-3.757 Y30.711 E115.24066
G1 X-3.757 Y31.305 E115.27181
G1 X3.757 Y38.819 E115.82870
G1 X3.757 Y39.413 E115.85985
G1 X-3.757 Y31.899 E116.41675
G1 X-3.757 Y32.494 E116.44789
G1 X3.757 Y40.007 E117.00479
G1 X3.757 Y40.601 E117.03594
G1 X-3.757 Y33.088 E117.59283
G1 X-3.757 Y33.682 E117.62398
G1 X3.757 Y41.196 E118.18088
G1 X3.757 Y41.790 E118.21202
G1 X-3.757 Y34.277 E118.76892
G1 X-3.757 Y34.871 E118.80007
G1 X3.757 Y42.384 E119.35697
G1 X3.757 Y42.978 E119.38811
G1 X-3.757 Y35.465 E119.94501
G1 X-3.757 Y36.059 E119.97616
G1 X3.757 Y43.573 E120.53305
G1 X3.757 Y44.167 E120.56420
G1 X-3.757 Y36.654 E121.12110
G1 X-3.757 Y37.248 E121.15224
G1 X0.752 Y41.757 E121.48644
G1 X0.158 Y41.757 E121.51759
G1 X-3.757 Y37.842 E121.80774
G1 X-3.757 Y38.436 E121.83888
G1 X-0.436 Y41.757 E122.08498
G1 X-1.031 Y41.757 E122.11613
G1 X-3.757 Y39.031 E122.31818
G1 X-3.757 Y39.625 E122.34933
G1 X-1.625 Y41.757 E122.50734
G1 X-2.219 Y41.757 E122.53848
G1 X-3.757 Y40.219 E122.65244
G1 X-3.757 Y40.813 E122.68359
G1 X-2.813 Y41.757 E122.75350
G1 X-3.408 Y41.757 E122.78464
G1 X-3.757 Y41.408 E122.81051
G1 E119.31051 F1800.00000
G92 E0
G1 X1.243 Y42.248 F6000.000
G1 E3.50000 F1800.00000
G1 X3.757 Y44.761 E3.68629 F2039.427
G1 X3.757 Y45.356 E3.71744
G1 X1.243 Y42.842 E3.90374
G1 X1.243 Y43.436 E3.93488
G1 X3.757 Y45.950 E4.12118
G1 X3.757 Y46.544 E4.15232
G1 X1.243 Y44.031 E4.33862
G1 X1.243 Y44.625 E4.36977
G1 X3.757 Y47.138 E4.55606
G1 X3.757 Y47.733 E4.58721
G1 X1.243 Y45.219 E4.77350
G1 X1.243 Y45.813 E4.80465
G1 X3.757 Y48.327 E4.99094
G1 X3.592 Y48.757 E5.01506
G1 X1.243 Y46.408 E5.18917
G1 X1.243 Y47.002 E5.22031
G1 X2.998 Y48.757 E5.35037
G1 X2.404 Y48.757 E5.38152
G1 X0.890 Y47.243 E5.49369
G1 X0.296 Y47.243 E5.52484
G1 X1.809 Y48.757 E5.63701
G1 X1.215 Y48.757 E5.66816
G1 X-0.298 Y47.243 E5.78033
G1 X-0.893 Y47.243 E5.81148
G1 X0.621 Y48.757 E5.92365
G1 X0.027 Y48.757 E5.95480
G1 X-1.487 Y47.243 E6.06697
G1 X-2.081 Y47.243 E6.09812
G1 X-0.568 Y48.757 E6.21029
G1 X-1.162 Y48.757 E6.24144
G1 X-2.675 Y47.243 E6.35361
G1 X-3.270 Y47.243 E6.38476
G1 X-1.756 Y48.757 E6.49693
G1 X-2.350 Y48.757 E6.52808
G1 X-3.757 Y47.350 E6.63231
G1 X-3.757 Y47.945 E6.66346
G1 X-2.945 Y48.757 E6.72364
G1 X-3.539 Y48.757 E6.75479
G1 X-3.757 Y48.539 E6.77093
G1 E3.27093 F1800.00000
G92 E0
G1 X1.000 Y48.000 F6000.000
G1 X1.000 Y-39.000 F6000.000
G1 X2.464 Y-47.464 F6000.000
G1 X-3.000 Y-48.000 F6000.000
G1 X-4.000 Y-47.000 F6000.000
G1 X-3.267 Y-47.243 F6000.000
G1 E3.50000 F1800.00000
G1 X-3.757 Y-47.733 E3.53627 F2039.427
G1 X-3.757 Y-48.327 E3.56742
G1 X-2.673 Y-47.243 E3.64773
G1 X-2.079 Y-47.243 E3.67888
G1 X-3.592 Y-48.757 E3.79105
G1 X-2.998 Y-48.757 E3.82220
G1 X-1.485 Y-47.243 E3.93437
G1 X-0.890 Y-47.243 E3.96552
G1 X-2.404 Y-48.757 E4.07769
G1 X-1.809 Y-48.757 E4.10884
G1 X-0.296 Y-47.243 E4.22101
G1 X0.298 Y-47.243 E4.25216
G1 X-1.215 Y-48.757 E4.36433
G1 X0.893 Y-47.243 F6000.000
G1 X-0.621 Y-48.757 E4.47651 F2039.427
G1 X-0.027 Y-48.757 E4.50766
G1 X3.757 Y-44.973 E4.78808
G1 X3.757 Y-45.568 E4.81922
G1 X0.568 Y-48.757 E5.05560
G1 X1.162 Y-48.757 E5.08675
G1 X3.757 Y-46.162 E5.27907
G1 X3.757 Y-46.756 E5.31022
G1 X1.756 Y-48.757 E5.45850
G1 X2.350 Y-48.757 E5.48965
G1 X3.757 Y-47.350 E5.59388
G1 X3.757 Y-47.945 E5.62502
G1 X2.945 Y-48.757 E5.68521
G1 X3.539 Y-48.757 E5.71635
G1 X3.757 Y-48.539 E5.73249
M106 S209.1
G1 E2.23249 F1800.00000
G92 E0
G1 Z0.500 F6000.000
G1 X1.321 Y-47.321 F6000.000
G1 E3.50000 F1800.00000
G1 X-3.679 Y-47.321 E3.76122 F2045.915
G1 X-3.679 Y-48.679 E3.83217
G1 X3.679 Y-48.679 E4.21659
G1 X3.679 Y48.679 E9.30304
G1 X-3.679 Y48.679 E9.68746
G1 X-3.679 Y47.321 E9.75841
G1 X1.321 Y47.321 E10.01963
G1 X1.321 Y41.679 E10.31440
G1 X-3.679 Y41.679 E10.57562
G1 X-3.679 Y-41.679 E14.93065
G1 X1.321 Y-41.679 E15.19188
G1 X1.321 Y-47.261 E15.48351
G1 X0.693 Y-46.693 F6000.000
G1 X-4.307 Y-46.693 E15.74474 F2045.915
G1 X-4.307 Y-49.307 E15.88133
G1 X4.307 Y-49.307 E16.33140
G1 X4.307 Y49.307 E21.48351
G1 X-4.307 Y49.307 E21.93358
G1 X-4.307 Y46.693 E22.07018
G1 X0.693 Y46.693 E22.33141
G1 X0.693 Y42.307 E22.56052
G1 X-4.307 Y42.307 E22.82175
G1 X-4.307 Y-42.307 E27.24243
G1 X0.693 Y-42.307 E27.50365
G1 X0.693 Y-46.633 E27.72963
G1 X0.200 Y-46.200 F6000.000
