; generated by Slic3r 1.1.7 on 2015-08-27 at 13:56:32

; perimeters extrusion width = 0.50mm
; infill extrusion width = 0.52mm
; solid infill extrusion width = 0.52mm
; top infill extrusion width = 0.52mm

G21 ; set units to millimeters
M107
M104 S200 ; set temperature
G28 ; home all axes
G1 Z5 F5000 ; lift nozzle

M109 S200 ; wait for temperature to be reached
G90 ; use absolute coordinates
G92 E0
M82 ; use absolute distances for extrusion
G1 F1800.000 E-1.00000
G92 E0
G1 Z0.500 F7800.000
G1 X84.650 Y85.654 F7800.000
G1 E1.00000 F1800.000
G1 X86.412 Y84.115 E1.43418 F1080.000
G1 X88.587 Y83.254 E1.86836
G1 X90.000 Y83.107 E2.13191
G1 X110.000 Y83.107 E5.84332
G1 X112.306 Y83.504 E6.27749
G1 X114.346 Y84.650 E6.71167 F1080.000
G1 X115.885 Y86.412 E7.14585
G1 X116.746 Y88.587 E7.58003
G1 X116.893 Y90.000 E7.84358
G1 X116.893 Y110.000 E11.55499
G1 X116.496 Y112.306 E11.98917
G1 X115.350 Y114.346 E12.42335
G1 X113.588 Y115.885 E12.85752
G1 X111.413 Y116.746 E13.29170
G1 X110.000 Y116.893 E13.55525
G1 X90.000 Y116.893 E17.26666
G1 X87.694 Y116.496 E17.70084
G1 X85.654 Y115.350 E18.13502
G1 X84.115 Y113.588 E18.56920
G1 X83.254 Y111.413 E19.00337
G1 X83.107 Y110.000 E19.26692
G1 X83.107 Y90.000 E22.97833
G1 X83.504 Y87.694 E23.41251
G1 X84.613 Y85.720 E23.83277
G1 F1800.000 E22.83277
G92 E0
G1 X104.900 Y104.193 F7800.000
G1 E1.00000 F1800.000
G1 X104.900 Y93.500 E2.98429 F378.000
G1 X106.500 Y93.500 E3.28120
G1 X106.500 Y106.500 E5.69362
G1 X105.193 Y106.500 E5.93618
G1 X93.500 Y94.807 E9.00482
G1 X93.500 Y92.793 E9.37860
G1 X104.847 Y104.140 E12.35646
G1 X104.771 Y103.710 F7800.000
G1 F1800.000 E11.35646
G92 E0
G1 X103.883 Y107.715 F7800.000
G1 E1.00000 F1800.000
G1 X92.285 Y107.715 E3.15209 F540.000
G1 X92.285 Y96.117 E5.30418
G1 X103.830 Y107.662 E8.33378
G1 F1800.000 E7.33378
G92 E0
G1 X91.000 Y97.000 F7800.000
G1 X88.000 Y96.000 F7800.000
G1 X90.000 Y88.000 F7800.000
G1 X95.000 Y91.000 F7800.000
G1 X103.115 Y99.883 F7800.000
G1 E1.00000 F1800.000
G1 X95.517 Y92.285 E2.99377 F540.000
G1 X103.115 Y92.285 E4.40358
G1 X103.115 Y99.808 E5.79947
G1 X104.007 Y92.607 F7800.000
G1 X104.007 Y102.038 E7.54948 F540.000
G1 X93.362 Y91.393 E10.34313
G1 X108.607 Y91.393 E13.17215
G1 X108.607 Y108.607 E16.36668
G1 X91.393 Y108.607 E19.56120
G1 X91.393 Y91.393 E22.75572
G1 X92.607 Y91.393 E22.98112
G1 X92.607 Y95.177 E23.68335
G1 X104.823 Y107.393 E26.88923
G1 X107.393 Y107.393 E27.36606
G1 X107.393 Y92.607 E30.10980
G1 X104.082 Y92.607 E30.72411
G1 X109.500 Y90.500 F7800.000
G1 X109.500 Y109.500 E34.24995 F378.000
G1 X90.500 Y109.500 E37.77579
G1 X90.500 Y90.500 E41.30163
G1 X109.425 Y90.500 E44.81356
G1 X109.250 Y90.933 F7800.000
G1 F1800.000 E43.81356
G92 E0
G1 X92.933 Y97.680 F7800.000
G1 E1.00000 F1800.000
G1 X102.320 Y107.067 E3.46363 F1080.000
G1 X100.999 Y107.087 E3.70881
G1 X92.913 Y99.001 E5.83099
G1 X92.913 Y100.342 E6.07985
G1 X99.658 Y107.087 E7.85008
G1 X98.317 Y107.087 E8.09895
G1 X92.913 Y101.683 E9.51723
G1 X92.913 Y103.024 E9.76610
G1 X96.976 Y107.087 E10.83244
G1 X95.635 Y107.087 E11.08130
G1 X92.913 Y104.365 E11.79569
G1 X92.913 Y105.706 E12.04455
G1 X94.294 Y107.087 E12.40700
G1 X92.953 Y107.087 E12.65586
G1 X92.913 Y107.047 E12.66636
G1 F1800.000 E11.66636
G92 E0
G1 X91.000 Y97.000 F7800.000
G1 X88.000 Y96.000 F7800.000
G1 X90.000 Y88.000 F7800.000
G1 X95.000 Y91.000 F7800.000
G1 X102.467 Y98.320 F7800.000
G1 E1.00000 F1800.000
G1 X97.080 Y92.933 E2.41388 F1080.000
G1 X98.407 Y92.913 E2.66014
G1 X102.487 Y96.993 E3.73105
G1 X102.487 Y95.646 E3.98099
G1 X99.754 Y92.913 E4.69843
G1 X101.101 Y92.913 E4.94837
G1 X102.487 Y94.299 E5.31234
G1 X102.487 Y92.953 E5.56228
G1 X102.447 Y92.913 E5.57278
M106 S255
G1 F1800.000 E4.57278
G92 E0
G1 Z0.900 F7800.000
G1 X103.570 Y102.509 F7800.000
G1 E1.00000 F1800.000
G1 X103.570 Y93.250 E1.76992 F1271.980
G1 X106.750 Y93.250 E2.03434
G1 X106.750 Y106.750 E3.15686
G1 X104.009 Y106.750 E3.38475
G1 X93.250 Y95.991 E4.64997
G1 X93.250 Y92.189 E4.96605
G1 X103.517 Y102.456 E6.17337
G1 X104.070 Y103.716 F7800.000
G1 X104.070 Y93.750 E7.00208 F890.386
G1 X106.250 Y93.750 E7.18335
G1 X106.250 Y106.250 E8.22273
G1 X104.216 Y106.250 E8.39182
G1 X93.750 Y95.784 E9.62259
G1 X93.750 Y93.396 E9.82108
G1 X104.017 Y103.663 E11.02840
G1 X103.941 Y103.233 F7800.000
G1 F1800.000 E10.02840
G92 E0
G1 X107.250 Y107.250 F7800.000
G1 E1.00000 F1800.000
G1 X107.250 Y92.750 E2.20568 F1271.980
G1 X103.070 Y92.750 E2.55325
G1 X103.070 Y101.302 E3.26437
G1 X93.018 Y91.250 E4.44644
G1 X108.750 Y91.250 E5.75458
G1 X108.750 Y108.750 E7.20971
G1 X91.250 Y108.750 E8.66484
G1 X91.250 Y91.250 E10.11997
G1 X92.750 Y91.250 E10.24469
G1 X92.750 Y96.198 E10.65610
G1 X103.802 Y107.250 E11.95576
G1 X107.175 Y107.250 E12.23621
G1 X109.250 Y109.250 F7800.000
G1 X90.750 Y109.250 E13.77449 F1271.980
G1 X90.750 Y90.750 E15.31277
G1 X109.250 Y90.750 E16.85105
G1 X109.250 Y109.175 E18.38310
G1 X109.750 Y109.750 F7800.000
G1 X90.250 Y109.750 E20.00453 F890.386
G1 X90.250 Y90.250 E21.62596
G1 X109.750 Y90.250 E23.24739
G1 X109.750 Y109.675 E24.86259
G1 X109.317 Y109.500 F7800.000
G1 X108.403 Y108.363 F7800.000
G1 X108.363 Y108.403 E24.86747 F2543.960
G1 X107.618 Y108.403 E24.93187
G1 X108.403 Y107.618 E25.02782
G1 X108.403 Y106.873 E25.09222
G1 X106.873 Y108.403 E25.27924
G1 X106.128 Y108.403 E25.34363
G1 X106.934 Y107.597 E25.44216
G1 X106.189 Y107.597 E25.50655
G1 X105.382 Y108.403 E25.60508
G1 X104.637 Y108.403 E25.66947
G1 X105.443 Y107.597 E25.76800
G1 X104.698 Y107.597 E25.83239
G1 X103.892 Y108.403 E25.93092
G1 X103.147 Y108.403 E25.99532
G1 X103.953 Y107.597 E26.09384
G1 X103.433 Y107.372 E26.14280
G1 X102.402 Y108.403 E26.26886
G1 X101.657 Y108.403 E26.33326
G1 X103.061 Y106.999 E26.50485
G1 X102.688 Y106.626 E26.55038
G1 X100.911 Y108.403 E26.76751
G1 X100.166 Y108.403 E26.83190
G1 X102.316 Y106.254 E27.09456
G1 X101.943 Y105.881 E27.14009
G1 X99.421 Y108.403 E27.44828
G1 X98.676 Y108.403 E27.51268
G1 X101.570 Y105.509 E27.86640
G1 X101.198 Y105.136 E27.91193
G1 X97.931 Y108.403 E28.31119
G1 X97.186 Y108.403 E28.37558
G1 X100.825 Y104.764 E28.82038
G1 X100.453 Y104.391 E28.86591
G1 X96.440 Y108.403 E29.35623
G1 X95.695 Y108.403 E29.42063
G1 X100.080 Y104.018 E29.95648
G1 X99.707 Y103.646 E30.00202
G1 X94.950 Y108.403 E30.58341
G1 X94.205 Y108.403 E30.64780
G1 X99.335 Y103.273 E31.27473
G1 X98.962 Y102.901 E31.32026
G1 X93.460 Y108.403 E31.99272
G1 X92.715 Y108.403 E32.05711
G1 X98.590 Y102.528 E32.77510
G1 X98.217 Y102.155 E32.82064
G1 X91.969 Y108.403 E33.58416
G1 X91.597 Y108.031 E33.62970
G1 X97.845 Y101.783 E34.39322
G1 X97.472 Y101.410 E34.43875
G1 X91.597 Y107.285 E35.15674
G1 X91.597 Y106.540 E35.22114
G1 X97.099 Y101.038 E35.89360
G1 X96.727 Y100.665 E35.93913
G1 X91.597 Y105.795 E36.56605
G1 X91.597 Y105.050 E36.63045
G1 X96.354 Y100.293 E37.21184
G1 X95.982 Y99.920 E37.25737
G1 X91.597 Y104.305 E37.79323
G1 X91.597 Y103.560 E37.85762
G1 X95.609 Y99.547 E38.34795
G1 X95.236 Y99.175 E38.39348
G1 X91.597 Y102.814 E38.83827
G1 X91.597 Y102.069 E38.90267
G1 X94.864 Y98.802 E39.30192
G1 X94.491 Y98.430 E39.34746
G1 X91.597 Y101.324 E39.70118
G1 X91.597 Y100.579 E39.76558
G1 X94.119 Y98.057 E40.07377
G1 X93.746 Y97.684 E40.11930
G1 X91.597 Y99.834 E40.38196
G1 X91.597 Y99.089 E40.44635
G1 X93.374 Y97.312 E40.66348
G1 X93.001 Y96.939 E40.70901
G1 X91.597 Y98.343 E40.88060
G1 X91.597 Y97.598 E40.94499
G1 X92.628 Y96.567 E41.07105
G1 X92.403 Y96.047 E41.12001
G1 X91.597 Y96.853 E41.21854
G1 X91.597 Y96.108 E41.28294
G1 X92.403 Y95.302 E41.38146
G1 X92.403 Y94.557 E41.44586
G1 X91.597 Y95.363 E41.54438
G1 X91.597 Y94.618 E41.60878
G1 X92.403 Y93.811 E41.70730
G1 X92.403 Y93.066 E41.77170
G1 X91.597 Y93.872 E41.87022
G1 X91.597 Y93.127 E41.93462
G1 X92.403 Y92.321 E42.03314
G1 X92.382 Y91.597 E42.09575
G1 X91.597 Y92.382 E42.19170
G1 X91.597 Y91.637 E42.25609
G1 X91.637 Y91.597 E42.26098
G1 X93.864 Y91.605 F7800.000
G1 X94.236 Y91.978 E42.30652 F2543.960
G1 X94.618 Y91.597 E42.35310
G1 X95.363 Y91.597 E42.41749
G1 X94.609 Y92.351 E42.50960
G1 X94.982 Y92.723 E42.55514
G1 X96.108 Y91.597 E42.69279
G1 X96.853 Y91.597 E42.75718
G1 X95.354 Y93.096 E42.94036
G1 X95.727 Y93.468 E42.98589
G1 X97.598 Y91.597 E43.21461
G1 X98.343 Y91.597 E43.27900
G1 X96.099 Y93.841 E43.55325
G1 X96.472 Y94.214 E43.59878
G1 X99.089 Y91.597 E43.91856
G1 X99.834 Y91.597 E43.98296
G1 X96.844 Y94.586 E44.34827
G1 X97.217 Y94.959 E44.39380
G1 X100.579 Y91.597 E44.80465
G1 X101.324 Y91.597 E44.86905
G1 X97.590 Y95.331 E45.32543
G1 X97.962 Y95.704 E45.37096
G1 X102.069 Y91.597 E45.87287
G1 X102.814 Y91.597 E45.93727
G1 X98.335 Y96.076 E46.48472
G1 X98.707 Y96.449 E46.53025
G1 X103.560 Y91.597 E47.12323
G1 X104.305 Y91.597 E47.18762
G1 X103.498 Y92.403 E47.28615
G1 X104.244 Y92.403 E47.35054
G1 X105.050 Y91.597 E47.44907
G1 X105.795 Y91.597 E47.51346
G1 X104.989 Y92.403 E47.61199
G1 X105.734 Y92.403 E47.67638
G1 X106.540 Y91.597 E47.77491
G1 X107.285 Y91.597 E47.83931
G1 X106.479 Y92.403 E47.93783
G1 X107.224 Y92.403 E48.00223
G1 X108.031 Y91.597 E48.10075
G1 X108.403 Y91.969 E48.14629
G1 X107.597 Y92.776 E48.24481
G1 X107.597 Y93.521 E48.30921
G1 X108.403 Y92.715 E48.40773
G1 X108.403 Y93.460 E48.47213
G1 X107.597 Y94.266 E48.57065
G1 X107.597 Y95.011 E48.63505
G1 X108.403 Y94.205 E48.73357
G1 X108.403 Y94.950 E48.79797
G1 X107.597 Y95.756 E48.89649
G1 X107.597 Y96.502 E48.96089
G1 X108.403 Y95.695 E49.05941
G1 X108.403 Y96.440 E49.12381
G1 X107.597 Y97.247 E49.22233
G1 X107.597 Y97.992 E49.28673
G1 X108.403 Y97.186 E49.38525
G1 X108.403 Y97.931 E49.44965
G1 X107.597 Y98.737 E49.54817
G1 X107.597 Y99.482 E49.61257
G1 X108.403 Y98.676 E49.71109
G1 X108.403 Y99.421 E49.77549
G1 X107.597 Y100.227 E49.87401
G1 X107.597 Y100.972 E49.93841
G1 X108.403 Y100.166 E50.03693
G1 X108.403 Y100.911 E50.10133
G1 X107.597 Y101.718 E50.19986
G1 X107.597 Y102.463 E50.26425
G1 X108.403 Y101.657 E50.36278
G1 X108.403 Y102.402 E50.42717
G1 X107.597 Y103.208 E50.52570
G1 X107.597 Y103.953 E50.59009
G1 X108.403 Y103.147 E50.68862
G1 X108.403 Y103.892 E50.75301
G1 X107.597 Y104.698 E50.85154
G1 X107.597 Y105.443 E50.91593
G1 X108.403 Y104.637 E51.01446
G1 X108.403 Y105.382 E51.07885
G1 X107.597 Y106.189 E51.17738
G1 X107.597 Y106.934 E51.24177
G1 X108.403 Y106.128 E51.34030
G1 F1800.000 E50.34030
G92 E0
G1 X109.000 Y97.000 F7800.000
G1 X112.000 Y96.000 F7800.000
G1 X110.000 Y88.000 F7800.000
G1 X100.000 Y88.000 F7800.000
G1 X95.000 Y91.000 F7800.000
G1 X102.433 Y100.175 F7800.000
G1 E1.00000 F1800.000
G1 X102.723 Y99.885 E1.03543 F2543.960
G1 X102.061 Y99.802 E1.09312
G1 X102.723 Y99.140 E1.17408
G1 X102.723 Y98.395 E1.23848
G1 X101.688 Y99.430 E1.36497
G1 X101.315 Y99.057 E1.41051
G1 X102.723 Y97.649 E1.58254
G1 X102.723 Y96.904 E1.64693
G1 X100.943 Y98.685 E1.86449
G1 X100.570 Y98.312 E1.91003
G1 X102.723 Y96.159 E2.17312
G1 X102.723 Y95.414 E2.23751
G1 X100.198 Y97.939 E2.54614
G1 X99.825 Y97.567 E2.59168
G1 X102.723 Y94.669 E2.94584
G1 X102.723 Y93.924 E3.01023
G1 X99.453 Y97.194 E3.40993
G1 X99.080 Y96.822 E3.45546
G1 X102.723 Y93.178 E3.90069
G1 F1800.000 E2.90069
G92 E0
G1 Z1.300 F7800.000
G1 X102.610 Y101.549 F7800.000
G1 E1.00000 F1800.000
G1 X102.610 Y93.250 E1.69009 F1214.379
G1 X106.750 Y93.250 E2.03434
G1 X106.750 Y106.750 E3.15686
G1 X103.049 Y106.750 E3.46458
G1 X93.250 Y96.951 E4.61690
G1 X93.250 Y92.189 E5.01281
G1 X102.557 Y101.496 E6.10724
G1 X103.110 Y102.756 F7800.000
G1 X103.110 Y93.750 E6.85613 F850.065
G1 X106.250 Y93.750 E7.11722
G1 X106.250 Y106.250 E8.15660
G1 X103.256 Y106.250 E8.40551
G1 X93.750 Y96.744 E9.52340
G1 X93.750 Y93.396 E9.80171
G1 X103.057 Y102.703 E10.89614
G1 X102.981 Y102.273 F7800.000
G1 F1800.000 E9.89614
G92 E0
G1 X107.250 Y107.250 F7800.000
G1 E1.00000 F1800.000
G1 X107.250 Y92.750 E2.20568 F1214.379
G1 X102.110 Y92.750 E2.63307
G1 X102.110 Y100.342 E3.26437
G1 X93.018 Y91.250 E4.33355
G1 X108.750 Y91.250 E5.64169
G1 X108.750 Y108.750 E7.09682
G1 X91.250 Y108.750 E8.55195
G1 X91.250 Y91.250 E10.00708
G1 X92.750 Y91.250 E10.13181
G1 X92.750 Y97.158 E10.62304
G1 X102.842 Y107.250 E11.80981
G1 X107.175 Y107.250 E12.17008
G1 X109.250 Y109.250 F7800.000
G1 X90.750 Y109.250 E13.70836 F1214.379
G1 X90.750 Y90.750 E15.24664
G1 X109.250 Y90.750 E16.78492
G1 X109.250 Y109.175 E18.31697
G1 X109.750 Y109.750 F7800.000
G1 X90.250 Y109.750 E19.93840 F850.065
G1 X90.250 Y90.250 E21.55983
G1 X109.750 Y90.250 E23.18126
G1 X109.750 Y109.675 E24.79646
G1 X109.317 Y109.500 F7800.000
G1 X106.934 Y92.403 F7800.000
G1 X106.128 Y91.597 E24.89498 F2428.758
G1 X105.382 Y91.597 E24.95938
G1 X106.189 Y92.403 E25.05790
G1 X105.443 Y92.403 E25.12230
G1 X104.637 Y91.597 E25.22083
G1 X103.892 Y91.597 E25.28522
G1 X104.698 Y92.403 E25.38375
G1 X103.953 Y92.403 E25.44814
G1 X103.147 Y91.597 E25.54667
G1 X102.402 Y91.597 E25.61106
G1 X103.208 Y92.403 E25.70959
G1 X102.463 Y92.403 E25.77398
G1 X101.657 Y91.597 E25.87251
G1 X100.911 Y91.597 E25.93690
G1 X101.763 Y92.449 E26.04098
G1 X101.763 Y93.194 E26.10537
G1 X100.166 Y91.597 E26.30052
G1 X99.421 Y91.597 E26.36492
G1 X101.763 Y93.939 E26.65113
G1 X101.763 Y94.684 E26.71552
G1 X98.676 Y91.597 E27.09281
G1 X97.931 Y91.597 E27.15720
G1 X101.763 Y95.429 E27.62555
G1 X101.763 Y96.174 E27.68994
G1 X97.186 Y91.597 E28.24936
G1 X96.440 Y91.597 E28.31375
G1 X101.763 Y96.920 E28.96423
G1 X101.763 Y97.665 E29.02863
G1 X95.695 Y91.597 E29.77017
G1 X94.950 Y91.597 E29.83457
G1 X101.763 Y98.410 E30.66718
G1 X101.763 Y99.155 E30.73158
G1 X94.205 Y91.597 E31.65526
G1 X92.403 Y92.031 F7800.000
G1 X91.969 Y91.597 E31.70825 F2428.758
G1 X91.597 Y91.969 E31.75379
G1 X92.403 Y92.776 E31.85231
G1 X92.403 Y93.521 E31.91671
G1 X91.597 Y92.715 E32.01523
G1 X91.597 Y93.460 E32.07963
G1 X92.403 Y94.266 E32.17815
G1 X92.403 Y95.011 E32.24255
G1 X91.597 Y94.205 E32.34107
G1 X91.597 Y94.950 E32.40547
G1 X92.403 Y95.756 E32.50399
G1 X92.403 Y96.502 E32.56839
G1 X91.597 Y95.695 E32.66691
G1 X91.597 Y96.440 E32.73131
G1 X92.403 Y97.247 E32.82983
G1 X91.637 Y108.403 F7800.000
G1 X91.597 Y108.363 E32.83472 F2428.758
G1 X91.597 Y107.618 E32.89912
G1 X92.382 Y108.403 E32.99507
G1 X93.127 Y108.403 E33.05947
G1 X91.597 Y106.873 E33.24649
G1 X91.597 Y106.128 E33.31088
G1 X93.872 Y108.403 E33.58897
G1 X94.618 Y108.403 E33.65336
G1 X91.597 Y105.382 E34.02252
G1 X91.597 Y104.637 E34.08691
G1 X95.363 Y108.403 E34.54713
G1 X96.108 Y108.403 E34.61153
G1 X91.597 Y103.892 E35.16282
G1 X91.597 Y103.147 E35.22721
G1 X96.853 Y108.403 E35.86957
G1 X97.598 Y108.403 E35.93396
G1 X91.597 Y102.402 E36.66738
G1 X91.597 Y101.657 E36.73178
G1 X98.343 Y108.403 E37.55626
G1 X99.089 Y108.403 E37.62066
G1 X91.597 Y100.911 E38.53621
G1 X91.597 Y100.166 E38.60061
G1 X99.834 Y108.403 E39.60723
G1 X100.579 Y108.403 E39.67162
G1 X91.597 Y99.421 E40.76931
G1 X91.597 Y98.676 E40.83371
G1 X101.324 Y108.403 E42.02246
G1 X102.069 Y108.403 E42.08686
G1 X91.597 Y97.931 E43.36668
G1 X91.597 Y97.186 E43.43107
G1 X102.814 Y108.403 E44.80196
G1 X102.753 Y107.597 E44.87183
G1 X103.560 Y108.403 E44.97036
G1 X104.305 Y108.403 E45.03475
G1 X103.498 Y107.597 E45.13328
G1 X104.244 Y107.597 E45.19767
G1 X105.050 Y108.403 E45.29620
G1 X105.795 Y108.403 E45.36059
G1 X104.989 Y107.597 E45.45912
G1 X105.734 Y107.597 E45.52351
G1 X106.540 Y108.403 E45.62204
G1 X107.285 Y108.403 E45.68643
G1 X106.479 Y107.597 E45.78496
G1 X107.224 Y107.597 E45.84935
G1 X108.031 Y108.403 E45.94788
G1 X108.403 Y108.031 E45.99341
G1 X107.597 Y107.224 E46.09194
G1 X107.597 Y106.479 E46.15633
G1 X108.403 Y107.285 E46.25486
G1 X108.403 Y106.540 E46.31925
G1 X107.597 Y105.734 E46.41778
G1 X107.597 Y104.989 E46.48217
G1 X108.403 Y105.795 E46.58070
G1 X108.403 Y105.050 E46.64509
G1 X107.597 Y104.244 E46.74362
G1 X107.597 Y103.498 E46.80801
G1 X108.403 Y104.305 E46.90654
G1 X108.403 Y103.560 E46.97093
G1 X107.597 Y102.753 E47.06946
G1 X107.597 Y102.008 E47.13386
G1 X108.403 Y102.814 E47.23238
G1 X108.403 Y102.069 E47.29678
G1 X107.597 Y101.263 E47.39530
G1 X107.597 Y100.518 E47.45970
G1 X108.403 Y101.324 E47.55822
G1 X108.403 Y100.579 E47.62262
G1 X107.597 Y99.773 E47.72114
G1 X107.597 Y99.028 E47.78554
