; generated by Slic3r 1.1.7 on 2015-06-09 at 11:11:56

; perimeters extrusion width = 0.50mm
; infill extrusion width = 0.52mm
; solid infill extrusion width = 0.52mm
; top infill extrusion width = 0.52mm

G21 ; set units to millimeters
M107
M104 S50 ; set temperature
G28 ; home all axes
G1 Z5 F5000 ; lift nozzle

M109 S50 ; wait for temperature to be reached
G90 ; use absolute coordinates
G92 E0
M82 ; use absolute distances for extrusion
G1 F1800.000 E-1.00000
G92 E0
G1 Z0.500 F7800.000
G1 X16.893 Y0.000 F7800.000
G1 E1.00000 F1800.000
G1 X16.893 Y10.000 E2.85571 F1080.000
G1 X16.496 Y12.306 E3.28988
G1 X15.350 Y14.346 E3.72406
G1 X13.588 Y15.885 E4.15824
G1 X11.413 Y16.746 E4.59242
G1 X10.000 Y16.893 E4.85597
G1 X-10.000 Y16.893 E8.56738
G1 X-12.306 Y16.496 E9.00156
G1 X-14.346 Y15.350 E9.43573
G1 X-15.885 Y13.588 E9.86991
G1 X-16.746 Y11.413 E10.30409
G1 X-16.893 Y10.000 E10.56764
G1 X-16.893 Y-10.000 E14.27905
G1 X-16.496 Y-12.306 E14.71323
G1 X-15.350 Y-14.346 E15.14741
G1 X-13.588 Y-15.885 E15.58159
G1 X-11.413 Y-16.746 E16.01576
G1 X-10.000 Y-16.893 E16.27931
G1 X10.000 Y-16.893 E19.99072
G1 X12.306 Y-16.496 E20.42490
G1 X14.346 Y-15.350 E20.85908 F1080.000
G1 X15.885 Y-13.588 E21.29326
G1 X16.746 Y-11.413 E21.72744
G1 X16.893 Y-10.000 E21.99099
G1 X16.893 Y-0.075 E23.83277
G1 F1800.000 E22.83277
G92 E0
G1 X4.900 Y4.193 F7800.000
G1 E1.00000 F1800.000
G1 X4.900 Y-6.500 E2.98429 F378.000
G1 X6.500 Y-6.500 E3.28120
G1 X6.500 Y6.500 E5.69362
G1 X5.193 Y6.500 E5.93618
G1 X-6.500 Y-5.193 E9.00482
G1 X-6.500 Y-7.207 E9.37860
G1 X4.847 Y4.140 E12.35645
G1 X4.771 Y3.710 F7800.000
G1 F1800.000 E11.35645
G92 E0
G1 X3.883 Y7.715 F7800.000
G1 E1.00000 F1800.000
G1 X-7.715 Y7.715 E3.15209 F540.000
G1 X-7.715 Y-3.883 E5.30418
G1 X3.830 Y7.662 E8.33378
G1 F1800.000 E7.33378
G92 E0
G1 X9.000 Y7.000 F7800.000
G1 X12.000 Y6.000 F7800.000
G1 X10.000 Y-12.000 F7800.000
G1 X5.000 Y-9.000 F7800.000
G1 X1.254 Y-0.161 F7800.000
G1 X3.115 Y-0.117 F7800.000
G1 E1.00000 F1800.000
G1 X-4.483 Y-7.715 E2.99377 F540.000
G1 X3.115 Y-7.715 E4.40358
G1 X3.115 Y-0.192 E5.79947
G1 X4.007 Y-7.393 F7800.000
G1 X4.007 Y2.038 E7.54948 F540.000
G1 X-6.638 Y-8.607 E10.34313
G1 X8.607 Y-8.607 E13.17215
G1 X8.607 Y8.607 E16.36668
G1 X-8.607 Y8.607 E19.56120
G1 X-8.607 Y-8.607 E22.75572
G1 X-7.393 Y-8.607 E22.98112
G1 X-7.393 Y-4.823 E23.68335
G1 X4.823 Y7.393 E26.88923
G1 X7.393 Y7.393 E27.36606
G1 X7.393 Y-7.393 E30.10980
G1 X4.082 Y-7.393 E30.72411
G1 X9.500 Y-9.500 F7800.000
G1 X9.500 Y9.500 E34.24995 F378.000
G1 X-9.500 Y9.500 E37.77579
G1 X-9.500 Y-9.500 E41.30163
G1 X9.425 Y-9.500 E44.81356
G1 X9.250 Y-9.067 F7800.000
G1 F1800.000 E43.81356
G92 E0
G1 X-7.067 Y-2.320 F7800.000
G1 E1.00000 F1800.000
G1 X2.320 Y7.067 E3.46363 F1080.000
G1 X0.999 Y7.087 E3.70881
G1 X-7.087 Y-0.999 E5.83099
G1 X-7.087 Y0.342 E6.07985
G1 X-0.342 Y7.087 E7.85008
G1 X-1.683 Y7.087 E8.09895
G1 X-7.087 Y1.683 E9.51723
G1 X-7.087 Y3.024 E9.76610
G1 X-3.024 Y7.087 E10.83244
G1 X-4.365 Y7.087 E11.08130
G1 X-7.087 Y4.365 E11.79569
G1 X-7.087 Y5.706 E12.04455
G1 X-5.706 Y7.087 E12.40700
G1 X-7.047 Y7.087 E12.65586
G1 X-7.087 Y7.047 E12.66636
G1 F1800.000 E11.66636
G92 E0
G1 X-9.000 Y-3.000 F7800.000
G1 X-12.000 Y-4.000 F7800.000
G1 X-10.000 Y-12.000 F7800.000
G1 X-5.000 Y-9.000 F7800.000
G1 X2.467 Y-1.680 F7800.000
G1 E1.00000 F1800.000
G1 X-2.920 Y-7.067 E2.41388 F1080.000
G1 X-1.593 Y-7.087 E2.66014
G1 X2.487 Y-3.007 E3.73105
G1 X2.487 Y-4.354 E3.98099
G1 X-0.246 Y-7.087 E4.69843
G1 X1.101 Y-7.087 E4.94837
G1 X2.487 Y-5.701 E5.31234
G1 X2.487 Y-7.047 E5.56228
G1 X2.447 Y-7.087 E5.57278
M106 S255
G1 F1800.000 E4.57278
G92 E0
G1 Z0.900 F7800.000
G1 X3.570 Y2.509 F7800.000
G1 E1.00000 F1800.000
G1 X3.570 Y-6.750 E1.76992 F1271.980
G1 X6.750 Y-6.750 E2.03434
G1 X6.750 Y6.750 E3.15686
G1 X4.009 Y6.750 E3.38475
G1 X-6.750 Y-4.009 E4.64997
G1 X-6.750 Y-7.811 E4.96605
G1 X3.517 Y2.456 E6.17337
G1 X4.070 Y3.716 F7800.000
G1 X4.070 Y-6.250 E7.00208 F890.386
G1 X6.250 Y-6.250 E7.18335
G1 X6.250 Y6.250 E8.22273
G1 X4.216 Y6.250 E8.39182
G1 X-6.250 Y-4.216 E9.62259
G1 X-6.250 Y-6.604 E9.82108
G1 X4.017 Y3.663 E11.02840
G1 X3.941 Y3.233 F7800.000
G1 F1800.000 E10.02840
G92 E0
G1 X7.250 Y7.250 F7800.000
G1 E1.00000 F1800.000
G1 X7.250 Y-7.250 E2.20568 F1271.980
G1 X3.070 Y-7.250 E2.55325
G1 X3.070 Y1.302 E3.26437
G1 X-6.982 Y-8.750 E4.44643
G1 X8.750 Y-8.750 E5.75458
G1 X8.750 Y8.750 E7.20971
G1 X-8.750 Y8.750 E8.66484
G1 X-8.750 Y-8.750 E10.11997
G1 X-7.250 Y-8.750 E10.24469
G1 X-7.250 Y-3.802 E10.65610
G1 X3.802 Y7.250 E11.95576
G1 X7.175 Y7.250 E12.23621
G1 X9.250 Y9.250 F7800.000
G1 X-9.250 Y9.250 E13.77449 F1271.980
G1 X-9.250 Y-9.250 E15.31277
G1 X9.250 Y-9.250 E16.85105
G1 X9.250 Y9.175 E18.38310
G1 X9.750 Y9.750 F7800.000
G1 X-9.750 Y9.750 E20.00453 F890.386
G1 X-9.750 Y-9.750 E21.62596
G1 X9.750 Y-9.750 E23.24739
G1 X9.750 Y9.675 E24.86259
G1 X9.317 Y9.500 F7800.000
G1 X8.403 Y8.363 F7800.000
G1 X8.363 Y8.403 E24.86747 F2543.960
G1 X7.618 Y8.403 E24.93187
G1 X8.403 Y7.618 E25.02782
G1 X8.403 Y6.873 E25.09222
G1 X6.873 Y8.403 E25.27924
G1 X6.128 Y8.403 E25.34363
G1 X6.934 Y7.597 E25.44216
G1 X6.189 Y7.597 E25.50655
G1 X5.382 Y8.403 E25.60508
G1 X4.637 Y8.403 E25.66947
G1 X5.443 Y7.597 E25.76800
G1 X4.698 Y7.597 E25.83239
G1 X3.892 Y8.403 E25.93092
G1 X3.147 Y8.403 E25.99531
G1 X3.953 Y7.597 E26.09384
G1 X3.433 Y7.372 E26.14280
G1 X2.402 Y8.403 E26.26886
G1 X1.657 Y8.403 E26.33325
G1 X3.061 Y6.999 E26.50485
G1 X2.688 Y6.626 E26.55038
G1 X0.911 Y8.403 E26.76750
G1 X0.166 Y8.403 E26.83190
G1 X2.316 Y6.254 E27.09455
G1 X1.943 Y5.881 E27.14009
G1 X-0.579 Y8.403 E27.44828
G1 X-1.324 Y8.403 E27.51267
G1 X1.570 Y5.509 E27.86640
G1 X1.198 Y5.136 E27.91193
G1 X-2.069 Y8.403 E28.31119
G1 X-2.814 Y8.403 E28.37558
G1 X0.825 Y4.764 E28.82037
G1 X0.453 Y4.391 E28.86591
G1 X-3.560 Y8.403 E29.35623
G1 X-4.305 Y8.403 E29.42062
G1 X0.080 Y4.018 E29.95648
G1 X-0.293 Y3.646 E30.00202
G1 X-5.050 Y8.403 E30.58341
G1 X-5.795 Y8.403 E30.64780
G1 X-0.665 Y3.273 E31.27473
G1 X-1.038 Y2.901 E31.32026
G1 X-6.540 Y8.403 E31.99272
G1 X-7.285 Y8.403 E32.05711
G1 X-1.410 Y2.528 E32.77510
G1 X-1.783 Y2.155 E32.82063
G1 X-8.031 Y8.403 E33.58416
G1 X-8.403 Y8.031 E33.62969
G1 X-2.155 Y1.783 E34.39322
G1 X-2.528 Y1.410 E34.43875
G1 X-8.403 Y7.285 E35.15674
G1 X-8.403 Y6.540 E35.22114
G1 X-2.901 Y1.038 E35.89359
G1 X-3.273 Y0.665 E35.93913
G1 X-8.403 Y5.795 E36.56605
G1 X-8.403 Y5.050 E36.63045
G1 X-3.646 Y0.293 E37.21184
G1 X-4.018 Y-0.080 E37.25737
G1 X-8.403 Y4.305 E37.79323
G1 X-8.403 Y3.560 E37.85762
G1 X-4.391 Y-0.453 E38.34795
G1 X-4.764 Y-0.825 E38.39348
G1 X-8.403 Y2.814 E38.83827
G1 X-8.403 Y2.069 E38.90266
G1 X-5.136 Y-1.198 E39.30192
G1 X-5.509 Y-1.570 E39.34746
G1 X-8.403 Y1.324 E39.70118
G1 X-8.403 Y0.579 E39.76557
G1 X-5.881 Y-1.943 E40.07377
G1 X-6.254 Y-2.316 E40.11930
G1 X-8.403 Y-0.166 E40.38196
G1 X-8.403 Y-0.911 E40.44635
G1 X-6.626 Y-2.688 E40.66347
G1 X-6.999 Y-3.061 E40.70901
G1 X-8.403 Y-1.657 E40.88060
G1 X-8.403 Y-2.402 E40.94499
G1 X-7.372 Y-3.433 E41.07105
G1 X-7.597 Y-3.953 E41.12001
G1 X-8.403 Y-3.147 E41.21854
G1 X-8.403 Y-3.892 E41.28293
G1 X-7.597 Y-4.698 E41.38146
G1 X-7.597 Y-5.443 E41.44585
G1 X-8.403 Y-4.637 E41.54438
G1 X-8.403 Y-5.382 E41.60877
G1 X-7.597 Y-6.189 E41.70730
G1 X-7.597 Y-6.934 E41.77169
G1 X-8.403 Y-6.128 E41.87022
G1 X-8.403 Y-6.873 E41.93462
G1 X-7.597 Y-7.679 E42.03314
G1 X-7.618 Y-8.403 E42.09574
G1 X-8.403 Y-7.618 E42.19170
G1 X-8.403 Y-8.363 E42.25609
G1 X-8.363 Y-8.403 E42.26098
G1 X-6.136 Y-8.395 F7800.000
G1 X-5.764 Y-8.022 E42.30651 F2543.960
G1 X-5.382 Y-8.403 E42.35310
G1 X-4.637 Y-8.403 E42.41749
G1 X-5.391 Y-7.649 E42.50960
G1 X-5.018 Y-7.277 E42.55514
G1 X-3.892 Y-8.403 E42.69278
G1 X-3.147 Y-8.403 E42.75718
G1 X-4.646 Y-6.904 E42.94036
G1 X-4.273 Y-6.532 E42.98589
G1 X-2.402 Y-8.403 E43.21461
G1 X-1.657 Y-8.403 E43.27900
G1 X-3.901 Y-6.159 E43.55325
G1 X-3.528 Y-5.786 E43.59878
G1 X-0.911 Y-8.403 E43.91856
G1 X-0.166 Y-8.403 E43.98296
G1 X-3.156 Y-5.414 E44.34827
G1 X-2.783 Y-5.041 E44.39380
G1 X0.579 Y-8.403 E44.80465
G1 X1.324 Y-8.403 E44.86904
G1 X-2.410 Y-4.669 E45.32542
G1 X-2.038 Y-4.296 E45.37096
G1 X2.069 Y-8.403 E45.87287
G1 X2.814 Y-8.403 E45.93727
G1 X-1.665 Y-3.924 E46.48471
G1 X-1.293 Y-3.551 E46.53025
G1 X3.560 Y-8.403 E47.12323
G1 X4.305 Y-8.403 E47.18762
G1 X3.498 Y-7.597 E47.28615
G1 X4.244 Y-7.597 E47.35054
G1 X5.050 Y-8.403 E47.44907
G1 X5.795 Y-8.403 E47.51346
G1 X4.989 Y-7.597 E47.61199
G1 X5.734 Y-7.597 E47.67638
G1 X6.540 Y-8.403 E47.77491
G1 X7.285 Y-8.403 E47.83930
G1 X6.479 Y-7.597 E47.93783
G1 X7.224 Y-7.597 E48.00222
G1 X8.031 Y-8.403 E48.10075
G1 X8.403 Y-8.031 E48.14628
G1 X7.597 Y-7.224 E48.24481
G1 X7.597 Y-6.479 E48.30920
G1 X8.403 Y-7.285 E48.40773
G1 X8.403 Y-6.540 E48.47212
G1 X7.597 Y-5.734 E48.57065
G1 X7.597 Y-4.989 E48.63504
G1 X8.403 Y-5.795 E48.73357
G1 X8.403 Y-5.050 E48.79796
G1 X7.597 Y-4.244 E48.89649
G1 X7.597 Y-3.498 E48.96088
G1 X8.403 Y-4.305 E49.05941
G1 X8.403 Y-3.560 E49.12381
G1 X7.597 Y-2.753 E49.22233
G1 X7.597 Y-2.008 E49.28673
G1 X8.403 Y-2.814 E49.38525
G1 X8.403 Y-2.069 E49.44965
G1 X7.597 Y-1.263 E49.54817
G1 X7.597 Y-0.518 E49.61257
G1 X8.403 Y-1.324 E49.71109
G1 X8.403 Y-0.579 E49.77549
G1 X7.597 Y0.227 E49.87401
G1 X7.597 Y0.972 E49.93841
G1 X8.403 Y0.166 E50.03693
G1 X8.403 Y0.911 E50.10133
G1 X7.597 Y1.718 E50.19985
G1 X7.597 Y2.463 E50.26425
G1 X8.403 Y1.657 E50.36277
G1 X8.403 Y2.402 E50.42717
G1 X7.597 Y3.208 E50.52569
G1 X7.597 Y3.953 E50.59009
G1 X8.403 Y3.147 E50.68861
G1 X8.403 Y3.892 E50.75301
G1 X7.597 Y4.698 E50.85154
G1 X7.597 Y5.443 E50.91593
G1 X8.403 Y4.637 E51.01446
G1 X8.403 Y5.382 E51.07885
G1 X7.597 Y6.189 E51.17738
G1 X7.597 Y6.934 E51.24177
G1 X8.403 Y6.128 E51.34030
G1 F1800.000 E50.34030
G92 E0
G1 X9.000 Y-3.000 F7800.000
G1 X12.000 Y-4.000 F7800.000
G1 X10.000 Y-12.000 F7800.000
G1 X-0.000 Y-12.000 F7800.000
G1 X-5.000 Y-9.000 F7800.000
G1 X2.433 Y0.175 F7800.000
G1 E1.00000 F1800.000
G1 X2.723 Y-0.115 E1.03543 F2543.960
G1 X2.061 Y-0.198 E1.09312
G1 X2.723 Y-0.860 E1.17408
G1 X2.723 Y-1.605 E1.23848
G1 X1.688 Y-0.570 E1.36497
G1 X1.315 Y-0.943 E1.41051
G1 X2.723 Y-2.351 E1.58253
G1 X2.723 Y-3.096 E1.64693
G1 X0.943 Y-1.315 E1.86449
G1 X0.570 Y-1.688 E1.91002
G1 X2.723 Y-3.841 E2.17312
G1 X2.723 Y-4.586 E2.23751
G1 X0.198 Y-2.061 E2.54614
G1 X-0.175 Y-2.433 E2.59167
G1 X2.723 Y-5.331 E2.94583
G1 X2.723 Y-6.076 E3.01023
G1 X-0.547 Y-2.806 E3.40992
G1 X-0.920 Y-3.178 E3.45546
G1 X2.723 Y-6.822 E3.90068
G1 F1800.000 E2.90068
G92 E0
G1 Z1.300 F7800.000
G1 X2.610 Y1.549 F7800.000
G1 E1.00000 F1800.000
G1 X2.610 Y-6.750 E1.69009 F1214.379
G1 X6.750 Y-6.750 E2.03434
G1 X6.750 Y6.750 E3.15686
G1 X3.049 Y6.750 E3.46458
G1 X-6.750 Y-3.049 E4.61690
G1 X-6.750 Y-7.811 E5.01281
G1 X2.557 Y1.496 E6.10724
G1 X3.110 Y2.756 F7800.000
G1 X3.110 Y-6.250 E6.85613 F850.065
G1 X6.250 Y-6.250 E7.11722
G1 X6.250 Y6.250 E8.15660
G1 X3.256 Y6.250 E8.40551
G1 X-6.250 Y-3.256 E9.52340
G1 X-6.250 Y-6.604 E9.80171
G1 X3.057 Y2.703 E10.89614
G1 X2.981 Y2.273 F7800.000
G1 F1800.000 E9.89614
G92 E0
G1 X7.250 Y7.250 F7800.000
G1 E1.00000 F1800.000
G1 X7.250 Y-7.250 E2.20568 F1214.379
G1 X2.110 Y-7.250 E2.63307
G1 X2.110 Y0.342 E3.26437
G1 X-6.982 Y-8.750 E4.33355
G1 X8.750 Y-8.750 E5.64169
G1 X8.750 Y8.750 E7.09682
G1 X-8.750 Y8.750 E8.55195
G1 X-8.750 Y-8.750 E10.00708
G1 X-7.250 Y-8.750 E10.13180
G1 X-7.250 Y-2.842 E10.62304
G1 X2.842 Y7.250 E11.80981
G1 X7.175 Y7.250 E12.17008
G1 X9.250 Y9.250 F7800.000
G1 X-9.250 Y9.250 E13.70836 F1214.379
G1 X-9.250 Y-9.250 E15.24664
G1 X9.250 Y-9.250 E16.78492
G1 X9.250 Y9.175 E18.31697
G1 X9.750 Y9.750 F7800.000
G1 X-9.750 Y9.750 E19.93840 F850.065
G1 X-9.750 Y-9.750 E21.55983
G1 X9.750 Y-9.750 E23.18126
G1 X9.750 Y9.675 E24.79646
G1 X9.317 Y9.500 F7800.000
G1 X6.934 Y-7.597 F7800.000
G1 X6.128 Y-8.403 E24.89498 F2428.758
G1 X5.382 Y-8.403 E24.95938
G1 X6.189 Y-7.597 E25.05790
G1 X5.443 Y-7.597 E25.12230
G1 X4.637 Y-8.403 E25.22082
G1 X3.892 Y-8.403 E25.28522
G1 X4.698 Y-7.597 E25.38374
G1 X3.953 Y-7.597 E25.44814
G1 X3.147 Y-8.403 E25.54666
G1 X2.402 Y-8.403 E25.61106
G1 X3.208 Y-7.597 E25.70959
G1 X2.463 Y-7.597 E25.77398
G1 X1.657 Y-8.403 E25.87251
G1 X0.911 Y-8.403 E25.93690
G1 X1.763 Y-7.551 E26.04098
G1 X1.763 Y-6.806 E26.10537
G1 X0.166 Y-8.403 E26.30052
G1 X-0.579 Y-8.403 E26.36491
G1 X1.763 Y-6.061 E26.65113
G1 X1.763 Y-5.316 E26.71552
G1 X-1.324 Y-8.403 E27.09280
G1 X-2.069 Y-8.403 E27.15720
G1 X1.763 Y-4.571 E27.62555
G1 X1.763 Y-3.826 E27.68994
G1 X-2.814 Y-8.403 E28.24935
G1 X-3.560 Y-8.403 E28.31375
G1 X1.763 Y-3.080 E28.96423
G1 X1.763 Y-2.335 E29.02862
G1 X-4.305 Y-8.403 E29.77017
G1 X-5.050 Y-8.403 E29.83457
G1 X1.763 Y-1.590 E30.66718
G1 X1.763 Y-0.845 E30.73157
G1 X-5.795 Y-8.403 E31.65526
G1 X-7.597 Y-7.969 F7800.000
G1 X-8.031 Y-8.403 E31.70825 F2428.758
G1 X-8.403 Y-8.031 E31.75378
G1 X-7.597 Y-7.224 E31.85231
G1 X-7.597 Y-6.479 E31.91670
G1 X-8.403 Y-7.285 E32.01523
G1 X-8.403 Y-6.540 E32.07962
G1 X-7.597 Y-5.734 E32.17815
G1 X-7.597 Y-4.989 E32.24254
G1 X-8.403 Y-5.795 E32.34107
G1 X-8.403 Y-5.050 E32.40546
G1 X-7.597 Y-4.244 E32.50399
G1 X-7.597 Y-3.498 E32.56838
G1 X-8.403 Y-4.305 E32.66691
G1 X-8.403 Y-3.560 E32.73130
G1 X-7.597 Y-2.753 E32.82983
G1 X-8.363 Y8.403 F7800.000
G1 X-8.403 Y8.363 E32.83472 F2428.758
G1 X-8.403 Y7.618 E32.89911
G1 X-7.618 Y8.403 E32.99507
G1 X-6.873 Y8.403 E33.05946
G1 X-8.403 Y6.873 E33.24648
G1 X-8.403 Y6.128 E33.31088
G1 X-6.128 Y8.403 E33.58897
G1 X-5.382 Y8.403 E33.65336
G1 X-8.403 Y5.382 E34.02252
G1 X-8.403 Y4.637 E34.08691
G1 X-4.637 Y8.403 E34.54713
G1 X-3.892 Y8.403 E34.61152
G1 X-8.403 Y3.892 E35.16281
G1 X-8.403 Y3.147 E35.22721
G1 X-3.147 Y8.403 E35.86956
G1 X-2.402 Y8.403 E35.93396
G1 X-8.403 Y2.402 E36.66738
G1 X-8.403 Y1.657 E36.73177
G1 X-1.657 Y8.403 E37.55626
G1 X-0.911 Y8.403 E37.62066
G1 X-8.403 Y0.911 E38.53621
G1 X-8.403 Y0.166 E38.60060
G1 X-0.166 Y8.403 E39.60723
G1 X0.579 Y8.403 E39.67162
G1 X-8.403 Y-0.579 E40.76931
G1 X-8.403 Y-1.324 E40.83370
G1 X1.324 Y8.403 E42.02246
G1 X2.069 Y8.403 E42.08685
G1 X-8.403 Y-2.069 E43.36667
G1 X-8.403 Y-2.814 E43.43107
G1 X2.814 Y8.403 E44.80196
G1 X2.753 Y7.597 E44.87183
G1 X3.560 Y8.403 E44.97035
G1 X4.305 Y8.403 E45.03475
G1 X3.498 Y7.597 E45.13327
G1 X4.244 Y7.597 E45.19767
G1 X5.050 Y8.403 E45.29619
G1 X5.795 Y8.403 E45.36059
G1 X4.989 Y7.597 E45.45911
G1 X5.734 Y7.597 E45.52351
G1 X6.540 Y8.403 E45.62203
G1 X7.285 Y8.403 E45.68643
G1 X6.479 Y7.597 E45.78495
G1 X7.224 Y7.597 E45.84935
G1 X8.031 Y8.403 E45.94787
G1 X8.403 Y8.031 E45.99341
G1 X7.597 Y7.224 E46.09193
G1 X7.597 Y6.479 E46.15633
G1 X8.403 Y7.285 E46.25486
G1 X8.403 Y6.540 E46.31925
G1 X7.597 Y5.734 E46.41778
G1 X7.597 Y4.989 E46.48217
G1 X8.403 Y5.795 E46.58070
G1 X8.403 Y5.050 E46.64509
G1 X7.597 Y4.244 E46.74362
G1 X7.597 Y3.498 E46.80801
G1 X8.403 Y4.305 E46.90654
G1 X8.403 Y3.560 E46.97093
G1 X7.597 Y2.753 E47.06946
G1 X7.597 Y2.008 E47.13385
G1 X8.403 Y2.814 E47.23238
G1 X8.403 Y2.069 E47.29677
G1 X7.597 Y1.263 E47.39530
G1 X7.597 Y0.518 E47.45969
G1 X8.403 Y1.324 E47.55822
G1 X8.403 Y0.579 E47.62261
G1 X7.597 Y-0.227 E47.72114
G1 X7.597 Y-0.972 E47.78553
G1 X8.403 Y-0.166 E47.88406
G1 X8.403 Y-0.911 E47.94845
G1 X7.597 Y-1.718 E48.04698
G1 X7.597 Y-2.463 E48.11137
G1 X8.403 Y-1.657 E48.20990
G1 X8.403 Y-2.402 E48.27429
G1 X7.597 Y-3.208 E48.37282
G1 X7.597 Y-3.953 E48.43721
G1 X8.403 Y-3.147 E48.53574
G1 X8.403 Y-3.892 E48.60013
G1 X7.597 Y-4.698 E48.69866
G1 X7.597 Y-5.443 E48.76305
G1 X8.403 Y-4.637 E48.86158
G1 X8.403 Y-5.382 E48.92597
G1 X7.597 Y-6.189 E49.02450
G1 X7.597 Y-6.934 E49.08889
G1 X8.403 Y-6.128 E49.18742
G1 X8.403 Y-6.873 E49.25181
G1 X6.873 Y-8.403 E49.43884
G1 X7.618 Y-8.403 E49.50323
G1 X8.403 Y-7.618 E49.59919
G1 X8.403 Y-8.363 E49.66358
G1 X8.363 Y-8.403 E49.66847
G1 F1800.000 E48.66847
G92 E0
G1 Z1.700 F7800.000
G1 X1.650 Y0.589 F7800.000
G1 E1.00000 F1800.000
G1 X1.650 Y-6.750 E1.61027 F1083.079
G1 X6.750 Y-6.750 E2.03434
G1 X6.750 Y6.750 E3.15686
G1 X2.089 Y6.750 E3.54440
G1 X-6.750 Y-2.089 E4.58384
