; generated by Slic3r 1.2.9 on 2015-08-27 at 16:33:49

; external perimeters extrusion width = 0.50mm
; perimeters extrusion width = 0.85mm
; infill extrusion width = 1.02mm
; solid infill extrusion width = 0.85mm
; top infill extrusion width = 0.85mm

M104 S190 ; set temperature
G28 ; home all axes
G1 Z5 F5000 ; lift nozzle

M109 S190 ; wait for temperature to be reached
G21 ; set units to millimeters
G90 ; use absolute coordinates
M82 ; use absolute distances for extrusion
G92 E0
G1 E-3.50000 F1800.00000
G92 E0
G1 Z0.260 F9000.000
G1 X13.928 Y0.000 F9000.000
G1 E3.50000 F1800.00000
G1 X13.928 Y10.000 E4.00178 F1800.000
G1 X13.533 Y11.717 E4.09017
G1 X12.428 Y13.088 E4.17856
G1 X10.000 Y13.928 E4.30749
G1 X-10.000 Y13.928 E5.31105
G1 X-11.717 Y13.533 E5.39944
G1 X-13.088 Y12.428 E5.48783
G1 X-13.928 Y10.000 E5.61676
G1 X-13.928 Y-10.000 E6.62032
G1 X-13.533 Y-11.717 E6.70871
G1 X-12.428 Y-13.088 E6.79710
G1 X-10.000 Y-13.928 E6.92603
G1 X10.000 Y-13.928 E7.92959
G1 X11.717 Y-13.533 E8.01798
G1 X13.088 Y-12.428 E8.10637 F1800.000
G1 X13.928 Y-10.000 E8.23530
G1 X13.928 Y-0.075 E8.73332
G1 X13.464 Y0.000 F9000.000
G1 X13.464 Y10.000 E9.23510 F1800.000
G1 X13.070 Y11.605 E9.31803
G1 X11.977 Y12.845 E9.40096
G1 X10.000 Y13.464 E9.50492
G1 X-10.000 Y13.464 E10.50848
G1 X-11.605 Y13.070 E10.59141
G1 X-12.845 Y11.977 E10.67434
G1 X-13.464 Y10.000 E10.77830
G1 X-13.464 Y-10.000 E11.78187
G1 X-13.070 Y-11.605 E11.86480
G1 X-11.977 Y-12.845 E11.94773
G1 X-10.000 Y-13.464 E12.05169
G1 X10.000 Y-13.464 E13.05525
G1 X11.605 Y-13.070 E13.13818
G1 X12.845 Y-11.977 E13.22111 F1800.000
G1 X13.464 Y-10.000 E13.32507
G1 X13.464 Y-0.075 E13.82309
G1 E10.32309 F1800.00000
G92 E0
G1 X7.188 Y-7.188 F9000.000
G1 E3.50000 F1800.00000
G1 X7.188 Y7.188 E4.22139 F600.000
G1 X-7.188 Y7.188 E4.94278
G1 X-7.188 Y-7.188 E5.66417
G1 X7.113 Y-7.188 E6.38180
G1 X6.724 Y-6.724 F9000.000
G1 X6.724 Y6.724 E7.05660 F600.000
G1 X-6.724 Y6.724 E7.73141
G1 X-6.724 Y-6.724 E8.40621
G1 X6.649 Y-6.724 E9.07726
G1 X6.260 Y-6.260 F9000.000
G1 X6.260 Y6.260 E9.70547 F600.000
G1 X-6.260 Y6.260 E10.33369
G1 X-6.260 Y-6.260 E10.96191
G1 X6.185 Y-6.260 E11.58637
G1 X6.760 Y-6.260 F9000.000
G1 E8.08637 F1800.00000
G92 E0
G1 X8.812 Y-8.812 F9000.000
G1 E3.50000 F1800.00000
G1 X8.812 Y8.812 E4.38431 F600.000
G1 X-8.812 Y8.812 E5.26863
G1 X-8.812 Y-8.812 E6.15294
G1 X8.737 Y-8.812 E7.03349
G1 X9.276 Y-9.276 F9000.000
G1 X9.276 Y9.276 E7.96439 F600.000
G1 X-9.276 Y9.276 E8.89529
G1 X-9.276 Y-9.276 E9.82619
G1 X9.201 Y-9.276 E10.75333
G1 X9.740 Y-9.740 F9000.000
G1 X9.740 Y9.740 E11.73082 F600.000
G1 X-9.740 Y9.740 E12.70830
G1 X-9.740 Y-9.740 E13.68579
G1 X9.665 Y-9.740 E14.65951
G1 X9.490 Y-9.307 F9000.000
G1 X8.536 Y-8.299 F9000.000
G1 X8.299 Y-8.536 E14.67642 F2100.000
G1 X7.639 Y-8.536 E14.70973
G1 X8.536 Y-7.639 E14.77375
G1 X8.536 Y-6.978 E14.80707
G1 X6.978 Y-8.536 E14.91820
G1 X6.318 Y-8.536 E14.95151
G1 X8.536 Y-6.318 E15.10975
G1 X8.536 Y-5.658 E15.14306
G1 X7.464 Y-6.729 E15.21951
G1 X7.464 Y-6.069 E15.25282
G1 X8.536 Y-4.998 E15.32927
G1 X8.536 Y-4.338 E15.36258
G1 X7.464 Y-5.409 E15.43903
G1 X7.464 Y-4.749 E15.47234
G1 X8.536 Y-3.678 E15.54879
G1 X8.536 Y-3.017 E15.58211
G1 X7.464 Y-4.089 E15.65855
G1 X7.464 Y-3.428 E15.69187
G1 X8.536 Y-2.357 E15.76832
G1 X8.536 Y-1.697 E15.80163
G1 X7.464 Y-2.768 E15.87808
G1 X7.464 Y-2.108 E15.91139
G1 X8.536 Y-1.037 E15.98784
G1 X8.536 Y-0.377 E16.02115
G1 X7.464 Y-1.448 E16.09760
G1 X7.464 Y-0.788 E16.13091
G1 X8.536 Y0.284 E16.20736
G1 X8.536 Y0.944 E16.24067
G1 X7.464 Y-0.128 E16.31712
G1 X7.464 Y0.533 E16.35043
G1 X8.536 Y1.604 E16.42688
G1 X8.536 Y2.264 E16.46019
G1 X7.464 Y1.193 E16.53664
G1 X7.464 Y1.853 E16.56996
G1 X8.536 Y2.924 E16.64640
G1 X8.536 Y3.584 E16.67972
G1 X7.464 Y2.513 E16.75617
G1 X7.464 Y3.173 E16.78948
G1 X8.536 Y4.245 E16.86593
G1 X8.536 Y4.905 E16.89924
G1 X7.464 Y3.833 E16.97569
G1 X7.464 Y4.494 E17.00900
G1 X8.536 Y5.565 E17.08545
G1 X8.536 Y6.225 E17.11876
G1 X7.464 Y5.154 E17.19521
G1 X7.464 Y5.814 E17.22852
G1 X8.536 Y6.885 E17.30497
G1 X8.536 Y7.545 E17.33828
G1 X7.464 Y6.474 E17.41473
G1 X7.464 Y7.134 E17.44804
G1 X8.536 Y8.206 E17.52449
G1 X8.206 Y8.536 E17.54805
G1 X7.134 Y7.464 E17.62450
G1 X6.474 Y7.464 E17.65781
G1 X7.545 Y8.536 E17.73426
G1 X6.885 Y8.536 E17.76757
G1 X5.814 Y7.464 E17.84402
G1 X5.154 Y7.464 E17.87733
G1 X6.225 Y8.536 E17.95378
G1 X5.565 Y8.536 E17.98709
G1 X4.494 Y7.464 E18.06354
G1 X3.833 Y7.464 E18.09685
G1 X4.905 Y8.536 E18.17330
G1 X4.245 Y8.536 E18.20662
G1 X3.173 Y7.464 E18.28306
G1 X2.513 Y7.464 E18.31638
G1 X3.584 Y8.536 E18.39283
G1 X2.924 Y8.536 E18.42614
G1 X1.853 Y7.464 E18.50259
G1 X1.193 Y7.464 E18.53590
G1 X2.264 Y8.536 E18.61235
G1 X1.604 Y8.536 E18.64566
G1 X0.533 Y7.464 E18.72211
G1 X-0.128 Y7.464 E18.75542
G1 X0.944 Y8.536 E18.83187
G1 X0.283 Y8.536 E18.86518
G1 X-0.788 Y7.464 E18.94163
G1 X-1.448 Y7.464 E18.97494
G1 X-0.377 Y8.536 E19.05139
G1 X-1.037 Y8.536 E19.08470
G1 X-2.108 Y7.464 E19.16115
G1 X-2.768 Y7.464 E19.19447
G1 X-1.697 Y8.536 E19.27091
G1 X-2.357 Y8.536 E19.30423
G1 X-3.428 Y7.464 E19.38068
G1 X-4.089 Y7.464 E19.41399
G1 X-3.017 Y8.536 E19.49044
G1 X-3.678 Y8.536 E19.52375
G1 X-4.749 Y7.464 E19.60020
G1 X-5.409 Y7.464 E19.63351
G1 X-4.338 Y8.536 E19.70996
G1 X-4.998 Y8.536 E19.74327
G1 X-6.069 Y7.464 E19.81972
G1 X-6.729 Y7.464 E19.85303
G1 X-5.658 Y8.536 E19.92948
G1 X-6.318 Y8.536 E19.96279
G1 X-8.536 Y6.318 E20.12103
G1 X-8.536 Y6.978 E20.15434
G1 X-6.978 Y8.536 E20.26547
G1 X-7.639 Y8.536 E20.29878
G1 X-8.536 Y7.639 E20.36280
G1 X-8.536 Y8.299 E20.39611
G1 X-8.299 Y8.536 E20.41302
G1 X-7.464 Y6.729 F9000.000
G1 X-8.536 Y5.658 E20.48947 F2100.000
G1 X-8.536 Y4.998 E20.52278
G1 X-7.464 Y6.069 E20.59923
G1 X-7.464 Y5.409 E20.63254
G1 X-8.536 Y4.338 E20.70899
G1 X-8.536 Y3.678 E20.74230
G1 X-7.464 Y4.749 E20.81875
G1 X-7.464 Y4.089 E20.85206
G1 X-8.536 Y3.017 E20.92851
G1 X-8.536 Y2.357 E20.96182
G1 X-7.464 Y3.428 E21.03827
G1 X-7.464 Y2.768 E21.07159
G1 X-8.536 Y1.697 E21.14803
G1 X-8.536 Y1.037 E21.18135
G1 X-7.464 Y2.108 E21.25780
G1 X-7.464 Y1.448 E21.29111
G1 X-8.536 Y0.377 E21.36756
G1 X-8.536 Y-0.283 E21.40087
G1 X-7.464 Y0.788 E21.47732
G1 X-7.464 Y0.128 E21.51063
G1 X-8.536 Y-0.944 E21.58708
G1 X-8.536 Y-1.604 E21.62039
G1 X-7.464 Y-0.533 E21.69684
G1 X-7.464 Y-1.193 E21.73015
G1 X-8.536 Y-2.264 E21.80660
G1 X-8.536 Y-2.924 E21.83991
G1 X-7.464 Y-1.853 E21.91636
G1 X-7.464 Y-2.513 E21.94968
G1 X-8.536 Y-3.584 E22.02612
G1 X-8.536 Y-4.245 E22.05944
G1 X-7.464 Y-3.173 E22.13588
G1 X-7.464 Y-3.833 E22.16920
G1 X-8.536 Y-4.905 E22.24565
G1 X-8.536 Y-5.565 E22.27896
G1 X-7.464 Y-4.494 E22.35541
G1 X-7.464 Y-5.154 E22.38872
G1 X-8.536 Y-6.225 E22.46517
G1 X-8.536 Y-6.885 E22.49848
G1 X-7.464 Y-5.814 E22.57493
G1 X-7.464 Y-6.474 E22.60824
G1 X-8.536 Y-7.545 E22.68469
G1 X-8.536 Y-8.206 E22.71800
G1 X-7.464 Y-7.134 E22.79445
G1 X-7.134 Y-7.464 F9000.000
G1 X-8.206 Y-8.536 E22.87090 F2100.000
G1 X-7.545 Y-8.536 E22.90421
G1 X-6.474 Y-7.464 E22.98066
G1 X-5.814 Y-7.464 E23.01397
G1 X-6.885 Y-8.536 E23.09042
G1 X-6.225 Y-8.536 E23.12374
G1 X-5.154 Y-7.464 E23.20018
G1 X-4.494 Y-7.464 E23.23350
G1 X-5.565 Y-8.536 E23.30995
G1 X-4.905 Y-8.536 E23.34326
G1 X-3.833 Y-7.464 E23.41971
G1 X-3.173 Y-7.464 E23.45302
G1 X-4.245 Y-8.536 E23.52947
G1 X-3.584 Y-8.536 E23.56278
G1 X-2.513 Y-7.464 E23.63923
G1 X-1.853 Y-7.464 E23.67254
G1 X-2.924 Y-8.536 E23.74899
G1 X-2.264 Y-8.536 E23.78230
G1 X-1.193 Y-7.464 E23.85875
G1 X-0.533 Y-7.464 E23.89206
G1 X-1.604 Y-8.536 E23.96851
G1 X-0.944 Y-8.536 E24.00182
G1 X0.128 Y-7.464 E24.07827
G1 X0.788 Y-7.464 E24.11159
G1 X-0.284 Y-8.536 E24.18803
G1 X0.377 Y-8.536 E24.22135
G1 X1.448 Y-7.464 E24.29780
G1 X2.108 Y-7.464 E24.33111
G1 X1.037 Y-8.536 E24.40756
G1 X1.697 Y-8.536 E24.44087
G1 X2.768 Y-7.464 E24.51732
G1 X3.428 Y-7.464 E24.55063
G1 X2.357 Y-8.536 E24.62708
G1 X3.017 Y-8.536 E24.66039
G1 X4.089 Y-7.464 E24.73684
G1 X4.749 Y-7.464 E24.77015
G1 X3.677 Y-8.536 E24.84660
G1 X4.338 Y-8.536 E24.87991
G1 X5.409 Y-7.464 E24.95636
G1 X6.069 Y-7.464 E24.98967
G1 X4.998 Y-8.536 E25.06612
G1 X5.658 Y-8.536 E25.09944
G1 X6.729 Y-7.464 E25.17588
M106 S204
G1 E21.67588 F1800.00000
G92 E0
G1 Z0.460 F9000.000
G1 X7.689 Y-7.689 F9000.000
G1 E3.50000 F1800.00000
G1 X7.689 Y7.689 E4.53201 F1200.000
G1 X-7.689 Y7.689 E5.56401
G1 X-7.689 Y-7.689 E6.59602
G1 X7.614 Y-7.689 E7.62299
G1 X6.882 Y-6.882 F9000.000
G1 X6.882 Y6.882 E8.54667 F1200.000
G1 X-6.882 Y6.882 E9.47035
G1 X-6.882 Y-6.882 E10.39403
G1 X6.807 Y-6.882 E11.31268
G1 X6.250 Y-6.250 F9000.000
G1 X6.250 Y6.250 E11.78775 F1200.000
G1 X-6.250 Y6.250 E12.26282
G1 X-6.250 Y-6.250 E12.73789
G1 X6.175 Y-6.250 E13.21010
G1 X6.750 Y-6.250 F9000.000
G1 X8.311 Y-8.311 F9000.000
G1 X8.311 Y8.311 E14.32559 F1200.000
G1 X-8.311 Y8.311 E15.44107
G1 X-8.311 Y-8.311 E16.55655
G1 X8.236 Y-8.311 E17.66700
G1 X9.118 Y-9.118 F9000.000
G1 X9.118 Y9.118 E18.89080 F1200.000
G1 X-9.118 Y9.118 E20.11461
G1 X-9.118 Y-9.118 E21.33841
G1 X9.043 Y-9.118 E22.55718
G1 X9.750 Y-9.750 F9000.000
G1 X9.750 Y9.750 E23.29832 F1200.000
G1 X-9.750 Y9.750 E24.03945
G1 X-9.750 Y-9.750 E24.78058
G1 X9.675 Y-9.750 E25.51887
G1 X9.500 Y-9.317 F9000.000
G1 E22.01887 F1800.00000
G92 E0
G1 Z0.660 F9000.000
G1 X7.689 Y-7.689 F9000.000
G1 E3.50000 F1800.00000
G1 X7.689 Y7.689 E4.53201 F1200.000
G1 X-7.689 Y7.689 E5.56401
G1 X-7.689 Y-7.689 E6.59602
G1 X7.614 Y-7.689 E7.62299
G1 X6.882 Y-6.882 F9000.000
G1 X6.882 Y6.882 E8.54667 F1200.000
G1 X-6.882 Y6.882 E9.47035
G1 X-6.882 Y-6.882 E10.39403
G1 X6.807 Y-6.882 E11.31268
G1 X6.250 Y-6.250 F9000.000
G1 X6.250 Y6.250 E11.78775 F1200.000
G1 X-6.250 Y6.250 E12.26282
G1 X-6.250 Y-6.250 E12.73789
G1 X6.175 Y-6.250 E13.21010
G1 X6.750 Y-6.250 F9000.000
G1 X8.311 Y-8.311 F9000.000
G1 X8.311 Y8.311 E14.32559 F1200.000
G1 X-8.311 Y8.311 E15.44107
G1 X-8.311 Y-8.311 E16.55655
G1 X8.236 Y-8.311 E17.66700
G1 X9.118 Y-9.118 F9000.000
G1 X9.118 Y9.118 E18.89080 F1200.000
G1 X-9.118 Y9.118 E20.11461
G1 X-9.118 Y-9.118 E21.33841
G1 X9.043 Y-9.118 E22.55718
G1 X9.750 Y-9.750 F9000.000
G1 X9.750 Y9.750 E23.29832 F1200.000
G1 X-9.750 Y9.750 E24.03945
G1 X-9.750 Y-9.750 E24.78058
G1 X9.675 Y-9.750 E25.51887
G1 X9.500 Y-9.317 F9000.000
G1 E22.01887 F1800.00000
G92 E0
G1 Z0.860 F9000.000
G1 X7.689 Y-7.689 F9000.000
G1 E3.50000 F1800.00000
G1 X7.689 Y7.689 E4.53201 F1200.000
G1 X-7.689 Y7.689 E5.56401
G1 X-7.689 Y-7.689 E6.59602
G1 X7.614 Y-7.689 E7.62299
G1 X6.882 Y-6.882 F9000.000
G1 X6.882 Y6.882 E8.54667 F1200.000
G1 X-6.882 Y6.882 E9.47035
G1 X-6.882 Y-6.882 E10.39403
G1 X6.807 Y-6.882 E11.31268
G1 X6.250 Y-6.250 F9000.000
G1 X6.250 Y6.250 E11.78775 F1200.000
G1 X-6.250 Y6.250 E12.26282
G1 X-6.250 Y-6.250 E12.73789
G1 X6.175 Y-6.250 E13.21010
G1 X6.750 Y-6.250 F9000.000
G1 X8.311 Y-8.311 F9000.000
G1 X8.311 Y8.311 E14.32559 F1200.000
G1 X-8.311 Y8.311 E15.44107
G1 X-8.311 Y-8.311 E16.55655
G1 X8.236 Y-8.311 E17.66700
G1 X9.118 Y-9.118 F9000.000
G1 X9.118 Y9.118 E18.89080 F1200.000
G1 X-9.118 Y9.118 E20.11461
G1 X-9.118 Y-9.118 E21.33841
G1 X9.043 Y-9.118 E22.55718
G1 X9.750 Y-9.750 F9000.000
G1 X9.750 Y9.750 E23.29832 F1200.000
G1 X-9.750 Y9.750 E24.03945
G1 X-9.750 Y-9.750 E24.78058
G1 X9.675 Y-9.750 E25.51887
G1 X9.500 Y-9.317 F9000.000
G1 E22.01887 F1800.00000
G92 E0
G1 Z1.060 F9000.000
G1 X7.689 Y-7.689 F9000.000
G1 E3.50000 F1800.00000
G1 X7.689 Y7.689 E4.53201 F1200.000
G1 X-7.689 Y7.689 E5.56401
G1 X-7.689 Y-7.689 E6.59602
G1 X7.614 Y-7.689 E7.62299
G1 X6.882 Y-6.882 F9000.000
G1 X6.882 Y6.882 E8.54667 F1200.000
G1 X-6.882 Y6.882 E9.47035
G1 X-6.882 Y-6.882 E10.39403
G1 X6.807 Y-6.882 E11.31268
G1 X6.250 Y-6.250 F9000.000
G1 X6.250 Y6.250 E11.78775 F1200.000
G1 X-6.250 Y6.250 E12.26282
G1 X-6.250 Y-6.250 E12.73789
G1 X6.175 Y-6.250 E13.21010
G1 X6.750 Y-6.250 F9000.000
G1 X8.311 Y-8.311 F9000.000
G1 X8.311 Y8.311 E14.32559 F1200.000
G1 X-8.311 Y8.311 E15.44107
G1 X-8.311 Y-8.311 E16.55655
G1 X8.236 Y-8.311 E17.66700
G1 X9.118 Y-9.118 F9000.000
G1 X9.118 Y9.118 E18.89080 F1200.000
G1 X-9.118 Y9.118 E20.11461
G1 X-9.118 Y-9.118 E21.33841
G1 X9.043 Y-9.118 E22.55718
G1 X9.750 Y-9.750 F9000.000
G1 X9.750 Y9.750 E23.29832 F1200.000
G1 X-9.750 Y9.750 E24.03945
G1 X-9.750 Y-9.750 E24.78058
G1 X9.675 Y-9.750 E25.51887
G1 X9.500 Y-9.317 F9000.000
G1 E22.01887 F1800.00000
G92 E0
G1 Z1.260 F9000.000
G1 X7.689 Y-7.689 F9000.000
G1 E3.50000 F1800.00000
G1 X7.689 Y7.689 E4.53201 F1200.000
G1 X-7.689 Y7.689 E5.56401
G1 X-7.689 Y-7.689 E6.59602
G1 X7.614 Y-7.689 E7.62299
G1 X6.882 Y-6.882 F9000.000
G1 X6.882 Y6.882 E8.54667 F1200.000
G1 X-6.882 Y6.882 E9.47035
G1 X-6.882 Y-6.882 E10.39403
G1 X6.807 Y-6.882 E11.31268
G1 X6.250 Y-6.250 F9000.000
G1 X6.250 Y6.250 E11.78775 F1200.000
G1 X-6.250 Y6.250 E12.26282
G1 X-6.250 Y-6.250 E12.73789
G1 X6.175 Y-6.250 E13.21010
G1 X6.750 Y-6.250 F9000.000
G1 X8.311 Y-8.311 F9000.000
G1 X8.311 Y8.311 E14.32559 F1200.000
G1 X-8.311 Y8.311 E15.44107
G1 X-8.311 Y-8.311 E16.55655
G1 X8.236 Y-8.311 E17.66700
G1 X9.118 Y-9.118 F9000.000
G1 X9.118 Y9.118 E18.89080 F1200.000
G1 X-9.118 Y9.118 E20.11461
G1 X-9.118 Y-9.118 E21.33841
G1 X9.043 Y-9.118 E22.55718
G1 X9.750 Y-9.750 F9000.000
G1 X9.750 Y9.750 E23.29832 F1200.000
G1 X-9.750 Y9.750 E24.03945
G1 X-9.750 Y-9.750 E24.78058
G1 X9.675 Y-9.750 E25.51887
G1 X9.500 Y-9.317 F9000.000
G1 E22.01887 F1800.00000
G92 E0
G1 Z1.460 F9000.000
G1 X7.689 Y-7.689 F9000.000
G1 E3.50000 F1800.00000
G1 X7.689 Y7.689 E4.53201 F1200.000
G1 X-7.689 Y7.689 E5.56401
G1 X-7.689 Y-7.689 E6.59602
G1 X7.614 Y-7.689 E7.62299
G1 X6.882 Y-6.882 F9000.000
G1 X6.882 Y6.882 E8.54667 F1200.000
G1 X-6.882 Y6.882 E9.47035
G1 X-6.882 Y-6.882 E10.39403
G1 X6.807 Y-6.882 E11.31268
G1 X6.250 Y-6.250 F9000.000
G1 X6.250 Y6.250 E11.78775 F1200.000
G1 X-6.250 Y6.250 E12.26282
G1 X-6.250 Y-6.250 E12.73789
G1 X6.175 Y-6.250 E13.21010
G1 X6.750 Y-6.250 F9000.000
G1 X8.311 Y-8.311 F9000.000
G1 X8.311 Y8.311 E14.32559 F1200.000
G1 X-8.311 Y8.311 E15.44107
G1 X-8.311 Y-8.311 E16.55655
G1 X8.236 Y-8.311 E17.66700
G1 X9.118 Y-9.118 F9000.000
G1 X9.118 Y9.118 E18.89080 F1200.000
G1 X-9.118 Y9.118 E20.11461
G1 X-9.118 Y-9.118 E21.33841
G1 X9.043 Y-9.118 E22.55718
G1 X9.750 Y-9.750 F9000.000
G1 X9.750 Y9.750 E23.29832 F1200.000
G1 X-9.750 Y9.750 E24.03945
G1 X-9.750 Y-9.750 E24.78058
G1 X9.675 Y-9.750 E25.51887
G1 X9.500 Y-9.317 F9000.000
G1 E22.01887 F1800.00000
G92 E0
G1 Z1.660 F9000.000
G1 X7.689 Y-7.689 F9000.000
G1 E3.50000 F1800.00000
G1 X7.689 Y7.689 E4.53201 F1200.000
G1 X-7.689 Y7.689 E5.56401
G1 X-7.689 Y-7.689 E6.59602
G1 X7.614 Y-7.689 E7.62299
G1 X6.882 Y-6.882 F9000.000
G1 X6.882 Y6.882 E8.54667 F1200.000
G1 X-6.882 Y6.882 E9.47035
G1 X-6.882 Y-6.882 E10.39403
G1 X6.807 Y-6.882 E11.31268
G1 X6.250 Y-6.250 F9000.000
G1 X6.250 Y6.250 E11.78775 F1200.000
G1 X-6.250 Y6.250 E12.26282
G1 X-6.250 Y-6.250 E12.73789
G1 X6.175 Y-6.250 E13.21010
G1 X6.750 Y-6.250 F9000.000
G1 X8.311 Y-8.311 F9000.000
G1 X8.311 Y8.311 E14.32559 F1200.000
G1 X-8.311 Y8.311 E15.44107
G1 X-8.311 Y-8.311 E16.55655
G1 X8.236 Y-8.311 E17.66700
G1 X9.118 Y-9.118 F9000.000
G1 X9.118 Y9.118 E18.89080 F1200.000
G1 X-9.118 Y9.118 E20.11461
G1 X-9.118 Y-9.118 E21.33841
G1 X9.043 Y-9.118 E22.55718
G1 X9.750 Y-9.750 F9000.000
G1 X9.750 Y9.750 E23.29832 F1200.000
G1 X-9.750 Y9.750 E24.03945
G1 X-9.750 Y-9.750 E24.78058
G1 X9.675 Y-9.750 E25.51887
G1 X9.500 Y-9.317 F9000.000
G1 E22.01887 F1800.00000
G92 E0
G1 Z1.860 F9000.000
G1 X7.689 Y-7.689 F9000.000
G1 E3.50000 F1800.00000
G1 X7.689 Y7.689 E4.53201 F1200.000
G1 X-7.689 Y7.689 E5.56401
G1 X-7.689 Y-7.689 E6.59602
G1 X7.614 Y-7.689 E7.62299
G1 X6.882 Y-6.882 F9000.000
G1 X6.882 Y6.882 E8.54667 F1200.000
G1 X-6.882 Y6.882 E9.47035
G1 X-6.882 Y-6.882 E10.39403
G1 X6.807 Y-6.882 E11.31268
G1 X6.250 Y-6.250 F9000.000
G1 X6.250 Y6.250 E11.78775 F1200.000
G1 X-6.250 Y6.250 E12.26282
G1 X-6.250 Y-6.250 E12.73789
G1 X6.175 Y-6.250 E13.21010
G1 X6.750 Y-6.250 F9000.000
G1 X8.311 Y-8.311 F9000.000
G1 X8.311 Y8.311 E14.32559 F1200.000
G1 X-8.311 Y8.311 E15.44107
G1 X-8.311 Y-8.311 E16.55655
G1 X8.236 Y-8.311 E17.66700
