; generated by Slic3r 1.2.9 on 2015-08-27 at 16:26:53

; external perimeters extrusion width = 0.50mm
; perimeters extrusion width = 0.85mm
; infill extrusion width = 1.02mm
; solid infill extrusion width = 0.85mm
; top infill extrusion width = 0.85mm

M104 S190 ; set temperature
G28 ; home all axes
G1 Z5 F5000 ; lift nozzle

M109 S190 ; wait for temperature to be reached
G21 ; set units to millimeters
G90 ; use absolute coordinates
M82 ; use absolute distances for extrusion
G92 E0
G1 E-3.50000 F1800.00000
G92 E0
G1 Z0.260 F9000.000
G1 X13.464 Y0.000 F9000.000
G1 E3.50000 F1800.00000
G1 X13.464 Y10.000 E4.00178 F1800.000
G1 X13.070 Y11.605 E4.08471
G1 X11.977 Y12.845 E4.16764
G1 X10.000 Y13.464 E4.27160
G1 X-10.000 Y13.464 E5.27517
G1 X-11.605 Y13.070 E5.35810
G1 X-12.845 Y11.977 E5.44102
G1 X-13.464 Y10.000 E5.54498
G1 X-13.464 Y-10.000 E6.54855
G1 X-13.070 Y-11.605 E6.63148
G1 X-11.977 Y-12.845 E6.71441
G1 X-10.000 Y-13.464 E6.81837
G1 X10.000 Y-13.464 E7.82193
G1 X11.605 Y-13.070 E7.90486
G1 X12.845 Y-11.977 E7.98779 F1800.000
G1 X13.464 Y-10.000 E8.09175
G1 X13.464 Y-0.075 E8.58977
G1 E5.08977 F1800.00000
G92 E0
G1 X7.188 Y-7.188 F9000.000
G1 E3.50000 F1800.00000
G1 X7.188 Y7.188 E4.22140 F600.000
G1 X-7.188 Y7.188 E4.94280
G1 X-7.188 Y-7.188 E5.66420
G1 X7.113 Y-7.188 E6.38184
G1 X6.724 Y-6.724 F9000.000
G1 X6.724 Y6.724 E7.05666 F600.000
G1 X-6.724 Y6.724 E7.73148
G1 X-6.724 Y-6.724 E8.40629
G1 X6.649 Y-6.724 E9.07734
G1 X6.260 Y-6.260 F9000.000
G1 X6.260 Y6.260 E9.70557 F600.000
G1 X-6.260 Y6.260 E10.33380
G1 X-6.260 Y-6.260 E10.96203
G1 X6.185 Y-6.260 E11.58650
G1 X6.760 Y-6.260 F9000.000
G1 E8.08650 F1800.00000
G92 E0
G1 X8.812 Y-8.812 F9000.000
G1 E3.50000 F1800.00000
G1 X8.812 Y8.812 E4.38430 F600.000
G1 X-8.812 Y8.812 E5.26861
G1 X-8.812 Y-8.812 E6.15291
G1 X8.737 Y-8.812 E7.03345
G1 X9.276 Y-9.276 F9000.000
G1 X9.276 Y9.276 E7.96434 F600.000
G1 X-9.276 Y9.276 E8.89523
G1 X-9.276 Y-9.276 E9.82612
G1 X9.201 Y-9.276 E10.75324
G1 X9.740 Y-9.740 F9000.000
G1 X9.740 Y9.740 E11.73072 F600.000
G1 X-9.740 Y9.740 E12.70819
G1 X-9.740 Y-9.740 E13.68567
G1 X9.665 Y-9.740 E14.65938
G1 X9.490 Y-9.307 F9000.000
G1 X8.356 Y-8.417 F9000.000
G1 X8.356 Y-8.356 E14.66246 F2100.000
G1 X8.417 Y-8.356 E14.66554
G1 X8.417 Y-7.891 F9000.000
G1 X7.891 Y-7.891 E14.69192 F2100.000
G1 X7.891 Y-8.417 E14.71829
G1 X7.427 Y-8.417 F9000.000
G1 X7.427 Y-7.583 E14.76014 F2100.000
G1 X7.583 Y-7.427 F9000.000
G1 X8.417 Y-7.427 E14.80200 F2100.000
G1 X8.417 Y-6.963 F9000.000
G1 X7.583 Y-6.963 E14.84385 F2100.000
G1 X7.583 Y-6.499 F9000.000
G1 X8.417 Y-6.499 E14.88571 F2100.000
G1 X8.417 Y-6.035 F9000.000
G1 X7.583 Y-6.035 E14.92756 F2100.000
G1 X7.583 Y-5.570 F9000.000
G1 X8.417 Y-5.570 E14.96942 F2100.000
G1 X8.417 Y-5.106 F9000.000
G1 X7.583 Y-5.106 E15.01127 F2100.000
G1 X7.583 Y-4.642 F9000.000
G1 X8.417 Y-4.642 E15.05313 F2100.000
G1 X8.417 Y-4.178 F9000.000
G1 X7.583 Y-4.178 E15.09498 F2100.000
G1 X7.583 Y-3.714 F9000.000
G1 X8.417 Y-3.714 E15.13684 F2100.000
G1 X8.417 Y-3.249 F9000.000
G1 X7.583 Y-3.249 E15.17869 F2100.000
G1 X7.583 Y-2.785 F9000.000
G1 X8.356 Y-2.785 E15.21747 F2100.000
G1 X7.583 Y-2.012 E15.27230
G1 X8.417 Y-1.918 F9000.000
G1 X7.583 Y-1.084 E15.33149 F2100.000
G1 X8.417 Y-0.990 F9000.000
G1 X7.583 Y-0.156 E15.39069 F2100.000
G1 X7.583 Y0.156 F9000.000
G1 X8.417 Y0.990 E15.44988 F2100.000
G1 X7.583 Y1.084 F9000.000
G1 X8.417 Y1.918 E15.50907 F2100.000
G1 X7.583 Y2.012 F9000.000
G1 X8.356 Y2.785 E15.56390 F2100.000
G1 X7.583 Y2.785 E15.60268
G1 X7.583 Y3.249 F9000.000
G1 X8.417 Y3.249 E15.64453 F2100.000
G1 X8.417 Y3.714 F9000.000
G1 X7.583 Y3.714 E15.68639 F2100.000
G1 X7.583 Y4.178 F9000.000
G1 X8.417 Y4.178 E15.72824 F2100.000
G1 X8.417 Y4.642 F9000.000
G1 X7.583 Y4.642 E15.77010 F2100.000
G1 X7.583 Y5.106 F9000.000
G1 X8.417 Y5.106 E15.81195 F2100.000
G1 X8.417 Y5.570 F9000.000
G1 X7.583 Y5.570 E15.85381 F2100.000
G1 X7.583 Y6.035 F9000.000
G1 X8.417 Y6.035 E15.89566 F2100.000
G1 X8.417 Y6.499 F9000.000
G1 X7.583 Y6.499 E15.93752 F2100.000
G1 X7.583 Y6.963 F9000.000
G1 X8.417 Y6.963 E15.97937 F2100.000
G1 X8.417 Y7.427 F9000.000
G1 X7.583 Y7.427 E16.02123 F2100.000
G1 X7.427 Y7.583 F9000.000
G1 X7.427 Y8.417 E16.06308 F2100.000
G1 X7.891 Y8.417 F9000.000
G1 X7.891 Y7.891 E16.08946 F2100.000
G1 X8.417 Y7.891 E16.11583
G1 X8.417 Y8.356 F9000.000
G1 X8.356 Y8.356 E16.11891 F2100.000
G1 X8.356 Y8.417 E16.12199
G1 X6.963 Y8.417 F9000.000
G1 X6.963 Y7.583 E16.16385 F2100.000
G1 X6.499 Y7.583 F9000.000
G1 X6.499 Y8.417 E16.20570 F2100.000
G1 X6.035 Y8.417 F9000.000
G1 X6.035 Y7.583 E16.24756 F2100.000
G1 X5.570 Y7.583 F9000.000
G1 X5.570 Y8.417 E16.28941 F2100.000
G1 X5.106 Y8.417 F9000.000
G1 X5.106 Y7.583 E16.33127 F2100.000
G1 X4.642 Y7.583 F9000.000
G1 X4.642 Y8.417 E16.37312 F2100.000
G1 X4.178 Y8.417 F9000.000
G1 X4.178 Y7.583 E16.41498 F2100.000
G1 X3.714 Y7.583 F9000.000
G1 X3.714 Y8.417 E16.45683 F2100.000
G1 X3.249 Y8.417 F9000.000
G1 X3.249 Y7.583 E16.49869 F2100.000
G1 X2.785 Y7.583 F9000.000
G1 X2.785 Y8.356 E16.53746 F2100.000
G1 X2.012 Y7.583 E16.59229
G1 X1.918 Y8.417 F9000.000
G1 X1.084 Y7.583 E16.65149 F2100.000
G1 X0.990 Y8.417 F9000.000
G1 X0.156 Y7.583 E16.71068 F2100.000
G1 X-0.156 Y7.583 F9000.000
G1 X-0.990 Y8.417 E16.76987 F2100.000
G1 X-1.084 Y7.583 F9000.000
G1 X-1.918 Y8.417 E16.82906 F2100.000
G1 X-2.012 Y7.583 F9000.000
G1 X-2.847 Y8.417 E16.88825 F2100.000
G1 X-3.249 Y8.417 F9000.000
G1 X-3.249 Y7.583 E16.93011 F2100.000
G1 X-3.714 Y7.583 F9000.000
G1 X-3.714 Y8.417 E16.97196 F2100.000
G1 X-4.178 Y8.417 F9000.000
G1 X-4.178 Y7.583 E17.01382 F2100.000
G1 X-4.642 Y7.583 F9000.000
G1 X-4.642 Y8.417 E17.05567 F2100.000
G1 X-5.106 Y8.417 F9000.000
G1 X-5.106 Y7.583 E17.09753 F2100.000
G1 X-5.570 Y7.583 F9000.000
G1 X-5.570 Y8.417 E17.13938 F2100.000
G1 X-6.035 Y8.417 F9000.000
G1 X-6.035 Y7.583 E17.18124 F2100.000
G1 X-6.499 Y7.583 F9000.000
G1 X-6.499 Y8.417 E17.22309 F2100.000
G1 X-6.963 Y8.417 F9000.000
G1 X-6.963 Y7.583 E17.26495 F2100.000
G1 X-7.427 Y7.583 F9000.000
G1 X-7.427 Y8.417 E17.30680 F2100.000
G1 X-7.891 Y8.417 F9000.000
G1 X-7.891 Y7.891 E17.33318 F2100.000
G1 X-8.417 Y7.891 E17.35955
G1 X-8.417 Y7.427 F9000.000
G1 X-7.583 Y7.427 E17.40140 F2100.000
G1 X-7.583 Y6.963 F9000.000
G1 X-8.417 Y6.963 E17.44326 F2100.000
G1 X-8.417 Y6.499 F9000.000
G1 X-7.583 Y6.499 E17.48511 F2100.000
G1 X-7.583 Y6.035 F9000.000
G1 X-8.417 Y6.035 E17.52697 F2100.000
G1 X-8.417 Y5.570 F9000.000
G1 X-7.583 Y5.570 E17.56882 F2100.000
G1 X-7.583 Y5.106 F9000.000
G1 X-8.417 Y5.106 E17.61068 F2100.000
G1 X-8.417 Y4.642 F9000.000
G1 X-7.583 Y4.642 E17.65253 F2100.000
G1 X-7.583 Y4.178 F9000.000
G1 X-8.417 Y4.178 E17.69439 F2100.000
G1 X-8.417 Y3.714 F9000.000
G1 X-7.583 Y3.714 E17.73624 F2100.000
G1 X-7.583 Y3.249 F9000.000
G1 X-8.417 Y3.249 E17.77810 F2100.000
G1 X-7.583 Y2.785 F9000.000
G1 X-8.356 Y2.785 E17.81687 F2100.000
G1 X-7.583 Y2.012 E17.87171
G1 X-8.417 Y1.918 F9000.000
G1 X-7.583 Y1.084 E17.93090 F2100.000
G1 X-8.417 Y0.990 F9000.000
G1 X-7.583 Y0.156 E17.99009 F2100.000
G1 X-7.583 Y-0.156 F9000.000
G1 X-8.417 Y-0.990 E18.04928 F2100.000
G1 X-7.583 Y-1.084 F9000.000
G1 X-8.417 Y-1.918 E18.10847 F2100.000
G1 X-7.583 Y-2.012 F9000.000
G1 X-8.356 Y-2.785 E18.16331 F2100.000
G1 X-7.583 Y-2.785 E18.20208
G1 X-7.583 Y-3.249 F9000.000
G1 X-8.417 Y-3.249 E18.24394 F2100.000
G1 X-8.417 Y-3.714 F9000.000
G1 X-7.583 Y-3.714 E18.28579 F2100.000
G1 X-7.583 Y-4.178 F9000.000
G1 X-8.417 Y-4.178 E18.32765 F2100.000
G1 X-8.417 Y-4.642 F9000.000
G1 X-7.583 Y-4.642 E18.36950 F2100.000
G1 X-7.583 Y-5.106 F9000.000
G1 X-8.417 Y-5.106 E18.41136 F2100.000
G1 X-8.417 Y-5.570 F9000.000
G1 X-7.583 Y-5.570 E18.45321 F2100.000
G1 X-7.583 Y-6.035 F9000.000
G1 X-8.417 Y-6.035 E18.49507 F2100.000
G1 X-8.417 Y-6.499 F9000.000
G1 X-7.583 Y-6.499 E18.53692 F2100.000
G1 X-7.583 Y-6.963 F9000.000
G1 X-8.417 Y-6.963 E18.57878 F2100.000
G1 X-8.417 Y-7.427 F9000.000
G1 X-7.583 Y-7.427 E18.62063 F2100.000
G1 X-7.427 Y-7.583 F9000.000
G1 X-7.427 Y-8.417 E18.66249 F2100.000
G1 X-7.891 Y-8.417 F9000.000
G1 X-7.891 Y-7.891 E18.68886 F2100.000
G1 X-8.417 Y-7.891 E18.71523
G1 X-8.417 Y-8.356 F9000.000
G1 X-8.356 Y-8.356 E18.71831 F2100.000
G1 X-8.356 Y-8.417 E18.72140
G1 X-6.963 Y-8.417 F9000.000
G1 X-6.963 Y-7.583 E18.76325 F2100.000
G1 X-6.499 Y-7.583 F9000.000
G1 X-6.499 Y-8.417 E18.80511 F2100.000
G1 X-6.035 Y-8.417 F9000.000
G1 X-6.035 Y-7.583 E18.84696 F2100.000
G1 X-5.570 Y-7.583 F9000.000
G1 X-5.570 Y-8.417 E18.88882 F2100.000
G1 X-5.106 Y-8.417 F9000.000
G1 X-5.106 Y-7.583 E18.93067 F2100.000
G1 X-4.642 Y-7.583 F9000.000
G1 X-4.642 Y-8.417 E18.97252 F2100.000
G1 X-4.178 Y-8.417 F9000.000
G1 X-4.178 Y-7.583 E19.01438 F2100.000
G1 X-3.714 Y-7.583 F9000.000
G1 X-3.714 Y-8.417 E19.05623 F2100.000
G1 X-3.249 Y-8.417 F9000.000
G1 X-3.249 Y-7.583 E19.09809 F2100.000
G1 X-2.785 Y-7.583 F9000.000
G1 X-2.785 Y-8.356 E19.13686 F2100.000
G1 X-2.012 Y-7.583 E19.19170
G1 X-1.918 Y-8.417 F9000.000
G1 X-1.084 Y-7.583 E19.25089 F2100.000
G1 X-0.990 Y-8.417 F9000.000
G1 X-0.156 Y-7.583 E19.31008 F2100.000
G1 X0.156 Y-7.583 F9000.000
G1 X0.990 Y-8.417 E19.36927 F2100.000
G1 X1.084 Y-7.583 F9000.000
G1 X1.918 Y-8.417 E19.42846 F2100.000
G1 X2.012 Y-7.583 F9000.000
G1 X2.785 Y-8.356 E19.48330 F2100.000
G1 X2.785 Y-7.583 E19.52207
G1 X3.249 Y-7.583 F9000.000
G1 X3.249 Y-8.417 E19.56393 F2100.000
G1 X3.714 Y-8.417 F9000.000
G1 X3.714 Y-7.583 E19.60578 F2100.000
G1 X4.178 Y-7.583 F9000.000
G1 X4.178 Y-8.417 E19.64764 F2100.000
G1 X4.642 Y-8.417 F9000.000
G1 X4.642 Y-7.583 E19.68949 F2100.000
G1 X5.106 Y-7.583 F9000.000
G1 X5.106 Y-8.417 E19.73135 F2100.000
G1 X5.570 Y-8.417 F9000.000
G1 X5.570 Y-7.583 E19.77320 F2100.000
G1 X6.035 Y-7.583 F9000.000
G1 X6.035 Y-8.417 E19.81506 F2100.000
G1 X6.499 Y-8.417 F9000.000
G1 X6.499 Y-7.583 E19.85691 F2100.000
G1 X6.963 Y-7.583 F9000.000
G1 X6.963 Y-8.417 E19.89877 F2100.000
G1 E16.39877 F1800.00000
G92 E0
G1 X0.061 Y-8.417 F9000.000
G1 E3.50000 F1800.00000
G1 X0.000 Y-8.356 E3.50436 F2100.000
G1 X-0.061 Y-8.417 E3.50871
G1 E0.00871 F1800.00000
G92 E0
G1 X-7.000 Y-8.000 F9000.000
G1 X-7.828 Y-7.828 F9000.000
G1 X-8.000 Y-7.000 F9000.000
G1 X-8.417 Y-0.061 F9000.000
G1 E3.50000 F1800.00000
G1 X-8.356 Y0.000 E3.50436 F2100.000
G1 X-8.417 Y0.061 E3.50871
G1 E0.00871 F1800.00000
G92 E0
G1 X-8.417 Y8.356 F9000.000
G1 E3.50000 F1800.00000
G1 X-8.356 Y8.356 E3.50308 F2100.000
G1 X-8.356 Y8.417 E3.50616
G1 E0.00616 F1800.00000
G92 E0
G1 X-0.061 Y8.417 F9000.000
G1 E3.50000 F1800.00000
G1 X0.000 Y8.356 E3.50436 F2100.000
G1 X0.061 Y8.417 E3.50871
G1 E0.00871 F1800.00000
G92 E0
G1 X7.000 Y8.000 F9000.000
G1 X7.828 Y7.828 F9000.000
G1 X8.000 Y7.000 F9000.000
G1 X8.417 Y0.061 F9000.000
G1 E3.50000 F1800.00000
G1 X8.356 Y0.000 E3.50436 F2100.000
G1 X8.417 Y-0.061 E3.50871
M106 S204
G1 E0.00871 F1800.00000
G92 E0
G1 Z0.460 F9000.000
G1 X7.689 Y-7.689 F9000.000
G1 E3.50000 F1800.00000
G1 X7.689 Y7.689 E4.53202 F1200.000
G1 X-7.689 Y7.689 E5.56404
G1 X-7.689 Y-7.689 E6.59606
G1 X7.614 Y-7.689 E7.62305
G1 X6.882 Y-6.882 F9000.000
G1 X6.882 Y6.882 E8.54674 F1200.000
G1 X-6.882 Y6.882 E9.47044
G1 X-6.882 Y-6.882 E10.39413
G1 X6.807 Y-6.882 E11.31280
G1 X6.250 Y-6.250 F9000.000
G1 X6.250 Y6.250 E11.78787 F1200.000
G1 X-6.250 Y6.250 E12.26295
G1 X-6.250 Y-6.250 E12.73803
G1 X6.175 Y-6.250 E13.21026
G1 X6.750 Y-6.250 F9000.000
G1 X8.311 Y-8.311 F9000.000
G1 X8.311 Y8.311 E14.32572 F1200.000
G1 X-8.311 Y8.311 E15.44119
G1 X-8.311 Y-8.311 E16.55665
G1 X8.236 Y-8.311 E17.66709
G1 X9.118 Y-9.118 F9000.000
G1 X9.118 Y9.118 E18.89088 F1200.000
G1 X-9.118 Y9.118 E20.11467
G1 X-9.118 Y-9.118 E21.33846
G1 X9.043 Y-9.118 E22.55722
G1 X9.750 Y-9.750 F9000.000
G1 X9.750 Y9.750 E23.29834 F1200.000
G1 X-9.750 Y9.750 E24.03947
G1 X-9.750 Y-9.750 E24.78059
G1 X9.675 Y-9.750 E25.51887
G1 X9.500 Y-9.317 F9000.000
G1 E22.01887 F1800.00000
G92 E0
G1 Z0.660 F9000.000
G1 X7.689 Y-7.689 F9000.000
G1 E3.50000 F1800.00000
G1 X7.689 Y7.689 E4.53202 F1200.000
G1 X-7.689 Y7.689 E5.56404
G1 X-7.689 Y-7.689 E6.59606
G1 X7.614 Y-7.689 E7.62305
G1 X6.882 Y-6.882 F9000.000
G1 X6.882 Y6.882 E8.54674 F1200.000
G1 X-6.882 Y6.882 E9.47044
G1 X-6.882 Y-6.882 E10.39413
G1 X6.807 Y-6.882 E11.31280
G1 X6.250 Y-6.250 F9000.000
G1 X6.250 Y6.250 E11.78787 F1200.000
G1 X-6.250 Y6.250 E12.26295
G1 X-6.250 Y-6.250 E12.73803
G1 X6.175 Y-6.250 E13.21026
G1 X6.750 Y-6.250 F9000.000
G1 X8.311 Y-8.311 F9000.000
G1 X8.311 Y8.311 E14.32572 F1200.000
G1 X-8.311 Y8.311 E15.44119
G1 X-8.311 Y-8.311 E16.55665
G1 X8.236 Y-8.311 E17.66709
G1 X9.118 Y-9.118 F9000.000
G1 X9.118 Y9.118 E18.89088 F1200.000
G1 X-9.118 Y9.118 E20.11467
G1 X-9.118 Y-9.118 E21.33846
G1 X9.043 Y-9.118 E22.55722
G1 X9.750 Y-9.750 F9000.000
G1 X9.750 Y9.750 E23.29834 F1200.000
G1 X-9.750 Y9.750 E24.03947
G1 X-9.750 Y-9.750 E24.78059
G1 X9.675 Y-9.750 E25.51887
G1 X9.500 Y-9.317 F9000.000
G1 E22.01887 F1800.00000
G92 E0
G1 Z0.860 F9000.000
G1 X7.689 Y-7.689 F9000.000
G1 E3.50000 F1800.00000
G1 X7.689 Y7.689 E4.53202 F1200.000
G1 X-7.689 Y7.689 E5.56404
G1 X-7.689 Y-7.689 E6.59606
G1 X7.614 Y-7.689 E7.62305
G1 X6.882 Y-6.882 F9000.000
G1 X6.882 Y6.882 E8.54674 F1200.000
G1 X-6.882 Y6.882 E9.47044
G1 X-6.882 Y-6.882 E10.39413
G1 X6.807 Y-6.882 E11.31280
G1 X6.250 Y-6.250 F9000.000
G1 X6.250 Y6.250 E11.78787 F1200.000
G1 X-6.250 Y6.250 E12.26295
G1 X-6.250 Y-6.250 E12.73803
G1 X6.175 Y-6.250 E13.21026
G1 X6.750 Y-6.250 F9000.000
G1 X8.311 Y-8.311 F9000.000
G1 X8.311 Y8.311 E14.32572 F1200.000
G1 X-8.311 Y8.311 E15.44119
G1 X-8.311 Y-8.311 E16.55665
G1 X8.236 Y-8.311 E17.66709
G1 X9.118 Y-9.118 F9000.000
G1 X9.118 Y9.118 E18.89088 F1200.000
G1 X-9.118 Y9.118 E20.11467
G1 X-9.118 Y-9.118 E21.33846
G1 X9.043 Y-9.118 E22.55722
G1 X9.750 Y-9.750 F9000.000
G1 X9.750 Y9.750 E23.29834 F1200.000
G1 X-9.750 Y9.750 E24.03947
G1 X-9.750 Y-9.750 E24.78059
G1 X9.675 Y-9.750 E25.51887
G1 X9.500 Y-9.317 F9000.000
G1 E22.01887 F1800.00000
G92 E0
G1 Z1.060 F9000.000
G1 X7.689 Y-7.689 F9000.000
G1 E3.50000 F1800.00000
G1 X7.689 Y7.689 E4.53202 F1200.000
G1 X-7.689 Y7.689 E5.56404
G1 X-7.689 Y-7.689 E6.59606
G1 X7.614 Y-7.689 E7.62305
G1 X6.882 Y-6.882 F9000.000
G1 X6.882 Y6.882 E8.54674 F1200.000
G1 X-6.882 Y6.882 E9.47044
G1 X-6.882 Y-6.882 E10.39413
G1 X6.807 Y-6.882 E11.31280
G1 X6.250 Y-6.250 F9000.000
G1 X6.250 Y6.250 E11.78787 F1200.000
G1 X-6.250 Y6.250 E12.26295
G1 X-6.250 Y-6.250 E12.73803
G1 X6.175 Y-6.250 E13.21026
G1 X6.750 Y-6.250 F9000.000
G1 X8.311 Y-8.311 F9000.000
G1 X8.311 Y8.311 E14.32572 F1200.000
G1 X-8.311 Y8.311 E15.44119
G1 X-8.311 Y-8.311 E16.55665
G1 X8.236 Y-8.311 E17.66709
G1 X9.118 Y-9.118 F9000.000
G1 X9.118 Y9.118 E18.89088 F1200.000
G1 X-9.118 Y9.118 E20.11467
G1 X-9.118 Y-9.118 E21.33846
G1 X9.043 Y-9.118 E22.55722
G1 X9.750 Y-9.750 F9000.000
G1 X9.750 Y9.750 E23.29834 F1200.000
G1 X-9.750 Y9.750 E24.03947
G1 X-9.750 Y-9.750 E24.78059
G1 X9.675 Y-9.750 E25.51887
G1 X9.500 Y-9.317 F9000.000
G1 E22.01887 F1800.00000
G92 E0
G1 Z1.260 F9000.000
G1 X7.689 Y-7.689 F9000.000
G1 E3.50000 F1800.00000
G1 X7.689 Y7.689 E4.53202 F1200.000
G1 X-7.689 Y7.689 E5.56404
G1 X-7.689 Y-7.689 E6.59606
G1 X7.614 Y-7.689 E7.62305
G1 X6.882 Y-6.882 F9000.000
G1 X6.882 Y6.882 E8.54674 F1200.000
G1 X-6.882 Y6.882 E9.47044
G1 X-6.882 Y-6.882 E10.39413
G1 X6.807 Y-6.882 E11.31280
G1 X6.250 Y-6.250 F9000.000
G1 X6.250 Y6.250 E11.78787 F1200.000
G1 X-6.250 Y6.250 E12.26295
G1 X-6.250 Y-6.250 E12.73803
G1 X6.175 Y-6.250 E13.21026
G1 X6.750 Y-6.250 F9000.000
G1 X8.311 Y-8.311 F9000.000
G1 X8.311 Y8.311 E14.32572 F1200.000
G1 X-8.311 Y8.311 E15.44119
G1 X-8.311 Y-8.311 E16.55665
G1 X8.236 Y-8.311 E17.66709
G1 X9.118 Y-9.118 F9000.000
G1 X9.118 Y9.118 E18.89088 F1200.000
G1 X-9.118 Y9.118 E20.11467
G1 X-9.118 Y-9.118 E21.33846
G1 X9.043 Y-9.118 E22.55722
G1 X9.750 Y-9.750 F9000.000
G1 X9.750 Y9.750 E23.29834 F1200.000
G1 X-9.750 Y9.750 E24.03947
G1 X-9.750 Y-9.750 E24.78059
G1 X9.675 Y-9.750 E25.51887
G1 X9.500 Y-9.317 F9000.000
G1 E22.01887 F1800.00000
G92 E0
G1 Z1.460 F9000.000
G1 X7.689 Y-7.689 F9000.000
