; generated by Slic3r 1.1.7 on 2015-06-09 at 13:32:07

; perimeters extrusion width = 0.50mm
; infill extrusion width = 0.52mm
; solid infill extrusion width = 0.52mm
; top infill extrusion width = 0.52mm

G21 ; set units to millimeters
M107
M104 S200 ; set temperature
G28 ; home all axes
G1 Z5 F5000 ; lift nozzle

M109 S200 ; wait for temperature to be reached
G90 ; use absolute coordinates
G92 E0
M82 ; use absolute distances for extrusion
G1 F1800.000 E-1.00000
G92 E0
G1 Z0.500 F7800.000
G1 X16.893 Y0.000 F7800.000
G1 E1.00000 F1800.000
G1 X16.893 Y10.000 E2.00208 F1080.000
G1 X16.496 Y12.306 E2.23654
G1 X15.350 Y14.346 E2.47099
G1 X13.588 Y15.885 E2.70545
G1 X11.413 Y16.746 E2.93991
G1 X10.000 Y16.893 E3.08222
G1 X-10.000 Y16.893 E5.08638
G1 X-12.306 Y16.496 E5.32084
G1 X-14.346 Y15.350 E5.55530
G1 X-15.885 Y13.588 E5.78975
G1 X-16.746 Y11.413 E6.02421
G1 X-16.893 Y10.000 E6.16653
G1 X-16.893 Y-10.000 E8.17069
G1 X-16.496 Y-12.306 E8.40514
G1 X-15.350 Y-14.346 E8.63960
G1 X-13.588 Y-15.885 E8.87406
G1 X-11.413 Y-16.746 E9.10851
G1 X-10.000 Y-16.893 E9.25083
G1 X10.000 Y-16.893 E11.25499
G1 X12.306 Y-16.496 E11.48945
G1 X14.346 Y-15.350 E11.72390 F1080.000
G1 X15.885 Y-13.588 E11.95836
G1 X16.746 Y-11.413 E12.19282
G1 X16.893 Y-10.000 E12.33513
G1 X16.893 Y-0.075 E13.32970
G1 F1800.000 E12.32970
G92 E0
G1 X4.900 Y4.193 F7800.000
G1 E1.00000 F1800.000
G1 X4.900 Y-6.500 E2.07151 F378.000
G1 X6.500 Y-6.500 E2.23185
G1 X6.500 Y6.500 E3.53455
G1 X5.193 Y6.500 E3.66554
G1 X-6.500 Y-5.193 E5.32260
G1 X-6.500 Y-7.207 E5.52444
G1 X4.847 Y4.140 E7.13249
G1 X4.771 Y3.710 F7800.000
G1 F1800.000 E6.13249
G92 E0
G1 X3.883 Y7.715 F7800.000
G1 E1.00000 F1800.000
G1 X-7.715 Y7.715 E2.16213 F540.000
G1 X-7.715 Y-3.883 E3.32426
G1 X3.830 Y7.662 E4.96024
G1 F1800.000 E3.96024
G92 E0
G1 X9.000 Y7.000 F7800.000
G1 X12.000 Y6.000 F7800.000
G1 X10.000 Y-12.000 F7800.000
G1 X5.000 Y-9.000 F7800.000
G1 X1.254 Y-0.161 F7800.000
G1 X3.115 Y-0.117 F7800.000
G1 E1.00000 F1800.000
G1 X-4.483 Y-7.715 E2.07664 F540.000
G1 X3.115 Y-7.715 E2.83793
G1 X3.115 Y-0.192 E3.59172
G1 X4.007 Y-7.393 F7800.000
G1 X4.007 Y2.038 E4.53672 F540.000
G1 X-6.638 Y-8.607 E6.04529
G1 X8.607 Y-8.607 E7.57296
G1 X8.607 Y8.607 E9.29801
G1 X-8.607 Y8.607 E11.02305
G1 X-8.607 Y-8.607 E12.74809
G1 X-7.393 Y-8.607 E12.86980
G1 X-7.393 Y-4.823 E13.24901
G1 X4.823 Y7.393 E14.98018
G1 X7.393 Y7.393 E15.23767
G1 X7.393 Y-7.393 E16.71929
G1 X4.082 Y-7.393 E17.05102
G1 X9.500 Y-9.500 F7800.000
G1 X9.500 Y9.500 E18.95497 F378.000
G1 X-9.500 Y9.500 E20.85893
G1 X-9.500 Y-9.500 E22.76288
G1 X9.425 Y-9.500 E24.65932
G1 X9.250 Y-9.067 F7800.000
G1 F1800.000 E23.65932
G92 E0
G1 X-7.067 Y-2.320 F7800.000
G1 E1.00000 F1800.000
G1 X2.320 Y7.067 E2.33036 F1080.000
G1 X0.999 Y7.087 E2.46276
G1 X-7.087 Y-0.999 E3.60873
G1 X-7.087 Y0.342 E3.74312
G1 X-0.342 Y7.087 E4.69905
G1 X-1.683 Y7.087 E4.83343
G1 X-7.087 Y1.683 E5.59931
G1 X-7.087 Y3.024 E5.73369
G1 X-3.024 Y7.087 E6.30951
G1 X-4.365 Y7.087 E6.44390
G1 X-7.087 Y4.365 E6.82967
G1 X-7.087 Y5.706 E6.96406
G1 X-5.706 Y7.087 E7.15978
G1 X-7.047 Y7.087 E7.29417
G1 X-7.087 Y7.047 E7.29983
G1 F1800.000 E6.29983
G92 E0
G1 X-9.000 Y-3.000 F7800.000
G1 X-12.000 Y-4.000 F7800.000
G1 X-10.000 Y-12.000 F7800.000
G1 X-5.000 Y-9.000 F7800.000
G1 X2.467 Y-1.680 F7800.000
G1 E1.00000 F1800.000
G1 X-2.920 Y-7.067 E1.76350 F1080.000
G1 X-1.593 Y-7.087 E1.89648
G1 X2.487 Y-3.007 E2.47477
G1 X2.487 Y-4.354 E2.60974
G1 X-0.246 Y-7.087 E2.99715
G1 X1.101 Y-7.087 E3.13212
G1 X2.487 Y-5.701 E3.32866
G1 X2.487 Y-7.047 E3.46363
G1 X2.447 Y-7.087 E3.46930
M106 S255
G1 F1800.000 E2.46930
G92 E0
G1 Z0.900 F7800.000
G1 X3.570 Y2.509 F7800.000
G1 E1.00000 F1800.000
G1 X3.570 Y-6.750 E1.41576 F1271.980
G1 X6.750 Y-6.750 E1.55854
G1 X6.750 Y6.750 E2.16471
G1 X4.009 Y6.750 E2.28777
G1 X-6.750 Y-4.009 E2.97098
G1 X-6.750 Y-7.811 E3.14167
G1 X3.517 Y2.456 E3.79362
G1 X4.070 Y3.716 F7800.000
G1 X4.070 Y-6.250 E4.24112 F890.386
G1 X6.250 Y-6.250 E4.33901
G1 X6.250 Y6.250 E4.90027
G1 X4.216 Y6.250 E4.99158
G1 X-6.250 Y-4.216 E5.65620
G1 X-6.250 Y-6.604 E5.76338
G1 X4.017 Y3.663 E6.41533
G1 X3.941 Y3.233 F7800.000
G1 F1800.000 E5.41533
G92 E0
G1 X7.250 Y7.250 F7800.000
G1 E1.00000 F1800.000
G1 X7.250 Y-7.250 E1.65107 F1271.980
G1 X3.070 Y-7.250 E1.83875
G1 X3.070 Y1.302 E2.22276
G1 X-6.982 Y-8.750 E2.86107
G1 X8.750 Y-8.750 E3.56747
G1 X8.750 Y8.750 E4.35324
G1 X-8.750 Y8.750 E5.13901
G1 X-8.750 Y-8.750 E5.92478
G1 X-7.250 Y-8.750 E5.99213
G1 X-7.250 Y-3.802 E6.21430
G1 X3.802 Y7.250 E6.91611
G1 X7.175 Y7.250 E7.06755
G1 X9.250 Y9.250 F7800.000
G1 X-9.250 Y9.250 E7.89822 F1271.980
G1 X-9.250 Y-9.250 E8.72890
G1 X9.250 Y-9.250 E9.55957
G1 X9.250 Y9.175 E10.38687
G1 X9.750 Y9.750 F7800.000
G1 X-9.750 Y9.750 E11.26244 F890.386
G1 X-9.750 Y-9.750 E12.13802
G1 X9.750 Y-9.750 E13.01359
G1 X9.750 Y9.675 E13.88580
G1 X9.317 Y9.500 F7800.000
G1 X8.403 Y8.363 F7800.000
G1 X8.363 Y8.403 E13.88844 F2543.960
G1 X7.618 Y8.403 E13.92321
G1 X8.403 Y7.618 E13.97502
G1 X8.403 Y6.873 E14.00980
G1 X6.873 Y8.403 E14.11079
G1 X6.128 Y8.403 E14.14556
G1 X6.934 Y7.597 E14.19877
G1 X6.189 Y7.597 E14.23354
G1 X5.382 Y8.403 E14.28674
G1 X4.637 Y8.403 E14.32152
G1 X5.443 Y7.597 E14.37472
G1 X4.698 Y7.597 E14.40949
G1 X3.892 Y8.403 E14.46270
G1 X3.147 Y8.403 E14.49747
G1 X3.953 Y7.597 E14.55067
G1 X3.433 Y7.372 E14.57711
G1 X2.402 Y8.403 E14.64519
G1 X1.657 Y8.403 E14.67996
G1 X3.061 Y6.999 E14.77262
G1 X2.688 Y6.626 E14.79721
G1 X0.911 Y8.403 E14.91445
G1 X0.166 Y8.403 E14.94922
G1 X2.316 Y6.254 E15.09106
G1 X1.943 Y5.881 E15.11565
G1 X-0.579 Y8.403 E15.28207
G1 X-1.324 Y8.403 E15.31684
G1 X1.570 Y5.509 E15.50785
G1 X1.198 Y5.136 E15.53244
G1 X-2.069 Y8.403 E15.74804
G1 X-2.814 Y8.403 E15.78281
G1 X0.825 Y4.764 E16.02300
G1 X0.453 Y4.391 E16.04759
G1 X-3.560 Y8.403 E16.31237
G1 X-4.305 Y8.403 E16.34714
G1 X0.080 Y4.018 E16.63650
G1 X-0.293 Y3.646 E16.66109
G1 X-5.050 Y8.403 E16.97504
G1 X-5.795 Y8.403 E17.00981
G1 X-0.665 Y3.273 E17.34835
G1 X-1.038 Y2.901 E17.37294
G1 X-6.540 Y8.403 E17.73607
G1 X-7.285 Y8.403 E17.77084
G1 X-1.410 Y2.528 E18.15856
G1 X-1.783 Y2.155 E18.18314
G1 X-8.031 Y8.403 E18.59545
G1 X-8.403 Y8.031 E18.62003
G1 X-2.155 Y1.783 E19.03234
G1 X-2.528 Y1.410 E19.05693
G1 X-8.403 Y7.285 E19.44464
G1 X-8.403 Y6.540 E19.47941
G1 X-2.901 Y1.038 E19.84254
G1 X-3.273 Y0.665 E19.86713
G1 X-8.403 Y5.795 E20.20567
G1 X-8.403 Y5.050 E20.24044
G1 X-3.646 Y0.293 E20.55439
G1 X-4.018 Y-0.080 E20.57898
G1 X-8.403 Y4.305 E20.86834
G1 X-8.403 Y3.560 E20.90312
G1 X-4.391 Y-0.453 E21.16789
G1 X-4.764 Y-0.825 E21.19248
G1 X-8.403 Y2.814 E21.43267
G1 X-8.403 Y2.069 E21.46744
G1 X-5.136 Y-1.198 E21.68304
G1 X-5.509 Y-1.570 E21.70763
G1 X-8.403 Y1.324 E21.89864
G1 X-8.403 Y0.579 E21.93341
G1 X-5.881 Y-1.943 E22.09983
G1 X-6.254 Y-2.316 E22.12442
G1 X-8.403 Y-0.166 E22.26626
G1 X-8.403 Y-0.911 E22.30103
G1 X-6.626 Y-2.688 E22.41828
G1 X-6.999 Y-3.061 E22.44286
G1 X-8.403 Y-1.657 E22.53552
G1 X-8.403 Y-2.402 E22.57030
G1 X-7.372 Y-3.433 E22.63837
G1 X-7.597 Y-3.953 E22.66481
G1 X-8.403 Y-3.147 E22.71801
G1 X-8.403 Y-3.892 E22.75278
G1 X-7.597 Y-4.698 E22.80599
G1 X-7.597 Y-5.443 E22.84076
G1 X-8.403 Y-4.637 E22.89397
G1 X-8.403 Y-5.382 E22.92874
G1 X-7.597 Y-6.189 E22.98194
G1 X-7.597 Y-6.934 E23.01672
G1 X-8.403 Y-6.128 E23.06992
G1 X-8.403 Y-6.873 E23.10469
G1 X-7.597 Y-7.679 E23.15790
G1 X-7.618 Y-8.403 E23.19170
G1 X-8.403 Y-7.618 E23.24352
G1 X-8.403 Y-8.363 E23.27829
G1 X-8.363 Y-8.403 E23.28093
G1 X-6.136 Y-8.395 F7800.000
G1 X-5.764 Y-8.022 E23.30552 F2543.960
G1 X-5.382 Y-8.403 E23.33067
G1 X-4.637 Y-8.403 E23.36544
G1 X-5.391 Y-7.649 E23.41519
G1 X-5.018 Y-7.277 E23.43977
G1 X-3.892 Y-8.403 E23.51410
G1 X-3.147 Y-8.403 E23.54888
G1 X-4.646 Y-6.904 E23.64779
G1 X-4.273 Y-6.532 E23.67238
G1 X-2.402 Y-8.403 E23.79589
G1 X-1.657 Y-8.403 E23.83066
G1 X-3.901 Y-6.159 E23.97875
G1 X-3.528 Y-5.786 E24.00334
G1 X-0.911 Y-8.403 E24.17602
G1 X-0.166 Y-8.403 E24.21080
G1 X-3.156 Y-5.414 E24.40807
G1 X-2.783 Y-5.041 E24.43265
G1 X0.579 Y-8.403 E24.65451
G1 X1.324 Y-8.403 E24.68928
G1 X-2.410 Y-4.669 E24.93573
G1 X-2.038 Y-4.296 E24.96032
G1 X2.069 Y-8.403 E25.23135
G1 X2.814 Y-8.403 E25.26612
G1 X-1.665 Y-3.924 E25.56175
G1 X-1.293 Y-3.551 E25.58633
G1 X3.560 Y-8.403 E25.90654
G1 X4.305 Y-8.403 E25.94132
G1 X3.498 Y-7.597 E25.99452
G1 X4.244 Y-7.597 E26.02929
G1 X5.050 Y-8.403 E26.08250
G1 X5.795 Y-8.403 E26.11727
G1 X4.989 Y-7.597 E26.17047
G1 X5.734 Y-7.597 E26.20525
G1 X6.540 Y-8.403 E26.25845
G1 X7.285 Y-8.403 E26.29322
G1 X6.479 Y-7.597 E26.34643
G1 X7.224 Y-7.597 E26.38120
G1 X8.031 Y-8.403 E26.43441
G1 X8.403 Y-8.031 E26.45899
G1 X7.597 Y-7.224 E26.51220
G1 X7.597 Y-6.479 E26.54697
G1 X8.403 Y-7.285 E26.60017
G1 X8.403 Y-6.540 E26.63495
G1 X7.597 Y-5.734 E26.68815
G1 X7.597 Y-4.989 E26.72292
G1 X8.403 Y-5.795 E26.77613
G1 X8.403 Y-5.050 E26.81090
G1 X7.597 Y-4.244 E26.86411
G1 X7.597 Y-3.498 E26.89888
G1 X8.403 Y-4.305 E26.95208
G1 X8.403 Y-3.560 E26.98685
G1 X7.597 Y-2.753 E27.04006
G1 X7.597 Y-2.008 E27.07483
G1 X8.403 Y-2.814 E27.12804
G1 X8.403 Y-2.069 E27.16281
G1 X7.597 Y-1.263 E27.21601
G1 X7.597 Y-0.518 E27.25079
G1 X8.403 Y-1.324 E27.30399
G1 X8.403 Y-0.579 E27.33876
G1 X7.597 Y0.227 E27.39197
G1 X7.597 Y0.972 E27.42674
G1 X8.403 Y0.166 E27.47994
G1 X8.403 Y0.911 E27.51472
G1 X7.597 Y1.718 E27.56792
G1 X7.597 Y2.463 E27.60269
G1 X8.403 Y1.657 E27.65590
G1 X8.403 Y2.402 E27.69067
G1 X7.597 Y3.208 E27.74388
G1 X7.597 Y3.953 E27.77865
G1 X8.403 Y3.147 E27.83185
G1 X8.403 Y3.892 E27.86662
G1 X7.597 Y4.698 E27.91983
G1 X7.597 Y5.443 E27.95460
G1 X8.403 Y4.637 E28.00781
G1 X8.403 Y5.382 E28.04258
G1 X7.597 Y6.189 E28.09578
G1 X7.597 Y6.934 E28.13056
G1 X8.403 Y6.128 E28.18376
G1 F1800.000 E27.18376
G92 E0
G1 X9.000 Y-3.000 F7800.000
G1 X12.000 Y-4.000 F7800.000
G1 X10.000 Y-12.000 F7800.000
G1 X-0.000 Y-12.000 F7800.000
G1 X-5.000 Y-9.000 F7800.000
G1 X2.433 Y0.175 F7800.000
G1 E1.00000 F1800.000
G1 X2.723 Y-0.115 E1.01913 F2543.960
G1 X2.061 Y-0.198 E1.05029
G1 X2.723 Y-0.860 E1.09400
G1 X2.723 Y-1.605 E1.12878
G1 X1.688 Y-0.570 E1.19708
G1 X1.315 Y-0.943 E1.22167
G1 X2.723 Y-2.351 E1.31457
G1 X2.723 Y-3.096 E1.34934
G1 X0.943 Y-1.315 E1.46682
G1 X0.570 Y-1.688 E1.49141
G1 X2.723 Y-3.841 E1.63348
G1 X2.723 Y-4.586 E1.66826
G1 X0.198 Y-2.061 E1.83492
G1 X-0.175 Y-2.433 E1.85950
G1 X2.723 Y-5.331 E2.05075
G1 X2.723 Y-6.076 E2.08552
G1 X-0.547 Y-2.806 E2.30136
G1 X-0.920 Y-3.178 E2.32595
G1 X2.723 Y-6.822 E2.56637
G1 F1800.000 E1.56637
G92 E0
G1 Z1.300 F7800.000
G1 X2.610 Y1.549 F7800.000
G1 E1.00000 F1800.000
G1 X2.610 Y-6.750 E1.37265 F1214.379
G1 X6.750 Y-6.750 E1.55854
G1 X6.750 Y6.750 E2.16471
G1 X3.049 Y6.750 E2.33087
G1 X-6.750 Y-3.049 E2.95313
G1 X-6.750 Y-7.811 E3.16692
G1 X2.557 Y1.496 E3.75791
G1 X3.110 Y2.756 F7800.000
G1 X3.110 Y-6.250 E4.16231 F850.065
G1 X6.250 Y-6.250 E4.30330
G1 X6.250 Y6.250 E4.86456
G1 X3.256 Y6.250 E4.99898
G1 X-6.250 Y-3.256 E5.60263
G1 X-6.250 Y-6.604 E5.75292
G1 X3.057 Y2.703 E6.34391
G1 X2.981 Y2.273 F7800.000
G1 F1800.000 E5.34391
G92 E0
G1 X7.250 Y7.250 F7800.000
G1 E1.00000 F1800.000
G1 X7.250 Y-7.250 E1.65107 F1214.379
G1 X2.110 Y-7.250 E1.88186
G1 X2.110 Y0.342 E2.22276
G1 X-6.982 Y-8.750 E2.80011
G1 X8.750 Y-8.750 E3.50651
G1 X8.750 Y8.750 E4.29228
G1 X-8.750 Y8.750 E5.07805
G1 X-8.750 Y-8.750 E5.86382
G1 X-7.250 Y-8.750 E5.93117
G1 X-7.250 Y-2.842 E6.19644
G1 X2.842 Y7.250 E6.83730
G1 X7.175 Y7.250 E7.03184
G1 X9.250 Y9.250 F7800.000
G1 X-9.250 Y9.250 E7.86251 F1214.379
G1 X-9.250 Y-9.250 E8.69319
G1 X9.250 Y-9.250 E9.52386
G1 X9.250 Y9.175 E10.35116
G1 X9.750 Y9.750 F7800.000
G1 X-9.750 Y9.750 E11.22674 F850.065
G1 X-9.750 Y-9.750 E12.10231
G1 X9.750 Y-9.750 E12.97788
G1 X9.750 Y9.675 E13.85009
G1 X9.317 Y9.500 F7800.000
G1 X6.934 Y-7.597 F7800.000
G1 X6.128 Y-8.403 E13.90329 F2428.758
G1 X5.382 Y-8.403 E13.93806
G1 X6.189 Y-7.597 E13.99127
G1 X5.443 Y-7.597 E14.02604
G1 X4.637 Y-8.403 E14.07925
G1 X3.892 Y-8.403 E14.11402
G1 X4.698 Y-7.597 E14.16722
G1 X3.953 Y-7.597 E14.20200
G1 X3.147 Y-8.403 E14.25520
G1 X2.402 Y-8.403 E14.28997
G1 X3.208 Y-7.597 E14.34318
G1 X2.463 Y-7.597 E14.37795
G1 X1.657 Y-8.403 E14.43115
G1 X0.911 Y-8.403 E14.46593
G1 X1.763 Y-7.551 E14.52213
G1 X1.763 Y-6.806 E14.55690
G1 X0.166 Y-8.403 E14.66228
G1 X-0.579 Y-8.403 E14.69705
G1 X1.763 Y-6.061 E14.85161
G1 X1.763 Y-5.316 E14.88638
G1 X-1.324 Y-8.403 E15.09011
G1 X-2.069 Y-8.403 E15.12489
G1 X1.763 Y-4.571 E15.37779
G1 X1.763 Y-3.826 E15.41257
G1 X-2.814 Y-8.403 E15.71465
G1 X-3.560 Y-8.403 E15.74942
G1 X1.763 Y-3.080 E16.10068
G1 X1.763 Y-2.335 E16.13546
G1 X-4.305 Y-8.403 E16.53589
G1 X-5.050 Y-8.403 E16.57067
G1 X1.763 Y-1.590 E17.02028
G1 X1.763 Y-0.845 E17.05505
G1 X-5.795 Y-8.403 E17.55384
G1 X-7.597 Y-7.969 F7800.000
G1 X-8.031 Y-8.403 E17.58245 F2428.758
G1 X-8.403 Y-8.031 E17.60704
G1 X-7.597 Y-7.224 E17.66025
G1 X-7.597 Y-6.479 E17.69502
G1 X-8.403 Y-7.285 E17.74822
G1 X-8.403 Y-6.540 E17.78300
G1 X-7.597 Y-5.734 E17.83620
G1 X-7.597 Y-4.989 E17.87097
G1 X-8.403 Y-5.795 E17.92418
G1 X-8.403 Y-5.050 E17.95895
G1 X-7.597 Y-4.244 E18.01215
G1 X-7.597 Y-3.498 E18.04693
G1 X-8.403 Y-4.305 E18.10013
G1 X-8.403 Y-3.560 E18.13490
G1 X-7.597 Y-2.753 E18.18811
G1 X-8.363 Y8.403 F7800.000
G1 X-8.403 Y8.363 E18.19075 F2428.758
G1 X-8.403 Y7.618 E18.22552
G1 X-7.618 Y8.403 E18.27734
G1 X-6.873 Y8.403 E18.31211
G1 X-8.403 Y6.873 E18.41310
G1 X-8.403 Y6.128 E18.44787
G1 X-6.128 Y8.403 E18.59804
G1 X-5.382 Y8.403 E18.63281
G1 X-8.403 Y5.382 E18.83216
G1 X-8.403 Y4.637 E18.86693
G1 X-4.637 Y8.403 E19.11545
G1 X-3.892 Y8.403 E19.15022
G1 X-8.403 Y3.892 E19.44792
G1 X-8.403 Y3.147 E19.48269
G1 X-3.147 Y8.403 E19.82956
G1 X-2.402 Y8.403 E19.86434
G1 X-8.403 Y2.402 E20.26039
G1 X-8.403 Y1.657 E20.29516
G1 X-1.657 Y8.403 E20.74038
G1 X-0.911 Y8.403 E20.77515
G1 X-8.403 Y0.911 E21.26955
G1 X-8.403 Y0.166 E21.30433
G1 X-0.166 Y8.403 E21.84790
G1 X0.579 Y8.403 E21.88268
G1 X-8.403 Y-0.579 E22.47543
G1 X-8.403 Y-1.324 E22.51020
G1 X1.324 Y8.403 E23.15213
G1 X2.069 Y8.403 E23.18690
G1 X-8.403 Y-2.069 E23.87801
G1 X-8.403 Y-2.814 E23.91278
G1 X2.814 Y8.403 E24.65306
G1 X2.753 Y7.597 E24.69079
G1 X3.560 Y8.403 E24.74399
G1 X4.305 Y8.403 E24.77876
G1 X3.498 Y7.597 E24.83197
G1 X4.244 Y7.597 E24.86674
G1 X5.050 Y8.403 E24.91995
G1 X5.795 Y8.403 E24.95472
G1 X4.989 Y7.597 E25.00792
G1 X5.734 Y7.597 E25.04270
G1 X6.540 Y8.403 E25.09590
G1 X7.285 Y8.403 E25.13067
G1 X6.479 Y7.597 E25.18388
G1 X7.224 Y7.597 E25.21865
G1 X8.031 Y8.403 E25.27185
G1 X8.403 Y8.031 E25.29644
G1 X7.597 Y7.224 E25.34965
G1 X7.597 Y6.479 E25.38442
G1 X8.403 Y7.285 E25.43762
G1 X8.403 Y6.540 E25.47240
G1 X7.597 Y5.734 E25.52560
G1 X7.597 Y4.989 E25.56037
G1 X8.403 Y5.795 E25.61358
G1 X8.403 Y5.050 E25.64835
G1 X7.597 Y4.244 E25.70155
G1 X7.597 Y3.498 E25.73633
G1 X8.403 Y4.305 E25.78953
G1 X8.403 Y3.560 E25.82430
G1 X7.597 Y2.753 E25.87751
G1 X7.597 Y2.008 E25.91228
G1 X8.403 Y2.814 E25.96549
G1 X8.403 Y2.069 E26.00026
G1 X7.597 Y1.263 E26.05346
G1 X7.597 Y0.518 E26.08823
G1 X8.403 Y1.324 E26.14144
G1 X8.403 Y0.579 E26.17621
G1 X7.597 Y-0.227 E26.22942
G1 X7.597 Y-0.972 E26.26419
G1 X8.403 Y-0.166 E26.31739
G1 X8.403 Y-0.911 E26.35217
G1 X7.597 Y-1.718 E26.40537
G1 X7.597 Y-2.463 E26.44014
G1 X8.403 Y-1.657 E26.49335
G1 X8.403 Y-2.402 E26.52812
G1 X7.597 Y-3.208 E26.58132
G1 X7.597 Y-3.953 E26.61610
G1 X8.403 Y-3.147 E26.66930
G1 X8.403 Y-3.892 E26.70407
G1 X7.597 Y-4.698 E26.75728
G1 X7.597 Y-5.443 E26.79205
G1 X8.403 Y-4.637 E26.84525
G1 X8.403 Y-5.382 E26.88003
G1 X7.597 Y-6.189 E26.93323
G1 X7.597 Y-6.934 E26.96800
G1 X8.403 Y-6.128 E27.02121
G1 X8.403 Y-6.873 E27.05598
G1 X6.873 Y-8.403 E27.15697
G1 X7.618 Y-8.403 E27.19175
G1 X8.403 Y-7.618 E27.24356
G1 X8.403 Y-8.363 E27.27833
G1 X8.363 Y-8.403 E27.28097
G1 F1800.000 E26.28097
G92 E0
G1 Z1.700 F7800.000
G1 X1.650 Y0.589 F7800.000
G1 E1.00000 F1800.000
G1 X1.650 Y-6.750 E1.32955 F1087.692
G1 X6.750 Y-6.750 E1.55854
G1 X6.750 Y6.750 E2.16471
G1 X2.089 Y6.750 E2.37398
G1 X-6.750 Y-2.089 E2.93527
G1 X-6.750 Y-7.811 E3.19217
G1 X1.597 Y0.536 E3.72220
