; generated by Slic3r 1.1.7 on 2015-06-09 at 11:16:00

; perimeters extrusion width = 0.40mm
; infill extrusion width = 0.42mm
; solid infill extrusion width = 0.42mm
; top infill extrusion width = 0.42mm

G21 ; set units to millimeters
M107
M104 S200 ; set temperature
G28 ; home all axes
G1 Z5 F5000 ; lift nozzle

M109 S200 ; wait for temperature to be reached
G90 ; use absolute coordinates
G92 E0
M82 ; use absolute distances for extrusion
G1 F1800.000 E-1.00000
G92 E0
G1 Z0.400 F7800.000
G1 X16.714 Y0.000 F7800.000
G1 E1.00000 F1800.000
G1 X16.714 Y10.000 E2.18765 F1080.000
G1 X16.317 Y12.275 E2.46188
G1 X15.173 Y14.280 E2.73610
G1 X13.417 Y15.780 E3.01033
G1 X11.257 Y16.595 E3.28455
G1 X10.000 Y16.714 E3.43452
G1 X-10.000 Y16.714 E5.80982
G1 X-12.275 Y16.317 E6.08405
G1 X-14.280 Y15.173 E6.35827
G1 X-15.780 Y13.417 E6.63250
G1 X-16.595 Y11.257 E6.90672
G1 X-16.714 Y10.000 E7.05669
G1 X-16.714 Y-10.000 E9.43199
G1 X-16.317 Y-12.275 E9.70622
G1 X-15.173 Y-14.280 E9.98044
G1 X-13.417 Y-15.780 E10.25466
G1 X-11.257 Y-16.595 E10.52889
G1 X-10.000 Y-16.714 E10.67886
G1 X10.000 Y-16.714 E13.05416
G1 X12.275 Y-16.317 E13.32838
G1 X14.280 Y-15.173 E13.60261 F1080.000
G1 X15.780 Y-13.417 E13.87683
G1 X16.595 Y-11.257 E14.15106
G1 X16.714 Y-10.000 E14.30103
G1 X16.714 Y-0.060 E15.48155
G1 F1800.000 E14.48155
G92 E0
G1 X4.406 Y2.830 F7800.000
G1 E1.00000 F1800.000
G1 X4.406 Y-7.114 E2.18104 F540.000
G1 X7.114 Y-7.114 E2.50270
G1 X7.114 Y7.114 E4.19252
G1 X5.058 Y7.114 E4.43667
G1 X-7.114 Y-5.059 E6.48118
G1 X-7.114 Y-8.690 E6.91245
G1 X4.363 Y2.788 E8.84022
G1 X5.120 Y4.554 F7800.000
G1 X5.120 Y-6.400 E10.14121 F378.000
G1 X6.400 Y-6.400 E10.29323
G1 X6.400 Y6.400 E11.81342
G1 X5.354 Y6.400 E11.93761
G1 X-6.400 Y-5.354 E13.91186
G1 X-6.400 Y-6.966 E14.10323
G1 X5.078 Y4.512 E16.03100
G1 X5.016 Y4.168 F7800.000
G1 F1800.000 E15.03100
G92 E0
G1 X5.106 Y8.172 F7800.000
G1 E1.00000 F1800.000
G1 X-8.172 Y8.172 E2.57693 F540.000
G1 X-8.172 Y-5.106 E4.15386
G1 X5.064 Y8.129 E6.37686
G1 F1800.000 E5.37686
G92 E0
G1 X9.000 Y7.000 F7800.000
G1 X12.000 Y6.000 F7800.000
G1 X10.000 Y-12.000 F7800.000
G1 X5.000 Y-9.000 F7800.000
G1 X1.409 Y-0.005 F7800.000
G1 X3.692 Y1.106 F7800.000
G1 E1.00000 F1800.000
G1 X-5.586 Y-8.172 E2.55828 F540.000
G1 X3.692 Y-8.172 E3.66015
G1 X3.692 Y1.046 E4.75490
G1 F1800.000 E3.75490
G92 E0
G1 X1.409 Y-0.005 F7800.000
G1 X5.000 Y-9.000 F7800.000
G1 X10.000 Y-12.000 F7800.000
G1 X12.000 Y6.000 F7800.000
G1 X9.000 Y7.000 F7800.000
G1 X8.886 Y8.886 F7800.000
G1 E1.00000 F1800.000
G1 X-8.886 Y8.886 E3.11066 F540.000
G1 X-8.886 Y-8.886 E5.22131
G1 X8.886 Y-8.886 E7.33197
G1 X8.886 Y8.826 E9.43550
G1 X9.600 Y9.600 F7800.000
G1 X-9.600 Y9.600 E11.71579 F378.000
G1 X-9.600 Y-9.600 E13.99608
G1 X9.600 Y-9.600 E16.27637
G1 X9.600 Y9.540 E18.54954
G1 X9.254 Y9.400 F7800.000
G1 X-7.674 Y7.634 F7800.000
G1 X-7.634 Y7.674 E18.55626 F1080.000
G1 X-6.588 Y7.674 E18.68053
G1 X-7.674 Y6.588 E18.86299
G1 X-7.674 Y5.541 E18.98727
G1 X-5.541 Y7.674 E19.34548
G1 X-4.495 Y7.674 E19.46975
G1 X-7.674 Y4.495 E20.00371
G1 X-7.674 Y3.448 E20.12798
G1 X-3.448 Y7.674 E20.83769
G1 X-2.402 Y7.674 E20.96196
G1 X-7.674 Y2.402 E21.84741
G1 X-7.674 Y1.356 E21.97169
G1 X-1.356 Y7.674 E23.03289
G1 X-0.309 Y7.674 E23.15716
G1 X-7.674 Y0.309 E24.39411
G1 X-7.674 Y-0.737 E24.51838
G1 X0.737 Y7.674 E25.93107
G1 X1.783 Y7.674 E26.05535
G1 X-7.674 Y-1.783 E27.64379
G1 X-7.674 Y-2.830 E27.76806
G1 X2.830 Y7.674 E29.53225
G1 X3.856 Y7.654 E29.65417
G1 X-7.654 Y-3.856 E31.58739
G1 X-8.000 Y-5.439 F7800.000
G1 X-8.000 Y-8.529 E32.15981 F360.000
G1 X-4.336 Y-7.654 F7800.000
G1 X3.174 Y-0.144 E33.42119 F1080.000
G1 X3.194 Y-1.197 E33.54625
G1 X-3.283 Y-7.674 E34.63415
G1 X-2.210 Y-7.674 E34.76157
G1 X3.194 Y-2.270 E35.66928
G1 X3.194 Y-3.342 E35.79670
G1 X-1.138 Y-7.674 E36.52420
G1 X-0.065 Y-7.674 E36.65162
G1 X3.194 Y-4.415 E37.19893
G1 X3.194 Y-5.488 E37.32635
G1 X1.008 Y-7.674 E37.69346
G1 X2.081 Y-7.674 E37.82088
G1 X3.194 Y-6.561 E38.00780
G1 X3.194 Y-7.634 E38.13522
G1 X3.154 Y-7.674 E38.14194
G1 X4.049 Y-8.000 F7800.000
G1 X7.471 Y-8.000 E38.77607 F360.000
G1 X7.909 Y-7.909 E38.85895
G1 X8.000 Y-7.471 E38.94184
G1 X8.000 Y7.471 E41.71046
G1 X7.909 Y7.909 E41.79335
G1 X7.471 Y8.000 E41.87623
G1 X5.439 Y8.000 E42.25271
M106 S255
G1 F1800.000 E41.25271
G92 E0
G1 Z0.800 F7800.000
G1 X-9.000 Y-3.000 F7800.000
G1 X-12.000 Y-4.000 F7800.000
G1 X-10.000 Y-12.000 F7800.000
G1 X-5.000 Y-9.000 F7800.000
G1 X3.560 Y2.146 F7800.000
G1 E1.00000 F1800.000
G1 X3.560 Y-7.000 E1.60838 F1600.721
G1 X7.000 Y-7.000 E1.83721
G1 X7.000 Y7.000 E2.76849
G1 X4.146 Y7.000 E2.95836
G1 X-7.000 Y-4.146 E4.00688
G1 X-7.000 Y-8.414 E4.29082
G1 X3.518 Y2.103 E5.28025
G1 X3.960 Y3.111 F7800.000
G1 X3.960 Y-6.600 E5.92626 F1600.721
G1 X6.600 Y-6.600 E6.10187
G1 X6.600 Y6.600 E6.97994
G1 X4.311 Y6.600 E7.13217
G1 X-6.600 Y-4.311 E8.15866
G1 X-6.600 Y-7.449 E8.36734
G1 X3.918 Y3.069 E9.35677
G1 X4.360 Y4.077 F7800.000
G1 X4.360 Y-6.200 E10.04040 F1120.505
G1 X6.200 Y-6.200 E10.16280
G1 X6.200 Y6.200 E10.98765
G1 X4.477 Y6.200 E11.10226
G1 X-6.200 Y-4.477 E12.10670
G1 X-6.200 Y-6.483 E12.24012
G1 X4.318 Y4.035 E13.22955
G1 X4.256 Y3.691 F7800.000
G1 F1800.000 E12.22955
G92 E0
G1 X7.400 Y7.400 F7800.000
G1 E1.00000 F1800.000
G1 X7.400 Y-7.400 E1.98450 F1600.721
G1 X3.160 Y-7.400 E2.26655
G1 X3.160 Y1.180 E2.83730
G1 X-6.620 Y-8.600 E3.75735
G1 X8.600 Y-8.600 E4.76979
G1 X8.600 Y8.600 E5.91394
G1 X-8.600 Y8.600 E7.05809
G1 X-8.600 Y-8.600 E8.20224
G1 X-7.400 Y-8.600 E8.28206
G1 X-7.400 Y-3.980 E8.58938
G1 X3.980 Y7.400 E9.65995
G1 X7.340 Y7.400 E9.88345
G1 X9.000 Y9.000 F7800.000
G1 X-9.000 Y9.000 E11.08082 F1600.721
G1 X-9.000 Y-9.000 E12.27818
G1 X9.000 Y-9.000 E13.47555
G1 X9.000 Y8.940 E14.66892
G1 X9.400 Y9.400 F7800.000
G1 X-9.400 Y9.400 E15.91950 F1600.721
G1 X-9.400 Y-9.400 E17.17008
G1 X9.400 Y-9.400 E18.42066
G1 X9.400 Y9.340 E19.66725
G1 X9.800 Y9.800 F7800.000
G1 X-9.800 Y9.800 E20.97105 F1120.505
G1 X-9.800 Y-9.800 E22.27485
G1 X9.800 Y-9.800 E23.57865
G1 X9.800 Y9.740 E24.87845
G1 X9.454 Y9.600 F7800.000
G1 X8.326 Y8.286 F7800.000
G1 X8.286 Y8.326 E24.88236 F3201.442
G1 X7.693 Y8.326 E24.92338
G1 X8.326 Y7.693 E24.98530
G1 X8.326 Y7.100 E25.02632
G1 X7.100 Y8.326 E25.14624
G1 X6.507 Y8.326 E25.18726
G1 X7.159 Y7.674 E25.25110
G1 X6.566 Y7.674 E25.29212
G1 X5.913 Y8.326 E25.35596
G1 X5.320 Y8.326 E25.39698
G1 X5.973 Y7.674 E25.46082
G1 X5.380 Y7.674 E25.50183
G1 X4.727 Y8.326 E25.56567
G1 X4.133 Y8.326 E25.60669
G1 X4.786 Y7.674 E25.67053
G1 X4.193 Y7.674 E25.71155
G1 X3.540 Y8.326 E25.77539
G1 X2.947 Y8.326 E25.81641
G1 X3.733 Y7.540 E25.89331
G1 X3.437 Y7.243 E25.92231
G1 X2.353 Y8.326 E26.02822
G1 X1.760 Y8.326 E26.06924
G1 X3.140 Y6.947 E26.20415
G1 X2.843 Y6.650 E26.23315
G1 X1.167 Y8.326 E26.39707
G1 X0.573 Y8.326 E26.43809
G1 X2.547 Y6.353 E26.63100
G1 X2.250 Y6.057 E26.66001
G1 X-0.020 Y8.326 E26.88193
G1 X-0.613 Y8.326 E26.92295
G1 X1.953 Y5.760 E27.17388
G1 X1.657 Y5.463 E27.20288
G1 X-1.207 Y8.326 E27.48281
G1 X-1.800 Y8.326 E27.52383
G1 X1.360 Y5.167 E27.83276
G1 X1.063 Y4.870 E27.86177
G1 X-2.393 Y8.326 E28.19971
G1 X-2.987 Y8.326 E28.24072
G1 X0.767 Y4.573 E28.60767
G1 X0.470 Y4.277 E28.63667
G1 X-3.580 Y8.326 E29.03262
G1 X-4.173 Y8.326 E29.07363
G1 X0.173 Y3.980 E29.49858
G1 X-0.123 Y3.683 E29.52759
G1 X-4.767 Y8.326 E29.98154
G1 X-5.360 Y8.326 E30.02256
G1 X-0.420 Y3.387 E30.50552
G1 X-0.717 Y3.090 E30.53452
G1 X-5.953 Y8.326 E31.04648
G1 X-6.547 Y8.326 E31.08750
G1 X-1.013 Y2.793 E31.62847
G1 X-1.310 Y2.497 E31.65747
G1 X-7.140 Y8.326 E32.22744
G1 X-7.733 Y8.326 E32.26846
G1 X-1.607 Y2.200 E32.86743
G1 X-1.903 Y1.903 E32.89644
G1 X-8.306 Y8.306 E33.52246
G1 X-8.326 Y7.733 E33.56212
G1 X-2.200 Y1.607 E34.16109
G1 X-2.497 Y1.310 E34.19010
G1 X-8.326 Y7.140 E34.76007
G1 X-8.326 Y6.547 E34.80108
G1 X-2.793 Y1.013 E35.34205
G1 X-3.090 Y0.717 E35.37105
G1 X-8.326 Y5.953 E35.88302
G1 X-8.326 Y5.360 E35.92403
G1 X-3.387 Y0.420 E36.40699
G1 X-3.683 Y0.123 E36.43600
G1 X-8.326 Y4.767 E36.88995
G1 X-8.326 Y4.173 E36.93097
G1 X-3.980 Y-0.173 E37.35592
G1 X-4.277 Y-0.470 E37.38492
G1 X-8.326 Y3.580 E37.78087
G1 X-8.326 Y2.987 E37.82189
G1 X-4.573 Y-0.767 E38.18883
G1 X-4.870 Y-1.063 E38.21783
G1 X-8.326 Y2.393 E38.55577
G1 X-8.326 Y1.800 E38.59679
G1 X-5.167 Y-1.360 E38.90572
G1 X-5.463 Y-1.657 E38.93473
G1 X-8.326 Y1.207 E39.21466
G1 X-8.326 Y0.613 E39.25568
G1 X-5.760 Y-1.953 E39.50660
G1 X-6.057 Y-2.250 E39.53561
G1 X-8.326 Y0.020 E39.75753
G1 X-8.326 Y-0.573 E39.79855
G1 X-6.353 Y-2.547 E39.99147
G1 X-6.650 Y-2.843 E40.02047
G1 X-8.326 Y-1.167 E40.18438
G1 X-8.326 Y-1.760 E40.22540
G1 X-6.947 Y-3.140 E40.36031
G1 X-7.243 Y-3.437 E40.38932
G1 X-8.326 Y-2.353 E40.49522
G1 X-8.326 Y-2.947 E40.53624
G1 X-7.540 Y-3.733 E40.61315
G1 X-7.674 Y-4.193 E40.64624
G1 X-8.326 Y-3.540 E40.71008
G1 X-8.326 Y-4.133 E40.75110
G1 X-7.674 Y-4.786 E40.81494
G1 X-7.674 Y-5.380 E40.85596
G1 X-8.326 Y-4.727 E40.91980
G1 X-8.326 Y-5.320 E40.96081
G1 X-7.674 Y-5.973 E41.02465
G1 X-7.674 Y-6.566 E41.06567
G1 X-8.326 Y-5.913 E41.12951
G1 X-8.326 Y-6.507 E41.17053
G1 X-7.674 Y-7.159 E41.23437
G1 X-7.674 Y-7.753 E41.27539
G1 X-8.326 Y-7.100 E41.33922
G1 X-8.326 Y-7.693 E41.38024
G1 X-7.693 Y-8.326 E41.44216
G1 X-8.286 Y-8.326 E41.48318
G1 X-8.326 Y-8.286 E41.48709
G1 X-5.936 Y-8.303 F7800.000
G1 X-5.913 Y-8.326 E41.48937 F3201.442
G1 X-5.640 Y-8.007 E41.51846
G1 X-5.320 Y-8.326 E41.54974
G1 X-4.727 Y-8.326 E41.59076
G1 X-5.343 Y-7.710 E41.65104
G1 X-5.047 Y-7.413 E41.68005
G1 X-4.133 Y-8.326 E41.76934
G1 X-3.540 Y-8.326 E41.81035
G1 X-4.750 Y-7.117 E41.92865
G1 X-4.453 Y-6.820 E41.95765
G1 X-2.947 Y-8.326 E42.10495
G1 X-2.353 Y-8.326 E42.14596
G1 X-4.157 Y-6.523 E42.32226
G1 X-3.860 Y-6.227 E42.35127
G1 X-1.760 Y-8.326 E42.55657
G1 X-1.167 Y-8.326 E42.59759
G1 X-3.563 Y-5.930 E42.83190
G1 X-3.267 Y-5.633 E42.86090
G1 X-0.573 Y-8.326 E43.12421
G1 X0.020 Y-8.326 E43.16523
G1 X-2.970 Y-5.337 E43.45755
G1 X-2.673 Y-5.040 E43.48655
G1 X0.613 Y-8.326 E43.80787
G1 X1.207 Y-8.326 E43.84889
G1 X-2.377 Y-4.743 E44.19921
G1 X-2.080 Y-4.447 E44.22822
G1 X1.800 Y-8.326 E44.60754
G1 X2.393 Y-8.326 E44.64856
G1 X-1.783 Y-4.150 E45.05689
G1 X-1.487 Y-3.853 E45.08590
G1 X2.987 Y-8.326 E45.52323
G1 X3.580 Y-8.326 E45.56425
G1 X-1.190 Y-3.557 E46.03059
G1 X-0.893 Y-3.260 E46.05959
G1 X2.886 Y-7.040 E46.42913
G1 X2.886 Y-6.446 E46.47015
G1 X-0.597 Y-2.963 E46.81069
G1 X-0.300 Y-2.667 E46.83969
G1 X2.886 Y-5.853 E47.15122
G1 X2.886 Y-5.260 E47.19224
G1 X-0.003 Y-2.370 E47.47477
G1 X0.293 Y-2.073 E47.50377
G1 X2.886 Y-4.666 E47.75730
G1 X2.886 Y-4.073 E47.79831
G1 X0.590 Y-1.777 E48.02284
G1 X0.887 Y-1.480 E48.05184
G1 X2.886 Y-3.480 E48.24736
G1 X2.886 Y-2.886 E48.28837
G1 X1.183 Y-1.183 E48.45489
G1 X1.480 Y-0.887 E48.48389
G1 X2.886 Y-2.293 E48.62140
G1 X2.886 Y-1.700 E48.66242
G1 X1.777 Y-0.590 E48.77092
G1 X2.073 Y-0.293 E48.79993
G1 X2.886 Y-1.107 E48.87943
G1 X2.886 Y-0.513 E48.92045
G1 X2.370 Y0.003 E48.97094
G1 X2.667 Y0.300 E48.99995
G1 X2.886 Y0.080 E49.02144
G1 F1800.000 E48.02144
G92 E0
G1 X-5.000 Y-9.000 F7800.000
G1 X-0.000 Y-12.000 F7800.000
G1 X10.000 Y-12.000 F7800.000
G1 X12.000 Y-4.000 F7800.000
G1 X9.000 Y-3.000 F7800.000
G1 X7.674 Y0.040 F7800.000
G1 E1.00000 F1800.000
G1 X8.326 Y-0.613 E1.06384 F3201.442
G1 X8.326 Y-1.207 E1.10486
G1 X7.674 Y-0.554 E1.16870
G1 X7.674 Y-1.147 E1.20971
G1 X8.326 Y-1.800 E1.27355
G1 X8.326 Y-2.393 E1.31457
G1 X7.674 Y-1.740 E1.37841
G1 X7.674 Y-2.334 E1.41943
G1 X8.326 Y-2.987 E1.48327
G1 X8.326 Y-3.580 E1.52429
G1 X7.674 Y-2.927 E1.58813
G1 X7.674 Y-3.520 E1.62915
G1 X8.326 Y-4.173 E1.69298
G1 X8.326 Y-4.767 E1.73400
G1 X7.674 Y-4.114 E1.79784
G1 X7.674 Y-4.707 E1.83886
G1 X8.326 Y-5.360 E1.90270
G1 X8.326 Y-5.953 E1.94372
G1 X7.674 Y-5.300 E2.00756
G1 X7.674 Y-5.894 E2.04858
G1 X8.326 Y-6.547 E2.11241
G1 X8.326 Y-7.140 E2.15343
G1 X7.674 Y-6.487 E2.21727
G1 X7.674 Y-7.080 E2.25829
G1 X8.326 Y-7.733 E2.32213
G1 X8.306 Y-8.306 E2.36179
G1 X7.674 Y-7.674 E2.42367
G1 X7.080 Y-7.674 E2.46469
G1 X7.733 Y-8.326 E2.52853
G1 X7.140 Y-8.326 E2.56955
G1 X6.487 Y-7.674 E2.63339
G1 X5.894 Y-7.674 E2.67441
G1 X6.547 Y-8.326 E2.73825
G1 X5.953 Y-8.326 E2.77926
G1 X5.300 Y-7.674 E2.84310
G1 X4.707 Y-7.674 E2.88412
G1 X5.360 Y-8.326 E2.94796
G1 X4.767 Y-8.326 E2.98898
G1 X4.114 Y-7.674 E3.05282
G1 X3.520 Y-7.674 E3.09384
G1 X4.173 Y-8.326 E3.15768
G1 F1800.000 E2.15768
G92 E0
G1 X5.000 Y-9.000 F7800.000
G1 X10.000 Y-12.000 F7800.000
G1 X12.000 Y-4.000 F7800.000
G1 X9.000 Y-3.000 F7800.000
G1 X8.326 Y-0.020 F7800.000
G1 E1.00000 F1800.000
G1 X7.674 Y0.633 E1.06384 F3201.442
G1 X7.674 Y1.226 E1.10486
G1 X8.326 Y0.573 E1.16870
G1 X8.326 Y1.167 E1.20971
G1 X7.674 Y1.820 E1.27355
G1 X7.674 Y2.413 E1.31457
G1 X8.326 Y1.760 E1.37841
G1 X8.326 Y2.353 E1.41943
G1 X7.674 Y3.006 E1.48327
G1 X7.674 Y3.600 E1.52429
G1 X8.326 Y2.947 E1.58813
G1 X8.326 Y3.540 E1.62914
G1 X7.674 Y4.193 E1.69298
G1 X7.674 Y4.786 E1.73400
G1 X8.326 Y4.133 E1.79784
G1 X8.326 Y4.727 E1.83886
G1 X7.674 Y5.380 E1.90270
G1 X7.674 Y5.973 E1.94372
G1 X8.326 Y5.320 E2.00756
G1 X8.326 Y5.913 E2.04857
G1 X7.674 Y6.566 E2.11241
G1 X7.674 Y7.159 E2.15343
G1 X8.326 Y6.507 E2.21727
G1 F1800.000 E1.21727
G92 E0
G1 Z1.200 F7800.000
G1 X9.000 Y-3.000 F7800.000
G1 X12.000 Y-4.000 F7800.000
G1 X10.000 Y-12.000 F7800.000
G1 X-0.000 Y-12.000 F7800.000
G1 X-5.000 Y-9.000 F7800.000
G1 X2.600 Y1.186 F7800.000
G1 E1.00000 F1800.000
G1 X2.600 Y-7.000 E1.54452 F1537.230
G1 X7.000 Y-7.000 E1.83721
G1 X7.000 Y7.000 E2.76849
G1 X3.186 Y7.000 E3.02222
G1 X-7.000 Y-3.186 E3.98043
G1 X-7.000 Y-8.414 E4.32823
G1 X2.558 Y1.143 E5.22735
G1 X3.000 Y2.151 F7800.000
G1 X3.000 Y-6.600 E5.80950 F1537.230
G1 X6.600 Y-6.600 E6.04897
G1 X6.600 Y6.600 E6.92704
G1 X3.351 Y6.600 E7.14313
G1 X-6.600 Y-3.351 E8.07930
G1 X-6.600 Y-7.449 E8.35184
G1 X2.958 Y2.109 E9.25096
G1 X3.400 Y3.117 F7800.000
G1 X3.400 Y-6.200 E9.87074 F1076.061
G1 X6.200 Y-6.200 E10.05700
G1 X6.200 Y6.200 E10.88185
G1 X3.517 Y6.200 E11.06031
G1 X-6.200 Y-3.517 E11.97444
G1 X-6.200 Y-6.483 E12.17172
G1 X3.358 Y3.075 E13.07084
G1 X3.296 Y2.731 F7800.000
G1 F1800.000 E12.07084
G92 E0
G1 X7.400 Y7.400 F7800.000
G1 E1.00000 F1800.000
G1 X7.400 Y-7.400 E1.98450 F1537.230
G1 X2.200 Y-7.400 E2.33041
G1 X2.200 Y0.220 E2.83730
G1 X-6.620 Y-8.600 E3.66704
G1 X8.600 Y-8.600 E4.67948
G1 X8.600 Y8.600 E5.82363
G1 X-8.600 Y8.600 E6.96778
G1 X-8.600 Y-8.600 E8.11193
G1 X-7.400 Y-8.600 E8.19175
G1 X-7.400 Y-3.020 E8.56293
G1 X3.020 Y7.400 E9.54319
G1 X7.340 Y7.400 E9.83055
G1 X9.000 Y9.000 F7800.000
G1 X-9.000 Y9.000 E11.02791 F1537.230
G1 X-9.000 Y-9.000 E12.22528
G1 X9.000 Y-9.000 E13.42264
G1 X9.000 Y8.940 E14.61602
G1 X9.400 Y9.400 F7800.000
G1 X-9.400 Y9.400 E15.86660 F1537.230
G1 X-9.400 Y-9.400 E17.11718
G1 X9.400 Y-9.400 E18.36776
G1 X9.400 Y9.340 E19.61435
G1 X9.800 Y9.800 F7800.000
G1 X-9.800 Y9.800 E20.91815 F1076.061
G1 X-9.800 Y-9.800 E22.22195
G1 X9.800 Y-9.800 E23.52574
G1 X9.800 Y9.740 E24.82555
G1 X9.454 Y9.600 F7800.000
G1 X-8.286 Y8.326 F7800.000
G1 X-8.326 Y8.286 E24.82946 F3074.461
G1 X-8.326 Y7.693 E24.87048
G1 X-7.693 Y8.326 E24.93240
G1 X-7.100 Y8.326 E24.97341
G1 X-8.326 Y7.100 E25.09334
G1 X-8.326 Y6.507 E25.13436
G1 X-6.507 Y8.326 E25.31229
G1 X-5.913 Y8.326 E25.35331
G1 X-8.326 Y5.913 E25.58925
G1 X-8.326 Y5.320 E25.63027
G1 X-5.320 Y8.326 E25.92422
G1 X-4.727 Y8.326 E25.96524
G1 X-8.326 Y4.727 E26.31719
G1 X-8.326 Y4.133 E26.35821
G1 X-4.133 Y8.326 E26.76818
G1 X-3.540 Y8.326 E26.80920
G1 X-8.326 Y3.540 E27.27717
G1 X-8.326 Y2.947 E27.31819
G1 X-2.947 Y8.326 E27.84417
G1 X-2.353 Y8.326 E27.88519
G1 X-8.326 Y2.353 E28.46918
G1 X-8.326 Y1.760 E28.51019
G1 X-1.760 Y8.326 E29.15219
G1 X-1.167 Y8.326 E29.19321
G1 X-8.326 Y1.167 E29.89321
G1 X-8.326 Y0.573 E29.93423
G1 X-0.573 Y8.326 E30.69224
G1 X0.020 Y8.326 E30.73326
G1 X-8.326 Y-0.020 E31.54928
G1 X-8.326 Y-0.613 E31.59030
G1 X0.613 Y8.326 E32.46433
G1 X1.207 Y8.326 E32.50534
G1 X-8.326 Y-1.207 E33.43738
G1 X-8.326 Y-1.800 E33.47840
G1 X1.800 Y8.326 E34.46844
G1 X2.393 Y8.326 E34.50946
