; generated by Slic3r 1.2.9 on 2015-11-09 at 13:56:40

; external perimeters extrusion width = 0.45mm
; perimeters extrusion width = 0.47mm
; infill extrusion width = 0.47mm
; solid infill extrusion width = 0.47mm
; top infill extrusion width = 0.47mm

M104 S200 ; set temperature
G28 ; home all axes
G1 Y-80Z50 F5000 ; lift nozzle

M109 S200 ; wait for temperature to be reached
G21 ; set units to millimeters
G90 ; use absolute coordinates
M82 ; use absolute distances for extrusion
G92 E0
G1 E-3.50000 F1800.00000
G92 E0
G1 Z0.450 F9000.000
G1 X0.000 Y26.427 F9000.000
G1 E3.50000 F1800.00000
G1 X-25.000 Y26.427 E7.25780 F1800.000
G1 X-29.116 Y26.028 E7.87941
G1 X-33.079 Y24.846 E8.50102
G1 X-36.741 Y22.924 E9.12263
G1 X-39.965 Y20.335 E9.74424
G1 X-42.633 Y17.175 E10.36585
G1 X-44.643 Y13.561 E10.98745
G1 X-45.922 Y9.628 E11.60906
G1 X-46.427 Y5.000 E12.30887
G1 X-46.427 Y-5.000 E13.81199
G1 X-46.028 Y-9.116 E14.43360
G1 X-44.846 Y-13.079 E15.05520
G1 X-42.924 Y-16.741 E15.67681
G1 X-40.335 Y-19.965 E16.29842
G1 X-37.175 Y-22.633 E16.92003
G1 X-33.561 Y-24.643 E17.54164
G1 X-29.628 Y-25.922 E18.16325
G1 X-25.000 Y-26.427 E18.86305
G1 X25.000 Y-26.427 E26.37866
G1 X29.116 Y-26.028 E27.00026
G1 X33.079 Y-24.846 E27.62187 F1800.000
G1 X36.741 Y-22.924 E28.24348
G1 X39.965 Y-20.335 E28.86509
G1 X42.633 Y-17.175 E29.48670
G1 X44.643 Y-13.561 E30.10831
G1 X45.922 Y-9.628 E30.72991
G1 X46.427 Y-5.000 E31.42972
G1 X46.427 Y5.000 E32.93284
G1 X46.028 Y9.116 E33.55445
G1 X44.846 Y13.079 E34.17606
G1 X42.924 Y16.741 E34.79766
G1 X40.335 Y19.965 E35.41927
G1 X37.175 Y22.633 E36.04088
G1 X33.561 Y24.643 E36.66249
G1 X29.628 Y25.922 E37.28410
G1 X25.000 Y26.427 E37.98390
G1 X0.067 Y26.427 E41.73156
G1 X0.067 Y25.624 F9000.000
G1 X-25.000 Y25.624 E45.49951 F1800.000
G1 X-29.037 Y25.225 E46.10932
G1 X-32.918 Y24.043 E46.71914
G1 X-36.493 Y22.125 E47.32895
G1 X-39.623 Y19.544 E47.93877
G1 X-42.187 Y16.400 E48.54859
G1 X-44.086 Y12.815 E49.15840
G1 X-45.247 Y8.927 E49.76822
G1 X-45.624 Y5.000 E50.36122
G1 X-45.624 Y-5.000 E51.86434
G1 X-45.225 Y-9.037 E52.47415
G1 X-44.043 Y-12.918 E53.08397
G1 X-42.125 Y-16.493 E53.69378
G1 X-39.544 Y-19.623 E54.30360
G1 X-36.400 Y-22.187 E54.91342
G1 X-32.815 Y-24.086 E55.52323
G1 X-28.927 Y-25.247 E56.13305
G1 X-25.000 Y-25.624 E56.72605
G1 X25.000 Y-25.624 E64.24165
G1 X29.037 Y-25.225 E64.85147
G1 X32.918 Y-24.043 E65.46128 F1800.000
G1 X36.493 Y-22.125 E66.07110
G1 X39.623 Y-19.544 E66.68092
G1 X42.187 Y-16.400 E67.29073
G1 X44.086 Y-12.815 E67.90055
G1 X45.247 Y-8.927 E68.51036
G1 X45.624 Y-5.000 E69.10336
G1 X45.624 Y5.000 E70.60648
G1 X45.225 Y9.037 E71.21630
G1 X44.043 Y12.918 E71.82611
G1 X42.125 Y16.493 E72.43593
G1 X39.544 Y19.623 E73.04575
G1 X36.400 Y22.187 E73.65556
G1 X32.815 Y24.086 E74.26538
G1 X28.927 Y25.247 E74.87519
G1 X25.000 Y25.624 E75.46819
G1 X0.135 Y25.624 E79.20570
G1 X0.135 Y24.821 F9000.000
G1 X-25.000 Y24.821 E82.98380 F1800.000
G1 X-28.957 Y24.422 E83.58159
G1 X-32.755 Y23.241 E84.17938
G1 X-36.240 Y21.325 E84.77717
G1 X-39.273 Y18.753 E85.37496
G1 X-41.731 Y15.627 E85.97275
G1 X-43.516 Y12.073 E86.57054
G1 X-44.555 Y8.234 E87.16833
G1 X-44.821 Y5.000 E87.65603
G1 X-44.821 Y-5.000 E89.15916
G1 X-44.422 Y-8.957 E89.75695
G1 X-43.241 Y-12.755 E90.35474
G1 X-41.325 Y-16.240 E90.95253
G1 X-38.753 Y-19.273 E91.55032
G1 X-35.627 Y-21.731 E92.14811
G1 X-32.073 Y-23.516 E92.74590
G1 X-28.234 Y-24.555 E93.34369
G1 X-25.000 Y-24.821 E93.83139
G1 X25.000 Y-24.821 E101.34700
G1 X28.957 Y-24.422 E101.94479
G1 X32.755 Y-23.241 E102.54258 F1800.000
G1 X36.240 Y-21.325 E103.14037
G1 X39.273 Y-18.753 E103.73816
G1 X41.731 Y-15.627 E104.33595
G1 X43.516 Y-12.073 E104.93374
G1 X44.555 Y-8.234 E105.53153
G1 X44.821 Y-5.000 E106.01923
G1 X44.821 Y5.000 E107.52235
G1 X44.422 Y8.957 E108.12014
G1 X43.241 Y12.755 E108.71793
G1 X41.325 Y16.240 E109.31572
G1 X38.753 Y19.273 E109.91351
G1 X35.627 Y21.731 E110.51130
G1 X32.073 Y23.516 E111.10909
G1 X28.234 Y24.555 E111.70688
G1 X25.000 Y24.821 E112.19459
G1 X0.202 Y24.821 E115.92195
G1 X0.202 Y24.017 F9000.000
G1 X-25.000 Y24.017 E119.71019 F1800.000
G1 X-28.875 Y23.618 E120.29571
G1 X-32.587 Y22.438 E120.88123
G1 X-35.981 Y20.526 E121.46675
G1 X-38.914 Y17.963 E122.05226
G1 X-41.264 Y14.856 E122.63778
G1 X-42.931 Y11.335 E123.22330
G1 X-43.846 Y7.549 E123.80882
G1 X-44.017 Y5.000 E124.19284
G1 X-44.017 Y-5.000 E125.69596
G1 X-43.618 Y-8.875 E126.28148
G1 X-42.438 Y-12.587 E126.86700
G1 X-40.526 Y-15.981 E127.45251
G1 X-37.963 Y-18.914 E128.03803
G1 X-34.856 Y-21.264 E128.62355
G1 X-31.335 Y-22.931 E129.20907
G1 X-27.549 Y-23.846 E129.79458
G1 X-25.000 Y-24.017 E130.17861
G1 X25.000 Y-24.017 E137.69421
G1 X28.875 Y-23.618 E138.27973
G1 X32.587 Y-22.438 E138.86525 F1800.000
G1 X35.981 Y-20.526 E139.45077
G1 X38.914 Y-17.963 E140.03628
G1 X41.264 Y-14.856 E140.62180
G1 X42.931 Y-11.335 E141.20732
G1 X43.846 Y-7.549 E141.79284
G1 X44.017 Y-5.000 E142.17686
G1 X44.017 Y5.000 E143.67998
G1 X43.618 Y8.875 E144.26550
G1 X42.438 Y12.587 E144.85102
G1 X40.526 Y15.981 E145.43653
G1 X37.963 Y18.914 E146.02205
G1 X34.856 Y21.264 E146.60757
G1 X31.335 Y22.931 E147.19309
G1 X27.549 Y23.846 E147.77861
G1 X25.000 Y24.017 E148.16263
G1 X0.270 Y24.017 E151.87985
G1 X0.270 Y23.214 F9000.000
G1 X-25.000 Y23.214 E155.67823 F1800.000
G1 X-28.791 Y22.815 E156.25122
G1 X-32.416 Y21.636 E156.82420
G1 X-35.716 Y19.728 E157.39718
G1 X-38.547 Y17.175 E157.97016
G1 X-40.784 Y14.088 E158.54315
G1 X-42.330 Y10.604 E159.11613
G1 X-43.214 Y5.000 E159.96888
G1 X-43.214 Y-5.000 E161.47200
G1 X-42.815 Y-8.791 E162.04498
G1 X-41.636 Y-12.416 E162.61797
G1 X-39.728 Y-15.716 E163.19095
G1 X-37.175 Y-18.547 E163.76393
G1 X-34.088 Y-20.784 E164.33691
G1 X-30.604 Y-22.330 E164.90990
G1 X-25.000 Y-23.214 E165.76265
G1 X25.000 Y-23.214 E173.27825
G1 X28.791 Y-22.815 E173.85124
G1 X32.416 Y-21.636 E174.42422 F1800.000
G1 X35.716 Y-19.728 E174.99720
G1 X38.547 Y-17.175 E175.57019
G1 X40.784 Y-14.088 E176.14317
G1 X42.330 Y-10.604 E176.71615
G1 X43.214 Y-5.000 E177.56890
G1 X43.214 Y5.000 E179.07202
G1 X42.815 Y8.791 E179.64500
G1 X41.636 Y12.416 E180.21799
G1 X39.728 Y15.716 E180.79097
G1 X37.175 Y18.547 E181.36395
G1 X34.088 Y20.784 E181.93693
G1 X30.604 Y22.330 E182.50992
G1 X25.000 Y23.214 E183.36267
G1 X0.337 Y23.214 E187.06974
G1 X0.337 Y22.410 F9000.000
G1 X-25.000 Y22.410 E190.87827 F1800.000
G1 X-28.705 Y22.011 E191.43844
G1 X-32.241 Y20.833 E191.99861
G1 X-35.445 Y18.929 E192.55878
G1 X-38.170 Y16.387 E193.11894
G1 X-40.292 Y13.324 E193.67911
G1 X-41.713 Y9.879 E194.23928
G1 X-42.410 Y5.000 E194.98007
G1 X-42.410 Y-5.000 E196.48319
G1 X-42.011 Y-8.705 E197.04336
G1 X-40.833 Y-12.241 E197.60352
G1 X-38.929 Y-15.445 E198.16369
G1 X-36.387 Y-18.170 E198.72386
G1 X-33.324 Y-20.292 E199.28403
G1 X-29.879 Y-21.713 E199.84419
G1 X-25.000 Y-22.410 E200.58498
G1 X25.000 Y-22.410 E208.10059
G1 X28.705 Y-22.011 E208.66076
G1 X32.241 Y-20.833 E209.22093 F1800.000
G1 X35.445 Y-18.929 E209.78109
G1 X38.170 Y-16.387 E210.34126
G1 X40.292 Y-13.324 E210.90143
G1 X41.713 Y-9.879 E211.46159
G1 X42.410 Y-5.000 E212.20239
G1 X42.410 Y5.000 E213.70551
G1 X42.011 Y8.705 E214.26567
G1 X40.833 Y12.241 E214.82584
G1 X38.929 Y15.445 E215.38601
G1 X36.387 Y18.170 E215.94618
G1 X33.324 Y20.292 E216.50634
G1 X29.879 Y21.713 E217.06651
G1 X25.000 Y22.410 E217.80730
G1 X0.405 Y22.410 E221.50423
G1 X0.405 Y21.607 F9000.000
G1 X-25.000 Y21.607 E225.32291 F1800.000
G1 X-28.618 Y21.208 E225.86996
G1 X-32.061 Y20.031 E226.41701
G1 X-35.166 Y18.132 E226.96406
G1 X-37.782 Y15.602 E227.51111
G1 X-39.785 Y12.563 E228.05816
G1 X-41.077 Y9.161 E228.60522
G1 X-41.607 Y5.000 E229.23566
G1 X-41.607 Y-5.000 E230.73878
G1 X-41.208 Y-8.618 E231.28583
G1 X-40.031 Y-12.061 E231.83288
G1 X-38.132 Y-15.166 E232.37993
G1 X-35.602 Y-17.782 E232.92698
G1 X-32.563 Y-19.785 E233.47404
G1 X-29.161 Y-21.077 E234.02109
G1 X-25.000 Y-21.607 E234.65153
G1 X25.000 Y-21.607 E242.16714
G1 X28.618 Y-21.208 E242.71419
G1 X32.061 Y-20.031 E243.26124 F1800.000
G1 X35.166 Y-18.132 E243.80829
G1 X37.782 Y-15.602 E244.35534
G1 X39.785 Y-12.563 E244.90239
G1 X41.077 Y-9.161 E245.44944
G1 X41.607 Y-5.000 E246.07989
G1 X41.607 Y5.000 E247.58301
G1 X41.208 Y8.618 E248.13006
G1 X40.031 Y12.061 E248.67711
G1 X38.132 Y15.166 E249.22416
G1 X35.602 Y17.782 E249.77121
G1 X32.563 Y19.785 E250.31826
G1 X29.161 Y21.077 E250.86532
G1 X25.000 Y21.607 E251.49576
G1 X0.472 Y21.607 E255.18254
G1 X0.472 Y20.803 F9000.000
G1 X-25.000 Y20.803 E259.01137 F1800.000
G1 X-28.528 Y20.405 E259.54498
G1 X-31.877 Y19.229 E260.07859
G1 X-34.880 Y17.335 E260.61221
G1 X-37.384 Y14.818 E261.14582
G1 X-39.263 Y11.806 E261.67943
G1 X-40.422 Y8.451 E262.21305
G1 X-40.803 Y5.000 E262.73488
G1 X-40.803 Y-5.000 E264.23801
G1 X-40.405 Y-8.528 E264.77162
G1 X-39.229 Y-11.877 E265.30523
G1 X-37.335 Y-14.880 E265.83885
G1 X-34.818 Y-17.384 E266.37246
G1 X-31.806 Y-19.263 E266.90607
G1 X-28.451 Y-20.422 E267.43969
G1 X-25.000 Y-20.803 E267.96153
G1 X25.000 Y-20.803 E275.47713
G1 X28.528 Y-20.405 E276.01075
G1 X31.877 Y-19.229 E276.54436 F1800.000
G1 X34.880 Y-17.335 E277.07797
G1 X37.384 Y-14.818 E277.61159
G1 X39.263 Y-11.806 E278.14520
G1 X40.422 Y-8.451 E278.67881
G1 X40.803 Y-5.000 E279.20065
G1 X40.803 Y5.000 E280.70377
G1 X40.405 Y8.528 E281.23739
G1 X39.229 Y11.877 E281.77100
G1 X37.335 Y14.880 E282.30461
G1 X34.818 Y17.384 E282.83823
G1 X31.806 Y19.263 E283.37184
G1 X28.451 Y20.422 E283.90545
G1 X25.000 Y20.803 E284.42729
G1 X0.540 Y20.803 E288.10393
G1 E284.60393 F1800.00000
G92 E0
G1 X-22.655 Y2.943 F9000.000
G1 E3.50000 F1800.00000
G1 X-22.943 Y2.943 E3.54327 F600.000
G1 X-22.943 Y-2.943 E4.42805
G1 X22.943 Y-2.943 E11.32532
G1 X22.943 Y2.943 E12.21010
G1 X-22.588 Y2.943 E19.05395 F600.000
G1 X-22.588 Y3.747 F9000.000
G1 X-23.747 Y3.747 E19.22813 F600.000
G1 X-23.747 Y-3.747 E20.35444
G1 X23.747 Y-3.747 E27.49323
G1 X23.747 Y3.747 E28.61954
G1 X-22.520 Y3.747 E35.57401 F600.000
G1 X-22.520 Y4.550 F9000.000
G1 X-24.550 Y4.550 E35.87911 F600.000
G1 X-24.550 Y-4.550 E37.24695
G1 X24.550 Y-4.550 E44.62727
G1 X24.550 Y4.550 E45.99511
G1 X-22.453 Y4.550 E53.06020 F600.000
G1 X-22.745 Y4.160 F9000.000
G1 X-22.070 Y2.451 F9000.000
G1 X-22.451 Y2.070 E53.14147 F2100.000
G1 X-22.451 Y0.929 E53.31354
G1 X-20.929 Y2.451 E53.63815
G1 X-19.789 Y2.451 E53.81023
G1 X-22.451 Y-0.211 E54.37819
G1 X-22.451 Y-1.352 E54.55026
G1 X-18.648 Y2.451 E55.36157
G1 X-17.508 Y2.451 E55.53365
G1 X-22.409 Y-2.451 E56.57946
G1 X-21.269 Y-2.451 E56.75153
G1 X-16.367 Y2.451 E57.79734
G1 X-15.227 Y2.451 E57.96942
G1 X-20.128 Y-2.451 E59.01523
G1 X-18.988 Y-2.451 E59.18730
G1 X-14.086 Y2.451 E60.23312
G1 X-12.946 Y2.451 E60.40519
G1 X-17.847 Y-2.451 E61.45100
G1 X-16.707 Y-2.451 E61.62308
G1 X-11.805 Y2.451 E62.66889
G1 X-10.665 Y2.451 E62.84096
G1 X-15.566 Y-2.451 E63.88678
G1 X-14.426 Y-2.451 E64.05885
G1 X-9.524 Y2.451 E65.10466
G1 X-8.384 Y2.451 E65.27674
G1 X-13.285 Y-2.451 E66.32255
G1 X-12.145 Y-2.451 E66.49462
G1 X-7.243 Y2.451 E67.54043
G1 X-6.103 Y2.451 E67.71251
G1 X-11.004 Y-2.451 E68.75832
G1 X-9.864 Y-2.451 E68.93039
G1 X-4.962 Y2.451 E69.97621
G1 X-3.822 Y2.451 E70.14828
G1 X-8.723 Y-2.451 E71.19409
G1 X-7.583 Y-2.451 E71.36617
G1 X-2.682 Y2.451 E72.41198
G1 X-1.541 Y2.451 E72.58405
G1 X-6.442 Y-2.451 E73.62987
G1 X-5.302 Y-2.451 E73.80194
G1 X-0.401 Y2.451 E74.84775
G1 X0.740 Y2.451 E75.01982
G1 X-4.161 Y-2.451 E76.06564
G1 X-3.021 Y-2.451 E76.23771
G1 X1.880 Y2.451 E77.28352
G1 X3.021 Y2.451 E77.45560
G1 X-1.880 Y-2.451 E78.50141
G1 X-0.740 Y-2.451 E78.67348
G1 X4.161 Y2.451 E79.71930
G1 X5.302 Y2.451 E79.89137
G1 X0.401 Y-2.451 E80.93718
G1 X1.541 Y-2.451 E81.10926
G1 X6.442 Y2.451 E82.15507
G1 X7.583 Y2.451 E82.32714
G1 X2.682 Y-2.451 E83.37296
G1 X3.822 Y-2.451 E83.54503
G1 X8.723 Y2.451 E84.59084
G1 X9.864 Y2.451 E84.76291
G1 X4.962 Y-2.451 E85.80873
G1 X6.103 Y-2.451 E85.98080
G1 X11.004 Y2.451 E87.02661
G1 X12.145 Y2.451 E87.19869
G1 X7.243 Y-2.451 E88.24450
G1 X8.384 Y-2.451 E88.41657
G1 X13.285 Y2.451 E89.46239
G1 X14.426 Y2.451 E89.63446
G1 X9.524 Y-2.451 E90.68027
G1 X10.665 Y-2.451 E90.85235
G1 X15.566 Y2.451 E91.89816
G1 X16.707 Y2.451 E92.07023
G1 X11.805 Y-2.451 E93.11604
G1 X12.946 Y-2.451 E93.28812
G1 X17.847 Y2.451 E94.33393
G1 X18.988 Y2.451 E94.50600
G1 X14.086 Y-2.451 E95.55182
G1 X15.227 Y-2.451 E95.72389
G1 X20.128 Y2.451 E96.76970
G1 X21.269 Y2.451 E96.94178
G1 X16.367 Y-2.451 E97.98759
G1 X17.508 Y-2.451 E98.15966
G1 X22.409 Y2.451 E99.20548
G1 X22.451 Y1.352 E99.37141
G1 X18.648 Y-2.451 E100.18272
G1 X19.789 Y-2.451 E100.35480
G1 X22.451 Y0.211 E100.92276
G1 X22.451 Y-0.929 E101.09483
G1 X20.929 Y-2.451 E101.41945
G1 X22.070 Y-2.451 E101.59152
G1 X22.451 Y-2.070 E101.67279
M106 S204
G1 E98.17279 F1800.00000
G92 E0
G1 Z0.900 F9000.000
G1 X-9.647 Y4.034 F9000.000
G1 E3.50000 F1800.00000
G1 X-24.034 Y4.034 E4.51190 F1200.000
G1 X-24.034 Y-4.034 E5.07939
G1 X24.034 Y-4.034 E8.46016
G1 X24.034 Y4.034 E9.02765
G1 X-9.579 Y4.034 E11.39178 F1200.000
G1 X-9.579 Y4.410 F9000.000
G1 X-24.410 Y4.410 E12.43486 F1200.000
G1 X-24.410 Y-4.410 E13.05524
G1 X24.410 Y-4.410 E16.48889
G1 X24.410 Y4.410 E17.10926
G1 X-9.512 Y4.410 E19.49508 F1200.000
G1 X-9.512 Y4.775 F9000.000
G1 X-24.775 Y4.775 E20.50431 F1200.000
G1 X-24.775 Y-4.775 E21.13578
G1 X24.775 Y-4.775 E24.41215
G1 X24.775 Y4.775 E25.04362
G1 X-9.444 Y4.775 E27.30629 F1200.000
G1 X-9.737 Y4.385 F9000.000
G1 E23.80629 F1800.00000
G92 E0
G1 X-23.779 Y-3.527 F9000.000
G1 E3.50000 F1800.00000
G1 X-23.527 Y-3.779 E3.52374 F6000.000
G1 X-22.818 Y-3.779 E3.57095
G1 X-23.779 Y-2.818 E3.66145
G1 X-23.779 Y-2.108 E3.70866
G1 X-22.108 Y-3.779 E3.86593
G1 X-21.399 Y-3.779 E3.91314
G1 X-23.779 Y-1.399 E4.13718
G1 X-23.779 Y-0.690 E4.18439
G1 X-20.690 Y-3.779 E4.47519
G1 X-19.981 Y-3.779 E4.52240
G1 X-23.779 Y0.019 E4.87997
G1 X-23.779 Y0.729 E4.92718
G1 X-19.271 Y-3.779 E5.35152
G1 X-18.562 Y-3.779 E5.39873
G1 X-23.779 Y1.438 E5.88983
G1 X-23.779 Y2.147 E5.93704
G1 X-17.853 Y-3.779 E6.49491
G1 X-17.144 Y-3.779 E6.54212
G1 X-23.779 Y2.856 E7.16676
G1 X-23.779 Y3.566 E7.21397
G1 X-16.434 Y-3.779 E7.90538
G1 X-15.725 Y-3.779 E7.95259
G1 X-23.283 Y3.779 E8.66408
G1 X-22.574 Y3.779 E8.71129
G1 X-15.016 Y-3.779 E9.42277
G1 X-14.307 Y-3.779 E9.46998
G1 X-21.865 Y3.779 E10.18147
G1 X-21.155 Y3.779 E10.22868
G1 X-13.597 Y-3.779 E10.94016
G1 X-12.888 Y-3.779 E10.98738
G1 X-20.446 Y3.779 E11.69886
G1 X-19.737 Y3.779 E11.74607
G1 X-12.179 Y-3.779 E12.45756
G1 X-11.470 Y-3.779 E12.50477
G1 X-19.028 Y3.779 E13.21625
G1 X-18.318 Y3.779 E13.26346
G1 X-10.760 Y-3.779 E13.97495
G1 X-10.051 Y-3.779 E14.02216
G1 X-17.609 Y3.779 E14.73365
G1 X-16.900 Y3.779 E14.78086
G1 X-9.342 Y-3.779 E15.49234
G1 X-8.633 Y-3.779 E15.53955
G1 X-16.191 Y3.779 E16.25104
G1 X-15.481 Y3.779 E16.29825
G1 X-7.924 Y-3.779 E17.00974
G1 X-7.214 Y-3.779 E17.05695
G1 X-14.772 Y3.779 E17.76843
G1 X-14.063 Y3.779 E17.81564
G1 X-6.505 Y-3.779 E18.52713
G1 X-5.796 Y-3.779 E18.57434
G1 X-13.354 Y3.779 E19.28583
G1 X-12.644 Y3.779 E19.33304
G1 X-5.087 Y-3.779 E20.04452
G1 X-4.377 Y-3.779 E20.09173
G1 X-11.935 Y3.779 E20.80322
G1 X-11.226 Y3.779 E20.85043
G1 X-3.668 Y-3.779 E21.56191
G1 X-2.959 Y-3.779 E21.60913
G1 X-10.517 Y3.779 E22.32061
G1 X-9.807 Y3.779 E22.36782
G1 X-2.250 Y-3.779 E23.07931
G1 X-1.540 Y-3.779 E23.12652
G1 X-9.098 Y3.779 E23.83800
G1 X-8.389 Y3.779 E23.88522
G1 X-0.831 Y-3.779 E24.59670
G1 X-0.122 Y-3.779 E24.64391
G1 X-7.680 Y3.779 E25.35540
G1 X-6.970 Y3.779 E25.40261
G1 X0.587 Y-3.779 E26.11409
G1 X1.297 Y-3.779 E26.16131
G1 X-6.261 Y3.779 E26.87279
G1 X-5.552 Y3.779 E26.92000
G1 X2.006 Y-3.779 E27.63149
G1 X2.715 Y-3.779 E27.67870
G1 X-4.843 Y3.779 E28.39018
G1 X-4.134 Y3.779 E28.43740
G1 X3.424 Y-3.779 E29.14888
G1 X4.134 Y-3.779 E29.19609
G1 X-3.424 Y3.779 E29.90758
G1 X-2.715 Y3.779 E29.95479
G1 X4.843 Y-3.779 E30.66627
G1 X5.552 Y-3.779 E30.71348
G1 X-2.006 Y3.779 E31.42497
G1 X-1.297 Y3.779 E31.47218
G1 X6.261 Y-3.779 E32.18367
G1 X6.970 Y-3.779 E32.23088
G1 X-0.587 Y3.779 E32.94236
G1 X0.122 Y3.779 E32.98957
G1 X7.680 Y-3.779 E33.70106
