; generated by Slic3r 1.2.9 on 2015-10-06 at 13:47:28

; external perimeters extrusion width = 0.50mm
; perimeters extrusion width = 0.58mm
; infill extrusion width = 0.58mm
; solid infill extrusion width = 0.58mm
; top infill extrusion width = 0.58mm

M104 S190 ; set temperature
G28 ; home all axes
G1 Z5 F5000 ; lift nozzle

M109 S190 ; wait for temperature to be reached
G21 ; set units to millimeters
G90 ; use absolute coordinates
M82 ; use absolute distances for extrusion
G92 E0
G1 E-3.50000 F1800.00000
G92 E0
G1 Z0.400 F9000.000
G1 X0.000 Y17.571 F9000.000
G1 E3.50000 F1800.00000
G1 X-50.000 Y17.571 E9.43826 F1800.000
G1 X-52.420 Y17.173 E9.72958
G1 X-54.587 Y16.023 E10.02089
G1 X-56.272 Y14.240 E10.31221
G1 X-57.298 Y12.013 E10.60353
G1 X-57.571 Y10.000 E10.84475
G1 X-57.571 Y-10.000 E13.22005
G1 X-57.173 Y-12.420 E13.51137
G1 X-56.023 Y-14.587 E13.80269
G1 X-54.240 Y-16.272 E14.09400
G1 X-52.013 Y-17.298 E14.38532
G1 X-50.000 Y-17.571 E14.62654
G1 X50.000 Y-17.571 E26.50306
G1 X52.420 Y-17.173 E26.79438
G1 X54.587 Y-16.023 E27.08569 F1800.000
G1 X56.272 Y-14.240 E27.37701
G1 X57.298 Y-12.013 E27.66833
G1 X57.571 Y-10.000 E27.90955
G1 X57.571 Y10.000 E30.28485
G1 X57.173 Y12.420 E30.57617
G1 X56.023 Y14.587 E30.86749
G1 X54.240 Y16.272 E31.15880
G1 X52.013 Y17.298 E31.45012
G1 X50.000 Y17.571 E31.69134
G1 X0.075 Y17.571 E37.62069
G1 X0.075 Y16.857 F9000.000
G1 X-50.000 Y16.857 E43.56786 F1800.000
G1 X-52.299 Y16.460 E43.84500
G1 X-54.333 Y15.314 E44.12214
G1 X-55.864 Y13.554 E44.39928
G1 X-56.716 Y11.381 E44.67642
G1 X-56.857 Y10.000 E44.84130
G1 X-56.857 Y-10.000 E47.21661
G1 X-56.460 Y-12.299 E47.49375
G1 X-55.314 Y-14.333 E47.77089
G1 X-53.554 Y-15.864 E48.04803
G1 X-51.381 Y-16.716 E48.32517
G1 X-50.000 Y-16.857 E48.49005
G1 X50.000 Y-16.857 E60.36657
G1 X52.299 Y-16.460 E60.64371
G1 X54.333 Y-15.314 E60.92085 F1800.000
G1 X55.864 Y-13.554 E61.19799
G1 X56.716 Y-11.381 E61.47513
G1 X56.857 Y-10.000 E61.64001
G1 X56.857 Y10.000 E64.01531
G1 X56.460 Y12.299 E64.29245
G1 X55.314 Y14.333 E64.56959
G1 X53.554 Y15.864 E64.84673
G1 X51.381 Y16.716 E65.12387
G1 X50.000 Y16.857 E65.28875
G1 X0.150 Y16.857 E71.20920
G1 X0.150 Y16.142 F9000.000
G1 X-50.000 Y16.142 E77.16527 F1800.000
G1 X-52.172 Y15.746 E77.42747
G1 X-54.063 Y14.607 E77.68967
G1 X-55.429 Y12.873 E77.95187
G1 X-56.142 Y10.000 E78.30340
G1 X-56.142 Y-10.000 E80.67870
G1 X-55.746 Y-12.172 E80.94090
G1 X-54.607 Y-14.063 E81.20310
G1 X-52.873 Y-15.429 E81.46530
G1 X-50.000 Y-16.142 E81.81683
G1 X50.000 Y-16.142 E93.69334
G1 X52.172 Y-15.746 E93.95554
G1 X54.063 Y-14.607 E94.21774 F1800.000
G1 X55.429 Y-12.873 E94.47994
G1 X56.142 Y-10.000 E94.83147
G1 X56.142 Y10.000 E97.20677
G1 X55.746 Y12.172 E97.46897
G1 X54.607 Y14.063 E97.73117
G1 X52.873 Y15.429 E97.99337
G1 X50.000 Y16.142 E98.34490
G1 X0.225 Y16.142 E104.25644
G1 X0.225 Y15.428 F9000.000
G1 X-50.000 Y15.428 E110.22142 F1800.000
G1 X-52.036 Y15.032 E110.46777
G1 X-53.775 Y13.901 E110.71412
G1 X-54.962 Y12.200 E110.96048
G1 X-55.428 Y10.000 E111.22758
G1 X-55.428 Y-10.000 E113.60289
G1 X-55.032 Y-12.036 E113.84924
G1 X-53.901 Y-13.775 E114.09559
G1 X-52.200 Y-14.962 E114.34194
G1 X-50.000 Y-15.428 E114.60905
G1 X50.000 Y-15.428 E126.48557
G1 X52.036 Y-15.032 E126.73192
G1 X53.775 Y-13.901 E126.97827 F1800.000
G1 X54.962 Y-12.200 E127.22463
G1 X55.428 Y-10.000 E127.49173
G1 X55.428 Y10.000 E129.86704
G1 X55.032 Y12.036 E130.11339
G1 X53.901 Y13.775 E130.35974
G1 X52.200 Y14.962 E130.60609
G1 X50.000 Y15.428 E130.87320
G1 X0.300 Y15.428 E136.77583
G1 X0.300 Y14.714 F9000.000
G1 X-50.000 Y14.714 E142.74972 F1800.000
G1 X-51.891 Y14.318 E142.97913
G1 X-53.464 Y13.198 E143.20855
G1 X-54.456 Y11.540 E143.43796
G1 X-54.714 Y10.000 E143.62341
G1 X-54.714 Y-10.000 E145.99871
G1 X-54.318 Y-11.891 E146.22812
G1 X-53.198 Y-13.464 E146.45754
G1 X-51.540 Y-14.456 E146.68695
G1 X-50.000 Y-14.714 E146.87240
G1 X50.000 Y-14.714 E158.74891
G1 X51.891 Y-14.318 E158.97833
G1 X53.464 Y-13.198 E159.20774 F1800.000
G1 X54.456 Y-11.540 E159.43716
G1 X54.714 Y-10.000 E159.62260
G1 X54.714 Y10.000 E161.99791
G1 X54.318 Y11.891 E162.22732
G1 X53.198 Y13.464 E162.45674
G1 X51.540 Y14.456 E162.68615
G1 X50.000 Y14.714 E162.87159
G1 X0.375 Y14.714 E168.76532
G1 E165.26532 F1800.00000
G92 E0
G1 X-39.706 Y8.172 F9000.000
G1 E3.50000 F1800.00000
G1 X-48.172 Y8.172 E4.50541 F600.000
G1 X-48.172 Y-8.172 E6.44643
G1 X48.172 Y-8.172 E17.88867
G1 X48.172 Y8.172 E19.82969
G1 X-39.631 Y8.172 E30.25761 F600.000
G1 X-39.631 Y8.886 F9000.000
G1 X-48.886 Y8.886 E31.35674 F600.000
G1 X-48.886 Y-8.886 E33.46740
G1 X48.886 Y-8.886 E45.07927
G1 X48.886 Y8.886 E47.18993
G1 X-39.556 Y8.886 E57.69376 F600.000
G1 X-39.556 Y9.600 F9000.000
G1 X-49.600 Y9.600 E58.88662 F600.000
G1 X-49.600 Y-9.600 E61.16691
G1 X49.600 Y-9.600 E72.94841
G1 X49.600 Y9.600 E75.22871
G1 X-39.481 Y9.600 E85.80845 F600.000
G1 X-39.806 Y9.167 F9000.000
G1 E82.30845 F1800.00000
G92 E0
G1 X-47.393 Y7.736 F9000.000
G1 E3.50000 F1800.00000
G1 X-47.736 Y7.393 E3.55769 F2100.000
G1 X-47.736 Y6.382 E3.67802
G1 X-46.382 Y7.736 E3.90587
G1 X-45.370 Y7.736 E4.02620
G1 X-47.736 Y5.370 E4.42421
G1 X-47.736 Y4.359 E4.54454
G1 X-44.359 Y7.736 E5.11272
G1 X-43.347 Y7.736 E5.23305
G1 X-47.736 Y3.347 E5.97139
G1 X-47.736 Y2.335 E6.09172
G1 X-42.335 Y7.736 E7.00023
G1 X-41.324 Y7.736 E7.12055
G1 X-47.736 Y1.324 E8.19922
G1 X-47.736 Y0.312 E8.31955
G1 X-40.312 Y7.736 E9.56838
G1 X-39.301 Y7.736 E9.68871
G1 X-47.736 Y-0.699 E11.10771
G1 X-47.736 Y-1.711 E11.22803
G1 X-38.289 Y7.736 E12.81720
G1 X-37.278 Y7.736 E12.93752
G1 X-47.736 Y-2.722 E14.69685
G1 X-47.736 Y-3.734 E14.81717
G1 X-36.266 Y7.736 E16.74667
G1 X-35.255 Y7.736 E16.86699
G1 X-47.736 Y-4.745 E18.96665
G1 X-47.736 Y-5.757 E19.08697
G1 X-34.243 Y7.736 E21.35679
G1 X-33.232 Y7.736 E21.47711
G1 X-47.736 Y-6.768 E23.91710
G1 X-47.692 Y-7.736 E24.03232
G1 X-32.220 Y7.736 E26.63510
G1 X-31.208 Y7.736 E26.75542
G1 X-46.681 Y-7.736 E29.35819
G1 X-45.669 Y-7.736 E29.47852
G1 X-30.197 Y7.736 E32.08129
G1 X-29.185 Y7.736 E32.20161
G1 X-44.658 Y-7.736 E34.80438
G1 X-43.646 Y-7.736 E34.92471
G1 X-28.174 Y7.736 E37.52748
G1 X-27.162 Y7.736 E37.64780
G1 X-42.635 Y-7.736 E40.25057
G1 X-41.623 Y-7.736 E40.37090
G1 X-26.151 Y7.736 E42.97367
G1 X-25.139 Y7.736 E43.09399
G1 X-40.611 Y-7.736 E45.69677
G1 X-39.600 Y-7.736 E45.81709
G1 X-24.128 Y7.736 E48.41986
G1 X-23.116 Y7.736 E48.54018
G1 X-38.588 Y-7.736 E51.14296
G1 X-37.577 Y-7.736 E51.26328
G1 X-22.105 Y7.736 E53.86605
G1 X-21.093 Y7.736 E53.98638
G1 X-36.565 Y-7.736 E56.58915
G1 X-35.554 Y-7.736 E56.70947
G1 X-20.081 Y7.736 E59.31224
G1 X-19.070 Y7.736 E59.43257
G1 X-34.542 Y-7.736 E62.03534
G1 X-33.531 Y-7.736 E62.15566
G1 X-18.058 Y7.736 E64.75843
G1 X-17.047 Y7.736 E64.87876
G1 X-32.519 Y-7.736 E67.48153
G1 X-31.508 Y-7.736 E67.60185
G1 X-16.035 Y7.736 E70.20463
G1 X-15.024 Y7.736 E70.32495
G1 X-30.496 Y-7.736 E72.92772
G1 X-29.484 Y-7.736 E73.04805
G1 X-14.012 Y7.736 E75.65082
G1 X-13.001 Y7.736 E75.77114
G1 X-28.473 Y-7.736 E78.37391
G1 X-27.461 Y-7.736 E78.49424
G1 X-11.989 Y7.736 E81.09701
G1 X-10.977 Y7.736 E81.21733
G1 X-26.450 Y-7.736 E83.82010
G1 X-25.438 Y-7.736 E83.94043
G1 X-9.966 Y7.736 E86.54320
G1 X-8.954 Y7.736 E86.66352
G1 X-24.427 Y-7.736 E89.26630
G1 X-23.415 Y-7.736 E89.38662
G1 X-7.943 Y7.736 E91.98939
G1 X-6.931 Y7.736 E92.10972
G1 X-22.404 Y-7.736 E94.71249
G1 X-21.392 Y-7.736 E94.83281
G1 X-5.920 Y7.736 E97.43558
G1 X-4.908 Y7.736 E97.55591
G1 X-20.381 Y-7.736 E100.15868
G1 X-19.369 Y-7.736 E100.27900
G1 X-3.897 Y7.736 E102.88177
G1 X-2.885 Y7.736 E103.00210
G1 X-18.357 Y-7.736 E105.60487
G1 X-17.346 Y-7.736 E105.72519
G1 X-1.874 Y7.736 E108.32797
G1 X-0.862 Y7.736 E108.44829
G1 X-16.334 Y-7.736 E111.05106
G1 X-15.323 Y-7.736 E111.17138
G1 X0.150 Y7.736 E113.77416
G1 X1.161 Y7.736 E113.89448
G1 X-14.311 Y-7.736 E116.49725
G1 X-13.300 Y-7.736 E116.61758
G1 X2.173 Y7.736 E119.22035
G1 X3.184 Y7.736 E119.34067
G1 X-12.288 Y-7.736 E121.94344
G1 X-11.277 Y-7.736 E122.06377
G1 X4.196 Y7.736 E124.66654
G1 X5.207 Y7.736 E124.78686
G1 X-10.265 Y-7.736 E127.38964
G1 X-9.254 Y-7.736 E127.50996
G1 X6.219 Y7.736 E130.11273
G1 X7.230 Y7.736 E130.23305
G1 X-8.242 Y-7.736 E132.83583
G1 X-7.230 Y-7.736 E132.95615
G1 X8.242 Y7.736 E135.55892
G1 X9.253 Y7.736 E135.67925
G1 X-6.219 Y-7.736 E138.28202
G1 X-5.207 Y-7.736 E138.40234
G1 X10.265 Y7.736 E141.00511
G1 X11.277 Y7.736 E141.12544
G1 X-4.196 Y-7.736 E143.72821
G1 X-3.184 Y-7.736 E143.84853
G1 X12.288 Y7.736 E146.45131
G1 X13.300 Y7.736 E146.57163
G1 X-2.173 Y-7.736 E149.17440
G1 X-1.161 Y-7.736 E149.29472
G1 X14.311 Y7.736 E151.89750
G1 X15.323 Y7.736 E152.01782
G1 X-0.150 Y-7.736 E154.62059
G1 X0.862 Y-7.736 E154.74092
G1 X16.334 Y7.736 E157.34369
G1 X17.346 Y7.736 E157.46401
G1 X1.874 Y-7.736 E160.06678
G1 X2.885 Y-7.736 E160.18711
G1 X18.357 Y7.736 E162.78988
G1 X19.369 Y7.736 E162.91020
G1 X3.897 Y-7.736 E165.51298
G1 X4.908 Y-7.736 E165.63330
G1 X20.380 Y7.736 E168.23607
G1 X21.392 Y7.736 E168.35639
G1 X5.920 Y-7.736 E170.95917
G1 X6.931 Y-7.736 E171.07949
G1 X22.404 Y7.736 E173.68226
G1 X23.415 Y7.736 E173.80259
G1 X7.943 Y-7.736 E176.40536
G1 X8.954 Y-7.736 E176.52568
G1 X24.427 Y7.736 E179.12845
G1 X25.438 Y7.736 E179.24878
G1 X9.966 Y-7.736 E181.85155
G1 X10.977 Y-7.736 E181.97187
G1 X26.450 Y7.736 E184.57464
G1 X27.461 Y7.736 E184.69497
G1 X11.989 Y-7.736 E187.29774
G1 X13.001 Y-7.736 E187.41806
G1 X28.473 Y7.736 E190.02084
G1 X29.484 Y7.736 E190.14116
G1 X14.012 Y-7.736 E192.74393
G1 X15.024 Y-7.736 E192.86426
G1 X30.496 Y7.736 E195.46703
G1 X31.508 Y7.736 E195.58735
G1 X16.035 Y-7.736 E198.19012
G1 X17.047 Y-7.736 E198.31045
G1 X32.519 Y7.736 E200.91322
G1 X33.531 Y7.736 E201.03354
G1 X18.058 Y-7.736 E203.63631
G1 X19.070 Y-7.736 E203.75664
G1 X34.542 Y7.736 E206.35941
G1 X35.554 Y7.736 E206.47973
G1 X20.081 Y-7.736 E209.08250
G1 X21.093 Y-7.736 E209.20283
G1 X36.565 Y7.736 E211.80560
G1 X37.577 Y7.736 E211.92592
G1 X22.104 Y-7.736 E214.52870
G1 X23.116 Y-7.736 E214.64902
G1 X38.588 Y7.736 E217.25179
G1 X39.600 Y7.736 E217.37212
G1 X24.128 Y-7.736 E219.97489
G1 X25.139 Y-7.736 E220.09521
G1 X40.611 Y7.736 E222.69798
G1 X41.623 Y7.736 E222.81831
G1 X26.151 Y-7.736 E225.42108
G1 X27.162 Y-7.736 E225.54140
G1 X42.635 Y7.736 E228.14417
G1 X43.646 Y7.736 E228.26450
G1 X28.174 Y-7.736 E230.86727
G1 X29.185 Y-7.736 E230.98759
G1 X44.658 Y7.736 E233.59037
G1 X45.669 Y7.736 E233.71069
G1 X30.197 Y-7.736 E236.31346
G1 X31.208 Y-7.736 E236.43378
G1 X46.681 Y7.736 E239.03656
G1 X47.692 Y7.736 E239.15688
G1 X32.220 Y-7.736 E241.75965
G1 X33.232 Y-7.736 E241.87998
G1 X47.736 Y6.768 E244.31997
G1 X47.736 Y5.757 E244.44029
G1 X34.243 Y-7.736 E246.71012
G1 X35.255 Y-7.736 E246.83044
G1 X47.736 Y4.745 E248.93010
G1 X47.736 Y3.734 E249.05043
G1 X36.266 Y-7.736 E250.97992
G1 X37.278 Y-7.736 E251.10025
G1 X47.736 Y2.722 E252.85958
G1 X47.736 Y1.711 E252.97991
G1 X38.289 Y-7.736 E254.56908
G1 X39.301 Y-7.736 E254.68940
G1 X47.736 Y0.699 E256.10841
G1 X47.736 Y-0.312 E256.22873
G1 X40.312 Y-7.736 E257.47758
G1 X41.324 Y-7.736 E257.59790
G1 X47.736 Y-1.324 E258.67658
G1 X47.736 Y-2.335 E258.79691
G1 X42.335 Y-7.736 E259.70542
G1 X43.347 Y-7.736 E259.82575
G1 X47.736 Y-3.347 E260.56410
G1 X47.736 Y-4.359 E260.68443
G1 X44.359 Y-7.736 E261.25261
G1 X45.370 Y-7.736 E261.37294
G1 X47.736 Y-5.370 E261.77096
G1 X47.736 Y-6.382 E261.89129
G1 X46.382 Y-7.736 E262.11915
G1 X47.393 Y-7.736 E262.23947
G1 X47.736 Y-7.393 E262.29717
M106 S204
G1 E258.79717 F1800.00000
G92 E0
G1 Z0.800 F9000.000
G1 X-11.605 Y8.807 F9000.000
G1 E3.50000 F1800.00000
G1 X-48.807 Y8.807 E6.53689 F1200.000
G1 X-48.807 Y-8.807 E7.97471
G1 X48.807 Y-8.807 E15.94313
G1 X48.807 Y8.807 E17.38095
G1 X-11.530 Y8.807 E22.30636 F1200.000
G1 X-11.530 Y9.297 F9000.000
G1 X-49.297 Y9.297 E25.38944 F1200.000
G1 X-49.297 Y-9.297 E26.90740
G1 X49.297 Y-9.297 E34.95597
G1 X49.297 Y9.297 E36.47392
G1 X-11.455 Y9.297 E41.43328 F1200.000
G1 X-11.455 Y9.750 F9000.000
G1 X-49.750 Y9.750 E44.07087 F1200.000
G1 X-49.750 Y-9.750 E45.41394
G1 X49.750 Y-9.750 E52.26699
G1 X49.750 Y9.750 E53.61006
G1 X-11.380 Y9.750 E57.82036 F1200.000
G1 X-11.705 Y9.317 F9000.000
G1 E54.32036 F1800.00000
G92 E0
G1 X-47.569 Y-8.514 F9000.000
G1 E3.50000 F1800.00000
G1 X-48.514 Y-7.569 E3.60945 F4200.000
G1 X-48.514 Y-6.872 E3.66653
G1 X-46.872 Y-8.514 E3.85670
G1 X-46.175 Y-8.514 E3.91377
G1 X-48.514 Y-6.175 E4.18466
G1 X-48.514 Y-5.479 E4.24173
G1 X-45.479 Y-8.514 E4.59333
G1 X-44.782 Y-8.514 E4.65040
G1 X-48.514 Y-4.782 E5.08272
G1 X-48.514 Y-4.085 E5.13979
G1 X-44.085 Y-8.514 E5.65282
G1 X-43.389 Y-8.514 E5.70989
G1 X-48.514 Y-3.389 E6.30364
G1 X-48.514 Y-2.692 E6.36071
G1 X-42.692 Y-8.514 E7.03517
G1 X-41.995 Y-8.514 E7.09224
G1 X-48.514 Y-1.995 E7.84741
G1 X-48.514 Y-1.299 E7.90449
G1 X-41.299 Y-8.514 E8.74037
G1 X-40.602 Y-8.514 E8.79745
G1 X-48.514 Y-0.602 E9.71405
G1 X-48.514 Y0.095 E9.77112
G1 X-39.905 Y-8.514 E10.76844
G1 X-39.209 Y-8.514 E10.82551
G1 X-48.514 Y0.791 E11.90354
G1 X-48.514 Y1.488 E11.96062
G1 X-38.512 Y-8.514 E13.11936
G1 X-37.815 Y-8.514 E13.17644
G1 X-48.514 Y2.185 E14.41590
G1 X-48.514 Y2.881 E14.47297
G1 X-37.119 Y-8.514 E15.79314
G1 X-36.422 Y-8.514 E15.85022
G1 X-48.514 Y3.578 E17.25111
G1 X-48.514 Y4.275 E17.30818
G1 X-35.725 Y-8.514 E18.78979
G1 X-35.029 Y-8.514 E18.84686
G1 X-48.514 Y4.971 E20.40918
G1 X-48.514 Y5.668 E20.46625
G1 X-34.332 Y-8.514 E22.10929
G1 X-33.635 Y-8.514 E22.16636
G1 X-48.514 Y6.365 E23.89011
G1 X-48.514 Y7.061 E23.94718
G1 X-32.939 Y-8.514 E25.75164
G1 X-32.242 Y-8.514 E25.80872
G1 X-48.514 Y7.758 E27.69389
G1 X-48.514 Y8.455 E27.75097
G1 X-31.545 Y-8.514 E29.71686
G1 X-30.849 Y-8.514 E29.77393
G1 X-47.876 Y8.514 E31.74664
G1 X-47.179 Y8.514 E31.80371
G1 X-30.152 Y-8.514 E33.77642
G1 X-29.455 Y-8.514 E33.83349
G1 X-46.482 Y8.514 E35.80620
G1 X-45.786 Y8.514 E35.86327
G1 X-28.759 Y-8.514 E37.83598
G1 X-28.062 Y-8.514 E37.89305
G1 X-45.089 Y8.514 E39.86576
G1 X-44.392 Y8.514 E39.92283
G1 X-27.365 Y-8.514 E41.89554
G1 X-26.669 Y-8.514 E41.95261
G1 X-43.696 Y8.514 E43.92532
G1 X-42.999 Y8.514 E43.98239
G1 X-25.972 Y-8.514 E45.95510
G1 X-25.275 Y-8.514 E46.01217
G1 X-42.302 Y8.514 E47.98488
G1 X-41.606 Y8.514 E48.04195
G1 X-24.579 Y-8.514 E50.01466
G1 X-23.882 Y-8.514 E50.07173
G1 X-40.909 Y8.514 E52.04444
G1 X-40.212 Y8.514 E52.10151
G1 X-23.185 Y-8.514 E54.07422
G1 X-22.489 Y-8.514 E54.13129
G1 X-39.516 Y8.514 E56.10400
G1 X-38.819 Y8.514 E56.16107
G1 X-21.792 Y-8.514 E58.13378
G1 X-21.095 Y-8.514 E58.19085
G1 X-38.122 Y8.514 E60.16355
G1 X-37.426 Y8.514 E60.22063
G1 X-20.399 Y-8.514 E62.19333
G1 X-19.702 Y-8.514 E62.25041
G1 X-36.729 Y8.514 E64.22311
G1 X-36.032 Y8.514 E64.28019
G1 X-19.005 Y-8.514 E66.25289
G1 X-18.309 Y-8.514 E66.30997
G1 X-35.336 Y8.514 E68.28267
G1 X-34.639 Y8.514 E68.33975
G1 X-17.612 Y-8.514 E70.31245
G1 X-16.915 Y-8.514 E70.36953
G1 X-33.942 Y8.514 E72.34223
G1 X-33.246 Y8.514 E72.39931
G1 X-16.218 Y-8.514 E74.37201
G1 X-15.522 Y-8.514 E74.42909
G1 X-32.549 Y8.514 E76.40179
G1 X-31.852 Y8.514 E76.45887
G1 X-14.825 Y-8.514 E78.43157
G1 X-14.128 Y-8.514 E78.48865
G1 X-31.156 Y8.514 E80.46135
G1 X-30.459 Y8.514 E80.51842
G1 X-13.432 Y-8.514 E82.49113
G1 X-12.735 Y-8.514 E82.54820
G1 X-29.762 Y8.514 E84.52091
G1 X-29.065 Y8.514 E84.57798
G1 X-12.038 Y-8.514 E86.55069
G1 X-11.342 Y-8.514 E86.60776
G1 X-28.369 Y8.514 E88.58047
G1 X-27.672 Y8.514 E88.63754
G1 X-10.645 Y-8.514 E90.61025
G1 X-9.948 Y-8.514 E90.66732
G1 X-26.975 Y8.514 E92.64003
G1 X-26.279 Y8.514 E92.69710
G1 X-9.252 Y-8.514 E94.66981
G1 X-8.555 Y-8.514 E94.72688
G1 X-25.582 Y8.514 E96.69959
G1 X-24.885 Y8.514 E96.75666
G1 X-7.858 Y-8.514 E98.72937
G1 X-7.162 Y-8.514 E98.78644
G1 X-24.189 Y8.514 E100.75915
G1 X-23.492 Y8.514 E100.81622
G1 X-6.465 Y-8.514 E102.78893
G1 X-5.768 Y-8.514 E102.84600
G1 X-22.795 Y8.514 E104.81871
G1 X-22.099 Y8.514 E104.87578
G1 X-5.072 Y-8.514 E106.84849
G1 X-4.375 Y-8.514 E106.90556
G1 X-21.402 Y8.514 E108.87827
G1 X-20.705 Y8.514 E108.93534
G1 X-3.678 Y-8.514 E110.90805
G1 X-2.982 Y-8.514 E110.96512
G1 X-20.009 Y8.514 E112.93783
