; generated by Slic3r 1.2.9 on 2015-09-29 at 13:13:39

; external perimeters extrusion width = 0.50mm
; perimeters extrusion width = 0.85mm
; infill extrusion width = 1.02mm
; solid infill extrusion width = 0.85mm
; top infill extrusion width = 0.85mm

M104 S190 ; set temperature
G28 ; home all axes
G1 Z5 F5000 ; lift nozzle

M109 S190 ; wait for temperature to be reached
G21 ; set units to millimeters
G90 ; use absolute coordinates
M82 ; use absolute distances for extrusion
G92 E0
G1 E-3.50000 F1800.00000
G92 E0
G1 Z0.260 F9000.000
G1 X0.000 Y10.321 F9000.000
G1 E3.50000 F1800.00000
G1 X-25.000 Y10.321 E4.75446 F1800.000
G1 X-27.015 Y9.925 E4.85750
G1 X-28.730 Y8.795 E4.96054
G1 X-29.889 Y7.100 E5.06358
G1 X-30.321 Y5.000 E5.17117
G1 X-30.321 Y-5.000 E5.67295
G1 X-29.925 Y-7.015 E5.77599
G1 X-28.795 Y-8.730 E5.87903
G1 X-27.100 Y-9.889 E5.98207
G1 X-25.000 Y-10.321 E6.08966
G1 X25.000 Y-10.321 E8.59857
G1 X27.015 Y-9.925 E8.70161
G1 X28.730 Y-8.795 E8.80465 F1800.000
G1 X29.889 Y-7.100 E8.90769
G1 X30.321 Y-5.000 E9.01528
G1 X30.321 Y5.000 E9.51706
G1 X29.925 Y7.015 E9.62010
G1 X28.795 Y8.730 E9.72315
G1 X27.100 Y9.889 E9.82619
G1 X25.000 Y10.321 E9.93377
G1 X0.075 Y10.321 E11.18447
G1 X0.075 Y9.857 F9000.000
G1 X-25.000 Y9.857 E12.44269 F1800.000
G1 X-26.921 Y9.461 E12.54109
G1 X-28.528 Y8.338 E12.63948
G1 X-29.560 Y6.671 E12.73788
G1 X-29.857 Y5.000 E12.82302
G1 X-29.857 Y-5.000 E13.32480
G1 X-29.461 Y-6.921 E13.42320
G1 X-28.338 Y-8.528 E13.52160
G1 X-26.671 Y-9.560 E13.62000
G1 X-25.000 Y-9.857 E13.70513
G1 X25.000 Y-9.857 E16.21405
G1 X26.921 Y-9.461 E16.31245
G1 X28.528 Y-8.338 E16.41085 F1800.000
G1 X29.560 Y-6.671 E16.50924
G1 X29.857 Y-5.000 E16.59438
G1 X29.857 Y5.000 E17.09616
G1 X29.461 Y6.921 E17.19456
G1 X28.338 Y8.528 E17.29296
G1 X26.671 Y9.560 E17.39136
G1 X25.000 Y9.857 E17.47649
G1 X0.150 Y9.857 E18.72342
G1 X0.150 Y9.393 F9000.000
G1 X-25.000 Y9.393 E19.98541 F1800.000
G1 X-26.821 Y8.997 E20.07893
G1 X-28.315 Y7.882 E20.17246
G1 X-29.212 Y6.248 E20.26599
G1 X-29.393 Y5.000 E20.32926
G1 X-29.393 Y-5.000 E20.83105
G1 X-28.997 Y-6.821 E20.92457
G1 X-27.882 Y-8.315 E21.01810
G1 X-26.248 Y-9.212 E21.11163
G1 X-25.000 Y-9.393 E21.17490
G1 X25.000 Y-9.393 E23.68382
G1 X26.821 Y-8.997 E23.77735
G1 X28.315 Y-7.882 E23.87087 F1800.000
G1 X29.212 Y-6.248 E23.96440
G1 X29.393 Y-5.000 E24.02768
G1 X29.393 Y5.000 E24.52946
G1 X28.997 Y6.821 E24.62298
G1 X27.882 Y8.315 E24.71651
G1 X26.248 Y9.212 E24.81004
G1 X25.000 Y9.393 E24.87331
G1 X0.225 Y9.393 E26.11648
G1 X0.225 Y8.928 F9000.000
G1 X-25.000 Y8.928 E27.38223 F1800.000
G1 X-26.717 Y8.533 E27.47062
G1 X-28.088 Y7.428 E27.55900
G1 X-28.928 Y5.000 E27.68793
G1 X-28.928 Y-5.000 E28.18972
G1 X-28.533 Y-6.717 E28.27810
G1 X-27.428 Y-8.088 E28.36649
G1 X-25.000 Y-8.928 E28.49542
G1 X25.000 Y-8.928 E31.00434
G1 X26.717 Y-8.533 E31.09272
G1 X28.088 Y-7.428 E31.18111 F1800.000
G1 X28.928 Y-5.000 E31.31004
G1 X28.928 Y5.000 E31.81182
G1 X28.533 Y6.717 E31.90021
G1 X27.428 Y8.088 E31.98860
G1 X25.000 Y8.928 E32.11753
G1 X0.300 Y8.928 E33.35693
G1 X0.300 Y8.464 F9000.000
G1 X-25.000 Y8.464 E34.62644 F1800.000
G1 X-26.605 Y8.070 E34.70937
G1 X-27.845 Y6.977 E34.79230
G1 X-28.464 Y5.000 E34.89626
G1 X-28.464 Y-5.000 E35.39804
G1 X-28.070 Y-6.605 E35.48097
G1 X-26.977 Y-7.845 E35.56390
G1 X-25.000 Y-8.464 E35.66786
G1 X25.000 Y-8.464 E38.17677
G1 X26.605 Y-8.070 E38.25970
G1 X27.845 Y-6.977 E38.34263 F1800.000
G1 X28.464 Y-5.000 E38.44659
G1 X28.464 Y5.000 E38.94838
G1 X28.070 Y6.605 E39.03130
G1 X26.977 Y7.845 E39.11423
G1 X25.000 Y8.464 E39.21819
G1 X0.375 Y8.464 E40.45383
G1 E36.95383 F1800.00000
G92 E0
G1 X8.827 Y3.347 F9000.000
G1 E3.50000 F1800.00000
G1 X-23.347 Y3.347 E5.11446 F600.000
G1 X-23.347 Y-3.347 E5.45039
G1 X23.347 Y-3.347 E7.79345
G1 X23.347 Y3.347 E8.12939
G1 X8.902 Y3.347 E8.85423 F600.000
G1 X8.902 Y3.812 F9000.000
G1 X-23.812 Y3.812 E10.49574 F600.000
G1 X-23.812 Y-3.812 E10.87826
G1 X23.812 Y-3.812 E13.26791
G1 X23.812 Y3.812 E13.65043
G1 X8.977 Y3.812 E14.39480 F600.000
G1 X8.977 Y4.276 F9000.000
G1 X-24.276 Y4.276 E16.06337 F600.000
G1 X-24.276 Y-4.276 E16.49248
G1 X24.276 Y-4.276 E18.92871
G1 X24.276 Y4.276 E19.35782
G1 X9.052 Y4.276 E20.12172 F600.000
G1 X9.052 Y4.740 F9000.000
G1 X-24.740 Y4.740 E21.81734 F600.000
G1 X-24.740 Y-4.740 E22.29303
G1 X24.740 Y-4.740 E24.77586
G1 X24.740 Y4.740 E25.25155
G1 X9.127 Y4.740 E26.03498 F600.000
G1 X8.802 Y4.307 F9000.000
G1 E22.53498 F1800.00000
G92 E0
G1 X23.071 Y-2.834 F9000.000
G1 E3.50000 F1800.00000
G1 X22.834 Y-3.071 E3.51701 F2100.000
G1 X22.170 Y-3.071 E3.55074
G1 X23.071 Y-2.170 E3.61545
G1 X23.071 Y-1.506 E3.64917
G1 X21.506 Y-3.071 E3.76157
G1 X20.842 Y-3.071 E3.79530
G1 X23.071 Y-0.842 E3.95540
G1 X23.071 Y-0.177 E3.98912
G1 X20.177 Y-3.071 E4.19691
G1 X19.513 Y-3.071 E4.23064
G1 X23.071 Y0.487 E4.48612
G1 X23.071 Y1.151 E4.51985
G1 X18.849 Y-3.071 E4.82303
G1 X18.185 Y-3.071 E4.85676
G1 X23.071 Y1.815 E5.20763
G1 X23.071 Y2.480 E5.24136
G1 X17.520 Y-3.071 E5.63993
G1 X16.856 Y-3.071 E5.67365
G1 X22.999 Y3.071 E6.11471
G1 X22.334 Y3.071 E6.14843
G1 X16.192 Y-3.071 E6.58948
G1 X15.528 Y-3.071 E6.62321
G1 X21.670 Y3.071 E7.06426
G1 X21.006 Y3.071 E7.09799
G1 X14.863 Y-3.071 E7.53904
G1 X14.199 Y-3.071 E7.57277
G1 X20.342 Y3.071 E8.01382
G1 X19.678 Y3.071 E8.04755
G1 X13.535 Y-3.071 E8.48860
G1 X12.871 Y-3.071 E8.52233
G1 X19.013 Y3.071 E8.96338
G1 X18.349 Y3.071 E8.99711
G1 X12.206 Y-3.071 E9.43816
G1 X11.542 Y-3.071 E9.47189
G1 X17.685 Y3.071 E9.91294
G1 X17.021 Y3.071 E9.94667
G1 X10.878 Y-3.071 E10.38772
G1 X10.214 Y-3.071 E10.42145
G1 X16.356 Y3.071 E10.86250
G1 X15.692 Y3.071 E10.89622
G1 X9.549 Y-3.071 E11.33728
G1 X8.885 Y-3.071 E11.37100
G1 X15.028 Y3.071 E11.81206
G1 X14.364 Y3.071 E11.84578
G1 X8.221 Y-3.071 E12.28684
G1 X7.557 Y-3.071 E12.32056
G1 X13.699 Y3.071 E12.76162
G1 X13.035 Y3.071 E12.79534
G1 X6.892 Y-3.071 E13.23640
G1 X6.228 Y-3.071 E13.27012
G1 X12.371 Y3.071 E13.71118
G1 X11.707 Y3.071 E13.74490
G1 X5.564 Y-3.071 E14.18596
G1 X4.900 Y-3.071 E14.21968
G1 X11.042 Y3.071 E14.66074
G1 X10.378 Y3.071 E14.69446
G1 X4.235 Y-3.071 E15.13551
G1 X3.571 Y-3.071 E15.16924
G1 X9.714 Y3.071 E15.61029
G1 X9.050 Y3.071 E15.64402
G1 X2.907 Y-3.071 E16.08507
G1 X2.243 Y-3.071 E16.11880
G1 X8.385 Y3.071 E16.55985
G1 X7.721 Y3.071 E16.59358
G1 X1.578 Y-3.071 E17.03463
G1 X0.914 Y-3.071 E17.06836
G1 X7.057 Y3.071 E17.50941
G1 X6.393 Y3.071 E17.54314
G1 X0.250 Y-3.071 E17.98419
G1 X-0.414 Y-3.071 E18.01792
G1 X5.728 Y3.071 E18.45897
G1 X5.064 Y3.071 E18.49270
G1 X-1.079 Y-3.071 E18.93375
G1 X-1.743 Y-3.071 E18.96748
G1 X4.400 Y3.071 E19.40853
G1 X3.736 Y3.071 E19.44225
G1 X-2.407 Y-3.071 E19.88331
G1 X-3.071 Y-3.071 E19.91703
G1 X3.071 Y3.071 E20.35809
G1 X2.407 Y3.071 E20.39181
G1 X-3.736 Y-3.071 E20.83287
G1 X-4.400 Y-3.071 E20.86659
G1 X1.743 Y3.071 E21.30765
G1 X1.079 Y3.071 E21.34137
G1 X-5.064 Y-3.071 E21.78243
G1 X-5.728 Y-3.071 E21.81615
G1 X0.414 Y3.071 E22.25721
G1 X-0.250 Y3.071 E22.29093
G1 X-6.393 Y-3.071 E22.73199
G1 X-7.057 Y-3.071 E22.76571
G1 X-0.914 Y3.071 E23.20677
G1 X-1.578 Y3.071 E23.24049
G1 X-7.721 Y-3.071 E23.68154
G1 X-8.385 Y-3.071 E23.71527
G1 X-2.243 Y3.071 E24.15632
G1 X-2.907 Y3.071 E24.19005
G1 X-9.050 Y-3.071 E24.63110
G1 X-9.714 Y-3.071 E24.66483
G1 X-3.571 Y3.071 E25.10588
G1 X-4.235 Y3.071 E25.13961
G1 X-10.378 Y-3.071 E25.58066
G1 X-11.042 Y-3.071 E25.61439
G1 X-4.900 Y3.071 E26.05544
G1 X-5.564 Y3.071 E26.08917
G1 X-11.707 Y-3.071 E26.53022
G1 X-12.371 Y-3.071 E26.56395
G1 X-6.228 Y3.071 E27.00500
G1 X-6.892 Y3.071 E27.03873
G1 X-13.035 Y-3.071 E27.47978
G1 X-13.699 Y-3.071 E27.51351
G1 X-7.557 Y3.071 E27.95456
G1 X-8.221 Y3.071 E27.98829
G1 X-14.364 Y-3.071 E28.42934
G1 X-15.028 Y-3.071 E28.46307
G1 X-8.885 Y3.071 E28.90412
G1 X-9.549 Y3.071 E28.93784
G1 X-15.692 Y-3.071 E29.37890
G1 X-16.356 Y-3.071 E29.41262
G1 X-10.214 Y3.071 E29.85368
G1 X-10.878 Y3.071 E29.88740
G1 X-17.021 Y-3.071 E30.32846
G1 X-17.685 Y-3.071 E30.36218
G1 X-11.542 Y3.071 E30.80324
G1 X-12.206 Y3.071 E30.83696
G1 X-18.349 Y-3.071 E31.27802
G1 X-19.013 Y-3.071 E31.31174
G1 X-12.871 Y3.071 E31.75280
G1 X-13.535 Y3.071 E31.78652
G1 X-19.678 Y-3.071 E32.22758
G1 X-20.342 Y-3.071 E32.26130
G1 X-14.199 Y3.071 E32.70236
G1 X-14.863 Y3.071 E32.73608
G1 X-21.006 Y-3.071 E33.17713
G1 X-21.670 Y-3.071 E33.21086
G1 X-15.528 Y3.071 E33.65191
G1 X-16.192 Y3.071 E33.68564
G1 X-22.335 Y-3.071 E34.12669
G1 X-22.999 Y-3.071 E34.16042
G1 X-16.856 Y3.071 E34.60147
G1 X-17.520 Y3.071 E34.63520
G1 X-23.071 Y-2.480 E35.03376
G1 X-23.071 Y-1.815 E35.06749
G1 X-18.185 Y3.071 E35.41836
G1 X-18.849 Y3.071 E35.45209
G1 X-23.071 Y-1.151 E35.75526
G1 X-23.071 Y-0.487 E35.78899
G1 X-19.513 Y3.071 E36.04447
G1 X-20.177 Y3.071 E36.07820
G1 X-23.071 Y0.177 E36.28598
G1 X-23.071 Y0.842 E36.31971
G1 X-20.842 Y3.071 E36.47980
G1 X-21.506 Y3.071 E36.51353
G1 X-23.071 Y1.506 E36.62592
G1 X-23.071 Y2.170 E36.65965
G1 X-22.170 Y3.071 E36.72435
G1 X-22.834 Y3.071 E36.75808
G1 X-23.071 Y2.834 E36.77509
M106 S204
G1 E33.27509 F1800.00000
G92 E0
G1 Z0.460 F9000.000
G1 X-22.124 Y2.504 F9000.000
G1 E3.50000 F1800.00000
G1 X-22.504 Y2.504 E3.52546 F1200.000
G1 X-22.504 Y-2.504 E3.86151
G1 X22.504 Y-2.504 E6.88192
G1 X22.504 Y2.504 E7.21797
G1 X-22.049 Y2.504 E10.20788 F1200.000
G1 X-22.049 Y3.311 F9000.000
G1 X-23.311 Y3.311 E10.29254 F1200.000
G1 X-23.311 Y-3.311 E10.73691
G1 X23.311 Y-3.311 E13.86564
G1 X23.311 Y3.311 E14.31002
G1 X-21.974 Y3.311 E17.34906 F1200.000
G1 X-21.974 Y4.118 F9000.000
G1 X-24.118 Y4.118 E17.49291 F1200.000
G1 X-24.118 Y-4.118 E18.04561
G1 X24.118 Y-4.118 E21.28267
G1 X24.118 Y4.118 E21.83536
G1 X-21.899 Y4.118 E24.92354 F1200.000
G1 X-21.899 Y4.750 F9000.000
G1 X-24.750 Y4.750 E25.03188 F1200.000
G1 X-24.750 Y-4.750 E25.39294
G1 X24.750 Y-4.750 E27.27425
G1 X24.750 Y4.750 E27.63531
G1 X-21.824 Y4.750 E29.40543 F1200.000
G1 X-22.149 Y4.317 F9000.000
G1 E25.90543 F1800.00000
G92 E0
G1 X-22.009 Y-1.627 F9000.000
G1 E3.50000 F1800.00000
G1 X-21.627 Y-2.009 E3.53666 F4200.000
G1 X-20.474 Y-2.009 E3.61482
G1 X-22.009 Y-0.474 E3.76201
G1 X-22.009 Y0.679 E3.84016
G1 X-19.321 Y-2.009 E4.09788
G1 X-18.168 Y-2.009 E4.17604
G1 X-22.009 Y1.832 E4.54430
G1 X-21.033 Y2.009 E4.61155
G1 X-17.015 Y-2.009 E4.99674
G1 X-15.862 Y-2.009 E5.07490
G1 X-19.880 Y2.009 E5.46010
G1 X-18.727 Y2.009 E5.53825
G1 X-14.709 Y-2.009 E5.92345
G1 X-13.556 Y-2.009 E6.00161
G1 X-17.574 Y2.009 E6.38680
G1 X-16.421 Y2.009 E6.46496
G1 X-12.403 Y-2.009 E6.85015
G1 X-11.250 Y-2.009 E6.92831
G1 X-15.268 Y2.009 E7.31350
G1 X-14.115 Y2.009 E7.39166
G1 X-10.097 Y-2.009 E7.77685
G1 X-8.944 Y-2.009 E7.85501
G1 X-12.962 Y2.009 E8.24021
G1 X-11.809 Y2.009 E8.31836
G1 X-7.791 Y-2.009 E8.70356
G1 X-6.638 Y-2.009 E8.78172
G1 X-10.656 Y2.009 E9.16691
G1 X-9.503 Y2.009 E9.24507
G1 X-5.485 Y-2.009 E9.63026
G1 X-4.332 Y-2.009 E9.70842
G1 X-8.350 Y2.009 E10.09361
G1 X-7.197 Y2.009 E10.17177
G1 X-3.179 Y-2.009 E10.55696
G1 X-2.026 Y-2.009 E10.63512
G1 X-6.044 Y2.009 E11.02032
G1 X-4.891 Y2.009 E11.09847
G1 X-0.873 Y-2.009 E11.48367
G1 X0.280 Y-2.009 E11.56183
G1 X-3.738 Y2.009 E11.94702
G1 X-2.585 Y2.009 E12.02518
G1 X1.432 Y-2.009 E12.41037
G1 X2.585 Y-2.009 E12.48853
G1 X-1.433 Y2.009 E12.87372
G1 X-0.280 Y2.009 E12.95188
G1 X3.738 Y-2.009 E13.33708
G1 X4.891 Y-2.009 E13.41523
G1 X0.873 Y2.009 E13.80043
G1 X2.026 Y2.009 E13.87859
G1 X6.044 Y-2.009 E14.26378
G1 X7.197 Y-2.009 E14.34194
G1 X3.179 Y2.009 E14.72713
G1 X4.332 Y2.009 E14.80529
G1 X8.350 Y-2.009 E15.19048
G1 X9.503 Y-2.009 E15.26864
G1 X5.485 Y2.009 E15.65384
G1 X6.638 Y2.009 E15.73199
G1 X10.656 Y-2.009 E16.11719
G1 X11.809 Y-2.009 E16.19534
G1 X7.791 Y2.009 E16.58054
G1 X8.944 Y2.009 E16.65870
G1 X12.962 Y-2.009 E17.04389
G1 X14.115 Y-2.009 E17.12205
G1 X10.097 Y2.009 E17.50724
G1 X11.250 Y2.009 E17.58540
G1 X15.268 Y-2.009 E17.97059
G1 X16.421 Y-2.009 E18.04875
G1 X12.403 Y2.009 E18.43395
G1 X13.556 Y2.009 E18.51210
G1 X17.574 Y-2.009 E18.89730
G1 X18.727 Y-2.009 E18.97546
G1 X14.709 Y2.009 E19.36065
G1 X15.862 Y2.009 E19.43881
G1 X19.880 Y-2.009 E19.82400
G1 X21.033 Y-2.009 E19.90216
G1 X17.015 Y2.009 E20.28735
G1 X18.168 Y2.009 E20.36551
G1 X22.009 Y-1.832 E20.73377
G1 X22.009 Y-0.679 E20.81193
G1 X19.321 Y2.009 E21.06965
G1 X20.474 Y2.009 E21.14781
G1 X22.009 Y0.474 E21.29500
G1 X22.009 Y1.627 E21.37316
G1 X21.627 Y2.009 E21.40982
G1 E17.90982 F1800.00000
G92 E0
G1 Z0.660 F9000.000
G1 X-21.596 Y-2.504 F9000.000
G1 E3.50000 F1800.00000
G1 X22.504 Y-2.504 E6.45951 F1200.000
G1 X22.504 Y2.504 E6.79556
G1 X-22.504 Y2.504 E9.81597 F1200.000
G1 X-22.504 Y-2.504 E10.15202
G1 X-21.671 Y-2.504 E10.20788
G1 X-21.671 Y-3.311 F9000.000
G1 X23.311 Y-3.311 E13.22659 F1200.000
G1 X23.311 Y3.311 E13.67096
G1 X-23.311 Y3.311 E16.79970 F1200.000
G1 X-23.311 Y-3.311 E17.24407
G1 X-21.746 Y-3.311 E17.34906
G1 X-21.746 Y-4.118 F9000.000
G1 X24.118 Y-4.118 E20.42696 F1200.000
G1 X24.118 Y4.118 E20.97966
G1 X-24.118 Y4.118 E24.21672 F1200.000
G1 X-24.118 Y-4.118 E24.76942
G1 X-21.821 Y-4.118 E24.92354
G1 X-21.821 Y-4.750 F9000.000
G1 X24.750 Y-4.750 E26.69354 F1200.000
G1 X24.750 Y4.750 E27.05460
G1 X-24.750 Y4.750 E28.93592 F1200.000
G1 X-24.750 Y-4.750 E29.29698
G1 X-21.896 Y-4.750 E29.40543
G1 X-21.571 Y-4.317 F9000.000
G1 E25.90543 F1800.00000
G92 E0
G1 X-21.627 Y2.009 F9000.000
G1 E3.50000 F1800.00000
G1 X-22.009 Y1.627 E3.53666 F4200.000
G1 X-22.009 Y0.474 E3.61482
G1 X-20.474 Y2.009 E3.76201
G1 X-19.321 Y2.009 E3.84016
G1 X-22.009 Y-0.679 E4.09788
G1 X-22.009 Y-1.832 E4.17604
G1 X-18.168 Y2.009 E4.54430
G1 X-17.015 Y2.009 E4.62245
G1 X-21.033 Y-2.009 E5.00765
G1 X-19.880 Y-2.009 E5.08581
G1 X-15.862 Y2.009 E5.47100
G1 X-14.709 Y2.009 E5.54916
G1 X-18.727 Y-2.009 E5.93435
G1 X-17.574 Y-2.009 E6.01251
G1 X-13.556 Y2.009 E6.39770
G1 X-12.403 Y2.009 E6.47586
G1 X-16.421 Y-2.009 E6.86105
G1 X-15.268 Y-2.009 E6.93921
G1 X-11.250 Y2.009 E7.32441
G1 X-10.097 Y2.009 E7.40256
G1 X-14.115 Y-2.009 E7.78776
G1 X-12.962 Y-2.009 E7.86592
G1 X-8.944 Y2.009 E8.25111
G1 X-7.791 Y2.009 E8.32927
G1 X-11.809 Y-2.009 E8.71446
G1 X-10.656 Y-2.009 E8.79262
G1 X-6.638 Y2.009 E9.17781
G1 X-5.485 Y2.009 E9.25597
G1 X-9.503 Y-2.009 E9.64117
G1 X-8.350 Y-2.009 E9.71932
G1 X-4.332 Y2.009 E10.10452
G1 X-3.179 Y2.009 E10.18268
G1 X-7.197 Y-2.009 E10.56787
G1 X-6.044 Y-2.009 E10.64603
G1 X-2.026 Y2.009 E11.03122
G1 X-0.873 Y2.009 E11.10938
G1 X-4.891 Y-2.009 E11.49457
G1 X-3.738 Y-2.009 E11.57273
G1 X0.280 Y2.009 E11.95792
G1 X1.432 Y2.009 E12.03608
G1 X-2.585 Y-2.009 E12.42128
G1 X-1.433 Y-2.009 E12.49943
G1 X2.585 Y2.009 E12.88463
G1 X3.738 Y2.009 E12.96279
G1 X-0.280 Y-2.009 E13.34798
G1 X0.873 Y-2.009 E13.42614
G1 X4.891 Y2.009 E13.81133
G1 X6.044 Y2.009 E13.88949
G1 X2.026 Y-2.009 E14.27468
G1 X3.179 Y-2.009 E14.35284
G1 X7.197 Y2.009 E14.73804
G1 X8.350 Y2.009 E14.81619
G1 X4.332 Y-2.009 E15.20139
G1 X5.485 Y-2.009 E15.27954
G1 X9.503 Y2.009 E15.66474
G1 X10.656 Y2.009 E15.74290
G1 X6.638 Y-2.009 E16.12809
G1 X7.791 Y-2.009 E16.20625
G1 X11.809 Y2.009 E16.59144
G1 X12.962 Y2.009 E16.66960
G1 X8.944 Y-2.009 E17.05479
G1 X10.097 Y-2.009 E17.13295
G1 X14.115 Y2.009 E17.51815
G1 X15.268 Y2.009 E17.59630
G1 X11.250 Y-2.009 E17.98150
G1 X12.403 Y-2.009 E18.05966
G1 X16.421 Y2.009 E18.44485
G1 X17.574 Y2.009 E18.52301
G1 X13.556 Y-2.009 E18.90820
G1 X14.709 Y-2.009 E18.98636
G1 X18.727 Y2.009 E19.37155
G1 X19.880 Y2.009 E19.44971
G1 X15.862 Y-2.009 E19.83491
G1 X17.015 Y-2.009 E19.91306
G1 X21.033 Y2.009 E20.29826
G1 X22.009 Y1.832 E20.36551
G1 X18.168 Y-2.009 E20.73377
G1 X19.321 Y-2.009 E20.81193
G1 X22.009 Y0.679 E21.06965
G1 X22.009 Y-0.474 E21.14781
G1 X20.474 Y-2.009 E21.29501
G1 X21.627 Y-2.009 E21.37316
G1 X22.009 Y-1.627 E21.40983
G1 E17.90983 F1800.00000
G92 E0
G1 Z0.860 F9000.000
G1 X-18.364 Y-2.504 F9000.000
G1 E3.50000 F1800.00000
G1 X22.504 Y-2.504 E6.24258 F1200.000
G1 X22.504 Y2.504 E6.57863
G1 X-22.504 Y2.504 E9.59904 F1200.000
G1 X-22.504 Y-2.504 E9.93509
G1 X-18.439 Y-2.504 E10.20788
G1 X-18.439 Y-3.311 F9000.000
G1 X23.311 Y-3.311 E13.00966 F1200.000
G1 X23.311 Y3.311 E13.45403
