; generated by Slic3r 1.1.7 on 2015-08-27 at 13:28:18

; perimeters extrusion width = 0.50mm
; infill extrusion width = 0.52mm
; solid infill extrusion width = 0.52mm
; top infill extrusion width = 0.52mm

G21 ; set units to millimeters
M107
M104 S210 ; set temperature
G28 ; home all axes
G1 Z5 F5000 ; lift nozzle

M109 S210 ; wait for temperature to be reached
G90 ; use absolute coordinates
G92 E0
M82 ; use absolute distances for extrusion
G1 F1800.000 E-1.00000
G92 E0
G1 Z0.500 F7800.000
G1 X0.824 Y6.593 F7800.000
G1 E1.00000 F1800.000
G1 X-19.145 Y9.089 E3.01665 F696.924
G1 X-21.482 Y8.981 E3.25111
G1 X-23.649 Y8.098 E3.48556
G1 X-25.395 Y6.540 E3.72002
G1 X-26.519 Y4.489 E3.95448
G1 X-26.893 Y2.250 E4.18190
G1 X-26.893 Y-2.500 E4.65789
G1 X-26.496 Y-4.806 E4.89234
G1 X-25.350 Y-6.846 E5.12680
G1 X-23.588 Y-8.385 E5.36126
G1 X-21.413 Y-9.246 E5.59571
G1 X-20.000 Y-9.393 E5.73803
G1 X18.000 Y-9.393 E9.54594
G1 X20.306 Y-8.996 E9.78039
G1 X22.346 Y-7.850 E10.01485 F696.924
G1 X23.885 Y-6.088 E10.24930
G1 X24.746 Y-3.913 E10.48376
G1 X24.830 Y-1.574 E10.71822
G1 X24.127 Y0.657 E10.95267
G1 X22.718 Y2.525 E11.18713
G1 X20.765 Y3.814 E11.42158
G1 X18.855 Y4.339 E11.62014
G1 X0.899 Y6.584 E13.43352
G1 F1800.000 E12.43352
G92 E0
G1 X-18.607 Y0.672 F7800.000
G1 E1.00000 F1800.000
G1 X-18.607 Y-1.107 E1.17834 F600.000
G1 X-9.770 Y-1.107 E2.06392
G1 X-9.728 Y-0.438 E2.13117
G1 X-18.533 Y0.663 E3.02034
G1 X-19.500 Y1.684 F7800.000
G1 X-19.500 Y-2.000 E3.38947 F600.000
G1 X4.569 Y-2.000 E5.80137
G1 X4.611 Y-1.330 E5.86862
G1 X-19.426 Y1.674 E8.29598
G1 X-19.268 Y1.241 F7800.000
G1 X-9.304 Y-0.800 F7800.000
G1 X-4.733 Y-1.085 E9.01196 F600.000
G1 X-4.733 Y-1.085 F7800.000
G1 X-0.967 Y-1.319 E9.22374 F600.000
G1 X-15.305 Y-0.426 F7800.000
G1 X-18.161 Y-0.249 E9.38433 F600.000
M106 S255
G1 F1800.000 E8.38433
G92 E0
G1 Z0.900 F7800.000
G1 X-18.750 Y0.384 F7800.000
G1 E1.00000 F1800.000
G1 X-18.750 Y-1.250 E1.07337 F600.000
G1 X-8.702 Y-1.250 E1.52452
G1 X-8.679 Y-0.875 E1.54140
G1 X-18.676 Y0.375 E1.99375
G1 X-19.250 Y0.950 F7800.000
G1 X-19.250 Y-1.750 E2.11500 F600.000
G1 X-0.671 Y-1.750 E2.94921
G1 X-0.648 Y-1.375 E2.96609
G1 X-19.176 Y0.941 E3.80448
G1 X-19.750 Y1.517 F7800.000
G1 X-19.750 Y-2.250 E3.97362 F600.000
G1 X7.360 Y-2.250 E5.19088
G1 X7.383 Y-1.875 E5.20776
G1 X-19.676 Y1.508 E6.43219
G1 X-19.518 Y1.074 F7800.000
G1 X-18.403 Y-0.863 F7800.000
G1 X-18.363 Y-0.903 E6.43483 F681.571
G1 X-17.623 Y-0.903 E6.46938
G1 X-18.403 Y-0.123 E6.52087
G1 X-17.687 Y-0.098 E6.55430
G1 X-16.882 Y-0.903 E6.60740
G1 X-16.841 Y-0.204 E6.64008
G1 X-16.799 Y-0.246 E6.64284
G1 X-16.472 Y-0.578 F7800.000
G1 X-13.459 Y-0.766 E6.83161 F600.000
G1 X-13.459 Y-0.766 F7800.000
G1 X-11.576 Y-0.883 E6.88306 F600.000
G1 X-8.441 Y-1.078 F7800.000
G1 X-5.428 Y-1.266 E7.07182 F600.000
G1 X-5.428 Y-1.266 F7800.000
G1 X-3.545 Y-1.383 E7.12327 F600.000
G1 X-0.410 Y-1.578 F7800.000
G1 X2.603 Y-1.766 E7.31204 F600.000
G1 X2.603 Y-1.766 F7800.000
G1 X4.486 Y-1.883 E7.36348 F600.000
G1 F1800.000 E6.36348
G92 E0
G1 Z1.300 F7800.000
G1 X-18.750 Y-0.016 F7800.000
G1 E1.00000 F1800.000
G1 X-18.750 Y-1.250 E1.05541 F600.000
G1 X-11.902 Y-1.250 E1.36288
G1 X-11.879 Y-0.875 E1.37975
G1 X-18.676 Y-0.025 E1.68730
G1 X-19.250 Y0.550 F7800.000
G1 X-19.250 Y-1.750 E1.79060 F600.000
G1 X-3.871 Y-1.750 E2.48112
G1 X-3.848 Y-1.375 E2.49800
G1 X-19.176 Y0.541 E3.19159
G1 X-19.750 Y1.117 F7800.000
G1 X-19.750 Y-2.250 E3.34276 F600.000
G1 X4.160 Y-2.250 E4.41635
G1 X4.183 Y-1.875 E4.43322
G1 X-19.676 Y1.108 E5.51285
G1 X-19.518 Y0.674 F7800.000
G1 X-18.500 Y-0.651 F7800.000
G1 X-16.659 Y-0.766 E5.62817 F600.000
G1 X-16.659 Y-0.766 F7800.000
G1 X-14.776 Y-0.883 E5.67962 F600.000
G1 X-11.641 Y-1.078 F7800.000
G1 X-8.628 Y-1.266 E5.86839 F600.000
G1 X-8.628 Y-1.266 F7800.000
G1 X-6.745 Y-1.383 E5.91983 F600.000
G1 X-3.610 Y-1.578 F7800.000
G1 X-0.597 Y-1.766 E6.10860 F600.000
G1 X-0.597 Y-1.766 F7800.000
G1 X1.286 Y-1.883 E6.16005 F600.000
G1 F1800.000 E5.16005
G92 E0
G1 Z1.700 F7800.000
G1 X-18.750 Y-0.416 F7800.000
G1 E1.00000 F1800.000
G1 X-18.750 Y-1.250 E1.03745 F600.000
G1 X-15.102 Y-1.250 E1.20123
G1 X-15.079 Y-0.875 E1.21811
G1 X-18.676 Y-0.425 E1.38086
G1 X-19.250 Y0.150 F7800.000
G1 X-19.250 Y-1.750 E1.46619 F600.000
G1 X-7.071 Y-1.750 E2.01303
G1 X-7.048 Y-1.375 E2.02991
G1 X-19.176 Y0.141 E2.57870
G1 X-19.750 Y0.717 F7800.000
G1 X-19.750 Y-2.250 E2.71191 F600.000
G1 X0.960 Y-2.250 E3.64181
G1 X0.983 Y-1.875 E3.65869
G1 X-19.676 Y0.708 E4.59351
G1 X-19.518 Y0.274 F7800.000
G1 X-14.841 Y-1.078 F7800.000
G1 X-11.828 Y-1.266 E4.78228 F600.000
G1 X-11.828 Y-1.266 F7800.000
G1 X-9.945 Y-1.383 E4.83373 F600.000
G1 X-6.810 Y-1.578 F7800.000
G1 X-3.797 Y-1.766 E5.02249 F600.000
G1 X-3.797 Y-1.766 F7800.000
G1 X-1.914 Y-1.883 E5.07394 F600.000
G1 F1800.000 E4.07394
G92 E0
G1 Z2.100 F7800.000
G1 X-18.750 Y-0.816 F7800.000
G1 E1.00000 F1800.000
G1 X-18.750 Y-1.250 E1.01949 F600.000
G1 X-18.302 Y-1.250 E1.03959
G1 X-18.279 Y-0.875 E1.05647
G1 X-18.676 Y-0.825 E1.07441
G1 X-19.250 Y-0.250 F7800.000
G1 X-19.250 Y-1.750 E1.14178 F600.000
G1 X-10.271 Y-1.750 E1.54494
G1 X-10.248 Y-1.375 E1.56182
G1 X-19.176 Y-0.259 E1.96580
G1 X-19.750 Y0.317 F7800.000
G1 X-19.750 Y-2.250 E2.08106 F600.000
G1 X-2.240 Y-2.250 E2.86727
G1 X-2.217 Y-1.875 E2.88415
G1 X-19.676 Y0.308 E3.67417
G1 X-19.518 Y-0.126 F7800.000
G1 X-18.041 Y-1.078 F7800.000
G1 X-15.028 Y-1.266 E3.86294 F600.000
G1 X-15.028 Y-1.266 F7800.000
G1 X-13.145 Y-1.383 E3.91439 F600.000
G1 X-10.010 Y-1.578 F7800.000
G1 X-6.997 Y-1.766 E4.10316 F600.000
G1 X-6.997 Y-1.766 F7800.000
G1 X-5.114 Y-1.883 E4.15460 F600.000
G1 F1800.000 E3.15460
G92 E0
G1 Z2.500 F7800.000
G1 X-19.250 Y-0.650 F7800.000
G1 E1.00000 F1800.000
G1 X-19.250 Y-1.750 E1.04941 F600.000
G1 X-13.471 Y-1.750 E1.30888
G1 X-13.448 Y-1.375 E1.32576
G1 X-19.176 Y-0.659 E1.58495
G1 X-19.750 Y-0.083 F7800.000
G1 X-19.750 Y-2.250 E1.68224 F600.000
G1 X-5.440 Y-2.250 E2.32477
G1 X-5.417 Y-1.875 E2.34165
G1 X-19.676 Y-0.092 E2.98687
G1 X-19.518 Y-0.526 F7800.000
G1 X-18.609 Y-1.079 F7800.000
G1 X-18.567 Y-1.121 E2.98964 F600.000
G1 X-18.228 Y-1.266 F7800.000
G1 X-16.345 Y-1.383 E3.04108 F600.000
G1 X-13.210 Y-1.578 F7800.000
G1 X-10.197 Y-1.766 E3.22985 F600.000
G1 X-10.197 Y-1.766 F7800.000
G1 X-8.314 Y-1.883 E3.28130 F600.000
G1 F1800.000 E2.28130
G92 E0
G1 Z2.900 F7800.000
G1 X-19.250 Y-1.050 F7800.000
G1 E1.00000 F1800.000
G1 X-19.250 Y-1.750 E1.03145 F600.000
G1 X-16.671 Y-1.750 E1.14724
G1 X-16.648 Y-1.375 E1.16412
G1 X-19.176 Y-1.059 E1.27850
G1 X-19.750 Y-0.483 F7800.000
G1 X-19.750 Y-2.250 E1.35783 F600.000
G1 X-8.640 Y-2.250 E1.85668
G1 X-8.617 Y-1.875 E1.87356
G1 X-19.676 Y-0.492 E2.37398
G1 X-19.518 Y-0.926 F7800.000
G1 X-16.410 Y-1.578 F7800.000
G1 X-13.397 Y-1.766 E2.56275 F600.000
G1 X-13.397 Y-1.766 F7800.000
G1 X-11.514 Y-1.883 E2.61419 F600.000
G1 F1800.000 E1.61419
G92 E0
G1 Z3.300 F7800.000
G1 X-19.750 Y-0.883 F7800.000
G1 E1.00000 F1800.000
G1 X-19.750 Y-2.250 E1.06137 F600.000
G1 X-11.840 Y-2.250 E1.41654
G1 X-11.817 Y-1.875 E1.43341
G1 X-19.676 Y-0.892 E1.78903
G1 X-19.518 Y-1.326 F7800.000
G1 X-19.500 Y-1.585 F7800.000
G1 X-16.597 Y-1.766 E1.97091 F600.000
G1 X-16.597 Y-1.766 F7800.000
G1 X-14.714 Y-1.883 E2.02235 F600.000
G1 F1800.000 E1.02235
G92 E0
G1 Z3.700 F7800.000
G1 X-19.750 Y-1.283 F7800.000
G1 E1.00000 F1800.000
G1 X-19.750 Y-2.250 E1.04341 F600.000
G1 X-15.040 Y-2.250 E1.25489
G1 X-15.017 Y-1.875 E1.27177
G1 X-19.676 Y-1.292 E1.48259
G1 X-19.518 Y-1.726 F7800.000
G1 X-19.500 Y-1.784 F7800.000
G1 X-17.914 Y-1.883 E1.52591 F600.000
G1 F1800.000 E0.52591
G92 E0
G1 Z4.100 F7800.000
G1 X-19.750 Y-1.683 F7800.000
G1 E1.00000 F1800.000
G1 X-19.750 Y-2.250 E1.02545 F600.000
G1 X-18.240 Y-2.250 E1.09325
G1 X-18.217 Y-1.875 E1.11012
G1 X-19.676 Y-1.692 E1.17614
G1 X-19.518 Y-2.126 F7800.000
G1 F1800.000 E0.17614
G92 E0
G1 Z4.500 F7800.000
G1 Z4.900 F7800.000
M107
M104 S0 ; turn off temperature
G28 X0  ; home X axis
M84     ; disable motors

; filament used = 45.2mm (0.1cm3)

; avoid_crossing_perimeters = 1
; bed_size = 120,120
; bed_temperature = 0
; bridge_acceleration = 0
; bridge_fan_speed = 100
; bridge_flow_ratio = 1
; brim_width = 0
; complete_objects = 0
; cooling = 1
; default_acceleration = 0
; disable_fan_first_layers = 1
; duplicate_distance = 6
; end_gcode = M104 S0 ; turn off temperature\nG28 X0  ; home X axis\nM84     ; disable motors\n
; external_perimeters_first = 0
; extruder_clearance_height = 20
; extruder_clearance_radius = 20
; extruder_offset = 0x0
; extrusion_axis = E
; extrusion_multiplier = 0.54
; fan_always_on = 0
; fan_below_layer_time = 60
; filament_diameter = 1.75
; first_layer_acceleration = 0
; first_layer_bed_temperature = 0
; first_layer_extrusion_width = 200%
; first_layer_speed = 30%
; first_layer_temperature = 50
; g0 = 0
; gcode_arcs = 0
; gcode_comments = 0
; gcode_flavor = reprap
; infill_acceleration = 0
; infill_first = 0
; layer_gcode = 
; max_fan_speed = 100
; min_fan_speed = 35
; min_print_speed = 10
; min_skirt_length = 0
; notes = 
; nozzle_diameter = 0.5
; only_retract_when_crossing_perimeters = 1
; ooze_prevention = 0
; output_filename_format = [input_filename_base].gcode
; perimeter_acceleration = 0
; post_process = 
; print_center = 0,0
; resolution = 0
; retract_before_travel = 2
; retract_layer_change = 1
; retract_length = 1
; retract_length_toolchange = 10
; retract_lift = 0
; retract_restart_extra = 0
; retract_restart_extra_toolchange = 0
; retract_speed = 30
; skirt_distance = 6
; skirt_height = 1
; skirts = 1
; slowdown_below_layer_time = 30
; spiral_vase = 0
; standby_temperature_delta = -5
; start_gcode = G28 ; home all axes\nG1 Z5 F5000 ; lift nozzle\n
; temperature = 50
; threads = 2
; toolchange_gcode = 
; travel_speed = 130
; use_firmware_retraction = 0
; use_relative_e_distances = 0
; vibration_limit = 0
; wipe = 0
; z_offset = 0
; dont_support_bridges = 1
; extrusion_width = 0
; first_layer_height = 0.5
; infill_only_where_needed = 0
; interface_shells = 0
; layer_height = 0.4
; raft_layers = 0
; seam_position = aligned
; support_material = 0
; support_material_angle = 0
; support_material_enforce_layers = 0
; support_material_extruder = 1
; support_material_extrusion_width = 0
; support_material_interface_extruder = 1
; support_material_interface_layers = 3
; support_material_interface_spacing = 0
; support_material_interface_speed = 100%
; support_material_pattern = pillars
; support_material_spacing = 2.5
; support_material_speed = 60
; support_material_threshold = 0
; bottom_solid_layers = 3
; bridge_speed = 60
; external_perimeter_speed = 70%
; extra_perimeters = 1
; fill_angle = 45
; fill_density = 40%
; fill_pattern = honeycomb
; gap_fill_speed = 20
; infill_every_layers = 10
; infill_extruder = 1
; infill_extrusion_width = 0
; infill_speed = 60
; overhangs = 1
; perimeter_extruder = 1
; perimeter_extrusion_width = 0
; perimeter_speed = 30
; perimeters = 3
; small_perimeter_speed = 30
; solid_fill_pattern = rectilinear
; solid_infill_below_area = 70
; solid_infill_every_layers = 0
; solid_infill_extrusion_width = 0
; solid_infill_speed = 60
; thin_walls = 1
; top_infill_extrusion_width = 0
; top_solid_infill_speed = 50
; top_solid_layers = 3
