; generated by Slic3r 1.2.9 on 2015-09-01 at 13:36:16

; external perimeters extrusion width = 0.50mm
; perimeters extrusion width = 0.85mm
; infill extrusion width = 1.02mm
; solid infill extrusion width = 0.85mm
; top infill extrusion width = 0.85mm

M104 S190 ; set temperature
G28 ; home all axes
G1 Z5 F5000 ; lift nozzle

M109 S190 ; wait for temperature to be reached
G21 ; set units to millimeters
G90 ; use absolute coordinates
M82 ; use absolute distances for extrusion
G92 E0
G1 E-3.50000 F1800.00000
G92 E0
G1 Z0.260 F9000.000
G1 X23.677 Y-2.339 F9000.000
G1 E3.50000 F1800.00000
G1 X23.763 Y-1.376 E3.54850 F1800.000
G1 X23.803 Y-0.131 E3.61100
G1 X23.763 Y1.376 E3.68665
G1 X23.614 Y2.968 E3.76691
G1 X23.412 Y4.294 E3.83420
G1 X23.076 Y5.838 E3.91348
G1 X22.703 Y7.150 E3.98193
G1 X22.333 Y8.235 E4.03946
G1 X21.765 Y9.636 E4.11530
G1 X21.082 Y11.045 E4.19387
G1 X20.334 Y12.372 E4.27034
G1 X19.611 Y13.488 E4.33703
G1 X18.813 Y14.584 E4.40506
G1 X17.811 Y15.790 E4.48376
G1 X16.716 Y16.945 E4.56359
G1 X15.888 Y17.725 E4.62066
G1 X14.837 Y18.610 E4.68965
G1 X13.597 Y19.537 E4.76730
G1 X12.244 Y20.412 E4.84818
G1 X10.891 Y21.163 E4.92583
G1 X9.868 Y21.661 E4.98290
G1 X8.601 Y22.194 E5.05189
G1 X7.134 Y22.707 E5.12985
G1 X5.818 Y23.081 E5.19851
G1 X4.298 Y23.411 E5.27657
G1 X2.712 Y23.648 E5.35705
G1 X1.579 Y23.751 E5.41412
G1 X0.205 Y23.800 E5.48309
G1 X-1.342 Y23.765 E5.56075
G1 X-2.947 Y23.619 E5.64163
G1 X-4.476 Y23.377 E5.71928
G1 X-5.588 Y23.138 E5.77636
G1 X-6.914 Y22.776 E5.84532
G1 X-8.379 Y22.278 E5.92298
G1 X-9.868 Y21.661 E6.00386
G1 X-11.253 Y20.971 E6.08150
G1 X-12.244 Y20.412 E6.13858
G1 X-13.402 Y19.672 E6.20755
G1 X-14.735 Y18.693 E6.29053
G1 X-15.888 Y17.725 E6.36610
G1 X-16.716 Y16.945 E6.42317
G1 X-17.663 Y15.949 E6.49212
G1 X-18.666 Y14.771 E6.56978
G1 X-19.611 Y13.488 E6.64972
G1 X-20.456 Y12.169 E6.72831
G1 X-21.015 Y11.179 E6.78539
G1 X-21.623 Y9.946 E6.85436
G1 X-22.226 Y8.520 E6.93202
G1 X-22.681 Y7.223 E7.00099
G1 X-23.123 Y5.643 E7.08334
G1 X-23.437 Y4.158 E7.15952
G1 X-23.637 Y2.797 E7.22851
G1 X-23.740 Y1.665 E7.28558
G1 X-23.803 Y0.119 E7.36322
G1 X-23.757 Y-1.461 E7.44253
G1 X-23.609 Y-3.033 E7.52175
G1 X-23.437 Y-4.158 E7.57883
G1 X-23.156 Y-5.503 E7.64781
G1 X-22.751 Y-6.997 E7.72545
G1 X-22.226 Y-8.520 E7.80633
G1 X-21.623 Y-9.946 E7.88398
G1 X-21.125 Y-10.969 E7.94106
G1 X-20.456 Y-12.169 E8.01003
G1 X-19.611 Y-13.488 E8.08862
G1 X-18.666 Y-14.771 E8.16857
G1 X-17.663 Y-15.949 E8.24622
G1 X-16.884 Y-16.778 E8.30329
G1 X-15.888 Y-17.725 E8.37225
G1 X-14.735 Y-18.693 E8.44782
G1 X-13.402 Y-19.672 E8.53080
G1 X-12.447 Y-20.289 E8.58787
G1 X-11.253 Y-20.971 E8.65685
G1 X-9.868 Y-21.661 E8.73449
G1 X-8.379 Y-22.278 E8.81537
G1 X-6.914 Y-22.776 E8.89302
G1 X-5.818 Y-23.081 E8.95010
G1 X-4.476 Y-23.377 E9.01907
G1 X-2.947 Y-23.619 E9.09672
G1 X-1.342 Y-23.765 E9.17760
G1 X0.205 Y-23.800 E9.25525
G1 X1.342 Y-23.765 E9.31233 F1800.000
G1 X2.712 Y-23.648 E9.38130
G1 X4.476 Y-23.377 E9.47086
G1 X5.588 Y-23.138 E9.52793
G1 X6.914 Y-22.776 E9.59690
G1 X8.601 Y-22.194 E9.68645
G1 X9.868 Y-21.661 E9.75544
G1 X10.891 Y-21.163 E9.81251
G1 X12.447 Y-20.289 E9.90206
G1 X13.597 Y-19.537 E9.97104
G1 X14.513 Y-18.863 E10.02811
G1 X15.888 Y-17.725 E10.11767
G1 X16.716 Y-16.945 E10.17475
G1 X17.663 Y-15.949 E10.24370
G1 X17.938 Y-15.644 E10.26429
G1 X18.813 Y-14.584 E10.33327
G1 X19.611 Y-13.488 E10.40131
G1 X20.334 Y-12.372 E10.46800
G1 X21.181 Y-10.855 E10.55519
G1 X21.765 Y-9.636 E10.62304
G1 X22.254 Y-8.443 E10.68771
G1 X22.653 Y-7.307 E10.74816
G1 X22.799 Y-6.830 E10.77319
G1 X23.133 Y-5.608 E10.83676
G1 X23.412 Y-4.294 E10.90414
G1 X23.589 Y-3.173 E10.96107
G1 X23.669 Y-2.413 E10.99943
G1 X23.215 Y-2.293 F9000.000
G1 X23.299 Y-1.361 E11.04639 F1800.000
G1 X23.339 Y-0.121 E11.10866
G1 X23.299 Y1.361 E11.18303
G1 X23.152 Y2.923 E11.26175
G1 X22.958 Y4.200 E11.32658
G1 X22.629 Y5.713 E11.40428
G1 X22.214 Y7.155 E11.47958
G1 X21.825 Y8.267 E11.53870
G1 X21.336 Y9.460 E11.60337
G1 X20.676 Y10.819 E11.67918
G1 X19.944 Y12.120 E11.75411
G1 X19.223 Y13.234 E11.82069
G1 X18.439 Y14.309 E11.88743
G1 X17.469 Y15.476 E11.96357
G1 X16.398 Y16.607 E12.04173
G1 X15.570 Y17.387 E12.09881
G1 X14.539 Y18.254 E12.16639
G1 X13.322 Y19.163 E12.24263
G1 X12.016 Y20.008 E12.32070
G1 X10.688 Y20.746 E12.39694
G1 X9.665 Y21.244 E12.45401
G1 X8.423 Y21.765 E12.52159
G1 X6.984 Y22.268 E12.59811
G1 X5.693 Y22.634 E12.66541
G1 X4.221 Y22.953 E12.74098
G1 X2.670 Y23.186 E12.81972
G1 X1.537 Y23.289 E12.87680
G1 X0.191 Y23.336 E12.94436
G1 X-1.328 Y23.301 E13.02060
G1 X-2.877 Y23.160 E13.09867
G1 X-4.378 Y22.923 E13.17492
G1 X-5.490 Y22.684 E13.23199
G1 X-6.789 Y22.329 E13.29956
G1 X-8.228 Y21.839 E13.37580
G1 X-9.665 Y21.244 E13.45387
G1 X-11.025 Y20.567 E13.53010
G1 X-12.016 Y20.008 E13.58718
G1 X-13.150 Y19.282 E13.65475
G1 X-14.449 Y18.326 E13.73569
G1 X-15.570 Y17.387 E13.80908
G1 X-16.398 Y16.607 E13.86615
G1 X-17.326 Y15.631 E13.93370
G1 X-18.310 Y14.473 E14.00994
G1 X-19.223 Y13.234 E14.08719
G1 X-20.052 Y11.941 E14.16426
G1 X-20.611 Y10.951 E14.22134
G1 X-21.206 Y9.743 E14.28890
G1 X-21.797 Y8.343 E14.36515
G1 X-22.304 Y6.872 E14.44322
G1 X-22.673 Y5.529 E14.51310
G1 X-22.979 Y4.088 E14.58703
G1 X-23.150 Y2.963 E14.64410
G1 X-23.278 Y1.623 E14.71168
G1 X-23.339 Y0.105 E14.78791
G1 X-23.295 Y-1.423 E14.86460
G1 X-23.150 Y-2.963 E14.94223
G1 X-22.979 Y-4.088 E14.99930
G1 X-22.702 Y-5.406 E15.06688
G1 X-22.304 Y-6.872 E15.14311
G1 X-21.797 Y-8.343 E15.22118
G1 X-21.206 Y-9.743 E15.29743
G1 X-20.708 Y-10.765 E15.35450
G1 X-20.052 Y-11.941 E15.42207
G1 X-19.223 Y-13.234 E15.49914
G1 X-18.310 Y-14.473 E15.57638
G1 X-17.326 Y-15.631 E15.65263
G1 X-16.546 Y-16.459 E15.70970
G1 X-15.570 Y-17.387 E15.77725
G1 X-14.449 Y-18.326 E15.85064
G1 X-13.150 Y-19.282 E15.93158
G1 X-12.195 Y-19.900 E15.98865
G1 X-11.025 Y-20.567 E16.05622
G1 X-9.665 Y-21.244 E16.13245
G1 X-8.228 Y-21.839 E16.21052
G1 X-6.789 Y-22.329 E16.28677
G1 X-5.693 Y-22.634 E16.34385
G1 X-4.378 Y-22.923 E16.41141
G1 X-2.877 Y-23.160 E16.48766
G1 X-1.328 Y-23.301 E16.56572
G1 X0.191 Y-23.336 E16.64197
G1 X1.328 Y-23.301 E16.69904 F1800.000
G1 X2.670 Y-23.186 E16.76661
G1 X4.378 Y-22.923 E16.85336
G1 X5.490 Y-22.684 E16.91043
G1 X6.789 Y-22.329 E16.97799
G1 X8.423 Y-21.765 E17.06473
G1 X9.474 Y-21.330 E17.12181
G1 X10.688 Y-20.746 E17.18939
G1 X12.195 Y-19.900 E17.27612
G1 X13.150 Y-19.282 E17.33319
G1 X14.238 Y-18.489 E17.40076
G1 X15.570 Y-17.387 E17.48751
G1 X16.398 Y-16.607 E17.54459
G1 X17.326 Y-15.631 E17.61213
G1 X17.581 Y-15.347 E17.63131
G1 X18.439 Y-14.309 E17.69889
G1 X19.223 Y-13.234 E17.76563
G1 X19.944 Y-12.120 E17.83221
G1 X20.763 Y-10.652 E17.91659
G1 X21.336 Y-9.460 E17.98295
G1 X21.825 Y-8.267 E18.04762
G1 X22.214 Y-7.155 E18.10674
G1 X22.354 Y-6.697 E18.13080
G1 X22.679 Y-5.510 E18.19253
G1 X22.958 Y-4.200 E18.25974
G1 X23.130 Y-3.104 E18.31544
G1 X23.207 Y-2.368 E18.35257
G1 E14.85257 F1800.00000
G92 E0
G1 X2.636 Y-18.491 F9000.000
G1 E3.50000 F1800.00000
G1 X3.270 Y-18.394 E3.53218 F600.000
G1 X4.482 Y-18.142 E3.59431
G1 X5.505 Y-17.857 E3.64761
G1 X6.676 Y-17.453 E3.70975
G1 X7.660 Y-17.045 E3.76322
G1 X8.620 Y-16.578 E3.81676
G1 X9.700 Y-15.972 E3.87890
G1 X10.592 Y-15.396 E3.93220
G1 X11.587 Y-14.658 E3.99434
G1 X12.407 Y-13.974 E4.04792
G1 X13.182 Y-13.245 E4.10134
G1 X14.030 Y-12.342 E4.16349
G1 X14.713 Y-11.522 E4.21700
G1 X15.344 Y-10.664 E4.27049
G1 X16.015 Y-9.627 E4.33246
G1 X16.594 Y-8.586 E4.39223
G1 X17.045 Y-7.660 E4.44391
G1 X17.507 Y-6.534 E4.50497
G1 X17.805 Y-5.669 E4.55090
G1 X18.138 Y-4.497 E4.61203
G1 X18.396 Y-3.284 E4.67426
G1 X18.525 Y-2.434 E4.71738
G1 X18.650 Y-1.172 E4.78104
G1 X18.687 Y-0.000 E4.83987
G1 X18.650 Y1.172 E4.89870
G1 X18.525 Y2.434 E4.96236
G1 X18.396 Y3.284 E5.00548
G1 X18.138 Y4.497 E5.06771
G1 X17.805 Y5.669 E5.12884
G1 X17.507 Y6.534 E5.17477
G1 X17.045 Y7.660 E5.23583
G1 X16.594 Y8.586 E5.28751
G1 X16.015 Y9.627 E5.34728
G1 X15.344 Y10.664 E5.40925
G1 X14.715 Y11.519 E5.46254
G1 X13.916 Y12.465 E5.52468
G1 X13.183 Y13.244 E5.57834
G1 X12.409 Y13.973 E5.63168
G1 X11.454 Y14.761 E5.69382
G1 X10.594 Y15.394 E5.74742
G1 X9.700 Y15.972 E5.80082
G1 X8.620 Y16.578 E5.86297
G1 X7.660 Y17.045 E5.91651
G1 X6.676 Y17.453 E5.96998
G1 X5.664 Y17.802 E6.02368
G1 X4.474 Y18.144 E6.08582
G1 X3.436 Y18.367 E6.13911
G1 X2.212 Y18.555 E6.20126
G1 X1.152 Y18.652 E6.25467
G1 X0.084 Y18.684 E6.30826
G1 X-1.154 Y18.652 E6.37040
G1 X-2.213 Y18.555 E6.42375
G1 X-3.270 Y18.394 E6.47740
G1 X-4.482 Y18.142 E6.53954
G1 X-5.505 Y17.857 E6.59284
G1 X-6.676 Y17.453 E6.65498
G1 X-7.660 Y17.045 E6.70845
G1 X-8.620 Y16.578 E6.76199
G1 X-9.700 Y15.972 E6.82413
G1 X-10.592 Y15.396 E6.87743
G1 X-11.587 Y14.658 E6.93957
G1 X-12.407 Y13.974 E6.99315
G1 X-13.182 Y13.245 E7.04657
G1 X-14.030 Y12.342 E7.10872
G1 X-14.713 Y11.522 E7.16223
G1 X-15.344 Y10.664 E7.21572
G1 X-16.017 Y9.624 E7.27786
G1 X-16.539 Y8.699 E7.33116
G1 X-17.075 Y7.583 E7.39330
G1 X-17.484 Y6.595 E7.44693
G1 X-17.831 Y5.590 E7.50030
G1 X-18.160 Y4.396 E7.56245
G1 X-18.384 Y3.352 E7.61601
G1 X-18.545 Y2.299 E7.66945
G1 X-18.655 Y1.066 E7.73160
G1 X-18.688 Y-0.000 E7.78510
G1 X-18.655 Y-1.066 E7.83860
G1 X-18.545 Y-2.299 E7.90074
G1 X-18.384 Y-3.352 E7.95418
G1 X-18.160 Y-4.396 E8.00775
G1 X-17.831 Y-5.590 E8.06989
G1 X-17.485 Y-6.594 E8.12319
G1 X-17.008 Y-7.737 E8.18533
G1 X-16.541 Y-8.696 E8.23888
G1 X-16.017 Y-9.624 E8.29234
G1 X-15.344 Y-10.664 E8.35448
G1 X-14.715 Y-11.519 E8.40778
G1 X-13.916 Y-12.465 E8.46991
G1 X-13.183 Y-13.244 E8.52358
G1 X-12.409 Y-13.973 E8.57692
G1 X-11.454 Y-14.761 E8.63906
G1 X-10.594 Y-15.394 E8.69266
G1 X-9.700 Y-15.972 E8.74606
G1 X-8.620 Y-16.578 E8.80820
G1 X-7.660 Y-17.045 E8.86174
G1 X-6.676 Y-17.453 E8.91521
G1 X-5.664 Y-17.802 E8.96892
G1 X-4.474 Y-18.144 E9.03105
G1 X-3.436 Y-18.367 E9.08435
G1 X-2.212 Y-18.555 E9.14649
G1 X-1.152 Y-18.652 E9.19990
G1 X-0.084 Y-18.684 E9.25349
G1 X1.154 Y-18.652 E9.31563
G1 X2.213 Y-18.555 E9.36899 F600.000
G1 X2.562 Y-18.502 E9.38670
G1 X2.706 Y-18.950 F9000.000
G1 X3.352 Y-18.851 E9.41951 F600.000
G1 X4.592 Y-18.593 E9.48305
G1 X5.643 Y-18.300 E9.53782
G1 X6.841 Y-17.887 E9.60138
G1 X7.851 Y-17.469 E9.65625
G1 X8.835 Y-16.990 E9.71117
G1 X9.940 Y-16.370 E9.77472
G1 X10.856 Y-15.777 E9.82949
G1 X11.874 Y-15.023 E9.89304
G1 X12.715 Y-14.322 E9.94799
G1 X13.511 Y-13.573 E10.00284
G1 X14.378 Y-12.649 E10.06639
G1 X15.078 Y-11.809 E10.12130
G1 X15.726 Y-10.928 E10.17619
G1 X16.414 Y-9.866 E10.23963
G1 X17.006 Y-8.801 E10.30081
G1 X17.469 Y-7.850 E10.35387
G1 X17.941 Y-6.698 E10.41635
G1 X18.248 Y-5.808 E10.46358
G1 X18.589 Y-4.609 E10.52614
G1 X18.853 Y-3.367 E10.58983
G1 X18.986 Y-2.492 E10.63425
G1 X19.114 Y-1.202 E10.69930
G1 X19.152 Y-0.000 E10.75965
G1 X19.114 Y1.202 E10.82000
G1 X18.986 Y2.492 E10.88504
G1 X18.853 Y3.367 E10.92946
G1 X18.589 Y4.609 E10.99315
G1 X18.248 Y5.808 E11.05572
G1 X17.941 Y6.698 E11.10295
G1 X17.469 Y7.850 E11.16542
G1 X17.006 Y8.801 E11.21848
G1 X16.414 Y9.866 E11.27967
G1 X15.726 Y10.928 E11.34311
G1 X15.080 Y11.807 E11.39788
G1 X14.263 Y12.774 E11.46142
G1 X13.511 Y13.572 E11.51642
G1 X12.716 Y14.321 E11.57122
G1 X11.740 Y15.127 E11.63477
G1 X10.857 Y15.777 E11.68973
G1 X9.940 Y16.370 E11.74456
G1 X8.835 Y16.990 E11.80811
G1 X7.851 Y17.469 E11.86303
G1 X6.841 Y17.887 E11.91791
G1 X5.804 Y18.245 E11.97293
G1 X4.587 Y18.594 E12.03647
G1 X3.520 Y18.824 E12.09125
G1 X2.268 Y19.016 E12.15480
G1 X1.180 Y19.115 E12.20964
G1 X0.085 Y19.148 E12.26459
G1 X-1.181 Y19.115 E12.32814
G1 X-2.269 Y19.016 E12.38295
G1 X-3.352 Y18.851 E12.43793
G1 X-4.592 Y18.593 E12.50148
G1 X-5.643 Y18.300 E12.55625
G1 X-6.841 Y17.887 E12.61980
G1 X-7.851 Y17.469 E12.67468
G1 X-8.835 Y16.990 E12.72960
G1 X-9.940 Y16.370 E12.79315
G1 X-10.856 Y15.777 E12.84792
G1 X-11.874 Y15.023 E12.91147
G1 X-12.715 Y14.322 E12.96642
G1 X-13.511 Y13.573 E13.02127
G1 X-14.378 Y12.649 E13.08482
G1 X-15.078 Y11.809 E13.13972
G1 X-15.726 Y10.928 E13.19461
G1 X-16.415 Y9.865 E13.25816
G1 X-16.951 Y8.914 E13.31294
G1 X-17.499 Y7.772 E13.37648
G1 X-17.919 Y6.760 E13.43146
G1 X-18.275 Y5.727 E13.48628
G1 X-18.611 Y4.506 E13.54983
G1 X-18.841 Y3.436 E13.60477
G1 X-19.006 Y2.355 E13.65963
G1 X-19.119 Y1.094 E13.72318
G1 X-19.152 Y-0.000 E13.77807
G1 X-19.119 Y-1.094 E13.83297
G1 X-19.006 Y-2.355 E13.89652
G1 X-18.841 Y-3.436 E13.95138
G1 X-18.611 Y-4.506 E14.00632
G1 X-18.275 Y-5.727 E14.06987
G1 X-17.919 Y-6.759 E14.12464
G1 X-17.431 Y-7.928 E14.18819
G1 X-16.952 Y-8.912 E14.24312
G1 X-16.415 Y-9.865 E14.29799
G1 X-15.726 Y-10.928 E14.36154
G1 X-15.080 Y-11.807 E14.41631
G1 X-14.263 Y-12.774 E14.47986
G1 X-13.511 Y-13.572 E14.53485
G1 X-12.716 Y-14.321 E14.58965
G1 X-11.740 Y-15.128 E14.65320
G1 X-10.857 Y-15.777 E14.70816
G1 X-9.940 Y-16.370 E14.76299
G1 X-8.835 Y-16.990 E14.82654
G1 X-7.851 Y-17.469 E14.88147
G1 X-6.841 Y-17.887 E14.93634
G1 X-5.804 Y-18.245 E14.99136
G1 X-4.587 Y-18.594 E15.05490
G1 X-3.520 Y-18.824 E15.10968
G1 X-2.268 Y-19.016 E15.17323
G1 X-1.180 Y-19.115 E15.22807
G1 X-0.085 Y-19.148 E15.28302
G1 X1.181 Y-19.115 E15.34657
G1 X2.269 Y-19.016 E15.40138 F600.000
G1 X2.632 Y-18.961 E15.41979
G1 X2.776 Y-19.409 F9000.000
G1 X3.435 Y-19.309 E15.45324 F600.000
G1 X4.702 Y-19.045 E15.51819
G1 X5.782 Y-18.744 E15.57444
G1 X7.005 Y-18.321 E15.63940
G1 X8.042 Y-17.892 E15.69568
G1 X9.050 Y-17.401 E15.75198
G1 X10.180 Y-16.768 E15.81694
G1 X11.121 Y-16.159 E15.87319
G1 X12.161 Y-15.388 E15.93815
G1 X13.023 Y-14.670 E15.99446
G1 X13.839 Y-13.901 E16.05073
G1 X14.725 Y-12.957 E16.11569
G1 X15.444 Y-12.095 E16.17199
G1 X16.109 Y-11.192 E16.22828
G1 X16.812 Y-10.106 E16.29320
G1 X17.418 Y-9.015 E16.35580
G1 X17.893 Y-8.040 E16.41024
G1 X18.376 Y-6.862 E16.47412
G1 X18.691 Y-5.947 E16.52266
G1 X19.040 Y-4.721 E16.58665
G1 X19.310 Y-3.451 E16.65181
G1 X19.447 Y-2.550 E16.69752
G1 X19.577 Y-1.232 E16.76395
G1 X19.616 Y-0.000 E16.82582
G1 X19.577 Y1.232 E16.88769
G1 X19.447 Y2.550 E16.95413
G1 X19.310 Y3.451 E16.99984
G1 X19.040 Y4.721 E17.06499
G1 X18.691 Y5.947 E17.12899
G1 X18.376 Y6.862 E17.17753
G1 X17.893 Y8.040 E17.24141
G1 X17.418 Y9.015 E17.29585
G1 X16.812 Y10.106 E17.35845
G1 X16.109 Y11.192 E17.42337
G1 X15.444 Y12.095 E17.47962
G1 X14.609 Y13.083 E17.54457
G1 X13.840 Y13.901 E17.60090
G1 X13.023 Y14.669 E17.65715
G1 X12.025 Y15.494 E17.72211
G1 X11.121 Y16.159 E17.77843
G1 X10.180 Y16.768 E17.83469
G1 X9.050 Y17.401 E17.89965
G1 X8.042 Y17.892 E17.95596
G1 X7.005 Y18.321 E18.01224
G1 X5.944 Y18.688 E18.06858
G1 X4.700 Y19.045 E18.13353
G1 X3.604 Y19.280 E18.18978
G1 X2.325 Y19.477 E18.25473
G1 X1.208 Y19.579 E18.31101
G1 X0.086 Y19.613 E18.36732
G1 X-1.208 Y19.579 E18.43228
G1 X-2.325 Y19.477 E18.48854
G1 X-3.435 Y19.309 E18.54486
G1 X-4.702 Y19.045 E18.60982
G1 X-5.782 Y18.744 E18.66606
G1 X-7.005 Y18.321 E18.73102
G1 X-8.042 Y17.892 E18.78731
G1 X-9.050 Y17.401 E18.84361
G1 X-10.180 Y16.768 E18.90857
G1 X-11.121 Y16.159 E18.96482
G1 X-12.161 Y15.388 E19.02977
G1 X-13.023 Y14.670 E19.08608
G1 X-13.839 Y13.901 E19.14236
G1 X-14.725 Y12.957 E19.20732
G1 X-15.444 Y12.095 E19.26362
G1 X-16.109 Y11.192 E19.31991
G1 X-16.812 Y10.105 E19.38486
G1 X-17.363 Y9.129 E19.44111
G1 X-17.923 Y7.962 E19.50607
G1 X-18.353 Y6.925 E19.56239
G1 X-18.719 Y5.865 E19.61865
G1 X-19.062 Y4.617 E19.68361
G1 X-19.298 Y3.520 E19.73992
G1 X-19.467 Y2.411 E19.79620
G1 X-19.582 Y1.121 E19.86116
G1 X-19.616 Y-0.000 E19.91745
G1 X-19.582 Y-1.121 E19.97374
G1 X-19.467 Y-2.411 E20.03870
G1 X-19.298 Y-3.520 E20.09498
G1 X-19.062 Y-4.617 E20.15129
G1 X-18.719 Y-5.865 E20.21625
G1 X-18.353 Y-6.924 E20.27250
G1 X-17.854 Y-8.119 E20.33745
G1 X-17.363 Y-9.128 E20.39376
G1 X-16.812 Y-10.105 E20.45004
G1 X-16.109 Y-11.192 E20.51500
G1 X-15.444 Y-12.095 E20.57125
G1 X-14.609 Y-13.083 E20.63620
G1 X-13.840 Y-13.901 E20.69253
G1 X-13.023 Y-14.669 E20.74878
G1 X-12.025 Y-15.494 E20.81374
G1 X-11.121 Y-16.159 E20.87006
G1 X-10.180 Y-16.768 E20.92633
G1 X-9.050 Y-17.401 E20.99129
G1 X-8.042 Y-17.892 E21.04759
G1 X-7.005 Y-18.321 E21.10387
G1 X-5.944 Y-18.688 E21.16021
G1 X-4.700 Y-19.045 E21.22516
G1 X-3.604 Y-19.280 E21.28141
