; generated by Slic3r 1.1.7 on 2015-06-01 at 13:35:15

; perimeters extrusion width = 0.50mm
; infill extrusion width = 0.52mm
; solid infill extrusion width = 0.52mm
; top infill extrusion width = 0.52mm

G21 ; set units to millimeters
M107
M104 S50 ; set temperature
G28 ; home all axes
G1 Z5 F5000 ; lift nozzle

M109 S50 ; wait for temperature to be reached
G90 ; use absolute coordinates
G92 E0
M82 ; use absolute distances for extrusion
G1 F1800.000 E-1.00000
G92 E0
G1 Z0.500 F7800.000
G1 X-19.566 Y-0.026 F7800.000
G1 E1.00000 F1800.000
G1 X-19.555 Y-8.505 E2.57358 F1080.000
G1 X-19.277 Y-11.146 E3.06628
G1 X-18.978 Y-12.555 E3.33371
G1 X-18.157 Y-15.080 E3.82641
G1 X-17.571 Y-16.397 E4.09378
G1 X-16.244 Y-18.696 E4.58648
G1 X-15.397 Y-19.862 E4.85387
G1 X-13.620 Y-21.835 E5.34656
G1 X-12.549 Y-22.799 E5.61397
G1 X-10.401 Y-24.360 E6.10666
G1 X-9.154 Y-25.080 E6.37406
G1 X-6.728 Y-26.160 E6.86676
G1 X-5.358 Y-26.605 E7.13416
G1 X-2.761 Y-27.157 E7.62687
G1 X-1.328 Y-27.308 E7.89426
G1 X1.328 Y-27.308 E8.38695
G1 X2.761 Y-27.157 E8.65435
G1 X5.358 Y-26.605 E9.14705 F1080.000
G1 X6.728 Y-26.160 E9.41445
G1 X9.154 Y-25.080 E9.90714
G1 X10.401 Y-24.360 E10.17454
G1 X12.549 Y-22.799 E10.66724
G1 X13.620 Y-21.835 E10.93464
G1 X15.397 Y-19.862 E11.42734
G1 X16.244 Y-18.696 E11.69473
G1 X17.571 Y-16.397 E12.18743
G1 X18.157 Y-15.080 E12.45480
G1 X18.978 Y-12.555 E12.94749
G1 X19.277 Y-11.146 E13.21493
G1 X19.593 Y-7.785 E13.84135
G1 X19.593 Y20.415 E19.07444
G1 X19.196 Y22.721 E19.50862
G1 X18.050 Y24.761 E19.94280
G1 X16.288 Y26.300 E20.37698
G1 X14.113 Y27.162 E20.81116
G1 X12.700 Y27.308 E21.07471
G1 X-12.700 Y27.308 E25.78820
G1 X-15.006 Y26.911 E26.22238
G1 X-17.046 Y25.765 E26.65655
G1 X-18.585 Y24.003 E27.09073
G1 X-19.446 Y21.828 E27.52491
G1 X-19.593 Y20.415 E27.78846
G1 X-19.566 Y0.049 E31.56775
G1 F1800.000 E30.56775
G92 E0
G1 X-4.091 Y-12.985 F7800.000
G1 E1.00000 F1800.000
G1 X-3.543 Y-15.030 E1.39298 F540.000
G1 X-2.046 Y-16.528 E1.78595
G1 X0.000 Y-17.076 E2.17893
G1 X1.394 Y-16.702 E2.44676
G1 X2.046 Y-16.528 E2.57191 F540.000
G1 X3.543 Y-15.030 E2.96488
G1 X4.091 Y-12.985 E3.35786
G1 X3.543 Y-10.939 E3.75084
G1 X2.046 Y-9.442 E4.14381
G1 X-0.000 Y-8.894 E4.53679
G1 X-2.046 Y-9.442 E4.92977
G1 X-3.543 Y-10.939 E5.32273
G1 X-4.072 Y-12.912 E5.70180
G1 X-3.167 Y-12.985 F7800.000
G1 X-2.743 Y-14.568 E6.00600 F540.000
G1 X-1.583 Y-15.727 E6.31020
G1 X-0.420 Y-16.039 E6.53364
G1 X0.000 Y-16.152 E6.61440 F540.000
G1 X1.583 Y-15.727 E6.91860
G1 X2.743 Y-14.568 E7.22280
G1 X3.167 Y-12.985 E7.52700
G1 X2.743 Y-11.401 E7.83120
G1 X1.583 Y-10.242 E8.13540
G1 X-0.000 Y-9.818 E8.43960
G1 X-1.583 Y-10.242 E8.74380
G1 X-2.743 Y-11.401 E9.04800
G1 X-3.147 Y-12.912 E9.33828
G1 X-2.243 Y-12.985 F7800.000
G1 X-1.942 Y-14.106 E9.55371 F378.000
G1 X-1.121 Y-14.927 E9.76913
G1 X0.000 Y-15.227 E9.98456
G1 X0.932 Y-14.978 E10.16361
G1 X1.121 Y-14.927 E10.19998 F378.000
G1 X1.942 Y-14.106 E10.41540
G1 X2.243 Y-12.985 E10.63083
G1 X1.942 Y-11.863 E10.84625
G1 X1.121 Y-11.043 E11.06168
G1 X-0.000 Y-10.742 E11.27710
G1 X-1.121 Y-11.043 E11.49253
G1 X-1.942 Y-11.863 E11.70795
G1 X-2.223 Y-12.912 E11.90945
G1 F1800.000 E10.90945
G92 E0
G1 X1.012 Y-15.156 F7800.000
G1 X-10.415 Y18.130 F7800.000
G1 E1.00000 F1800.000
G1 X-10.415 Y-7.665 E5.78676 F540.000
G1 X-10.175 Y-9.947 E6.21265
G1 X-9.503 Y-12.016 E6.61620
G1 X-8.415 Y-13.899 E7.01974
G1 X-6.960 Y-15.515 E7.42329
G1 X-5.201 Y-16.793 E7.82683
G1 X-3.214 Y-17.678 E8.23037
G1 X-1.087 Y-18.130 E8.63392
G1 X1.087 Y-18.130 E9.03746
G1 X3.214 Y-17.678 E9.44101
G1 X5.201 Y-16.793 E9.84455
G1 X6.960 Y-15.515 E10.24809
G1 X8.415 Y-13.899 E10.65164
G1 X9.503 Y-12.016 E11.05518
G1 X10.175 Y-9.947 E11.45873
G1 X10.415 Y-7.665 E11.88462
G1 X10.415 Y18.130 E16.67138
G1 X-10.340 Y18.130 E20.52275
G1 X-11.307 Y19.023 F7800.000
G1 X-11.307 Y-7.712 E25.48385 F540.000
G1 X-11.053 Y-10.134 E25.93584
G1 X-10.323 Y-12.381 E26.37420
G1 X-9.161 Y-14.394 E26.80552
G1 X-7.561 Y-16.182 E27.25079
G1 X-5.650 Y-17.571 E27.68915
G1 X-3.492 Y-18.531 E28.12752
G1 X-1.181 Y-19.023 E28.56589
G1 X1.181 Y-19.023 E29.00425
G1 X3.492 Y-18.531 E29.44262
G1 X5.650 Y-17.571 E29.88099
G1 X7.561 Y-16.182 E30.31936
G1 X9.142 Y-14.427 E30.75772
G1 X10.323 Y-12.381 E31.19609
G1 X11.053 Y-10.134 E31.63446
G1 X11.307 Y-7.712 E32.08644
G1 X11.307 Y19.023 E37.04754
G1 X-11.232 Y19.023 E41.23023
G1 X-12.200 Y19.915 F7800.000
G1 X-12.200 Y-7.759 E46.36567 F378.000
G1 X-11.931 Y-10.321 E46.84375
G1 X-11.143 Y-12.746 E47.31694
G1 X-9.868 Y-14.954 E47.79013
G1 X-8.162 Y-16.849 E48.26332
G1 X-6.099 Y-18.348 E48.73651
G1 X-3.769 Y-19.385 E49.20970
G1 X-1.275 Y-19.915 E49.68289
G1 X1.275 Y-19.915 E50.15608
G1 X3.640 Y-19.412 E50.60481
G1 X3.769 Y-19.385 E50.62927
G1 X6.099 Y-18.348 E51.10246
G1 X8.162 Y-16.849 E51.57565
G1 X9.868 Y-14.954 E52.04884
G1 X11.143 Y-12.746 E52.52203
G1 X11.931 Y-10.321 E52.99522
G1 X12.200 Y-7.759 E53.47330
G1 X12.200 Y19.915 E58.60874
G1 X-12.125 Y19.915 E63.12274
G1 X-11.950 Y19.482 F7800.000
G1 X-9.787 Y17.463 F7800.000
G1 X-9.747 Y17.503 E63.13324 F1080.000
G1 X-8.463 Y17.503 E63.37158
G1 X-9.787 Y16.178 E63.71915
G1 X-9.787 Y14.894 E63.95749
G1 X-7.179 Y17.503 E64.64212
G1 X-5.894 Y17.503 E64.88046
G1 X-9.787 Y13.609 E65.90216
G1 X-9.787 Y12.325 E66.14051
G1 X-4.610 Y17.503 E67.49927
G1 X-3.326 Y17.503 E67.73761
G1 X-9.787 Y11.041 E69.43345
G1 X-9.787 Y9.756 E69.67179
G1 X-2.041 Y17.503 E71.70469
G1 X-0.757 Y17.503 E71.94303
G1 X-9.787 Y8.472 E74.31300
G1 X-9.787 Y7.188 E74.55134
G1 X0.528 Y17.503 E77.25838
G1 X1.812 Y17.503 E77.49672
G1 X-9.787 Y5.903 E80.54082
G1 X-9.787 Y4.619 E80.77916
G1 X3.096 Y17.503 E84.16033
G1 X4.381 Y17.503 E84.39867
G1 X-9.787 Y3.334 E88.11691
G1 X-9.787 Y2.050 E88.35525
G1 X5.665 Y17.503 E92.41055
G1 X6.949 Y17.503 E92.64890
G1 X-9.787 Y0.766 E97.04127
G1 X-9.787 Y-0.519 E97.27961
G1 X8.234 Y17.503 E102.00904
G1 X9.518 Y17.503 E102.24739
G1 X-9.787 Y-1.803 E107.31389
G1 X-9.787 Y-3.087 E107.55223
G1 X9.787 Y16.487 E112.68938
G1 X9.787 Y15.203 E112.92772
G1 X-9.787 Y-4.372 E118.06487
G1 X-9.787 Y-5.656 E118.30321
G1 X9.787 Y13.919 E123.44036
G1 X9.787 Y12.634 E123.67870
G1 X-9.787 Y-6.941 E128.81585
G1 X-9.731 Y-8.169 E129.04397
G1 X9.787 Y11.350 E134.16633
G1 X9.787 Y10.066 E134.40467
G1 X-9.609 Y-9.331 E139.49497
G1 X-9.374 Y-10.381 E139.69461
G1 X9.787 Y8.781 E144.72339
G1 X9.787 Y7.497 E144.96173
G1 X-9.059 Y-11.350 E149.90784
G1 X-8.655 Y-12.230 E150.08753
G1 X9.787 Y6.212 E154.92745
G1 X9.787 Y4.928 E155.16579
G1 X-8.185 Y-13.044 E159.88234
G1 X-4.932 Y-16.213 F7800.000
G1 X-4.099 Y-15.380 E160.10108 F1080.000
G1 X-4.370 Y-14.367 E160.29569
G1 X-5.676 Y-15.673 E160.63843
G1 X-6.420 Y-15.132 E160.80906
G1 X-4.641 Y-13.354 E161.27580
G1 X-4.442 Y-11.870 E161.55372
G1 X-7.050 Y-14.478 E162.23828
G1 X-7.659 Y-13.802 E162.40704
G1 X9.787 Y3.644 E166.98548
G1 X9.787 Y2.359 E167.22383
G1 X-1.115 Y-8.543 E170.08505
G1 X0.369 Y-8.343 E170.36298
G1 X9.787 Y1.075 E172.83468
G1 X9.787 Y-0.209 E173.07302
G1 X1.382 Y-8.615 E175.27888
G1 X2.386 Y-8.895 E175.47231
G1 X9.787 Y-1.494 E177.41472
G1 X9.787 Y-2.778 E177.65307
G1 X3.028 Y-9.537 E179.42695
G1 X3.670 Y-10.180 E179.59549
G1 X9.787 Y-4.063 E181.20084
G1 X9.787 Y-5.347 E181.43918
G1 X4.193 Y-10.942 E182.90740
G1 X4.464 Y-11.954 E183.10200
G1 X9.787 Y-6.631 E184.49899
G1 X9.754 Y-7.949 E184.74359
G1 X4.736 Y-12.967 E186.06061
G1 X4.278 Y-14.709 E186.39480
G1 X9.603 Y-9.384 E187.79227
G1 X9.126 Y-11.146 E188.13102
G1 X4.555 Y-15.717 E189.33060
G1 X6.434 Y-15.122 F7800.000
G1 X6.795 Y-14.761 E189.42523 F1080.000
G1 X3.585 Y-15.881 F7800.000
G1 X3.078 Y-16.760 E189.53064 F360.000
G1 X2.946 Y-16.851 E189.54734
G1 X2.205 Y-17.253 E189.63499
G1 X-2.205 Y-17.253 F7800.000
G1 X-2.946 Y-16.851 E189.72264 F360.000
G1 X-3.078 Y-16.760 E189.73933
G1 X-3.585 Y-15.881 E189.84473
M106 S200
G1 F1800.000 E188.84473
G92 E0
G1 Z0.900 F7800.000
G1 X-1.510 Y-10.370 F7800.000
G1 E1.00000 F1800.000
G1 X-2.615 Y-11.475 E1.12995 F1800.000
G1 X-3.019 Y-12.985 E1.25989
G1 X-2.615 Y-14.494 E1.38984
G1 X-1.510 Y-15.599 E1.51979
G1 X0.000 Y-16.004 E1.64974
G1 X1.018 Y-15.731 E1.73740
G1 X1.510 Y-15.599 E1.77968 F1800.000
G1 X2.615 Y-14.494 E1.90963
G1 X3.019 Y-12.985 E2.03958
G1 X2.615 Y-11.475 E2.16952
G1 X1.510 Y-10.370 E2.29947
G1 X-0.000 Y-9.966 E2.42942
G1 X-1.437 Y-10.351 E2.55313
G1 X-1.251 Y-10.818 F7800.000
G1 X-2.166 Y-11.734 E2.66080 F1800.000
G1 X-2.501 Y-12.985 E2.76846
G1 X-2.166 Y-14.236 E2.87613
G1 X-1.251 Y-15.151 E2.98380
G1 X-0.362 Y-15.389 E3.06032
G1 X0.000 Y-15.486 E3.09146 F1800.000
G1 X1.251 Y-15.151 E3.19913
G1 X2.166 Y-14.236 E3.30680
G1 X2.501 Y-12.985 E3.41447
G1 X2.166 Y-11.734 E3.52213
G1 X1.251 Y-10.818 E3.62980
G1 X-0.000 Y-10.483 E3.73747
G1 X-1.178 Y-10.799 E3.83890
G1 X-0.992 Y-11.267 F7800.000
G1 X-1.718 Y-11.993 E3.92429 F1260.000
G1 X-1.984 Y-12.985 E4.00967
G1 X-1.718 Y-13.977 E4.09506
G1 X-0.992 Y-14.703 E4.18045
G1 X0.000 Y-14.969 E4.26583
G1 X0.759 Y-14.765 E4.33121
G1 X0.992 Y-14.703 E4.35122 F1260.000
G1 X1.718 Y-13.977 E4.43661
G1 X1.984 Y-12.985 E4.52199
G1 X1.718 Y-11.993 E4.60738
G1 X0.992 Y-11.267 E4.69277
G1 X-0.000 Y-11.001 E4.77816
G1 X-0.919 Y-11.247 E4.85731
G1 F1800.000 E3.85731
G92 E0
G1 X0.817 Y-14.999 F7800.000
G1 X-11.450 Y19.165 F7800.000
G1 E1.00000 F1800.000
G1 X-11.450 Y-7.719 E3.23546 F1800.000
G1 X-11.193 Y-10.164 E3.43985
G1 X-10.454 Y-12.439 E3.63877
G1 X-9.258 Y-14.511 E3.83768
G1 X-7.657 Y-16.289 E4.03660
G1 X-5.722 Y-17.695 E4.23552
G1 X-3.536 Y-18.668 E4.43444
G1 X-1.196 Y-19.165 E4.63335
G1 X1.196 Y-19.165 E4.83227
G1 X3.160 Y-18.748 E4.99919
G1 X3.536 Y-18.668 E5.03119
G1 X5.722 Y-17.695 E5.23011
G1 X7.657 Y-16.289 E5.42902
G1 X9.258 Y-14.511 E5.62794
G1 X10.454 Y-12.439 E5.82686
G1 X11.193 Y-10.164 E6.02578
G1 X11.450 Y-7.719 E6.23017
G1 X11.450 Y19.165 E8.46562
G1 X-11.375 Y19.165 E10.36353
G1 X-11.950 Y19.665 F7800.000
G1 X-11.950 Y-7.745 E12.64274 F1800.000
G1 X-11.685 Y-10.268 E12.85368
G1 X-10.913 Y-12.644 E13.06134
G1 X-9.664 Y-14.806 E13.26900
G1 X-7.993 Y-16.662 E13.47665
G1 X-5.973 Y-18.130 E13.68431
G1 X-3.691 Y-19.146 E13.89197
G1 X-1.249 Y-19.665 E14.09962
G1 X1.249 Y-19.665 E14.30728
G1 X3.264 Y-19.237 E14.47857
G1 X3.691 Y-19.146 E14.51494
G1 X5.973 Y-18.130 E14.72259
G1 X7.993 Y-16.662 E14.93025
G1 X9.664 Y-14.806 E15.13791
G1 X10.913 Y-12.644 E15.34556
G1 X11.685 Y-10.268 E15.55322
G1 X11.950 Y-7.745 E15.76416
G1 X11.950 Y19.665 E18.04337
G1 X-11.875 Y19.665 E20.02443
G1 X-12.450 Y20.165 F7800.000
G1 X-12.450 Y-7.772 E22.34739 F1260.000
G1 X-12.177 Y-10.373 E22.56488
G1 X-11.372 Y-12.848 E22.78128
G1 X-10.071 Y-15.102 E22.99768
G1 X-8.330 Y-17.036 E23.21407
G1 X-6.224 Y-18.566 E23.43047
G1 X-3.847 Y-19.624 E23.64687
G1 X-1.301 Y-20.165 E23.86326
G1 X1.301 Y-20.165 E24.07966
G1 X3.368 Y-19.726 E24.25531
G1 X3.847 Y-19.624 E24.29606
G1 X6.224 Y-18.566 E24.51245
G1 X8.330 Y-17.036 E24.72885
G1 X10.071 Y-15.102 E24.94524
G1 X11.372 Y-12.848 E25.16164
G1 X12.177 Y-10.373 E25.37804
G1 X12.450 Y-7.772 E25.59553
G1 X12.450 Y20.165 E27.91849
G1 X-12.375 Y20.165 E29.98270
G1 X-12.200 Y19.732 F7800.000
G1 X-11.103 Y2.486 F7800.000
G1 X1.351 Y-9.969 E31.50475 F3600.000
G1 X0.340 Y-9.698 E31.59523
G1 X-11.103 Y1.745 E32.99368
G1 X-11.103 Y1.005 E33.05766
G1 X-0.388 Y-9.710 E34.36719
G1 X-0.972 Y-9.867 E34.41943
G1 X-11.103 Y0.265 E35.65761
G1 X-11.103 Y-0.476 E35.72158
G1 X-1.555 Y-10.023 E36.88840
G1 X-1.975 Y-10.345 E36.93403
G1 X-11.103 Y-1.216 E38.04963
G1 X-11.103 Y-1.956 E38.11361
G1 X-2.345 Y-10.715 E39.18397
G1 X-2.715 Y-11.085 E39.22921
G1 X-11.103 Y-2.697 E40.25433
G1 X-11.103 Y-3.437 E40.31831
G1 X-2.993 Y-11.547 E41.30944
G1 X-3.149 Y-12.131 E41.36168
G1 X-11.103 Y-4.178 E42.33369
G1 X-11.103 Y-4.918 E42.39767
G1 X-3.306 Y-12.715 E43.35056
G1 X-3.232 Y-13.529 E43.42118
G1 X-11.103 Y-5.658 E44.38306
G1 X-11.103 Y-6.399 E44.44703
G1 X-2.961 Y-14.540 E45.44203
G1 X-1.555 Y-15.946 F7800.000
G1 X1.289 Y-18.791 E45.78967 F3600.000
G1 X1.900 Y-18.661 E45.84361
G1 X-0.544 Y-16.217 E46.14227
G1 X0.270 Y-16.291 E46.21289
G1 X2.510 Y-18.531 E46.48670
G1 X3.121 Y-18.401 E46.54064
G1 X0.854 Y-16.134 E46.81771
G1 X1.438 Y-15.978 E46.86995
G1 X3.683 Y-18.223 E47.14432
G1 X4.195 Y-17.995 E47.19278
G1 X1.900 Y-15.700 E47.47326
G1 X2.270 Y-15.330 E47.51850
G1 X4.707 Y-17.767 E47.81635
G1 X5.219 Y-17.539 E47.86481
G1 X2.640 Y-14.959 E48.18002
G1 X2.961 Y-14.540 E48.22566
G1 X5.702 Y-17.280 E48.56054
G1 X6.130 Y-16.969 E48.60634
G1 X3.118 Y-13.956 E48.97451
G1 X3.274 Y-13.372 E49.02675
G1 X6.559 Y-16.657 E49.42820
G1 X6.988 Y-16.346 E49.47400
G1 X3.287 Y-12.645 E49.92629
G1 X3.016 Y-11.634 E50.01678
G1 X7.404 Y-16.021 E50.55297
G1 X7.769 Y-15.646 E50.59821
G1 X-11.103 Y3.226 E52.90456
G1 X-11.103 Y3.966 E52.96854
G1 X8.120 Y-15.256 E55.31776
G1 X8.470 Y-14.867 E55.36306
G1 X-11.103 Y4.707 E57.75514
G1 X-11.103 Y5.447 E57.81912
G1 X8.821 Y-14.477 E60.25408
G1 X9.127 Y-14.043 E60.29999
G1 X-11.103 Y6.188 E62.77235
G1 X-11.103 Y6.928 E62.83633
G1 X9.398 Y-13.573 E65.34181
G1 X9.669 Y-13.104 E65.38865
G1 X-11.103 Y7.668 E67.92724
G1 X-11.103 Y8.409 E67.99122
G1 X9.940 Y-12.635 E70.56293
G1 X10.186 Y-12.140 E70.61066
G1 X-11.103 Y9.149 E73.21242
G1 X-11.103 Y9.889 E73.27640
G1 X10.368 Y-11.581 E75.90035
G1 X10.549 Y-11.023 E75.95112
G1 X-11.103 Y10.630 E78.59726
G1 X-11.103 Y11.370 E78.66124
G1 X10.731 Y-10.464 E81.32957
G1 X10.875 Y-9.868 E81.38256
G1 X-11.103 Y12.110 E84.06855
G1 X-11.103 Y12.851 E84.13253
G1 X10.946 Y-9.198 E86.82713
G1 X11.016 Y-8.528 E86.88534
G1 X-11.103 Y13.591 E89.58854
G1 X-11.103 Y14.332 E89.65252
G1 X11.087 Y-7.858 E92.36433
G1 X11.103 Y-7.134 E92.42689
G1 X-11.103 Y15.072 E95.14072
G1 X-11.103 Y15.812 E95.20470
G1 X11.103 Y-6.394 E97.91852
G1 X11.103 Y-5.654 E97.98250
G1 X-11.103 Y16.553 E100.69632
G1 X-11.103 Y17.293 E100.76030
G1 X11.103 Y-4.913 E103.47413
G1 X11.103 Y-4.173 E103.53811
G1 X-11.103 Y18.033 E106.25193
G1 X-11.103 Y18.774 E106.31591
G1 X11.103 Y-3.433 E109.02973
G1 X11.103 Y-2.692 E109.09371
G1 X-10.407 Y18.818 E111.72251
G1 X-9.667 Y18.818 E111.78649
G1 X11.103 Y-1.952 E114.32481
G1 X11.103 Y-1.211 E114.38879
G1 X-8.927 Y18.818 E116.83663
G1 X-8.186 Y18.818 E116.90061
G1 X11.103 Y-0.471 E119.25797
G1 X11.103 Y0.269 E119.32195
G1 X-7.446 Y18.818 E121.58883
G1 X-6.706 Y18.818 E121.65281
G1 X11.103 Y1.010 E123.82921
G1 X11.103 Y1.750 E123.89319
G1 X-5.965 Y18.818 E125.97911
G1 X-5.225 Y18.818 E126.04309
G1 X11.103 Y2.490 E128.03853
G1 X11.103 Y3.231 E128.10251
G1 X-4.484 Y18.818 E130.00747
G1 X-3.744 Y18.818 E130.07145
G1 X11.103 Y3.971 E131.88593
G1 X11.103 Y4.711 E131.94991
G1 X-3.004 Y18.818 E133.67392
G1 X-2.263 Y18.818 E133.73789
G1 X11.103 Y5.452 E135.37142
G1 X11.103 Y6.192 E135.43540
G1 X-1.523 Y18.818 E136.97844
G1 X-0.783 Y18.818 E137.04242
G1 X11.103 Y6.933 E138.49498
G1 X11.103 Y7.673 E138.55896
G1 X-0.042 Y18.818 E139.92105
G1 X0.698 Y18.818 E139.98502
G1 X11.103 Y8.413 E141.25663
G1 X11.103 Y9.154 E141.32061
G1 X1.438 Y18.818 E142.50173
G1 X2.179 Y18.818 E142.56571
G1 X11.103 Y9.894 E143.65636
G1 X11.103 Y10.634 E143.72033
G1 X2.919 Y18.818 E144.72050
G1 X3.659 Y18.818 E144.78448
G1 X11.103 Y11.375 E145.69416
G1 X11.103 Y12.115 E145.75814
G1 X4.400 Y18.818 E146.57735
G1 X5.140 Y18.818 E146.64133
G1 X11.103 Y12.855 E147.37005
G1 X11.103 Y13.596 E147.43403
G1 X5.881 Y18.818 E148.07228
G1 X6.621 Y18.818 E148.13626
G1 X11.103 Y14.336 E148.68402
G1 X11.103 Y15.077 E148.74800
G1 X7.361 Y18.818 E149.20529
G1 X8.102 Y18.818 E149.26927
G1 X11.103 Y15.817 E149.63608
G1 X11.103 Y16.557 E149.70006
G1 X8.842 Y18.818 E149.97638
G1 X9.582 Y18.818 E150.04036
G1 X11.103 Y17.298 E150.22621
G1 X11.103 Y18.038 E150.29019
G1 X10.323 Y18.818 E150.38556
G1 X11.063 Y18.818 E150.44954
G1 X11.103 Y18.778 E150.45442
G1 X-11.103 Y-7.139 F7800.000
G1 X0.576 Y-18.818 E151.88176 F3600.000
G1 X-0.164 Y-18.818 E151.94574
G1 X-11.082 Y-7.900 E153.28003
G1 X-10.995 Y-8.728 E153.35192
G1 X-0.904 Y-18.818 E154.58511
G1 X-1.776 Y-18.687 E154.66125
G1 X-10.908 Y-9.555 E155.77733
G1 X-10.727 Y-10.477 E155.85854
G1 X-2.716 Y-18.488 E156.83752
