; generated by Slic3r 1.2.9 on 2016-01-18 at 13:39:01

; external perimeters extrusion width = 0.40mm
; perimeters extrusion width = 0.67mm
; infill extrusion width = 0.67mm
; solid infill extrusion width = 0.67mm
; top infill extrusion width = 0.67mm
; support material extrusion width = 0.40mm

M107
M104 S210 ; set temperature
G28 ; home all axes
G1 X70Y70Z5 F5000 
M109 S210 ; wait for temperature to be reached
G21 ; set units to millimeters
G90 ; use absolute coordinates
M82 ; use absolute distances for extrusion
G92 E0
G1 E-3.50000 F1800.00000
G92 E0
G1 Z0.200 F6000.000
G1 X22.865 Y17.022 F6000.000
G1 E3.50000 F1800.00000
G1 X22.164 Y17.933 E3.56004 F722.958
G1 X21.510 Y18.713 E3.61324
G1 X20.385 Y19.932 E3.69991
G1 X19.191 Y21.084 E3.78655
G1 X17.934 Y22.163 E3.87312
G1 X17.103 Y22.814 E3.92826
G1 X12.031 Y26.633 E4.25998
G1 X8.822 Y28.550 E4.45526
G1 X5.280 Y29.742 E4.65054
G1 X1.185 Y30.153 E4.86555
G1 X-1.191 Y30.111 E4.98967
G1 X-3.058 Y29.977 E5.08749
G1 X-3.810 Y29.883 E5.12706
G1 X-7.448 Y29.025 E5.32234
G1 X-12.100 Y26.545 E5.59777
G1 X-17.431 Y22.561 E5.94549
G1 X-18.712 Y21.510 E6.03204
G1 X-19.932 Y20.385 E6.11877
G1 X-21.083 Y19.192 E6.20537
G1 X-22.163 Y17.934 E6.29199
G1 X-23.169 Y16.614 E6.37870
G1 X-24.096 Y15.239 E6.46533
G1 X-24.941 Y13.812 E6.55200
G1 X-25.702 Y12.338 E6.63863
G1 X-26.376 Y10.823 E6.72529
G1 X-26.961 Y9.271 E6.81193
G1 X-27.163 Y8.663 E6.84542
G1 X-27.620 Y7.070 E6.93201
G1 X-27.984 Y5.452 E7.01865
G1 X-28.254 Y3.814 E7.10539
G1 X-28.428 Y2.166 E7.19194
G1 X-28.487 Y1.149 E7.24517
G1 X-28.506 Y-0.506 E7.33163
G1 X-28.428 Y-2.165 E7.41838
G1 X-28.254 Y-3.815 E7.50510
G1 X-27.985 Y-5.449 E7.59160
G1 X-27.620 Y-7.069 E7.67835
G1 X-27.162 Y-8.664 E7.76503
G1 X-26.613 Y-10.228 E7.85168
G1 X-25.973 Y-11.758 E7.93832
G1 X-25.241 Y-13.255 E8.02537
G1 X-24.432 Y-14.694 E8.11161
G1 X-24.096 Y-15.239 E8.14504
G1 X-23.536 Y-16.090 E8.19827
G1 X-22.562 Y-17.430 E8.28483
G1 X-21.510 Y-18.712 E8.37147
G1 X-20.386 Y-19.931 E8.45813
G1 X-19.193 Y-21.082 E8.54473
G1 X-17.934 Y-22.164 E8.63145
G1 X-16.614 Y-23.169 E8.71814
G1 X-16.090 Y-23.536 E8.75157
G1 X-14.694 Y-24.432 E8.83821
G1 X-13.249 Y-25.245 E8.92486
G1 X-11.758 Y-25.973 E9.01150
G1 X-10.228 Y-26.613 E9.09814
G1 X-9.271 Y-26.961 E9.15137
G1 X-7.689 Y-27.454 E9.23794
G1 X-6.078 Y-27.855 E9.32466
G1 X-4.448 Y-28.161 E9.41131
G1 X-2.806 Y-28.372 E9.49782
G1 X-1.149 Y-28.487 E9.58459
G1 X0.515 Y-28.506 E9.67153
G1 X1.149 Y-28.487 E9.70467 F722.958
G1 X2.797 Y-28.373 E9.79097
G1 X4.448 Y-28.161 E9.87796
G1 X5.458 Y-27.983 E9.93152
G1 X7.069 Y-27.620 E10.01778
G1 X8.663 Y-27.163 E10.10441
G1 X10.228 Y-26.613 E10.19111
G1 X11.758 Y-25.973 E10.27776
G1 X13.247 Y-25.246 E10.36433
G1 X13.812 Y-24.941 E10.39783
G1 X15.239 Y-24.096 E10.48448
G1 X16.614 Y-23.169 E10.57112
G1 X17.438 Y-22.556 E10.62480
G1 X18.713 Y-21.510 E10.71095
G1 X19.931 Y-20.386 E10.79757
G1 X21.084 Y-19.191 E10.88428
G1 X22.169 Y-17.926 E10.97136
G1 X23.169 Y-16.614 E11.05757
G1 X23.536 Y-16.090 E11.09100
G1 X24.432 Y-14.694 E11.17764
G1 X24.941 Y-13.812 E11.23087
G1 X25.701 Y-12.341 E11.31736
G1 X26.376 Y-10.823 E11.40416
G1 X26.963 Y-9.265 E11.49114
G1 X27.454 Y-7.688 E11.57745
G1 X27.620 Y-7.070 E11.61088
G1 X27.984 Y-5.452 E11.69752
G1 X28.254 Y-3.815 E11.78417
G1 X28.428 Y-2.166 E11.87081
G1 X28.487 Y-1.149 E11.92404
G1 X28.506 Y0.509 E12.01068
G1 X28.487 Y1.149 E12.04411
G1 X28.372 Y2.803 E12.13075
G1 X28.161 Y4.448 E12.21740
G1 X27.855 Y6.078 E12.30404
G1 X27.454 Y7.688 E12.39069
G1 X27.162 Y8.664 E12.44391
G1 X26.613 Y10.228 E12.53056
G1 X26.376 Y10.823 E12.56399
G1 X25.702 Y12.338 E12.65063
G1 X24.941 Y13.812 E12.73728
G1 X24.096 Y15.239 E12.82393
G1 X23.536 Y16.090 E12.87714
G1 X22.901 Y16.974 E12.93404
G1 X22.397 Y16.599 F6000.000
G1 X21.671 Y17.543 E12.99626 F722.958
G1 X21.040 Y18.295 E13.04755
G1 X19.941 Y19.488 E13.13231
G1 X18.774 Y20.615 E13.21705
G1 X17.544 Y21.670 E13.30171
G1 X16.725 Y22.312 E13.35607
G1 X11.653 Y26.131 E13.68779
G1 X8.499 Y28.007 E13.87952
G1 X5.014 Y29.157 E14.07126
G1 X1.196 Y29.525 E14.27164
G1 X-1.179 Y29.483 E14.39576
G1 X-2.980 Y29.354 E14.49007
G1 X-3.732 Y29.260 E14.52964
G1 X-7.302 Y28.410 E14.72137
G1 X-11.724 Y26.042 E14.98348
G1 X-17.041 Y22.068 E15.33027
G1 X-18.294 Y21.041 E15.41492
G1 X-19.488 Y19.941 E15.49974
G1 X-20.614 Y18.774 E15.58442
G1 X-21.670 Y17.544 E15.66914
G1 X-22.655 Y16.254 E15.75393
G1 X-23.561 Y14.909 E15.83866
G1 X-24.388 Y13.514 E15.92342
G1 X-25.133 Y12.073 E16.00814
G1 X-25.792 Y10.591 E16.09289
G1 X-26.365 Y9.073 E16.17762
G1 X-26.847 Y7.525 E16.26236
G1 X-27.013 Y6.907 E16.29579
G1 X-27.369 Y5.325 E16.38052
G1 X-27.633 Y3.723 E16.46534
G1 X-27.802 Y2.111 E16.54999
G1 X-27.859 Y1.131 E16.60131
G1 X-27.878 Y-0.488 E16.68587
G1 X-27.802 Y-2.110 E16.77071
G1 X-27.632 Y-3.724 E16.85552
G1 X-27.370 Y-5.322 E16.94011
G1 X-27.013 Y-6.906 E17.02494
G1 X-26.566 Y-8.466 E17.10972
G1 X-26.029 Y-9.996 E17.19446
G1 X-25.403 Y-11.493 E17.27919
G1 X-24.688 Y-12.957 E17.36433
G1 X-23.897 Y-14.364 E17.44866
G1 X-23.561 Y-14.909 E17.48209
G1 X-23.022 Y-15.729 E17.53341
G1 X-22.069 Y-17.040 E17.61806
G1 X-21.041 Y-18.294 E17.70279
G1 X-19.942 Y-19.487 E17.78754
G1 X-18.775 Y-20.613 E17.87223
G1 X-17.544 Y-21.671 E17.95705
G1 X-16.254 Y-22.655 E18.04182
G1 X-14.909 Y-23.561 E18.12655
G1 X-14.364 Y-23.897 E18.15998
G1 X-12.950 Y-24.692 E18.24472
G1 X-11.493 Y-25.403 E18.32945
G1 X-9.996 Y-26.029 E18.41419
G1 X-9.073 Y-26.365 E18.46551
G1 X-7.526 Y-26.847 E18.55017
G1 X-5.951 Y-27.240 E18.63497
G1 X-4.357 Y-27.540 E18.71971
G1 X-2.751 Y-27.746 E18.80432
G1 X-1.131 Y-27.859 E18.88918
G1 X0.497 Y-27.878 E18.97422
G1 X1.131 Y-27.859 E19.00735 F722.958
G1 X2.740 Y-27.747 E19.09160
G1 X4.357 Y-27.540 E19.17682
G1 X5.331 Y-27.368 E19.22847
G1 X6.906 Y-27.013 E19.31282
G1 X8.465 Y-26.566 E19.39755
G1 X9.996 Y-26.029 E19.48234
G1 X11.493 Y-25.403 E19.56708
G1 X12.949 Y-24.693 E19.65174
G1 X13.514 Y-24.388 E19.68524
G1 X14.909 Y-23.561 E19.76998
G1 X16.254 Y-22.655 E19.85471
G1 X17.041 Y-22.068 E19.90600
G1 X18.295 Y-21.040 E19.99072
G1 X19.487 Y-19.941 E20.07543
G1 X20.615 Y-18.774 E20.16023
G1 X21.677 Y-17.537 E20.24541
G1 X22.655 Y-16.254 E20.32970
G1 X23.022 Y-15.729 E20.36313
G1 X23.897 Y-14.364 E20.44786
G1 X24.388 Y-13.514 E20.49918
G1 X25.132 Y-12.075 E20.58377
G1 X25.792 Y-10.591 E20.66865
G1 X26.367 Y-9.067 E20.75373
G1 X26.847 Y-7.525 E20.83812
G1 X27.013 Y-6.907 E20.87155
G1 X27.369 Y-5.325 E20.95628
G1 X27.632 Y-3.724 E21.04102
G1 X27.802 Y-2.111 E21.12576
G1 X27.859 Y-1.131 E21.17707
G1 X27.878 Y-0.491 E21.21050
G1 X27.859 Y1.131 E21.29524
G1 X27.746 Y2.749 E21.37997
G1 X27.540 Y4.357 E21.46471
G1 X27.240 Y5.951 E21.54944
G1 X26.847 Y7.525 E21.63418
G1 X26.566 Y8.466 E21.68549
G1 X26.029 Y9.996 E21.77023
G1 X25.792 Y10.591 E21.80366
G1 X25.133 Y12.073 E21.88839
G1 X24.388 Y13.514 E21.97313
G1 X23.561 Y14.909 E22.05787
G1 X23.022 Y15.729 E22.10918
G1 X22.433 Y16.551 E22.16199
G1 X21.929 Y16.176 F6000.000
G1 X21.178 Y17.154 E22.22638 F722.958
G1 X20.571 Y17.878 E22.27577
G1 X19.496 Y19.044 E22.35862
G1 X18.356 Y20.145 E22.44144
G1 X17.155 Y21.178 E22.52420
G1 X16.347 Y21.810 E22.57778
G1 X11.275 Y25.629 E22.90950
G1 X8.176 Y27.463 E23.09762
G1 X4.750 Y28.570 E23.28574
G1 X1.207 Y28.897 E23.47162
G1 X-1.168 Y28.854 E23.59574
G1 X-2.902 Y28.731 E23.68654
G1 X-3.653 Y28.636 E23.72612
G1 X-7.155 Y27.795 E23.91424
G1 X-11.349 Y25.538 E24.16309
G1 X-16.652 Y21.575 E24.50895
G1 X-17.877 Y20.572 E24.59169
G1 X-19.044 Y19.496 E24.67460
G1 X-20.145 Y18.357 E24.75737
G1 X-21.178 Y17.155 E24.84018
G1 X-22.140 Y15.893 E24.92306
G1 X-23.026 Y14.579 E25.00588
G1 X-23.835 Y13.215 E25.08873
G1 X-24.563 Y11.807 E25.17155
G1 X-25.208 Y10.359 E25.25438
G1 X-25.768 Y8.876 E25.33721
G1 X-25.970 Y8.267 E25.37069
G1 X-26.406 Y6.744 E25.45346
G1 X-26.754 Y5.198 E25.53629
G1 X-27.011 Y3.632 E25.61920
G1 X-27.176 Y2.056 E25.70194
G1 X-27.231 Y1.112 E25.75135
G1 X-27.250 Y-0.470 E25.83400
G1 X-27.176 Y-2.055 E25.91693
G1 X-27.011 Y-3.633 E25.99982
G1 X-26.754 Y-5.195 E26.08252
G1 X-26.406 Y-6.744 E26.16543
G1 X-25.969 Y-8.268 E26.24830
G1 X-25.445 Y-9.764 E26.33113
G1 X-24.834 Y-11.227 E26.41395
G1 X-24.140 Y-12.651 E26.49671
G1 X-23.835 Y-13.215 E26.53021
G1 X-23.027 Y-14.579 E26.61304
G1 X-22.507 Y-15.369 E26.66244
G1 X-21.576 Y-16.650 E26.74519
G1 X-20.572 Y-17.877 E26.82801
G1 X-19.497 Y-19.043 E26.91085
G1 X-18.358 Y-20.144 E26.99363
G1 X-17.154 Y-21.178 E27.07653
G1 X-15.893 Y-22.140 E27.15940
G1 X-14.579 Y-23.027 E27.24222
G1 X-14.034 Y-23.363 E27.27565
G1 X-12.652 Y-24.139 E27.35848
G1 X-11.227 Y-24.834 E27.44130
G1 X-9.764 Y-25.445 E27.52413
G1 X-8.876 Y-25.768 E27.57354
G1 X-7.364 Y-26.240 E27.65629
G1 X-5.824 Y-26.624 E27.73919
G1 X-4.266 Y-26.918 E27.82202
G1 X-2.696 Y-27.120 E27.90472
G1 X-1.112 Y-27.231 E27.98767
G1 X0.479 Y-27.250 E28.07080
G1 X1.112 Y-27.231 E28.10392 F722.958
G1 X2.685 Y-27.121 E28.18627
G1 X4.266 Y-26.918 E28.26957
G1 X5.204 Y-26.752 E28.31932
G1 X6.744 Y-26.406 E28.40176
G1 X8.267 Y-25.970 E28.48458
G1 X9.764 Y-25.445 E28.56745
G1 X11.227 Y-24.834 E28.65028
G1 X12.651 Y-24.140 E28.73304
G1 X13.215 Y-23.835 E28.76654
G1 X14.579 Y-23.027 E28.84936
G1 X15.893 Y-22.140 E28.93219
G1 X16.651 Y-21.576 E28.98157
G1 X17.877 Y-20.571 E29.06438
G1 X19.043 Y-19.497 E29.14718
G1 X20.145 Y-18.356 E29.23007
G1 X21.178 Y-17.154 E29.31286
G1 X21.575 Y-16.652 E29.34633
G1 X22.507 Y-15.369 E29.42916
G1 X23.363 Y-14.034 E29.51198
G1 X23.835 Y-13.215 E29.56138
G1 X24.562 Y-11.810 E29.64407
G1 X25.208 Y-10.359 E29.72704
G1 X25.770 Y-8.869 E29.81021
G1 X26.241 Y-7.362 E29.89269
G1 X26.406 Y-6.744 E29.92612
G1 X26.754 Y-5.198 E30.00894
G1 X27.011 Y-3.633 E30.09177
G1 X27.176 Y-2.056 E30.17460
G1 X27.231 Y-1.112 E30.22400
G1 X27.250 Y0.473 E30.30683
G1 X27.231 Y1.112 E30.34026
G1 X27.120 Y2.694 E30.42308
G1 X26.918 Y4.266 E30.50591
G1 X26.624 Y5.824 E30.58874
G1 X26.241 Y7.362 E30.67156
G1 X25.969 Y8.268 E30.72097
G1 X25.445 Y9.764 E30.80379
G1 X25.208 Y10.359 E30.83722
G1 X24.563 Y11.807 E30.92004
G1 X23.835 Y13.215 E31.00287
G1 X23.027 Y14.579 E31.08570
G1 X22.507 Y15.369 E31.13510
G1 X21.965 Y16.128 E31.18383
G1 X21.461 Y15.753 F6000.000
G1 X20.686 Y16.764 E31.25040 F722.958
G1 X20.101 Y17.460 E31.29788
G1 X19.052 Y18.600 E31.37882
G1 X17.938 Y19.676 E31.45973
G1 X16.765 Y20.685 E31.54058
G1 X15.969 Y21.308 E31.59339
G1 X10.897 Y25.127 E31.92511
G1 X7.855 Y26.919 E32.10954
G1 X4.489 Y27.982 E32.29398
G1 X1.218 Y28.268 E32.46550
G1 X-1.157 Y28.226 E32.58962
G1 X-2.824 Y28.107 E32.67691
G1 X-3.575 Y28.013 E32.71648
G1 X-7.006 Y27.181 E32.90092
G1 X-10.973 Y25.034 E33.13658
G1 X-16.262 Y21.082 E33.48151
G1 X-17.459 Y20.102 E33.56235
G1 X-18.600 Y19.052 E33.64334
G1 X-19.675 Y17.939 E33.72421
G1 X-20.685 Y16.765 E33.80511
G1 X-21.625 Y15.533 E33.88608
G1 X-22.492 Y14.249 E33.96699
G1 X-23.282 Y12.917 E34.04793
G1 X-23.994 Y11.542 E34.12883
G1 X-24.625 Y10.127 E34.20976
G1 X-25.172 Y8.678 E34.29068
G1 X-25.373 Y8.070 E34.32415
G1 X-25.799 Y6.582 E34.40502
G1 X-26.138 Y5.070 E34.48594
G1 X-26.389 Y3.541 E34.56694
G1 X-26.550 Y2.002 E34.64777
G1 X-26.603 Y1.094 E34.69527
G1 X-26.622 Y-0.451 E34.77602
G1 X-26.550 Y-2.000 E34.85703
G1 X-26.389 Y-3.542 E34.93802
G1 X-26.139 Y-5.068 E35.01881
G1 X-25.799 Y-6.581 E35.09981
G1 X-25.373 Y-8.071 E35.18077
G1 X-24.861 Y-9.532 E35.26168
G1 X-24.264 Y-10.962 E35.34260
G1 X-23.587 Y-12.353 E35.42345
G1 X-23.282 Y-12.917 E35.45695
G1 X-22.492 Y-14.249 E35.53786
G1 X-21.992 Y-15.009 E35.58536
G1 X-21.083 Y-16.261 E35.66620
G1 X-20.102 Y-17.459 E35.74711
G1 X-19.053 Y-18.599 E35.82805
G1 X-17.940 Y-19.675 E35.90892
G1 X-16.764 Y-20.685 E35.98991
G1 X-15.533 Y-21.625 E36.07086
G1 X-15.009 Y-21.992 E36.10429
G1 X-13.705 Y-22.828 E36.18521
G1 X-12.354 Y-23.586 E36.26612
G1 X-10.962 Y-24.264 E36.34704
G1 X-9.532 Y-24.861 E36.42796
G1 X-8.678 Y-25.172 E36.47545
G1 X-7.201 Y-25.633 E36.55630
G1 X-5.697 Y-26.009 E36.63728
G1 X-4.175 Y-26.296 E36.71820
G1 X-2.641 Y-26.494 E36.79900
G1 X-1.094 Y-26.603 E36.88004
G1 X0.461 Y-26.622 E36.96127
G1 X1.094 Y-26.603 E36.99438 F722.958
G1 X2.630 Y-26.495 E37.07482
G1 X4.175 Y-26.296 E37.15621
G1 X5.079 Y-26.136 E37.20419
G1 X6.581 Y-25.799 E37.28459
G1 X8.070 Y-25.373 E37.36549
G1 X9.532 Y-24.861 E37.44646
G1 X10.962 Y-24.264 E37.52738
G1 X12.353 Y-23.587 E37.60823
G1 X12.917 Y-23.282 E37.64172
G1 X14.249 Y-22.492 E37.72264
G1 X15.533 Y-21.625 E37.80356
G1 X16.262 Y-21.083 E37.85103
G1 X17.460 Y-20.102 E37.93193
G1 X18.599 Y-19.053 E38.01282
G1 X19.676 Y-17.938 E38.09380
G1 X20.691 Y-16.757 E38.17516
G1 X21.625 Y-15.533 E38.25564
G1 X21.992 Y-15.009 E38.28907
G1 X22.828 Y-13.705 E38.36998
G1 X23.282 Y-12.917 E38.41748
G1 X23.993 Y-11.544 E38.49826
G1 X24.625 Y-10.127 E38.57931
G1 X25.174 Y-8.672 E38.66058
G1 X25.634 Y-7.200 E38.74114
G1 X25.799 Y-6.582 E38.77457
G1 X26.138 Y-5.070 E38.85549
G1 X26.389 Y-3.542 E38.93641
G1 X26.550 Y-2.002 E39.01732
G1 X26.603 Y-1.094 E39.06482
G1 X26.622 Y-0.455 E39.09825
G1 X26.603 Y1.094 E39.17916
G1 X26.494 Y2.639 E39.26008
G1 X26.296 Y4.175 E39.34100
G1 X26.009 Y5.697 E39.42191
G1 X25.634 Y7.200 E39.50283
G1 X25.373 Y8.071 E39.55033
G1 X24.861 Y9.532 E39.63124
G1 X24.625 Y10.127 E39.66467
G1 X23.994 Y11.542 E39.74559
G1 X23.282 Y12.917 E39.82651
G1 X22.492 Y14.249 E39.90743
G1 X21.992 Y15.009 E39.95492
G1 X21.497 Y15.705 E39.99955
G1 E36.49955 F1800.00000
G92 E0
G1 X3.548 Y2.470 F6000.000
G1 E3.50000 F1800.00000
G1 X3.219 Y2.887 E3.52776 F722.958
G1 X2.791 Y3.303 E3.55896
G1 X2.301 Y3.661 E3.59067
G1 X1.774 Y3.943 E3.62187
G1 X1.211 Y4.151 E3.65321
G1 X0.593 Y4.283 E3.68624
G1 X-0.011 Y4.324 E3.71786
G1 X-0.581 Y4.284 E3.74773
G1 X-1.188 Y4.158 E3.78014
G1 X-1.769 Y3.946 E3.81245
G1 X-2.295 Y3.665 E3.84359
G1 X-2.784 Y3.309 E3.87517
G1 X-3.218 Y2.888 E3.90679
G1 X-3.547 Y2.472 E3.93447
G1 X-3.819 Y2.026 E3.96178
G1 X-4.036 Y1.550 E3.98909
G1 X-4.193 Y1.052 E4.01640
G1 X-4.290 Y0.538 E4.04371
G1 X-4.323 Y0.017 E4.07102
G1 X-4.294 Y-0.505 E4.09832
G1 X-4.201 Y-1.020 E4.12563
G1 X-4.048 Y-1.519 E4.15294
G1 X-3.835 Y-1.997 E4.18025
G1 X-3.566 Y-2.445 E4.20756
G1 X-3.245 Y-2.857 E4.23487
G1 X-2.876 Y-3.228 E4.26218
G1 X-2.465 Y-3.552 E4.28949
G1 X-2.019 Y-3.823 E4.31680
G1 X-1.543 Y-4.039 E4.34411
G1 X-1.044 Y-4.195 E4.37142
G1 X-0.530 Y-4.291 E4.39873
G1 X-0.008 Y-4.323 E4.42604 F722.958
G1 X0.513 Y-4.293 E4.45335
G1 X1.028 Y-4.199 E4.48066
G1 X1.527 Y-4.045 E4.50797
G1 X2.004 Y-3.831 E4.53528
G1 X2.452 Y-3.561 E4.56259
G1 X2.864 Y-3.239 E4.58990
G1 X3.234 Y-2.870 E4.61721
G1 X3.556 Y-2.459 E4.64452
G1 X3.827 Y-2.011 E4.67183
G1 X4.042 Y-1.535 E4.69914
G1 X4.197 Y-1.036 E4.72645
G1 X4.292 Y-0.522 E4.75376
G1 X4.323 Y0.000 E4.78108
G1 X4.292 Y0.525 E4.80852
G1 X4.196 Y1.041 E4.83598
G1 X4.039 Y1.543 E4.86343
G1 X3.822 Y2.021 E4.89089
G1 X3.580 Y2.419 E4.91521
G1 X3.043 Y2.092 F6000.000
G1 X2.751 Y2.465 E4.93996 F722.958
G1 X2.384 Y2.822 E4.96671
G1 X1.965 Y3.128 E4.99381
G1 X1.516 Y3.369 E5.02044
G1 X1.036 Y3.546 E5.04718
G1 X0.506 Y3.659 E5.07550
G1 X-0.010 Y3.694 E5.10249
G1 X-0.495 Y3.660 E5.12791
G1 X-1.016 Y3.552 E5.15571
G1 X-1.512 Y3.371 E5.18330
G1 X-1.960 Y3.131 E5.20986
G1 X-2.378 Y2.827 E5.23685
G1 X-2.751 Y2.466 E5.26399
G1 X-3.030 Y2.112 E5.28752
G1 X-3.263 Y1.731 E5.31085
G1 X-3.448 Y1.325 E5.33419
G1 X-3.583 Y0.899 E5.35752
G1 X-3.665 Y0.460 E5.38085
G1 X-3.694 Y0.014 E5.40419
G1 X-3.669 Y-0.432 E5.42752
G1 X-3.590 Y-0.871 E5.45085
G1 X-3.458 Y-1.298 E5.47419
G1 X-3.276 Y-1.706 E5.49752
G1 X-3.047 Y-2.089 E5.52086
G1 X-2.772 Y-2.441 E5.54419
G1 X-2.457 Y-2.758 E5.56752
G1 X-2.107 Y-3.034 E5.59086
G1 X-1.725 Y-3.267 E5.61419
G1 X-1.318 Y-3.451 E5.63752
G1 X-0.892 Y-3.585 E5.66086
G1 X-0.453 Y-3.666 E5.68419
G1 X-0.007 Y-3.694 E5.70752 F722.958
G1 X0.439 Y-3.668 E5.73086
G1 X0.878 Y-3.588 E5.75419
G1 X1.305 Y-3.456 E5.77752
G1 X1.712 Y-3.273 E5.80086
G1 X2.095 Y-3.043 E5.82419
G1 X2.447 Y-2.768 E5.84753
G1 X2.763 Y-2.452 E5.87086
G1 X3.039 Y-2.101 E5.89419
G1 X3.270 Y-1.719 E5.91753
G1 X3.453 Y-1.311 E5.94086
G1 X3.586 Y-0.885 E5.96419
G1 X3.667 Y-0.446 E5.98753
G1 X3.694 Y0.000 E6.01087
