; generated by Slic3r 1.2.9 on 2015-10-06 at 12:45:26

; external perimeters extrusion width = 0.50mm
; perimeters extrusion width = 0.85mm
; infill extrusion width = 1.02mm
; solid infill extrusion width = 0.85mm
; top infill extrusion width = 0.85mm

M104 S190 ; set temperature
G28 ; home all axes
G1 Z5 F5000 ; lift nozzle

M109 S190 ; wait for temperature to be reached
G21 ; set units to millimeters
G90 ; use absolute coordinates
M82 ; use absolute distances for extrusion
G92 E0
G1 E-3.50000 F1800.00000
G92 E0
G1 Z0.260 F9000.000
G1 X-5.049 Y15.514 F9000.000
G1 E3.50000 F1800.00000
G1 X-5.727 Y15.282 E3.53597 F1800.000
G1 X-6.606 Y14.923 E3.58360
G1 X-7.186 Y14.652 E3.61571
G1 X-8.025 Y14.210 E3.66334
G1 X-9.097 Y13.549 E3.72650
G1 X-9.869 Y12.997 E3.77413
G1 X-10.371 Y12.600 E3.80624
G1 X-11.311 Y11.764 E3.86940
G1 X-11.764 Y11.311 E3.90150
G1 X-12.401 Y10.608 E3.94914
G1 X-13.182 Y9.621 E4.01229
G1 X-13.719 Y8.838 E4.05992
G1 X-14.055 Y8.293 E4.09203
G1 X-14.652 Y7.186 E4.15519
G1 X-15.045 Y6.321 E4.20282
G1 X-15.282 Y5.727 E4.23493
G1 X-15.678 Y4.532 E4.29809
G1 X-15.915 Y3.613 E4.34572
G1 X-16.044 Y2.986 E4.37783
G1 X-16.226 Y1.741 E4.44098
G1 X-16.300 Y0.795 E4.48861
G1 X-16.319 Y0.155 E4.52073
G1 X-16.282 Y-1.103 E4.58385
G1 X-16.226 Y-1.741 E4.61599
G1 X-16.098 Y-2.681 E4.66363
G1 X-15.843 Y-3.914 E4.72678
G1 X-15.589 Y-4.829 E4.77442
G1 X-15.388 Y-5.436 E4.80652
G1 X-14.923 Y-6.606 E4.86968
G1 X-14.514 Y-7.462 E4.91729
G1 X-14.210 Y-8.025 E4.94942
G1 X-13.549 Y-9.097 E5.01258
G1 X-12.997 Y-9.869 E5.06021
G1 X-12.600 Y-10.371 E5.09232
G1 X-11.755 Y-11.319 E5.15606
G1 X-11.086 Y-11.976 E5.20311
G1 X-10.371 Y-12.600 E5.25073
G1 X-9.869 Y-12.997 E5.28285
G1 X-9.097 Y-13.549 E5.33048
G1 X-8.026 Y-14.210 E5.39363
G1 X-7.462 Y-14.514 E5.42575
G1 X-6.606 Y-14.923 E5.47338
G1 X-5.436 Y-15.387 E5.53652
G1 X-4.532 Y-15.678 E5.58417
G1 X-3.914 Y-15.843 E5.61628
G1 X-2.681 Y-16.098 E5.67944
G1 X-1.741 Y-16.226 E5.72706
G1 X-1.103 Y-16.282 E5.75918
G1 X0.166 Y-16.318 E5.82289
G1 X1.103 Y-16.282 E5.86997 F1800.000
G1 X2.048 Y-16.191 E5.91758
G1 X2.986 Y-16.044 E5.96523
G1 X3.914 Y-15.843 E6.01287
G1 X4.829 Y-15.589 E6.06050
G1 X5.727 Y-15.282 E6.10813
G1 X6.321 Y-15.045 E6.14025
G1 X7.186 Y-14.652 E6.18788
G1 X8.025 Y-14.210 E6.23551
G1 X8.838 Y-13.719 E6.28315
G1 X9.878 Y-12.990 E6.34690
G1 X10.608 Y-12.402 E6.39392
G1 X11.311 Y-11.764 E6.44157
G1 X11.976 Y-11.086 E6.48920
G1 X12.600 Y-10.371 E6.53684
G1 X13.182 Y-9.621 E6.58446
G1 X13.549 Y-9.097 E6.61658
G1 X14.055 Y-8.293 E6.66421
G1 X14.514 Y-7.462 E6.71185
G1 X14.923 Y-6.606 E6.75948
G1 X15.282 Y-5.727 E6.80712
G1 X15.589 Y-4.829 E6.85475
G1 X15.843 Y-3.914 E6.90238
G1 X16.098 Y-2.681 E6.96554
G1 X16.226 Y-1.741 E7.01318
G1 X16.300 Y-0.794 E7.06081
G1 X16.319 Y-0.155 E7.09292
G1 X16.300 Y0.794 E7.14055
G1 X16.226 Y1.741 E7.18819
G1 X16.098 Y2.681 E7.23582
G1 X15.915 Y3.613 E7.28345
G1 X15.678 Y4.532 E7.33109
G1 X15.388 Y5.436 E7.37872
G1 X15.050 Y6.310 E7.42576
G1 X14.514 Y7.462 E7.48951
G1 X14.055 Y8.293 E7.53715
G1 X13.549 Y9.097 E7.58478
G1 X12.997 Y9.869 E7.63240
G1 X12.402 Y10.608 E7.68003
G1 X11.976 Y11.086 E7.71215
G1 X11.311 Y11.764 E7.75979
G1 X10.608 Y12.401 E7.80742
G1 X9.869 Y12.997 E7.85506
G1 X9.097 Y13.549 E7.90269
G1 X8.293 Y14.055 E7.95032
G1 X7.462 Y14.514 E7.99796
G1 X6.606 Y14.923 E8.04559
G1 X5.409 Y15.396 E8.11018
G1 X4.486 Y15.689 E8.15874
G1 X3.586 Y15.920 E8.20540
G1 X2.731 Y16.090 E8.24913
G1 X1.824 Y16.218 E8.29506
G1 X0.978 Y16.292 E8.33770
G1 X-0.091 Y16.320 E8.39134
G1 X-0.926 Y16.295 E8.43329
G1 X-1.738 Y16.227 E8.47415
G1 X-2.765 Y16.085 E8.52618
G1 X-3.589 Y15.920 E8.56835
G1 X-4.488 Y15.688 E8.61493
G1 X-4.977 Y15.537 E8.64063
G1 X-4.834 Y15.095 F9000.000
G1 X-5.555 Y14.850 E8.67888 F1800.000
G1 X-6.409 Y14.502 E8.72516
G1 X-6.989 Y14.232 E8.75727
G1 X-7.805 Y13.801 E8.80355
G1 X-8.830 Y13.169 E8.86400
G1 X-9.581 Y12.633 E8.91028
G1 X-10.083 Y12.236 E8.94238
G1 X-10.983 Y11.435 E9.00283
G1 X-11.629 Y10.777 E9.04911
G1 X-12.055 Y10.299 E9.08122
G1 X-12.802 Y9.354 E9.14167
G1 X-13.324 Y8.594 E9.18793
G1 X-13.660 Y8.050 E9.22005
G1 X-14.232 Y6.989 E9.28050
G1 X-14.614 Y6.150 E9.32678
G1 X-14.850 Y5.555 E9.35889
G1 X-15.229 Y4.412 E9.41933
G1 X-15.460 Y3.519 E9.46561
G1 X-15.589 Y2.892 E9.49772
G1 X-15.764 Y1.700 E9.55816
G1 X-15.836 Y0.781 E9.60444
G1 X-15.855 Y0.141 E9.63656
G1 X-15.820 Y-1.062 E9.69697
G1 X-15.764 Y-1.700 E9.72911
G1 X-15.638 Y-2.614 E9.77539
G1 X-15.395 Y-3.794 E9.83584
G1 X-15.229 Y-4.412 E9.86794
G1 X-14.947 Y-5.290 E9.91422
G1 X-14.502 Y-6.409 E9.97467
G1 X-14.105 Y-7.241 E10.02093
G1 X-13.801 Y-7.805 E10.05306
G1 X-13.169 Y-8.830 E10.11350
G1 X-12.633 Y-9.581 E10.15978
G1 X-12.236 Y-10.083 E10.19189
G1 X-11.427 Y-10.991 E10.25292
G1 X-10.778 Y-11.629 E10.29862
G1 X-10.083 Y-12.236 E10.34489
G1 X-9.581 Y-12.633 E10.37701
G1 X-8.830 Y-13.169 E10.42329
G1 X-7.805 Y-13.801 E10.48372
G1 X-7.242 Y-14.105 E10.51584
G1 X-6.409 Y-14.502 E10.56212
G1 X-5.290 Y-14.947 E10.62255
G1 X-4.683 Y-15.148 E10.65468
G1 X-3.794 Y-15.395 E10.70095
G1 X-2.614 Y-15.638 E10.76140
G1 X-1.700 Y-15.764 E10.80768
G1 X-1.063 Y-15.820 E10.83979
G1 X0.152 Y-15.854 E10.90080
G1 X1.063 Y-15.820 E10.94652 F1800.000
G1 X1.980 Y-15.731 E10.99277
G1 X2.892 Y-15.589 E11.03907
G1 X3.794 Y-15.395 E11.08535
G1 X4.683 Y-15.148 E11.13163
G1 X5.555 Y-14.850 E11.17790
G1 X6.150 Y-14.614 E11.21002
G1 X6.989 Y-14.232 E11.25630
G1 X8.060 Y-13.654 E11.31733
G1 X8.830 Y-13.169 E11.36301
G1 X9.581 Y-12.633 E11.40929
G1 X10.299 Y-12.055 E11.45557
G1 X10.983 Y-11.435 E11.50186
G1 X11.629 Y-10.777 E11.54814
G1 X12.236 Y-10.083 E11.59442
G1 X12.802 Y-9.355 E11.64069
G1 X13.169 Y-8.830 E11.67281
G1 X13.660 Y-8.050 E11.71909
G1 X14.105 Y-7.242 E11.76537
G1 X14.502 Y-6.409 E11.81165
G1 X14.850 Y-5.555 E11.85793
G1 X15.148 Y-4.683 E11.90421
G1 X15.395 Y-3.794 E11.95048
G1 X15.638 Y-2.614 E12.01093
G1 X15.764 Y-1.700 E12.05721
G1 X15.836 Y-0.781 E12.10349
G1 X15.855 Y-0.141 E12.13560
G1 X15.836 Y0.781 E12.18188
G1 X15.764 Y1.700 E12.22816
G1 X15.638 Y2.614 E12.27444
G1 X15.460 Y3.519 E12.32072
G1 X15.229 Y4.412 E12.36700
G1 X14.947 Y5.290 E12.41328
G1 X14.618 Y6.139 E12.45896
G1 X14.105 Y7.242 E12.52000
G1 X13.660 Y8.050 E12.56628
G1 X13.169 Y8.830 E12.61256
G1 X12.633 Y9.581 E12.65883
G1 X12.055 Y10.299 E12.70511
G1 X11.629 Y10.777 E12.73723
G1 X10.983 Y11.435 E12.78351
G1 X10.299 Y12.055 E12.82979
G1 X9.581 Y12.633 E12.87606
G1 X8.830 Y13.169 E12.92234
G1 X8.050 Y13.660 E12.96862
G1 X7.242 Y14.105 E13.01490
G1 X6.409 Y14.502 E13.06118
G1 X5.265 Y14.955 E13.12293
G1 X4.366 Y15.240 E13.17026
G1 X3.492 Y15.466 E13.21556
G1 X2.659 Y15.632 E13.25819
G1 X1.777 Y15.757 E13.30288
G1 X0.947 Y15.828 E13.34466
G1 X-0.082 Y15.856 E13.39636
G1 X-0.900 Y15.831 E13.43739
G1 X-1.696 Y15.765 E13.47750
G1 X-2.690 Y15.627 E13.52784
G1 X-3.495 Y15.465 E13.56904
G1 X-4.368 Y15.240 E13.61427
G1 X-4.762 Y15.119 E13.63497
G1 X-4.619 Y14.677 F9000.000
G1 X-5.384 Y14.419 E13.67551 F1800.000
G1 X-6.213 Y14.081 E13.72043
G1 X-6.793 Y13.811 E13.75254
G1 X-7.585 Y13.393 E13.79746
G1 X-8.564 Y12.789 E13.85520
G1 X-9.088 Y12.422 E13.88731
G1 X-9.795 Y11.872 E13.93223
G1 X-10.655 Y11.107 E13.98997
G1 X-11.107 Y10.655 E14.02208
G1 X-11.708 Y9.991 E14.06700
G1 X-12.422 Y9.088 E14.12474
G1 X-12.929 Y8.351 E14.16966
G1 X-13.265 Y7.806 E14.20178
G1 X-13.811 Y6.793 E14.25951
G1 X-14.183 Y5.979 E14.30444
G1 X-14.419 Y5.384 E14.33655
G1 X-14.781 Y4.292 E14.39429
G1 X-15.005 Y3.425 E14.43921
G1 X-15.135 Y2.798 E14.47132
G1 X-15.302 Y1.660 E14.52905
G1 X-15.372 Y0.768 E14.57397
G1 X-15.391 Y0.128 E14.60609
G1 X-15.357 Y-1.022 E14.66380
G1 X-15.302 Y-1.660 E14.69594
G1 X-15.179 Y-2.547 E14.74086
G1 X-14.946 Y-3.674 E14.79860
G1 X-14.781 Y-4.292 E14.83071
G1 X-14.506 Y-5.144 E14.87563
G1 X-14.081 Y-6.213 E14.93337
G1 X-13.697 Y-7.021 E14.97827
G1 X-13.393 Y-7.585 E15.01040
G1 X-12.789 Y-8.564 E15.06814
G1 X-12.269 Y-9.293 E15.11306
G1 X-11.872 Y-9.795 E15.14517
G1 X-11.099 Y-10.663 E15.20350
G1 X-10.469 Y-11.282 E15.24783
G1 X-9.795 Y-11.872 E15.29275
G1 X-9.293 Y-12.269 E15.32487
G1 X-8.564 Y-12.789 E15.36979
G1 X-7.585 Y-13.393 E15.42752
G1 X-7.022 Y-13.696 E15.45964
G1 X-6.213 Y-14.081 E15.50456
G1 X-5.144 Y-14.506 E15.56229
G1 X-4.537 Y-14.708 E15.59441
G1 X-3.674 Y-14.946 E15.63934
G1 X-2.547 Y-15.179 E15.69708
G1 X-1.660 Y-15.302 E15.74199
G1 X-1.022 Y-15.357 E15.77411
G1 X0.139 Y-15.390 E15.83241
G1 X1.022 Y-15.357 E15.87677 F1800.000
G1 X1.913 Y-15.272 E15.92167
G1 X2.798 Y-15.135 E15.96661
G1 X3.674 Y-14.946 E16.01154
G1 X4.537 Y-14.708 E16.05647
G1 X5.384 Y-14.419 E16.10138
G1 X5.979 Y-14.183 E16.13350
G1 X6.793 Y-13.811 E16.17843
G1 X7.585 Y-13.393 E16.22335
G1 X8.351 Y-12.929 E16.26828
G1 X9.302 Y-12.262 E16.32659
G1 X9.991 Y-11.708 E16.37093
G1 X10.655 Y-11.107 E16.41586
G1 X11.282 Y-10.469 E16.46079
G1 X11.872 Y-9.795 E16.50571
G1 X12.421 Y-9.088 E16.55063
G1 X12.789 Y-8.564 E16.58274
G1 X13.265 Y-7.806 E16.62767
G1 X13.696 Y-7.022 E16.67259
G1 X14.081 Y-6.213 E16.71752
G1 X14.419 Y-5.384 E16.76244
G1 X14.708 Y-4.537 E16.80737
G1 X14.946 Y-3.674 E16.85229
G1 X15.179 Y-2.547 E16.91003
G1 X15.302 Y-1.660 E16.95496
G1 X15.372 Y-0.767 E16.99988
G1 X15.391 Y0.128 E17.04481
G1 X15.357 Y1.022 E17.08973
G1 X15.272 Y1.913 E17.13463
G1 X15.179 Y2.547 E17.16676
G1 X15.005 Y3.425 E17.21169
G1 X14.781 Y4.292 E17.25661
G1 X14.506 Y5.144 E17.30154
G1 X14.187 Y5.968 E17.34586
G1 X13.696 Y7.022 E17.40420
G1 X13.265 Y7.806 E17.44913
G1 X12.789 Y8.564 E17.49405
G1 X12.269 Y9.293 E17.53896
G1 X11.708 Y9.991 E17.58389
G1 X11.282 Y10.469 E17.61601
G1 X10.655 Y11.107 E17.66093
G1 X9.991 Y11.708 E17.70586
G1 X9.293 Y12.269 E17.75078
G1 X8.564 Y12.789 E17.79570
G1 X7.806 Y13.265 E17.84063
G1 X7.022 Y13.696 E17.88555
G1 X6.213 Y14.081 E17.93048
G1 X5.122 Y14.514 E17.98940
G1 X4.246 Y14.792 E18.03548
G1 X3.398 Y15.011 E18.07943
G1 X2.587 Y15.173 E18.12096
G1 X1.729 Y15.295 E18.16441
G1 X0.917 Y15.365 E18.20533
G1 X-0.074 Y15.392 E18.25508
G1 X-0.873 Y15.368 E18.29520
G1 X-1.655 Y15.302 E18.33457
G1 X-2.615 Y15.169 E18.38320
G1 X-3.401 Y15.010 E18.42345
G1 X-4.547 Y14.700 E18.48301
G1 X-4.404 Y14.259 F9000.000
G1 X-5.213 Y13.987 E18.52583 F1800.000
G1 X-5.807 Y13.751 E18.55793
G1 X-6.801 Y13.288 E18.61296
G1 X-7.562 Y12.870 E18.65653
G1 X-8.107 Y12.534 E18.68864
G1 X-8.822 Y12.041 E18.73221
G1 X-9.507 Y11.508 E18.77578
G1 X-10.326 Y10.779 E18.83081
G1 X-10.779 Y10.326 E18.86292
G1 X-11.361 Y9.682 E18.90649
G1 X-12.041 Y8.822 E18.96152
G1 X-12.534 Y8.107 E19.00508
G1 X-12.870 Y7.562 E19.03720
G1 X-13.390 Y6.597 E19.09223
G1 X-13.751 Y5.807 E19.13580
G1 X-13.987 Y5.213 E19.16791
G1 X-14.332 Y4.172 E19.22294
G1 X-14.551 Y3.331 E19.26650
G1 X-14.680 Y2.705 E19.29861
G1 X-14.839 Y1.620 E19.35364
G1 X-14.908 Y0.754 E19.39721
G1 X-14.927 Y0.114 E19.42932
G1 X-14.895 Y-0.981 E19.48432
G1 X-14.839 Y-1.619 E19.51646
G1 X-14.720 Y-2.479 E19.56003
G1 X-14.498 Y-3.554 E19.61506
G1 X-14.332 Y-4.172 E19.64717
G1 X-14.066 Y-4.998 E19.69074
G1 X-13.661 Y-6.017 E19.74577
G1 X-13.288 Y-6.801 E19.78932
G1 X-12.984 Y-7.364 E19.82144
G1 X-12.408 Y-8.298 E19.87647
G1 X-11.905 Y-9.005 E19.92004
G1 X-11.508 Y-9.507 E19.95215
G1 X-10.771 Y-10.335 E20.00777
G1 X-10.160 Y-10.936 E20.05075
G1 X-9.507 Y-11.508 E20.09431
G1 X-9.005 Y-11.905 E20.12643
G1 X-8.298 Y-12.408 E20.17000
G1 X-7.365 Y-12.984 E20.22502
G1 X-6.801 Y-13.288 E20.25714
G1 X-6.017 Y-13.661 E20.30071
G1 X-4.998 Y-14.066 E20.35572
G1 X-4.390 Y-14.267 E20.38784
G1 X-3.554 Y-14.498 E20.43141
G1 X-2.479 Y-14.720 E20.48645
G1 X-1.620 Y-14.839 E20.53001
G1 X-0.982 Y-14.895 E20.56212
G1 X0.126 Y-14.926 E20.61772
G1 X0.982 Y-14.895 E20.66072 F1800.000
G1 X1.846 Y-14.813 E20.70427
G1 X2.704 Y-14.680 E20.74786
G1 X3.554 Y-14.498 E20.79143
G1 X4.391 Y-14.267 E20.83500
G1 X5.212 Y-13.988 E20.87856
G1 X5.807 Y-13.751 E20.91068
G1 X6.597 Y-13.390 E20.95425
G1 X7.364 Y-12.984 E20.99782
G1 X8.107 Y-12.534 E21.04139
G1 X9.014 Y-11.898 E21.09700
G1 X9.682 Y-11.361 E21.13998
G1 X10.326 Y-10.779 E21.18356
G1 X10.936 Y-10.160 E21.22713
G1 X11.508 Y-9.507 E21.27070
G1 X12.041 Y-8.822 E21.31426
G1 X12.408 Y-8.298 E21.34638
G1 X12.870 Y-7.562 E21.38995
G1 X13.288 Y-6.801 E21.43352
G1 X13.661 Y-6.017 E21.47709
G1 X13.987 Y-5.213 E21.52066
G1 X14.267 Y-4.390 E21.56423
G1 X14.498 Y-3.554 E21.60780
G1 X14.720 Y-2.479 E21.66283
G1 X14.839 Y-1.619 E21.70640
G1 X14.908 Y-0.754 E21.74997
G1 X14.927 Y-0.114 E21.78208
G1 X14.908 Y0.754 E21.82565
G1 X14.839 Y1.619 E21.86922
G1 X14.720 Y2.479 E21.91279
G1 X14.498 Y3.554 E21.96782
G1 X14.267 Y4.391 E22.01139
G1 X13.987 Y5.213 E22.05496
G1 X13.751 Y5.808 E22.08708
G1 X13.390 Y6.597 E22.13063
G1 X12.984 Y7.364 E22.17420
G1 X12.534 Y8.107 E22.21777
G1 X11.898 Y9.014 E22.27339
G1 X11.361 Y9.682 E22.31636
G1 X10.779 Y10.326 E22.35994
G1 X10.160 Y10.936 E22.40351
G1 X9.507 Y11.508 E22.44708
G1 X8.822 Y12.041 E22.49065
G1 X8.107 Y12.534 E22.53422
G1 X7.562 Y12.870 E22.56633
G1 X6.801 Y13.288 E22.60990
G1 X6.017 Y13.661 E22.65347
G1 X5.213 Y13.987 E22.69704
G1 X4.328 Y14.284 E22.74387
G1 X3.526 Y14.504 E22.78558
G1 X2.698 Y14.681 E22.82808
G1 X1.847 Y14.812 E22.87126
G1 X0.920 Y14.900 E22.91799
G1 X0.156 Y14.926 E22.95634
G1 X-0.996 Y14.894 E23.01419
G1 X-1.719 Y14.829 E23.05061
G1 X-2.540 Y14.710 E23.09225
G1 X-3.530 Y14.503 E23.14301
G1 X-4.332 Y14.282 E23.18475
G1 X-4.189 Y13.841 F9000.000
G1 X-4.834 Y13.631 E23.21881 F1800.000
G1 X-5.636 Y13.320 E23.26196
G1 X-6.581 Y12.879 E23.31428
G1 X-7.319 Y12.475 E23.35649
G1 X-7.863 Y12.139 E23.38860
G1 X-8.717 Y11.541 E23.44092
G1 X-9.219 Y11.144 E23.47303
G1 X-9.852 Y10.589 E23.51525
G1 X-10.589 Y9.852 E23.56757
G1 X-11.144 Y9.219 E23.60978
G1 X-11.541 Y8.717 E23.64189
G1 X-12.139 Y7.863 E23.69421
G1 X-12.475 Y7.319 E23.72632
G1 X-12.879 Y6.581 E23.76854
G1 X-13.320 Y5.636 E23.82086
G1 X-13.556 Y5.041 E23.85296
G1 X-13.826 Y4.244 E23.89518
G1 X-14.096 Y3.237 E23.94750
G1 X-14.261 Y2.412 E23.98972
G1 X-14.353 Y1.779 E24.02184
G1 X-14.444 Y0.728 E24.07474
G1 X-14.463 Y-0.100 E24.11634
G1 X-14.432 Y-0.941 E24.15855
G1 X-14.377 Y-1.579 E24.19068
G1 X-14.261 Y-2.412 E24.23290
G1 X-14.050 Y-3.433 E24.28522
G1 X-13.884 Y-4.051 E24.31733
G1 X-13.625 Y-4.852 E24.35954
G1 X-13.240 Y-5.821 E24.41186
G1 X-12.879 Y-6.581 E24.45406
G1 X-12.575 Y-7.144 E24.48619
G1 X-12.028 Y-8.032 E24.53851
G1 X-11.541 Y-8.717 E24.58072
G1 X-11.144 Y-9.219 E24.61283
G1 X-10.442 Y-10.006 E24.66574
G1 X-9.852 Y-10.589 E24.70737
G1 X-9.219 Y-11.144 E24.74958
G1 X-8.717 Y-11.541 E24.78169
G1 X-8.032 Y-12.028 E24.82391
G1 X-7.144 Y-12.575 E24.87622
G1 X-6.581 Y-12.879 E24.90834
G1 X-5.821 Y-13.240 E24.95055
G1 X-4.852 Y-13.625 E25.00286
G1 X-4.244 Y-13.826 E25.03498
G1 X-3.433 Y-14.050 E25.07719
G1 X-2.412 Y-14.261 E25.12952
G1 X-1.579 Y-14.377 E25.17173
G1 X-0.942 Y-14.432 E25.20384
G1 X0.112 Y-14.462 E25.25673
G1 X0.942 Y-14.432 E25.29838 F1800.000
G1 X1.779 Y-14.353 E25.34057
G1 X2.611 Y-14.226 E25.38280
G1 X3.433 Y-14.050 E25.42502
G1 X4.244 Y-13.826 E25.46724
G1 X5.041 Y-13.556 E25.50945
G1 X5.636 Y-13.320 E25.54156
G1 X6.401 Y-12.970 E25.58378
G1 X7.144 Y-12.575 E25.62599
G1 X7.863 Y-12.139 E25.66821
G1 X8.726 Y-11.534 E25.72111
G1 X9.374 Y-11.014 E25.76273
G1 X9.998 Y-10.451 E25.80496
G1 X10.589 Y-9.852 E25.84717
G1 X11.144 Y-9.219 E25.88939
G1 X11.661 Y-8.556 E25.93160
G1 X12.028 Y-8.032 E25.96371
G1 X12.475 Y-7.319 E26.00593
G1 X12.879 Y-6.581 E26.04814
G1 X13.240 Y-5.821 E26.09036
G1 X13.556 Y-5.041 E26.13257
G1 X13.826 Y-4.244 E26.17479
G1 X14.050 Y-3.433 E26.21700
G1 X14.261 Y-2.412 E26.26933
G1 X14.377 Y-1.579 E26.31154
G1 X14.444 Y-0.740 E26.35376
G1 X14.463 Y0.101 E26.39597
G1 X14.432 Y0.942 E26.43819
G1 X14.353 Y1.779 E26.48039
G1 X14.261 Y2.412 E26.51251
G1 X14.050 Y3.433 E26.56483
G1 X13.826 Y4.244 E26.60705
G1 X13.556 Y5.041 E26.64926
G1 X13.320 Y5.636 E26.68139
G1 X12.970 Y6.401 E26.72359
G1 X12.575 Y7.144 E26.76580
G1 X12.139 Y7.863 E26.80802
G1 X11.533 Y8.727 E26.86092
G1 X11.014 Y9.374 E26.90254
G1 X10.451 Y9.998 E26.94477
G1 X9.852 Y10.589 E26.98698
G1 X9.219 Y11.144 E27.02920
G1 X8.556 Y11.661 E27.07141
