; generated by Slic3r 1.2.9 on 2015-10-05 at 12:52:44

; external perimeters extrusion width = 0.50mm
; perimeters extrusion width = 0.85mm
; infill extrusion width = 1.02mm
; solid infill extrusion width = 0.85mm
; top infill extrusion width = 0.85mm

M104 S190 ; set temperature
G28 ; home all axes
G1 Z5 F5000 ; lift nozzle

M109 S190 ; wait for temperature to be reached
G21 ; set units to millimeters
G90 ; use absolute coordinates
M82 ; use absolute distances for extrusion
G92 E0
G1 E-3.50000 F1800.00000
G92 E0
G1 Z0.260 F9000.000
G1 X5.064 Y15.505 F9000.000
G1 E3.50000 F1800.00000
G1 X4.435 Y15.700 E3.53304 F1800.000
G1 X3.443 Y15.949 E3.58439
G1 X2.577 Y16.113 E3.62859
G1 X1.616 Y16.238 E3.67721
G1 X0.499 Y16.310 E3.73340
G1 X-0.318 Y16.313 E3.77438
G1 X-1.670 Y16.232 E3.84235
G1 X-2.538 Y16.119 E3.88627
G1 X-3.440 Y15.949 E3.93234
G1 X-4.435 Y15.700 E3.98377
G1 X-5.451 Y15.378 E4.03727
G1 X-6.761 Y14.850 E4.10816
G1 X-7.699 Y14.386 E4.16066
G1 X-8.605 Y13.863 E4.21315
G1 X-9.476 Y13.284 E4.26563
G1 X-10.041 Y12.862 E4.30102
G1 X-11.097 Y11.963 E4.37062
G1 X-11.841 Y11.227 E4.42309
G1 X-12.536 Y10.445 E4.47560
G1 X-12.976 Y9.894 E4.51099
G1 X-13.583 Y9.042 E4.56348
G1 X-14.135 Y8.153 E4.61597
G1 X-14.628 Y7.231 E4.66846
G1 X-15.190 Y5.963 E4.73806
G1 X-15.541 Y4.978 E4.79054
G1 X-15.741 Y4.301 E4.82593
G1 X-15.985 Y3.284 E4.87842
G1 X-16.163 Y2.253 E4.93092
G1 X-16.296 Y0.860 E5.00114
G1 X-16.318 Y-0.173 E5.05300
G1 X-16.274 Y-1.218 E5.10547
G1 X-16.206 Y-1.920 E5.14088
G1 X-16.050 Y-2.955 E5.19337
G1 X-15.741 Y-4.307 E5.26297
G1 X-15.433 Y-5.307 E5.31546
G1 X-15.062 Y-6.284 E5.36794
G1 X-14.628 Y-7.236 E5.42042
G1 X-14.302 Y-7.862 E5.45582
G1 X-13.583 Y-9.048 E5.52542
G1 X-12.976 Y-9.900 E5.57791
G1 X-12.315 Y-10.711 E5.63040
G1 X-11.841 Y-11.233 E5.66579
G1 X-11.097 Y-11.968 E5.71828
G1 X-10.308 Y-12.655 E5.77077
G1 X-9.476 Y-13.289 E5.82326
G1 X-8.302 Y-14.052 E5.89351
G1 X-7.397 Y-14.549 E5.94535
G1 X-6.450 Y-14.993 E5.99782
G1 X-5.476 Y-15.376 E6.05031
G1 X-4.480 Y-15.695 E6.10280
G1 X-3.797 Y-15.874 E6.13821
G1 X-2.773 Y-16.085 E6.19070
G1 X-1.397 Y-16.262 E6.26030
G1 X-0.353 Y-16.318 E6.31279
G1 X0.693 Y-16.307 E6.36526
G1 X1.749 Y-16.228 E6.41842 F1800.000
G1 X2.773 Y-16.085 E6.47026
G1 X3.465 Y-15.950 E6.50565
G1 X4.806 Y-15.598 E6.57522
G1 X5.796 Y-15.258 E6.62773
G1 X6.761 Y-14.855 E6.68021
G1 X7.397 Y-14.549 E6.71561
G1 X8.313 Y-14.046 E6.76810
G1 X9.476 Y-13.289 E6.83770
G1 X10.041 Y-12.867 E6.87310
G1 X10.845 Y-12.198 E6.92557
G1 X11.841 Y-11.233 E6.99517
G1 X12.315 Y-10.711 E7.03055
G1 X12.968 Y-9.910 E7.08238
G1 X13.583 Y-9.048 E7.13553
G1 X14.302 Y-7.862 E7.20513
G1 X14.628 Y-7.237 E7.24051
G1 X15.062 Y-6.285 E7.29300
G1 X15.541 Y-4.983 E7.36260
G1 X15.828 Y-3.977 E7.41509
G1 X16.050 Y-2.955 E7.46758
G1 X16.163 Y-2.259 E7.50296
G1 X16.274 Y-1.218 E7.55546
G1 X16.318 Y0.168 E7.62505
G1 X16.274 Y1.213 E7.67754
G1 X16.206 Y1.915 E7.71293
G1 X15.985 Y3.284 E7.78252
G1 X15.719 Y4.378 E7.83902
G1 X15.433 Y5.301 E7.88750
G1 X15.190 Y5.963 E7.92288
G1 X14.628 Y7.231 E7.99248
G1 X14.302 Y7.856 E8.02786
G1 X13.769 Y8.756 E8.08035
G1 X13.180 Y9.621 E8.13285
G1 X12.315 Y10.705 E8.20244
G1 X11.604 Y11.472 E8.25493
G1 X11.097 Y11.963 E8.29033
G1 X10.041 Y12.862 E8.35991
G1 X9.196 Y13.479 E8.41240
G1 X8.605 Y13.863 E8.44779
G1 X7.699 Y14.386 E8.50028
G1 X6.449 Y14.988 E8.56987
G1 X5.796 Y15.253 E8.60526
G1 X5.135 Y15.482 E8.64034
G1 X4.991 Y15.040 F9000.000
G1 X4.318 Y15.251 E8.67575 F1800.000
G1 X3.354 Y15.493 E8.72562
G1 X2.506 Y15.655 E8.76895
G1 X1.569 Y15.776 E8.81634
G1 X0.487 Y15.846 E8.87074
G1 X-0.318 Y15.849 E8.91113
G1 X-1.618 Y15.771 E8.97650
G1 X-2.470 Y15.660 E9.01958
G1 X-3.352 Y15.494 E9.06463
G1 X-4.317 Y15.251 E9.11457
G1 X-5.307 Y14.937 E9.16667
G1 X-6.560 Y14.432 E9.23447
G1 X-7.471 Y13.982 E9.28547
G1 X-8.352 Y13.474 E9.33647
G1 X-9.198 Y12.912 E9.38746
G1 X-10.006 Y12.296 E9.43845
G1 X-10.544 Y11.838 E9.47385
G1 X-11.281 Y11.138 E9.52486
G1 X-11.971 Y10.393 E9.57585
G1 X-12.613 Y9.605 E9.62685
G1 X-13.372 Y8.516 E9.69346
G1 X-13.738 Y7.913 E9.72884
G1 X-14.217 Y7.016 E9.77984
G1 X-14.754 Y5.803 E9.84645
G1 X-15.096 Y4.846 E9.89744
G1 X-15.296 Y4.169 E9.93283
G1 X-15.532 Y3.181 E9.98383
G1 X-15.704 Y2.179 E10.03483
G1 X-15.832 Y0.845 E10.10208
G1 X-15.854 Y-0.158 E10.15244
G1 X-15.812 Y-1.173 E10.20341
G1 X-15.744 Y-1.876 E10.23882
G1 X-15.592 Y-2.881 E10.28982
G1 X-15.296 Y-4.175 E10.35643
G1 X-14.998 Y-5.146 E10.40743
G1 X-14.637 Y-6.097 E10.45842
G1 X-14.217 Y-7.022 E10.50942
G1 X-13.891 Y-7.647 E10.54481
G1 X-13.202 Y-8.782 E10.61142
G1 X-12.613 Y-9.610 E10.66242
G1 X-11.971 Y-10.399 E10.71342
G1 X-11.497 Y-10.921 E10.74881
G1 X-10.774 Y-11.635 E10.79980
G1 X-10.007 Y-12.301 E10.85081
G1 X-9.198 Y-12.917 E10.90180
G1 X-8.074 Y-13.648 E10.96907
G1 X-7.195 Y-14.131 E11.01941
G1 X-6.276 Y-14.563 E11.07039
G1 X-5.330 Y-14.935 E11.12139
G1 X-4.362 Y-15.246 E11.17239
G1 X-3.680 Y-15.425 E11.20779
G1 X-2.684 Y-15.629 E11.25879
G1 X-1.367 Y-15.799 E11.32540
G1 X-0.353 Y-15.854 E11.37640
G1 X0.663 Y-15.844 E11.42738
G1 X1.690 Y-15.767 E11.47905 F1800.000
G1 X2.684 Y-15.629 E11.52940
G1 X3.376 Y-15.494 E11.56478
G1 X4.660 Y-15.158 E11.63137
G1 X5.622 Y-14.828 E11.68239
G1 X6.560 Y-14.437 E11.73338
G1 X7.195 Y-14.131 E11.76877
G1 X8.086 Y-13.641 E11.81977
G1 X9.198 Y-12.917 E11.88638
G1 X9.764 Y-12.495 E11.92179
G1 X10.544 Y-11.844 E11.97276
G1 X11.281 Y-11.144 E12.02376
G1 X12.173 Y-10.161 E12.09038
G1 X12.613 Y-9.610 E12.12577
G1 X13.202 Y-8.782 E12.17676
G1 X13.891 Y-7.647 E12.24337
G1 X14.352 Y-6.741 E12.29437
G1 X14.637 Y-6.097 E12.32975
G1 X14.998 Y-5.146 E12.38075
G1 X15.375 Y-3.874 E12.44736
G1 X15.592 Y-2.881 E12.49836
G1 X15.704 Y-2.185 E12.53374
G1 X15.812 Y-1.174 E12.58474
G1 X15.854 Y0.153 E12.65135
G1 X15.832 Y0.858 E12.68674
G1 X15.744 Y1.870 E12.73773
G1 X15.532 Y3.181 E12.80435
G1 X15.296 Y4.169 E12.85534
G1 X14.998 Y5.141 E12.90634
G1 X14.754 Y5.803 E12.94173
G1 X14.217 Y7.016 E13.00834
G1 X13.891 Y7.642 E13.04372
G1 X13.372 Y8.516 E13.09472
G1 X12.799 Y9.355 E13.14572
G1 X11.971 Y10.393 E13.21233
G1 X11.281 Y11.139 E13.26333
G1 X10.774 Y11.629 E13.29873
G1 X9.763 Y12.490 E13.36532
G1 X8.943 Y13.090 E13.41632
G1 X8.352 Y13.474 E13.45170
G1 X7.471 Y13.982 E13.50270
G1 X6.275 Y14.558 E13.56931
G1 X5.622 Y14.822 E13.60470
G1 X5.062 Y15.017 E13.63441
G1 X4.918 Y14.576 F9000.000
G1 X4.200 Y14.802 E13.67220 F1800.000
G1 X3.265 Y15.038 E13.72057
G1 X2.434 Y15.196 E13.76303
G1 X1.521 Y15.314 E13.80921
G1 X0.475 Y15.382 E13.86181
G1 X-0.318 Y15.385 E13.90161
G1 X-1.566 Y15.309 E13.96437
G1 X-2.401 Y15.201 E14.00661
G1 X-3.263 Y15.038 E14.05064
G1 X-4.200 Y14.802 E14.09909
G1 X-5.163 Y14.496 E14.14980
G1 X-6.358 Y14.013 E14.21450
G1 X-7.243 Y13.577 E14.26401
G1 X-8.099 Y13.085 E14.31352
G1 X-8.920 Y12.539 E14.36302
G1 X-9.486 Y12.118 E14.39841
G1 X-10.451 Y11.296 E14.46203
G1 X-11.153 Y10.603 E14.51152
G1 X-11.628 Y10.081 E14.54692
G1 X-12.250 Y9.315 E14.59643
G1 X-12.822 Y8.511 E14.64593
G1 X-13.341 Y7.672 E14.69544
G1 X-13.805 Y6.802 E14.74495
G1 X-14.318 Y5.642 E14.80857
G1 X-14.651 Y4.713 E14.85807
G1 X-14.851 Y4.037 E14.89346
G1 X-15.080 Y3.077 E14.94297
G1 X-15.246 Y2.105 E14.99248
G1 X-15.368 Y0.830 E15.05674
G1 X-15.390 Y-0.144 E15.10561
G1 X-15.350 Y-1.129 E15.15509
G1 X-15.282 Y-1.831 E15.19050
G1 X-15.133 Y-2.807 E15.24000
G1 X-14.851 Y-4.043 E15.30363
G1 X-14.562 Y-4.986 E15.35313
G1 X-14.213 Y-5.909 E15.40263
G1 X-13.805 Y-6.807 E15.45213
G1 X-13.479 Y-7.432 E15.48753
G1 X-12.822 Y-8.517 E15.55115
G1 X-12.250 Y-9.321 E15.60066
G1 X-11.628 Y-10.086 E15.65017
G1 X-11.154 Y-10.608 E15.68555
G1 X-10.451 Y-11.301 E15.73506
G1 X-9.706 Y-11.948 E15.78457
G1 X-8.921 Y-12.545 E15.83407
G1 X-7.858 Y-13.237 E15.89769
G1 X-6.994 Y-13.713 E15.94720
G1 X-6.101 Y-14.133 E15.99669
G1 X-5.184 Y-14.495 E16.04620
G1 X-4.244 Y-14.797 E16.09571
G1 X-3.562 Y-14.976 E16.13111
G1 X-2.595 Y-15.173 E16.18061
G1 X-1.338 Y-15.336 E16.24424
G1 X-0.353 Y-15.390 E16.29375
G1 X0.634 Y-15.381 E16.34324
G1 X1.631 Y-15.307 E16.39340 F1800.000
G1 X2.595 Y-15.173 E16.44226
G1 X3.287 Y-15.039 E16.47765
G1 X4.514 Y-14.717 E16.54126
G1 X5.447 Y-14.398 E16.59078
G1 X6.370 Y-14.013 E16.64094
G1 X7.243 Y-13.583 E16.68979
G1 X7.858 Y-13.237 E16.72517
G1 X8.921 Y-12.545 E16.78880
G1 X9.486 Y-12.123 E16.82420
G1 X10.243 Y-11.491 E16.87369
G1 X11.154 Y-10.608 E16.93732
G1 X11.628 Y-10.086 E16.97270
G1 X12.242 Y-9.331 E17.02156
G1 X12.822 Y-8.517 E17.07171
G1 X13.479 Y-7.432 E17.13534
G1 X13.805 Y-6.807 E17.17072
G1 X14.213 Y-5.909 E17.22023
G1 X14.651 Y-4.719 E17.28385
G1 X14.923 Y-3.770 E17.33336
G1 X15.080 Y-3.083 E17.36874
G1 X15.246 Y-2.110 E17.41825
G1 X15.350 Y-1.129 E17.46775
G1 X15.390 Y0.138 E17.53138
G1 X15.350 Y1.124 E17.58089
G1 X15.282 Y1.826 E17.61627
G1 X15.080 Y3.077 E17.67989
G1 X14.829 Y4.114 E17.73341
G1 X14.562 Y4.980 E17.77890
G1 X14.318 Y5.642 E17.81429
G1 X13.805 Y6.802 E17.87791
G1 X13.479 Y7.427 E17.91329
G1 X12.975 Y8.275 E17.96280
G1 X12.418 Y9.090 E18.01231
G1 X11.628 Y10.081 E18.07593
G1 X10.958 Y10.805 E18.12544
G1 X10.451 Y11.296 E18.16084
G1 X9.486 Y12.118 E18.22445
G1 X8.690 Y12.701 E18.27395
G1 X8.099 Y13.085 E18.30934
G1 X7.243 Y13.577 E18.35884
G1 X6.101 Y14.127 E18.42247
G1 X5.447 Y14.392 E18.45785
G1 X4.990 Y14.553 E18.48220
G1 X4.845 Y14.111 F9000.000
G1 X4.083 Y14.353 E18.52236 F1800.000
G1 X3.177 Y14.582 E18.56925
G1 X2.363 Y14.737 E18.61083
G1 X1.575 Y14.841 E18.65067
G1 X0.326 Y14.920 E18.71348
G1 X-0.587 Y14.913 E18.75929
G1 X-1.500 Y14.850 E18.80520
G1 X-2.333 Y14.742 E18.84735
G1 X-3.175 Y14.582 E18.89036
G1 X-4.082 Y14.353 E18.93733
G1 X-5.019 Y14.055 E18.98664
G1 X-6.157 Y13.595 E19.04825
G1 X-7.016 Y13.173 E19.09626
G1 X-7.845 Y12.696 E19.14427
G1 X-8.643 Y12.167 E19.19228
G1 X-9.208 Y11.746 E19.22767
G1 X-10.128 Y10.962 E19.28831
G1 X-10.810 Y10.291 E19.33631
G1 X-11.284 Y9.769 E19.37171
G1 X-11.887 Y9.026 E19.41972
G1 X-12.441 Y8.246 E19.46773
G1 X-13.067 Y7.212 E19.52838
G1 X-13.503 Y6.360 E19.57639
G1 X-13.883 Y5.482 E19.62440
G1 X-14.206 Y4.581 E19.67241
G1 X-14.406 Y3.905 E19.70780
G1 X-14.627 Y2.974 E19.75581
G1 X-14.788 Y2.031 E19.80383
G1 X-14.904 Y0.815 E19.86511
G1 X-14.926 Y-0.129 E19.91248
G1 X-14.888 Y-1.084 E19.96047
G1 X-14.820 Y-1.787 E19.99588
G1 X-14.675 Y-2.733 E20.04389
G1 X-14.406 Y-3.911 E20.10453
G1 X-14.126 Y-4.826 E20.15255
G1 X-13.788 Y-5.721 E20.20055
G1 X-13.394 Y-6.592 E20.24856
G1 X-13.067 Y-7.218 E20.28396
G1 X-12.441 Y-8.251 E20.34460
G1 X-11.887 Y-9.031 E20.39261
G1 X-11.284 Y-9.774 E20.44063
G1 X-10.810 Y-10.296 E20.47601
G1 X-10.128 Y-10.968 E20.52402
G1 X-9.405 Y-11.594 E20.57204
G1 X-8.643 Y-12.173 E20.62005
G1 X-7.630 Y-12.832 E20.68069
G1 X-6.792 Y-13.295 E20.72871
G1 X-5.927 Y-13.703 E20.77670
G1 X-5.037 Y-14.054 E20.82471
G1 X-4.127 Y-14.348 E20.87273
G1 X-3.444 Y-14.527 E20.90813
G1 X-2.507 Y-14.718 E20.95614
G1 X-1.308 Y-14.872 E21.01678
G1 X-0.353 Y-14.926 E21.06480
G1 X0.604 Y-14.917 E21.11280
G1 X1.571 Y-14.846 E21.16147 F1800.000
G1 X2.507 Y-14.718 E21.20884
G1 X3.199 Y-14.583 E21.24422
G1 X4.367 Y-14.276 E21.30485
G1 X5.273 Y-13.967 E21.35288
G1 X6.169 Y-13.595 E21.40155
G1 X7.016 Y-13.178 E21.44890
G1 X7.630 Y-12.832 E21.48428
G1 X8.643 Y-12.173 E21.54493
G1 X9.208 Y-11.751 E21.58033
G1 X9.942 Y-11.137 E21.62832
G1 X10.810 Y-10.296 E21.68896
G1 X11.284 Y-9.774 E21.72435
G1 X11.879 Y-9.042 E21.77170
G1 X12.441 Y-8.251 E21.82037
G1 X13.067 Y-7.218 E21.88101
G1 X13.503 Y-6.366 E21.92903
G1 X13.883 Y-5.487 E21.97704
G1 X14.126 Y-4.826 E22.01242
G1 X14.470 Y-3.667 E22.07307
G1 X14.627 Y-2.980 E22.10845
G1 X14.788 Y-2.036 E22.15646
G1 X14.888 Y-1.085 E22.20448
G1 X14.926 Y0.123 E22.26512
G1 X14.904 Y0.828 E22.30050
G1 X14.820 Y1.781 E22.34851
G1 X14.627 Y2.974 E22.40915
G1 X14.406 Y3.905 E22.45717
G1 X14.126 Y4.820 E22.50518
G1 X13.883 Y5.482 E22.54057
G1 X13.394 Y6.587 E22.60121
G1 X13.067 Y7.212 E22.63659
G1 X12.578 Y8.035 E22.68460
G1 X12.038 Y8.824 E22.73262
G1 X11.284 Y9.769 E22.79326
G1 X10.635 Y10.472 E22.84127
G1 X10.128 Y10.962 E22.87667
G1 X9.208 Y11.746 E22.93729
G1 X8.436 Y12.311 E22.98531
G1 X7.845 Y12.696 E23.02069
G1 X7.016 Y13.173 E23.06871
G1 X5.927 Y13.697 E23.12935
G1 X4.917 Y14.088 E23.18369
G1 X4.773 Y13.647 F9000.000
G1 X3.965 Y13.904 E23.22623 F1800.000
G1 X3.088 Y14.126 E23.27163
G1 X2.291 Y14.279 E23.31233
G1 X1.516 Y14.380 E23.35156
G1 X0.326 Y14.456 E23.41139
G1 X-0.560 Y14.450 E23.45586
G1 X-1.448 Y14.388 E23.50050
G1 X-2.264 Y14.283 E23.54181
G1 X-3.086 Y14.127 E23.58380
G1 X-3.965 Y13.904 E23.62928
G1 X-4.875 Y13.613 E23.67720
G1 X-5.956 Y13.177 E23.73571
G1 X-6.788 Y12.768 E23.78223
G1 X-7.592 Y12.307 E23.82875
G1 X-8.365 Y11.795 E23.87527
G1 X-8.930 Y11.374 E23.91065
G1 X-9.805 Y10.629 E23.96831
G1 X-10.466 Y9.979 E24.01482
G1 X-10.940 Y9.457 E24.05021
G1 X-11.524 Y8.736 E24.09673
G1 X-12.060 Y7.980 E24.14325
G1 X-12.547 Y7.191 E24.18978
G1 X-12.982 Y6.372 E24.23630
G1 X-13.447 Y5.322 E24.29395
G1 X-13.761 Y4.449 E24.34046
G1 X-13.961 Y3.773 E24.37586
G1 X-14.175 Y2.871 E24.42238
G1 X-14.329 Y1.957 E24.46890
G1 X-14.440 Y0.800 E24.52721
G1 X-14.462 Y-0.114 E24.57308
G1 X-14.426 Y-1.040 E24.61958
G1 X-14.358 Y-1.742 E24.65498
G1 X-14.217 Y-2.658 E24.70150
G1 X-13.961 Y-3.779 E24.75916
G1 X-13.691 Y-4.665 E24.80568
G1 X-13.364 Y-5.533 E24.85219
G1 X-12.982 Y-6.378 E24.89871
G1 X-12.656 Y-7.003 E24.93410
G1 X-12.060 Y-7.986 E24.99176
G1 X-11.524 Y-8.742 E25.03828
G1 X-10.940 Y-9.462 E25.08480
G1 X-10.466 Y-9.984 E25.12018
G1 X-9.805 Y-10.634 E25.16670
G1 X-9.104 Y-11.241 E25.21323
G1 X-8.365 Y-11.801 E25.25975
G1 X-7.391 Y-12.434 E25.31805
G1 X-6.591 Y-12.877 E25.36392
G1 X-5.753 Y-13.272 E25.41043
G1 X-4.891 Y-13.614 E25.45695
G1 X-4.009 Y-13.899 E25.50347
G1 X-3.326 Y-14.078 E25.53887
G1 X-2.418 Y-14.262 E25.58539
G1 X-1.278 Y-14.409 E25.64305
G1 X-0.353 Y-14.461 E25.68957
G1 X0.574 Y-14.454 E25.73608
G1 X1.512 Y-14.386 E25.78326 F1800.000
G1 X2.418 Y-14.262 E25.82913
G1 X3.110 Y-14.127 E25.86451
G1 X4.221 Y-13.836 E25.92216
G1 X5.099 Y-13.537 E25.96869
G1 X5.967 Y-13.177 E26.01586
G1 X6.788 Y-12.774 E26.06173
G1 X7.402 Y-12.428 E26.09711
G1 X8.365 Y-11.801 E26.15477
G1 X8.931 Y-11.379 E26.19017
G1 X9.641 Y-10.784 E26.23667
G1 X10.466 Y-9.984 E26.29433
G1 X11.084 Y-9.293 E26.34085
G1 X11.524 Y-8.742 E26.37625
G1 X12.060 Y-7.986 E26.42275
G1 X12.656 Y-7.003 E26.48041
G1 X12.982 Y-6.378 E26.51579
G1 X13.364 Y-5.533 E26.56231
G1 X13.761 Y-4.455 E26.61997
G1 X14.018 Y-3.564 E26.66649
G1 X14.175 Y-2.876 E26.70188
G1 X14.329 Y-1.962 E26.74840
G1 X14.426 Y-1.040 E26.79492
G1 X14.462 Y0.108 E26.85257
G1 X14.426 Y1.035 E26.89909
G1 X14.358 Y1.737 E26.93448
G1 X14.174 Y2.871 E26.99213
G1 X13.939 Y3.850 E27.04266
G1 X13.691 Y4.660 E27.08517
G1 X13.447 Y5.322 E27.12055
G1 X12.982 Y6.372 E27.17821
G1 X12.656 Y6.997 E27.21359
G1 X12.181 Y7.794 E27.26011
G1 X11.657 Y8.558 E27.30663
G1 X10.940 Y9.457 E27.36429
G1 X10.466 Y9.979 E27.39967
G1 X9.805 Y10.629 E27.44621
G1 X8.930 Y11.374 E27.50385
G1 X8.183 Y11.922 E27.55037
G1 X7.592 Y12.307 E27.58575
G1 X6.788 Y12.768 E27.63228
G1 X5.753 Y13.267 E27.68993
G1 X4.844 Y13.623 E27.73892
G1 E24.23892 F1800.00000
G92 E0
G1 X3.036 Y3.650 F9000.000
G1 E3.50000 F1800.00000
G1 X-3.036 Y3.650 E3.80470 F600.000
G1 X-3.819 Y2.660 E3.86805
G1 X-4.113 Y2.179 E3.89630
G1 X-4.346 Y1.667 E3.92454
G1 X-4.516 Y1.130 E3.95279
G1 X-4.619 Y0.577 E3.98103
G1 X-4.656 Y0.015 E4.00928
G1 X-4.624 Y-0.547 E4.03752
G1 X-4.524 Y-1.101 E4.06577
G1 X-4.359 Y-1.639 E4.09401
G1 X-4.129 Y-2.153 E4.12226
G1 X-3.840 Y-2.636 E4.15050
G1 X-3.494 Y-3.080 E4.17875
G1 X-3.097 Y-3.479 E4.20699
G1 X-2.655 Y-3.827 E4.23524
G1 X-2.174 Y-4.120 E4.26348
G1 X-1.661 Y-4.352 E4.29173
G1 X-1.124 Y-4.521 E4.31997
G1 X-0.571 Y-4.623 E4.34822
G1 X-0.009 Y-4.658 E4.37646 F600.000
G1 X0.553 Y-4.625 E4.40471
G1 X1.107 Y-4.525 E4.43295
G1 X1.644 Y-4.358 E4.46120
G1 X2.158 Y-4.128 E4.48944
G1 X2.640 Y-3.837 E4.51769
G1 X3.084 Y-3.491 E4.54593
G1 X3.482 Y-3.093 E4.57418
G1 X3.830 Y-2.650 E4.60242
G1 X4.121 Y-2.169 E4.63067
G1 X4.352 Y-1.656 E4.65891
G1 X4.520 Y-1.118 E4.68715
G1 X4.622 Y-0.565 E4.71540
