; generated by Slic3r 1.2.8-dev on 2015-06-02 at 19:16:57

; external perimeters extrusion width = 0.50mm
; perimeters extrusion width = 0.72mm
; infill extrusion width = 0.72mm
; solid infill extrusion width = 0.72mm
; top infill extrusion width = 0.72mm

M107
M104 S200 ; set temperature
G28 ; home all axes
G1 Z5 F5000 ; lift nozzle

M109 S200 ; wait for temperature to be reached
G21 ; set units to millimeters
G90 ; use absolute coordinates
M82 ; use absolute distances for extrusion
G92 E0
G1 Z0.350 F7800.000
G1 E-2.00000 F2400.00000
G92 E0
G1 X84.915 Y85.753 F7800.000
G1 E2.00000 F2400.00000
G1 X86.668 Y84.274 E2.20854 F1800.000
G1 X88.820 Y83.481 E2.41708
G1 X90.000 Y83.375 E2.52479
G1 X110.000 Y83.375 E4.34339
G1 X112.259 Y83.772 E4.55193
G1 X114.247 Y84.915 E4.76047 F1800.000
G1 X115.726 Y86.668 E4.96901
G1 X116.519 Y88.820 E5.17756
G1 X116.625 Y90.000 E5.28526
G1 X116.625 Y110.000 E7.10386
G1 X116.228 Y112.259 E7.31240
G1 X115.085 Y114.247 E7.52094
G1 X113.332 Y115.726 E7.72948
G1 X111.180 Y116.519 E7.93803
G1 X110.000 Y116.625 E8.04574
G1 X90.000 Y116.625 E9.86433
G1 X87.741 Y116.228 E10.07287
G1 X85.753 Y115.085 E10.28141
G1 X84.274 Y113.332 E10.48996
G1 X83.481 Y111.180 E10.69850
G1 X83.375 Y110.000 E10.80621
G1 X83.375 Y90.000 E12.62480
G1 X83.772 Y87.741 E12.83334
G1 X84.878 Y85.818 E13.03507
G1 E11.03507 F2400.00000
G92 E0
G1 X108.400 Y108.400 F7800.000
G1 E2.00000 F2400.00000
G1 X91.600 Y108.400 E3.52766 F1800.000
G1 X91.600 Y91.600 E5.05532
G1 X108.400 Y91.600 E6.58298
G1 X108.400 Y108.325 E8.10381
G1 X109.025 Y109.025 F7800.000
G1 X90.975 Y109.025 E9.74511 F1800.000
G1 X90.975 Y90.975 E11.38641
G1 X109.025 Y90.975 E13.02771
G1 X109.025 Y108.950 E14.66220
G1 X109.650 Y109.650 F7800.000
G1 X90.350 Y109.650 E16.41714 F1800.000
G1 X90.350 Y90.350 E18.17208
G1 X109.650 Y90.350 E19.92702
G1 X109.650 Y109.575 E21.67514
G1 X109.217 Y109.400 F7800.000
G1 X108.033 Y92.272 F7800.000
G1 X107.728 Y91.967 E21.71513 F1800.000
G1 X106.827 Y91.967 E21.79859
G1 X108.033 Y93.173 E21.95660
G1 X108.033 Y94.073 E22.04006
G1 X105.927 Y91.967 E22.31609
G1 X105.026 Y91.967 E22.39955
G1 X108.033 Y94.974 E22.79362
G1 X108.033 Y95.875 E22.87707
G1 X104.125 Y91.967 E23.38917
G1 X103.225 Y91.967 E23.47262
G1 X108.033 Y96.775 E24.10274
G1 X108.033 Y97.676 E24.18620
G1 X102.324 Y91.967 E24.93434
G1 X101.424 Y91.967 E25.01780
G1 X108.033 Y98.576 E25.88397
G1 X108.033 Y99.477 E25.96742
G1 X100.523 Y91.967 E26.95162
G1 X99.622 Y91.967 E27.03508
G1 X108.033 Y100.378 E28.13730
G1 X108.033 Y101.278 E28.22076
G1 X98.722 Y91.967 E29.44100
G1 X97.821 Y91.967 E29.52446
G1 X108.033 Y102.179 E30.86274
G1 X108.033 Y103.080 E30.94619
G1 X96.920 Y91.967 E32.40249
G1 X96.020 Y91.967 E32.48595
G1 X108.033 Y103.980 E34.06028
G1 X108.033 Y104.881 E34.14373
G1 X95.119 Y91.967 E35.83609
G1 X94.219 Y91.967 E35.91954
G1 X108.033 Y105.781 E37.72992
G1 X108.033 Y106.682 E37.81338
G1 X93.318 Y91.967 E39.74179
G1 X92.417 Y91.967 E39.82524
G1 X108.033 Y107.583 E41.87167
G1 X107.583 Y108.033 E41.93069
G1 X91.967 Y92.417 E43.97712
G1 X91.967 Y93.318 E44.06057
G1 X106.682 Y108.033 E45.98898
G1 X105.781 Y108.033 E46.07243
G1 X91.967 Y94.219 E47.88281
G1 X91.967 Y95.119 E47.96627
G1 X104.881 Y108.033 E49.65862
G1 X103.980 Y108.033 E49.74208
G1 X91.967 Y96.020 E51.31640
G1 X91.967 Y96.920 E51.39986
G1 X103.080 Y108.033 E52.85616
G1 X102.179 Y108.033 E52.93961
G1 X91.967 Y97.821 E54.27788
G1 X91.967 Y98.722 E54.36134
G1 X101.278 Y108.033 E55.58159
G1 X100.378 Y108.033 E55.66504
G1 X91.967 Y99.622 E56.76726
G1 X91.967 Y100.523 E56.85072
G1 X99.477 Y108.033 E57.83491
G1 X98.576 Y108.033 E57.91837
G1 X91.967 Y101.424 E58.78454
G1 X91.967 Y102.324 E58.86800
G1 X97.676 Y108.033 E59.61614
G1 X96.775 Y108.033 E59.69959
G1 X91.967 Y103.225 E60.32971
G1 X91.967 Y104.125 E60.41317
G1 X95.875 Y108.033 E60.92525
G1 X94.974 Y108.033 E61.00871
G1 X91.967 Y105.026 E61.40277
G1 X91.967 Y105.927 E61.48623
G1 X94.073 Y108.033 E61.76227
G1 X93.173 Y108.033 E61.84572
G1 X91.967 Y106.827 E62.00373
G1 X91.967 Y107.728 E62.08719
G1 X92.272 Y108.033 E62.12717
G1 Z0.650 F7800.000
G1 X108.550 Y108.550 F7800.000
G1 X91.450 Y108.550 E63.52316 F3600.000
G1 X91.450 Y91.450 E64.91916
G1 X108.550 Y91.450 E66.31515
G1 X108.550 Y108.475 E67.70502
G1 X109.205 Y109.205 F7800.000
G1 X90.795 Y109.205 E69.20787 F3600.000
G1 X90.795 Y90.795 E70.71071
G1 X109.205 Y90.795 E72.21356
G1 X109.205 Y109.130 E73.71029
G1 X109.750 Y109.750 F7800.000
G1 X90.250 Y109.750 E74.76978 F1800.000
G1 X90.250 Y90.250 E75.82927
G1 X109.750 Y90.250 E76.88876
G1 X109.750 Y109.675 E77.94418
G1 X109.317 Y109.500 F7800.000
G1 X107.845 Y108.163 F7800.000
G1 X108.163 Y107.845 E77.98149 F1200.000
G1 X108.163 Y106.903 E78.05969
G1 X106.903 Y108.163 E78.20759
G1 X105.962 Y108.163 E78.28578
G1 X108.163 Y105.962 E78.54427
G1 X108.163 Y105.020 E78.62247
G1 X105.020 Y108.163 E78.99155
G1 X104.078 Y108.163 E79.06974
G1 X108.163 Y104.078 E79.54941
G1 X108.163 Y103.137 E79.62761
G1 X103.137 Y108.163 E80.21786
G1 X102.195 Y108.163 E80.29606
G1 X108.163 Y102.195 E80.99690
G1 X108.163 Y101.254 E81.07510
G1 X101.254 Y108.163 E81.88653
G1 X100.312 Y108.163 E81.96473
G1 X108.163 Y100.312 E82.88675
G1 X108.163 Y99.370 E82.96495
G1 X99.370 Y108.163 E83.99755
G1 X98.429 Y108.163 E84.07575
G1 X108.163 Y98.429 E85.21895
G1 X108.163 Y97.487 E85.29715
G1 X97.487 Y108.163 E86.55093
G1 X96.545 Y108.163 E86.62913
G1 X108.163 Y96.545 E87.99351
G1 X108.163 Y95.604 E88.07170
G1 X95.604 Y108.163 E89.54667
G1 X94.662 Y108.163 E89.62486
G1 X108.163 Y94.662 E91.21042
G1 X108.163 Y93.721 E91.28861
G1 X93.721 Y108.163 E92.98476
G1 X92.779 Y108.163 E93.06295
G1 X108.163 Y92.779 E94.86968
G1 X108.143 Y91.857 E94.94624
G1 X91.857 Y108.143 E96.85886
G1 X91.837 Y107.221 E96.93541
G1 X107.221 Y91.837 E98.74214
G1 X106.279 Y91.837 E98.82034
G1 X91.837 Y106.279 E100.51648
G1 X91.837 Y105.338 E100.59467
G1 X105.338 Y91.837 E102.18022
G1 X104.396 Y91.837 E102.25842
G1 X91.837 Y104.396 E103.73338
G1 X91.837 Y103.455 E103.81158
G1 X103.455 Y91.837 E105.17595
G1 X102.513 Y91.837 E105.25415
G1 X91.837 Y102.513 E106.50793
G1 X91.837 Y101.571 E106.58613
G1 X101.571 Y91.837 E107.72933
G1 X100.630 Y91.837 E107.80752
G1 X91.837 Y100.630 E108.84013
G1 X91.837 Y99.688 E108.91833
G1 X99.688 Y91.837 E109.84034
G1 X98.746 Y91.837 E109.91854
G1 X91.837 Y98.746 E110.72997
G1 X91.837 Y97.805 E110.80817
G1 X97.805 Y91.837 E111.50901
G1 X96.863 Y91.837 E111.58721
G1 X91.837 Y96.863 E112.17746
G1 X91.837 Y95.922 E112.25565
G1 X95.922 Y91.837 E112.73532
G1 X94.980 Y91.837 E112.81352
G1 X91.837 Y94.980 E113.18259
G1 X91.837 Y94.038 E113.26079
G1 X94.038 Y91.837 E113.51927
G1 X93.097 Y91.837 E113.59747
G1 X91.837 Y93.097 E113.74537
G1 X91.837 Y92.155 E113.82356
G1 X92.155 Y91.837 E113.86087
G1 Z0.950 F7800.000
G1 X108.550 Y108.550 F7800.000
G1 X91.450 Y108.550 E115.25686 F3600.000
G1 X91.450 Y91.450 E116.65285
G1 X108.550 Y91.450 E118.04885
G1 X108.550 Y108.475 E119.43872
G1 X109.205 Y109.205 F7800.000
G1 X90.795 Y109.205 E120.94156 F3600.000
G1 X90.795 Y90.795 E122.44441
G1 X109.205 Y90.795 E123.94726
G1 X109.205 Y109.130 E125.44399
G1 X109.750 Y109.750 F7800.000
G1 X90.250 Y109.750 E126.50348 F1800.000
G1 X90.250 Y90.250 E127.56297
G1 X109.750 Y90.250 E128.62246
G1 X109.750 Y109.675 E129.67788
G1 X109.317 Y109.500 F7800.000
G1 X108.163 Y92.155 F7800.000
G1 X107.845 Y91.837 E129.71519 F1200.000
G1 X106.903 Y91.837 E129.79339
G1 X108.163 Y93.097 E129.94128
G1 X108.163 Y94.038 E130.01948
G1 X105.962 Y91.837 E130.27797
G1 X105.020 Y91.837 E130.35617
G1 X108.163 Y94.980 E130.72524
G1 X108.163 Y95.922 E130.80344
G1 X104.078 Y91.837 E131.28311
G1 X103.137 Y91.837 E131.36130
G1 X108.163 Y96.863 E131.95156
G1 X108.163 Y97.805 E132.02976
G1 X102.195 Y91.837 E132.73060
G1 X101.254 Y91.837 E132.80880
G1 X108.163 Y98.746 E133.62023
G1 X108.163 Y99.688 E133.69843
G1 X100.312 Y91.837 E134.62045
G1 X99.370 Y91.837 E134.69864
G1 X108.163 Y100.630 E135.73125
G1 X108.163 Y101.571 E135.80945
G1 X98.429 Y91.837 E136.95265
G1 X97.487 Y91.837 E137.03084
G1 X108.163 Y102.513 E138.28463
G1 X108.163 Y103.455 E138.36283
G1 X96.545 Y91.837 E139.72720
G1 X95.604 Y91.837 E139.80540
G1 X108.163 Y104.396 E141.28036
G1 X108.163 Y105.338 E141.35856
G1 X94.662 Y91.837 E142.94411
G1 X93.721 Y91.837 E143.02231
G1 X108.163 Y106.279 E144.71845
G1 X108.163 Y107.221 E144.79665
G1 X92.779 Y91.837 E146.60338
G1 X91.857 Y91.857 E146.67994
G1 X108.143 Y108.143 E148.59255
G1 X107.221 Y108.163 E148.66911
G1 X91.837 Y92.779 E150.47584
G1 X91.837 Y93.721 E150.55404
G1 X106.279 Y108.163 E152.25017
G1 X105.338 Y108.163 E152.32837
G1 X91.837 Y94.662 E153.91392
G1 X91.837 Y95.604 E153.99212
G1 X104.396 Y108.163 E155.46708
G1 X103.455 Y108.163 E155.54528
G1 X91.837 Y96.545 E156.90965
G1 X91.837 Y97.487 E156.98785
G1 X102.513 Y108.163 E158.24163
G1 X101.571 Y108.163 E158.31983
G1 X91.837 Y98.429 E159.46302
G1 X91.837 Y99.370 E159.54122
G1 X100.630 Y108.163 E160.57383
G1 X99.688 Y108.163 E160.65203
G1 X91.837 Y100.312 E161.57404
G1 X91.837 Y101.254 E161.65224
G1 X98.746 Y108.163 E162.46367
G1 X97.805 Y108.163 E162.54187
G1 X91.837 Y102.195 E163.24271
G1 X91.837 Y103.137 E163.32090
G1 X96.863 Y108.163 E163.91116
G1 X95.922 Y108.163 E163.98935
G1 X91.837 Y104.078 E164.46902
G1 X91.837 Y105.020 E164.54721
G1 X94.980 Y108.163 E164.91629
G1 X94.038 Y108.163 E164.99448
G1 X91.837 Y105.962 E165.25297
G1 X91.837 Y106.903 E165.33117
G1 X93.097 Y108.163 E165.47906
G1 X92.155 Y108.163 E165.55726
G1 X91.837 Y107.845 E165.59457
M106 S247.35
G1 Z1.250 F7800.000
G1 X108.550 Y108.550 F7800.000
G1 X91.450 Y108.550 E166.99056 F3600.000
G1 X91.450 Y91.450 E168.38655
G1 X108.550 Y91.450 E169.78254
G1 X108.550 Y108.475 E171.17241
G1 X109.205 Y109.205 F7800.000
G1 X90.795 Y109.205 E172.67526 F3600.000
G1 X90.795 Y90.795 E174.17811
G1 X109.205 Y90.795 E175.68096
G1 X109.205 Y109.130 E177.17769
G1 X109.750 Y109.750 F7800.000
G1 X90.250 Y109.750 E178.23718 F1800.000
G1 X90.250 Y90.250 E179.29667
G1 X109.750 Y90.250 E180.35616
G1 X109.750 Y109.675 E181.41158
G1 X109.317 Y109.500 F7800.000
G1 X108.004 Y104.502 F7800.000
G1 X106.543 Y104.111 E181.53499 F4800.000
G1 X103.604 Y107.050 E181.87431
G1 X103.860 Y108.004 E181.95494
G1 X108.004 Y108.004 E182.29321
G1 X108.004 Y104.502 E182.57908
G1 X108.004 Y98.022 F7800.000
G1 X108.004 Y93.394 E182.95688 F4800.000
G1 X106.992 Y94.406 E183.07366
G1 X107.775 Y97.326 E183.32043
G1 X104.835 Y100.265 E183.65975
G1 X101.915 Y99.483 E183.90653
G1 X98.976 Y102.422 E184.24584
G1 X99.759 Y105.342 E184.49262
G1 X97.097 Y108.004 E184.79994
G1 X98.022 Y108.004 E184.87550
G1 X100.222 Y105.805 E185.12940
G1 X103.142 Y106.587 E185.37617
G1 X106.081 Y103.648 E185.71549
G1 X105.298 Y100.728 E185.96226
G1 X108.004 Y98.022 E186.27461
G1 X108.004 Y92.469 F7800.000
G1 X108.004 Y91.996 E186.31317 F4800.000
G1 X102.959 Y91.996 E186.72502
G1 X103.147 Y92.698 E186.78431
G1 X100.207 Y95.637 E187.12363
G1 X97.287 Y94.855 E187.37040
G1 X94.348 Y97.794 E187.70972
G1 X95.131 Y100.714 E187.95650
G1 X92.192 Y103.653 E188.29581
G1 X91.996 Y103.601 E188.31232
G1 X91.996 Y108.004 E188.67177
G1 X92.469 Y108.004 E188.71033
G1 X93.437 Y107.036 E188.82210
G1 X92.654 Y104.116 E189.06887
G1 X95.594 Y101.177 E189.40819
G1 X98.514 Y101.959 E189.65496
G1 X101.453 Y99.020 E189.99428
G1 X100.670 Y96.100 E190.24105
G1 X103.609 Y93.161 E190.58037
G1 X106.529 Y93.943 E190.82715
G1 X108.004 Y92.469 E190.99735
G1 X96.825 Y94.392 F7800.000
G1 X96.183 Y91.996 E191.19981 F4800.000
G1 X91.996 Y91.996 E191.54157
G1 X91.996 Y96.825 E191.93573
G1 X93.885 Y97.331 E192.09540
G1 X96.825 Y94.392 E192.43472
G1 X95.785 Y108.004 F7800.000
G1 X93.900 Y107.498 E192.59409 F4800.000
G1 X93.394 Y108.004 E192.65243
G1 X95.785 Y108.004 E192.84762
G1 Z1.550 F7800.000
G1 X108.550 Y108.550 F7800.000
G1 X91.450 Y108.550 E194.24361 F3600.000
G1 X91.450 Y91.450 E195.63960
G1 X108.550 Y91.450 E197.03559
G1 X108.550 Y108.475 E198.42546
G1 X109.205 Y109.205 F7800.000
G1 X90.795 Y109.205 E199.92831 F3600.000
G1 X90.795 Y90.795 E201.43116
G1 X109.205 Y90.795 E202.93401
G1 X109.205 Y109.130 E204.43073
G1 X109.750 Y109.750 F7800.000
G1 X90.250 Y109.750 E205.49023 F1800.000
G1 X90.250 Y90.250 E206.54972
G1 X109.750 Y90.250 E207.60921
G1 X109.750 Y109.675 E208.66462
G1 X109.317 Y109.500 F7800.000
G1 X108.004 Y92.931 F7800.000
G1 X107.162 Y93.774 E208.76185 F4800.000
G1 X108.004 Y96.917 E209.02747
G1 X108.004 Y104.502 E209.64668
G1 X106.543 Y104.111 E209.77009
G1 X105.468 Y100.096 E210.10941
G1 X107.605 Y97.958 E210.35618
G1 X106.529 Y93.943 E210.69550
G1 X103.609 Y93.161 E210.94227
G1 X103.297 Y91.996 E211.04068
G1 X108.004 Y91.996 E211.42487
G1 X108.004 Y92.931 E211.50121
G1 X102.977 Y93.330 F7800.000
G1 X100.840 Y95.468 E211.74799 F4800.000
G1 X101.915 Y99.483 E212.08731
G1 X104.835 Y100.265 E212.33408
G1 X105.911 Y104.280 E212.67340
G1 X103.774 Y106.418 E212.92017
G1 X104.199 Y108.004 E213.05423
G1 X103.521 Y108.004 E213.10954
G1 X103.142 Y106.587 E213.22929
G1 X100.222 Y105.805 E213.47606
G1 X99.146 Y101.790 E213.81538
G1 X101.283 Y99.652 E214.06215
G1 X100.207 Y95.637 E214.40147
G1 X97.287 Y94.855 E214.64824
G1 X96.522 Y91.996 E214.88981
G1 X102.620 Y91.996 E215.38763
G1 X102.977 Y93.330 E215.50035
G1 X96.655 Y95.024 F7800.000
G1 X94.518 Y97.162 E215.74712 F4800.000
G1 X95.594 Y101.177 E216.08644
G1 X98.513 Y101.959 E216.33322
G1 X99.589 Y105.974 E216.67253
G1 X97.559 Y108.004 E216.90687
G1 X95.785 Y108.004 E217.05170
G1 X93.900 Y107.498 E217.21107
G1 X92.824 Y103.484 E217.55039
G1 X94.961 Y101.346 E217.79716
G1 X93.885 Y97.331 E218.13648
G1 X91.996 Y96.825 E218.29615
G1 X91.996 Y91.996 E218.69031
G1 X95.844 Y91.996 E219.00442
G1 X96.655 Y95.024 E219.26030
G1 X92.192 Y103.653 F7800.000
G1 X93.267 Y107.668 E219.59961 F4800.000
G1 X92.931 Y108.004 E219.63839
G1 X91.996 Y108.004 E219.71474
G1 X91.996 Y103.601 E220.07418
G1 X92.192 Y103.653 E220.09069
G1 Z1.850 F7800.000
G1 X108.550 Y108.550 F7800.000
G1 X91.450 Y108.550 E221.48668 F3600.000
G1 X91.450 Y91.450 E222.88268
G1 X108.550 Y91.450 E224.27867
G1 X108.550 Y108.475 E225.66854
G1 X109.205 Y109.205 F7800.000
G1 X90.795 Y109.205 E227.17139 F3600.000
G1 X90.795 Y90.795 E228.67423
G1 X109.205 Y90.795 E230.17708
G1 X109.205 Y109.130 E231.67381
G1 X109.750 Y109.750 F7800.000
G1 X90.250 Y109.750 E232.73330 F1800.000
G1 X90.250 Y90.250 E233.79279
G1 X109.750 Y90.250 E234.85228
G1 X109.750 Y109.675 E235.90770
G1 X109.317 Y109.500 F7800.000
G1 X103.604 Y107.050 F7800.000
G1 X103.860 Y108.004 E235.98833 F4800.000
G1 X97.559 Y108.004 E236.50265
G1 X99.589 Y105.974 E236.73699
G1 X103.604 Y107.050 E237.07631
G1 X92.654 Y104.116 F7800.000
G1 X93.437 Y107.036 E237.32309 F4800.000
G1 X97.050 Y108.004 E237.62843
G1 X94.521 Y108.004 E237.83486
G1 X93.267 Y107.668 E237.94080
G1 X92.931 Y108.004 E237.97958
G1 X91.996 Y108.004 E238.05593
G1 X91.996 Y103.939 E238.38772
G1 X92.654 Y104.116 E238.44334
G1 X94.348 Y97.794 F7800.000
G1 X95.131 Y100.714 E238.69011 F4800.000
G1 X99.146 Y101.790 E239.02943
G1 X101.283 Y99.652 E239.27621
G1 X105.298 Y100.728 E239.61552
G1 X106.081 Y103.648 E239.86230
G1 X108.004 Y104.163 E240.02482
G1 X108.004 Y104.841 E240.08014
G1 X105.911 Y104.280 E240.25698
G1 X103.774 Y106.418 E240.50376
G1 X99.759 Y105.342 E240.84307
G1 X98.976 Y102.422 E241.08985
G1 X94.961 Y101.346 E241.42916
G1 X92.824 Y103.484 E241.67594
G1 X91.996 Y103.262 E241.74587
G1 X91.996 Y97.163 E242.24369
G1 X94.348 Y97.794 E242.44247
G1 X96.825 Y94.392 F7800.000
G1 X100.840 Y95.468 E242.78179 F4800.000
G1 X102.977 Y93.330 E243.02857
G1 X106.992 Y94.406 E243.36788
G1 X107.775 Y97.326 E243.61466
G1 X108.004 Y97.387 E243.63402
G1 X108.004 Y98.065 E243.68934
G1 X107.605 Y97.958 E243.72302
G1 X105.468 Y100.096 E243.96979
G1 X101.453 Y99.020 E244.30911
G1 X100.670 Y96.100 E244.55589
G1 X96.655 Y95.024 E244.89520
G1 X94.518 Y97.162 E245.14198
G1 X91.996 Y96.486 E245.35507
G1 X91.996 Y91.996 E245.72158
G1 X96.183 Y91.996 E246.06334
G1 X96.825 Y94.392 E246.26580
G1 X108.004 Y92.931 F7800.000
G1 X107.162 Y93.774 E246.36302 F4800.000
G1 X103.147 Y92.698 E246.70234
