; generated by Slic3r 1.2.9 on 2015-09-29 at 13:03:14

; external perimeters extrusion width = 0.50mm
; perimeters extrusion width = 0.85mm
; infill extrusion width = 1.02mm
; solid infill extrusion width = 0.85mm
; top infill extrusion width = 0.85mm

M104 S190 ; set temperature
G28 ; home all axes
G1 Z5 F5000 ; lift nozzle

M109 S190 ; wait for temperature to be reached
G21 ; set units to millimeters
G90 ; use absolute coordinates
M82 ; use absolute distances for extrusion
G92 E0
G1 E-3.50000 F1800.00000
G92 E0
G1 Z0.260 F9000.000
G1 X0.000 Y10.321 F9000.000
G1 E3.50000 F1800.00000
G1 X-25.000 Y10.321 E4.75446 F1800.000
G1 X-27.015 Y9.925 E4.85750
G1 X-28.730 Y8.795 E4.96054
G1 X-29.889 Y7.100 E5.06358
G1 X-30.321 Y5.000 E5.17117
G1 X-30.321 Y-5.000 E5.67295
G1 X-29.925 Y-7.015 E5.77599
G1 X-28.795 Y-8.730 E5.87903
G1 X-27.100 Y-9.889 E5.98207
G1 X-25.000 Y-10.321 E6.08966
G1 X25.000 Y-10.321 E8.59857
G1 X27.015 Y-9.925 E8.70161
G1 X28.730 Y-8.795 E8.80465 F1800.000
G1 X29.889 Y-7.100 E8.90769
G1 X30.321 Y-5.000 E9.01528
G1 X30.321 Y5.000 E9.51706
G1 X29.925 Y7.015 E9.62010
G1 X28.795 Y8.730 E9.72315
G1 X27.100 Y9.889 E9.82619
G1 X25.000 Y10.321 E9.93377
G1 X0.075 Y10.321 E11.18447
G1 X0.075 Y9.857 F9000.000
G1 X-25.000 Y9.857 E12.44269 F1800.000
G1 X-26.921 Y9.461 E12.54109
G1 X-28.528 Y8.338 E12.63948
G1 X-29.560 Y6.671 E12.73788
G1 X-29.857 Y5.000 E12.82302
G1 X-29.857 Y-5.000 E13.32480
G1 X-29.461 Y-6.921 E13.42320
G1 X-28.338 Y-8.528 E13.52160
G1 X-26.671 Y-9.560 E13.62000
G1 X-25.000 Y-9.857 E13.70513
G1 X25.000 Y-9.857 E16.21405
G1 X26.921 Y-9.461 E16.31245
G1 X28.528 Y-8.338 E16.41085 F1800.000
G1 X29.560 Y-6.671 E16.50924
G1 X29.857 Y-5.000 E16.59438
G1 X29.857 Y5.000 E17.09616
G1 X29.461 Y6.921 E17.19456
G1 X28.338 Y8.528 E17.29296
G1 X26.671 Y9.560 E17.39136
G1 X25.000 Y9.857 E17.47649
G1 X0.150 Y9.857 E18.72342
G1 X0.150 Y9.393 F9000.000
G1 X-25.000 Y9.393 E19.98541 F1800.000
G1 X-26.821 Y8.997 E20.07893
G1 X-28.315 Y7.882 E20.17246
G1 X-29.212 Y6.248 E20.26599
G1 X-29.393 Y5.000 E20.32926
G1 X-29.393 Y-5.000 E20.83105
G1 X-28.997 Y-6.821 E20.92457
G1 X-27.882 Y-8.315 E21.01810
G1 X-26.248 Y-9.212 E21.11163
G1 X-25.000 Y-9.393 E21.17490
G1 X25.000 Y-9.393 E23.68382
G1 X26.821 Y-8.997 E23.77735
G1 X28.315 Y-7.882 E23.87087 F1800.000
G1 X29.212 Y-6.248 E23.96440
G1 X29.393 Y-5.000 E24.02768
G1 X29.393 Y5.000 E24.52946
G1 X28.997 Y6.821 E24.62298
G1 X27.882 Y8.315 E24.71651
G1 X26.248 Y9.212 E24.81004
G1 X25.000 Y9.393 E24.87331
G1 X0.225 Y9.393 E26.11648
G1 X0.225 Y8.928 F9000.000
G1 X-25.000 Y8.928 E27.38223 F1800.000
G1 X-26.717 Y8.533 E27.47062
G1 X-28.088 Y7.428 E27.55900
G1 X-28.928 Y5.000 E27.68793
G1 X-28.928 Y-5.000 E28.18972
G1 X-28.533 Y-6.717 E28.27810
G1 X-27.428 Y-8.088 E28.36649
G1 X-25.000 Y-8.928 E28.49542
G1 X25.000 Y-8.928 E31.00434
G1 X26.717 Y-8.533 E31.09272
G1 X28.088 Y-7.428 E31.18111 F1800.000
G1 X28.928 Y-5.000 E31.31004
G1 X28.928 Y5.000 E31.81182
G1 X28.533 Y6.717 E31.90021
G1 X27.428 Y8.088 E31.98860
G1 X25.000 Y8.928 E32.11753
G1 X0.300 Y8.928 E33.35693
G1 X0.300 Y8.464 F9000.000
G1 X-25.000 Y8.464 E34.62644 F1800.000
G1 X-26.605 Y8.070 E34.70937
G1 X-27.845 Y6.977 E34.79230
G1 X-28.464 Y5.000 E34.89626
G1 X-28.464 Y-5.000 E35.39804
G1 X-28.070 Y-6.605 E35.48097
G1 X-26.977 Y-7.845 E35.56390
G1 X-25.000 Y-8.464 E35.66786
G1 X25.000 Y-8.464 E38.17677
G1 X26.605 Y-8.070 E38.25970
G1 X27.845 Y-6.977 E38.34263 F1800.000
G1 X28.464 Y-5.000 E38.44659
G1 X28.464 Y5.000 E38.94838
G1 X28.070 Y6.605 E39.03130
G1 X26.977 Y7.845 E39.11423
G1 X25.000 Y8.464 E39.21819
G1 X0.375 Y8.464 E40.45383
G1 E36.95383 F1800.00000
G92 E0
G1 X-16.108 Y1.733 F9000.000
G1 E3.50000 F1800.00000
G1 X-16.310 Y2.130 E3.52238 F600.000
G1 X-16.554 Y2.505 E3.54479
G1 X-16.854 Y2.871 E3.56853
G1 X-17.149 Y3.166 E3.58950
G1 X-17.496 Y3.447 E3.61188
G1 X-17.870 Y3.689 E3.63424
G1 X-18.260 Y3.889 E3.65626
G1 X-18.683 Y4.052 E3.67901
G1 X-19.114 Y4.167 E3.70138
G1 X-19.555 Y4.237 E3.72376
G1 X-20.000 Y4.260 E3.74614
G1 X-20.445 Y4.237 E3.76851
G1 X-20.886 Y4.167 E3.79089
G1 X-21.317 Y4.052 E3.81327
G1 X-21.740 Y3.889 E3.83601
G1 X-22.130 Y3.689 E3.85803
G1 X-22.504 Y3.447 E3.88040
G1 X-22.851 Y3.166 E3.90277
G1 X-23.146 Y2.871 E3.92374
G1 X-23.446 Y2.505 E3.94748
G1 X-23.690 Y2.130 E3.96990
G1 X-23.892 Y1.733 E3.99227
G1 X-24.052 Y1.317 E4.01465
G1 X-24.167 Y0.886 E4.03703
G1 X-24.237 Y0.445 E4.05940
G1 X-24.260 Y0.000 E4.08178
G1 X-24.237 Y-0.445 E4.10416
G1 X-24.167 Y-0.886 E4.12653
G1 X-24.052 Y-1.317 E4.14891
G1 X-23.902 Y-1.707 E4.16988
G1 X-23.690 Y-2.129 E4.19361
G1 X-23.447 Y-2.504 E4.21603
G1 X-23.166 Y-2.851 E4.23841
G1 X-22.851 Y-3.166 E4.26078
G1 X-22.504 Y-3.447 E4.28316
G1 X-22.130 Y-3.689 E4.30552
G1 X-21.740 Y-3.889 E4.32755
G1 X-21.317 Y-4.052 E4.35029
G1 X-20.886 Y-4.167 E4.37267
G1 X-20.445 Y-4.237 E4.39504
G1 X-20.028 Y-4.259 E4.41601 F600.000
G1 X-19.555 Y-4.237 E4.43975
G1 X-19.114 Y-4.167 E4.46217
G1 X-18.683 Y-4.052 E4.48454
G1 X-18.260 Y-3.889 E4.50729
G1 X-17.870 Y-3.689 E4.52931
G1 X-17.496 Y-3.447 E4.55167
G1 X-17.149 Y-3.166 E4.57405
G1 X-16.834 Y-2.851 E4.59643
G1 X-16.553 Y-2.504 E4.61880
G1 X-16.310 Y-2.130 E4.64118
G1 X-16.108 Y-1.733 E4.66356
G1 X-15.948 Y-1.317 E4.68593
G1 X-15.833 Y-0.886 E4.70831
G1 X-15.763 Y-0.445 E4.73069
G1 X-15.740 Y0.000 E4.75306
G1 X-15.763 Y0.445 E4.77544
G1 X-15.833 Y0.886 E4.79782
G1 X-15.948 Y1.317 E4.82019
G1 X-16.081 Y1.663 E4.83881
G1 X-15.852 Y2.098 F9000.000
G1 E1.33881 F1800.00000
G92 E0
G1 X-22.997 Y-4.000 F9000.000
G1 X-23.447 Y-3.841 F9000.000
G1 X-23.726 Y-3.726 F9000.000
G1 X-24.000 Y-4.000 F9000.000
G1 X-24.276 Y-3.705 F9000.000
G1 E3.50000 F1800.00000
G1 X-24.276 Y-4.276 E3.52865 F600.000
G1 X-22.446 Y-4.276 E3.62047
G1 X-22.387 Y-4.076 E3.63090
G1 X-22.777 Y-3.823 E3.65427 F600.000
G1 X-23.162 Y-3.512 E3.67909
G1 X-23.512 Y-3.162 E3.70391
G1 X-23.823 Y-2.777 E3.72872
G1 X-24.076 Y-2.387 E3.75209
G1 X-24.276 Y-2.446 E3.76253
G1 X-24.276 Y-3.630 E3.82193
G1 E0.32193 F1800.00000
G92 E0
G1 X-24.000 Y2.997 F9000.000
G1 X-23.841 Y3.447 F9000.000
G1 X-23.726 Y3.726 F9000.000
G1 X-24.000 Y4.000 F9000.000
G1 X-23.690 Y4.276 F9000.000
G1 E3.50000 F1800.00000
G1 X-24.276 Y4.276 E3.52938 F600.000
G1 X-24.276 Y2.446 E3.62120
G1 X-24.076 Y2.387 E3.63163
G1 X-23.822 Y2.779 E3.65511
G1 X-23.491 Y3.183 E3.68129 F600.000
G1 X-23.162 Y3.512 E3.70463
G1 X-22.777 Y3.823 E3.72944
G1 X-22.387 Y4.076 E3.75281
G1 X-22.446 Y4.276 E3.76325
G1 X-23.615 Y4.276 E3.82193
G1 E0.32193 F1800.00000
G92 E0
G1 X-17.003 Y4.000 F9000.000
G1 X-15.972 Y3.599 F9000.000
G1 X-15.194 Y3.214 F9000.000
G1 X-15.203 Y2.803 F9000.000
G1 X-15.669 Y2.501 F9000.000
G1 X-15.593 Y2.730 F9000.000
G1 E3.50000 F1800.00000
G1 X-15.505 Y2.595 E3.50808 F600.000
G1 X-15.223 Y2.041 E3.53931
G1 X-14.971 Y2.495 E3.56539
G1 X-14.667 Y2.924 E3.59178 F600.000
G1 X-14.317 Y3.317 E3.61817
G1 X-13.763 Y3.812 E3.65545
G1 X-16.482 Y3.812 E3.79190
G1 X-16.165 Y3.495 E3.81438
G1 X-15.803 Y3.054 E3.84300
G1 X-15.634 Y2.793 E3.85861
G1 X-16.023 Y2.540 F9000.000
G1 X-15.908 Y2.363 E3.86923 F600.000
G1 X-15.683 Y1.922 E3.89405
G1 X-15.506 Y1.460 E3.91887
G1 X-15.350 Y0.877 E3.94916
G1 X-15.138 Y0.875 E3.95978
G1 X-14.988 Y1.396 E3.98696
G1 X-14.807 Y1.833 E4.01073 F600.000
G1 X-14.578 Y2.248 E4.03451
G1 X-14.304 Y2.634 E4.05829
G1 X-13.988 Y2.988 E4.08206
G1 X-13.634 Y3.304 E4.10584
G1 X-13.248 Y3.578 E4.12962
G1 X-12.833 Y3.807 E4.15339
G1 X-12.396 Y3.988 E4.17717
G1 X-12.229 Y4.036 E4.18587
G1 X-12.263 Y4.276 E4.19801
G1 X-17.554 Y4.276 E4.46351
G1 X-17.613 Y4.076 E4.47395
G1 X-17.223 Y3.823 E4.49731
G1 X-16.838 Y3.512 E4.52213
G1 X-16.509 Y3.183 E4.54547
G1 X-16.178 Y2.779 E4.57164
G1 X-16.064 Y2.603 E4.58219
G1 E1.08219 F1800.00000
G92 E0
G1 X-15.236 Y-1.518 F9000.000
G1 X-15.213 Y-2.617 F9000.000
G1 X-15.194 Y-3.214 F9000.000
G1 X-15.448 Y-3.349 F9000.000
G1 X-15.972 Y-3.599 F9000.000
G1 X-16.283 Y-3.347 F9000.000
G1 X-16.289 Y-3.619 F9000.000
G1 E3.50000 F1800.00000
G1 X-16.482 Y-3.812 E3.51366 F600.000
G1 X-13.763 Y-3.812 E3.65011
G1 X-14.317 Y-3.317 E3.68739
G1 X-14.667 Y-2.924 E3.71378 F600.000
G1 X-14.971 Y-2.495 E3.74017
G1 X-15.223 Y-2.041 E3.76625
G1 X-15.505 Y-2.595 E3.79748
G1 X-15.801 Y-3.051 E3.82474
G1 X-16.236 Y-3.566 E3.85859
G1 X-16.565 Y-3.238 F9000.000
G1 X-16.838 Y-3.512 E3.87801 F600.000
G1 X-17.223 Y-3.823 E3.90283
G1 X-17.613 Y-4.076 E3.92619
G1 X-17.554 Y-4.276 E3.93663
G1 X-12.263 Y-4.276 E4.20213
G1 X-12.229 Y-4.036 E4.21427
G1 X-12.396 Y-3.988 E4.22297 F600.000
G1 X-12.833 Y-3.807 E4.24675
G1 X-13.248 Y-3.578 E4.27052
G1 X-13.634 Y-3.304 E4.29430
G1 X-13.988 Y-2.988 E4.31808
G1 X-14.304 Y-2.634 E4.34185
G1 X-14.578 Y-2.248 E4.36563
G1 X-14.808 Y-1.831 E4.38953
G1 X-14.996 Y-1.369 E4.41458
G1 X-15.138 Y-0.875 E4.44035
G1 X-15.350 Y-0.877 E4.45097
G1 X-15.506 Y-1.460 E4.48126
G1 X-15.683 Y-1.922 E4.50608
G1 X-15.908 Y-2.363 E4.53090
G1 X-16.177 Y-2.777 E4.55572
G1 X-16.511 Y-3.185 E4.58216
G1 X-14.227 Y-1.922 F9000.000
G1 X-13.940 Y-2.345 E4.60779 F600.000
G1 X-13.659 Y-2.659 E4.62895
G1 X-13.345 Y-2.940 E4.65011
G1 X-13.001 Y-3.184 E4.67127
G1 X-12.632 Y-3.388 E4.69243
G1 X-12.242 Y-3.549 E4.71359
G1 X-11.836 Y-3.666 E4.73479
G1 X-11.395 Y-3.738 E4.75722
G1 X-11.000 Y-3.760 E4.77706 F600.000
G1 X-10.579 Y-3.737 E4.79822
G1 X-10.163 Y-3.666 E4.81938
G1 X-9.758 Y-3.549 E4.84054
G1 X-9.368 Y-3.388 E4.86170
G1 X-9.022 Y-3.197 E4.88153
G1 X-8.656 Y-2.941 E4.90397
G1 X-8.341 Y-2.659 E4.92517
G1 X-8.060 Y-2.345 E4.94633
G1 X-7.816 Y-2.001 E4.96749
G1 X-7.612 Y-1.632 E4.98865
G1 X-7.451 Y-1.242 E5.00981
G1 X-7.334 Y-0.837 E5.03097
G1 X-7.263 Y-0.421 E5.05213
G1 X-7.240 Y-0.000 E5.07329
G1 X-7.263 Y0.422 E5.09450
G1 X-7.341 Y0.862 E5.11693
G1 X-7.451 Y1.242 E5.13676
G1 X-7.612 Y1.632 E5.15792
G1 X-7.816 Y2.001 E5.17908
G1 X-8.060 Y2.345 E5.20024
G1 X-8.341 Y2.659 E5.22140
G1 X-8.655 Y2.940 E5.24256
G1 X-8.999 Y3.184 E5.26372
G1 X-9.368 Y3.388 E5.28488
G1 X-9.758 Y3.549 E5.30604
G1 X-10.163 Y3.666 E5.32720
G1 X-10.579 Y3.737 E5.34836
G1 X-11.000 Y3.760 E5.36952
G1 X-11.421 Y3.737 E5.39068
G1 X-11.837 Y3.666 E5.41184
G1 X-12.242 Y3.549 E5.43300
G1 X-12.632 Y3.388 E5.45416
G1 X-13.001 Y3.184 E5.47532
G1 X-13.345 Y2.940 E5.49648
G1 X-13.659 Y2.659 E5.51764
G1 X-13.940 Y2.345 E5.53880
G1 X-14.184 Y2.001 E5.55996
G1 X-14.388 Y1.632 E5.58112
G1 X-14.549 Y1.242 E5.60228
G1 X-14.666 Y0.837 E5.62344
G1 X-14.737 Y0.421 E5.64460
G1 X-14.760 Y0.000 E5.66576
G1 X-14.737 Y-0.421 E5.68692
G1 X-14.666 Y-0.837 E5.70808
G1 X-14.557 Y-1.217 E5.72792
G1 X-14.388 Y-1.631 E5.75035
G1 X-14.264 Y-1.857 E5.76330
G1 X-14.458 Y-2.366 F9000.000
G1 E2.26330 F1800.00000
G92 E0
G1 X-8.676 Y-3.851 F9000.000
G1 X-8.040 Y-3.735 F9000.000
G1 X-7.451 Y-3.510 F9000.000
G1 X-6.947 Y-3.284 F9000.000
G1 X-7.481 Y-2.807 F9000.000
G1 X-6.237 Y-0.393 F9000.000
G1 E3.50000 F1800.00000
G1 X-6.166 Y-0.780 E3.51976 F600.000
G1 X-6.049 Y-1.156 E3.53951
G1 X-5.887 Y-1.515 E3.55927
G1 X-5.683 Y-1.852 E3.57903
G1 X-5.441 Y-2.162 E3.59878
G1 X-5.162 Y-2.441 E3.61854
G1 X-4.852 Y-2.683 E3.63830
G1 X-4.515 Y-2.887 E3.65805
G1 X-4.156 Y-3.049 E3.67781
G1 X-3.779 Y-3.166 E3.69761
G1 X-3.369 Y-3.238 E3.71854
G1 X-3.000 Y-3.260 E3.73707 F600.000
G1 X-2.607 Y-3.237 E3.75683
G1 X-2.220 Y-3.166 E3.77658
G1 X-1.844 Y-3.049 E3.79634
G1 X-1.485 Y-2.887 E3.81609
G1 X-1.148 Y-2.683 E3.83585
G1 X-0.838 Y-2.441 E3.85561
G1 X-0.559 Y-2.162 E3.87536
G1 X-0.317 Y-1.852 E3.89512
G1 X-0.112 Y-1.514 E3.91493
G1 X0.056 Y-1.133 E3.93586
G1 X0.166 Y-0.780 E3.95438
G1 X0.237 Y-0.393 E3.97414
G1 X0.260 Y0.000 E3.99390
G1 X0.237 Y0.393 E4.01365
G1 X0.166 Y0.780 E4.03341
G1 X0.049 Y1.156 E4.05316
G1 X-0.113 Y1.515 E4.07292
G1 X-0.317 Y1.852 E4.09268
G1 X-0.560 Y2.162 E4.11243
G1 X-0.839 Y2.441 E4.13224
G1 X-1.169 Y2.696 E4.15317
G1 X-1.485 Y2.887 E4.17170
G1 X-1.844 Y3.049 E4.19145
G1 X-2.220 Y3.166 E4.21121
G1 X-2.607 Y3.237 E4.23096
G1 X-3.000 Y3.260 E4.25072
G1 X-3.393 Y3.237 E4.27048
G1 X-3.780 Y3.166 E4.29023
G1 X-4.156 Y3.049 E4.30999
G1 X-4.516 Y2.887 E4.32979
G1 X-4.871 Y2.668 E4.35072
G1 X-5.162 Y2.440 E4.36925
G1 X-5.441 Y2.162 E4.38901
G1 X-5.683 Y1.852 E4.40876
G1 X-5.888 Y1.514 E4.42857
G1 X-6.056 Y1.133 E4.44950
G1 X-6.166 Y0.780 E4.46803
G1 X-6.237 Y0.393 E4.48778
G1 X-6.260 Y0.000 E4.50754
G1 X-6.241 Y-0.318 E4.52353
G1 X-6.547 Y-0.636 F9000.000
G1 E1.02353 F1800.00000
G92 E0
G1 X0.543 Y-1.860 F9000.000
G1 X0.797 Y-1.974 F9000.000
G1 X0.775 Y-1.429 F9000.000
G1 X0.766 Y-1.341 F9000.000
G1 X1.268 Y-0.204 F9000.000
G1 E3.50000 F1800.00000
G1 X1.270 Y-0.388 E3.50921 F600.000
G1 X1.432 Y-1.017 E3.54181
G1 X1.765 Y-1.624 E3.57655
G1 X2.239 Y-2.128 E3.61129
G1 X2.824 Y-2.499 E3.64603
G1 X3.482 Y-2.713 E3.68078
G1 X4.131 Y-2.754 E3.71337 F600.000
G1 X4.852 Y-2.628 E3.75010
G1 X5.480 Y-2.332 E3.78494
G1 X6.013 Y-1.891 E3.81968
G1 X6.420 Y-1.331 E3.85442
G1 X6.675 Y-0.687 E3.88916
G1 X6.762 Y0.000 E3.92391
G1 X6.675 Y0.687 E3.95865
G1 X6.420 Y1.331 E3.99339
G1 X6.012 Y1.892 E4.02823
G1 X5.441 Y2.350 E4.06496
G1 X4.854 Y2.627 E4.09755
G1 X4.173 Y2.757 E4.13229
G1 X3.482 Y2.713 E4.16703
G1 X2.824 Y2.499 E4.20178
G1 X2.238 Y2.127 E4.23662
G1 X1.745 Y1.586 E4.27334
G1 X1.432 Y1.017 E4.30594
G1 X1.259 Y0.344 E4.34078
G1 X1.266 Y-0.129 E4.36453
G1 X1.110 Y-0.298 F9000.000
G1 E0.86453 F1800.00000
G92 E0
G1 X7.262 Y-1.215 F9000.000
G1 X7.262 Y-1.215 F9000.000
G1 X7.756 Y-0.129 F9000.000
G1 E3.50000 F1800.00000
G1 X7.756 Y-0.284 E3.50775 F600.000
G1 X7.897 Y-0.833 E3.53621
G1 X8.170 Y-1.330 E3.56466
G1 X8.558 Y-1.743 E3.59311
G1 X9.037 Y-2.047 E3.62156
G1 X9.576 Y-2.222 E3.65002
G1 X10.108 Y-2.255 E3.67673 F600.000
G1 X10.697 Y-2.152 E3.70677
G1 X11.212 Y-1.910 E3.73533
G1 X11.649 Y-1.548 E3.76378
G1 X11.982 Y-1.090 E3.79223
G1 X12.191 Y-0.563 E3.82068
G1 X12.262 Y0.002 E3.84924
G1 X12.178 Y0.595 E3.87927
G1 X11.982 Y1.090 E3.90599
G1 X11.649 Y1.548 E3.93444
G1 X11.212 Y1.910 E3.96290
G1 X10.699 Y2.151 E3.99135
G1 X10.142 Y2.258 E4.01980
G1 X9.576 Y2.222 E4.04825
G1 X9.037 Y2.047 E4.07670
G1 X8.558 Y1.743 E4.10516
G1 X8.170 Y1.330 E4.13359
G1 X7.898 Y0.839 E4.16174
G1 X7.756 Y0.284 E4.19052
G1 X7.756 Y-0.054 E4.20746
G1 X7.622 Y-0.206 F9000.000
G1 E0.70746 F1800.00000
G92 E0
G1 X12.770 Y-1.109 F9000.000
G1 X12.770 Y-1.109 F9000.000
G1 X13.252 Y-0.054 F9000.000
G1 E3.50000 F1800.00000
G1 X13.252 Y-0.221 E3.50837 F600.000
G1 X13.362 Y-0.649 E3.53054
G1 X13.574 Y-1.036 E3.55270
G1 X13.877 Y-1.358 E3.57486
G1 X14.250 Y-1.594 E3.59703
G1 X14.670 Y-1.731 E3.61919
G1 X15.084 Y-1.757 E3.64003 F600.000
G1 X15.543 Y-1.677 E3.66338
G1 X15.944 Y-1.488 E3.68564
G1 X16.284 Y-1.206 E3.70781
G1 X16.544 Y-0.849 E3.72997
G1 X16.707 Y-0.438 E3.75213
G1 X16.762 Y0.000 E3.77430
G1 X16.707 Y0.438 E3.79646
G1 X16.544 Y0.849 E3.81862
G1 X16.284 Y1.206 E3.84079
G1 X15.944 Y1.488 E3.86295
G1 X15.545 Y1.676 E3.88511
G1 X15.111 Y1.759 E3.90728
G1 X14.670 Y1.731 E3.92944
G1 X14.250 Y1.594 E3.95160
G1 X13.877 Y1.358 E3.97377
G1 X13.574 Y1.036 E3.99593
G1 X13.362 Y0.649 E4.01809
G1 X13.252 Y0.221 E4.04026
G1 X13.252 Y0.021 E4.05028
G1 X13.107 Y-0.137 F9000.000
G1 E0.55028 F1800.00000
G92 E0
G1 X17.279 Y1.004 F9000.000
G1 X17.279 Y1.004 F9000.000
G1 X17.748 Y0.021 F9000.000
G1 E3.50000 F1800.00000
G1 X17.748 Y-0.158 E3.50899 F600.000
G1 X17.827 Y-0.465 E3.52487
G1 X17.979 Y-0.742 E3.54074
G1 X18.196 Y-0.972 E3.55662
G1 X18.463 Y-1.142 E3.57249
G1 X18.764 Y-1.240 E3.58836
G1 X19.061 Y-1.258 E3.60332 F600.000
G1 X19.388 Y-1.201 E3.61999
G1 X19.692 Y-1.058 E3.63684
G1 X19.921 Y-0.862 E3.65197
G1 X20.106 Y-0.608 E3.66774
G1 X20.222 Y-0.314 E3.68361
G1 X20.262 Y-0.000 E3.69949
G1 X20.222 Y0.314 E3.71536
G1 X20.106 Y0.608 E3.73123
G1 X19.920 Y0.864 E3.74711
G1 X19.676 Y1.066 E3.76298
G1 X19.390 Y1.200 E3.77886
G1 X19.079 Y1.260 E3.79473
G1 X18.764 Y1.240 E3.81061
G1 X18.463 Y1.142 E3.82648
G1 X18.196 Y0.972 E3.84235
G1 X17.979 Y0.742 E3.85823
G1 X17.827 Y0.465 E3.87410
G1 X17.748 Y0.158 E3.88998
G1 X17.748 Y0.096 E3.89310
G1 X17.593 Y-0.069 F9000.000
G1 E0.39310 F1800.00000
G92 E0
G1 X20.788 Y0.895 F9000.000
G1 X20.788 Y0.895 F9000.000
G1 X21.244 Y0.096 F9000.000
G1 E3.50000 F1800.00000
