; generated by Slic3r 1.2.9 on 2016-06-09 at 13:33:10

; external perimeters extrusion width = 0.40mm
; perimeters extrusion width = 0.67mm
; infill extrusion width = 0.67mm
; solid infill extrusion width = 0.67mm
; top infill extrusion width = 0.67mm

M107
M190 S60 ; set bed temperature
M104 S205 ; set temperature
G28 ; home all axes

M109 S205 ; wait for temperature to be reached
G21 ; set units to millimeters
G90 ; use absolute coordinates
M82 ; use absolute distances for extrusion
G92 E0
G1 E-4.00000 F4800.00000
G92 E0
G1 Z1.000 F6000.000
G1 X28.752 Y0.000 F6000.000
G1 Z0.400 F6000.000
G1 E4.00000 F4800.00000
G1 X28.752 Y34.000 E5.88941 F1200.000
G1 X28.356 Y36.146 E6.01068
G1 X27.218 Y38.008 E6.13194
G1 X25.490 Y39.341 E6.25321
G1 X22.750 Y40.002 E6.40986
G1 X-22.750 Y40.002 E8.93834
G1 X-24.896 Y39.606 E9.05960
G1 X-26.758 Y38.468 E9.18087
G1 X-28.091 Y36.740 E9.30214
G1 X-28.752 Y34.000 E9.45879
G1 X-28.752 Y-34.000 E13.23761
G1 X-28.356 Y-36.146 E13.35888
G1 X-27.218 Y-38.008 E13.48014
G1 X-25.490 Y-39.341 E13.60141
G1 X-22.750 Y-40.002 E13.75806
G1 X22.750 Y-40.002 E16.28654
G1 X24.896 Y-39.606 E16.40780
G1 X26.758 Y-38.468 E16.52907 F1200.000
G1 X28.091 Y-36.740 E16.65034
G1 X28.752 Y-34.000 E16.80698
G1 X28.752 Y-0.060 E18.69306
G1 X28.418 Y0.000 F6000.000
G1 X28.418 Y34.000 E20.58247 F1200.000
G1 X28.022 Y36.083 E20.70029
G1 X26.888 Y37.874 E20.81810
G1 X25.175 Y39.123 E20.93591
G1 X22.750 Y39.668 E21.07404
G1 X-22.750 Y39.668 E23.60252
G1 X-24.833 Y39.272 E23.72033
G1 X-26.624 Y38.138 E23.83814
G1 X-27.873 Y36.425 E23.95596
G1 X-28.418 Y34.000 E24.09408
G1 X-28.418 Y-34.000 E27.87290
G1 X-28.022 Y-36.083 E27.99072
G1 X-26.888 Y-37.874 E28.10853
G1 X-25.175 Y-39.123 E28.22635
G1 X-22.750 Y-39.668 E28.36447
G1 X22.750 Y-39.668 E30.89295
G1 X24.833 Y-39.272 E31.01076
G1 X26.624 Y-38.138 E31.12857 F1200.000
G1 X27.873 Y-36.425 E31.24639
G1 X28.418 Y-34.000 E31.38451
G1 X28.418 Y-0.060 E33.27059
G1 X28.084 Y0.000 F6000.000
G1 X28.084 Y34.000 E35.16000 F1200.000
G1 X27.688 Y36.018 E35.27426
G1 X26.558 Y37.735 E35.38851
G1 X24.862 Y38.898 E35.50277
G1 X22.750 Y39.334 E35.62263
G1 X-22.750 Y39.334 E38.15111
G1 X-24.768 Y38.938 E38.26537
G1 X-26.485 Y37.808 E38.37962
G1 X-27.648 Y36.112 E38.49388
G1 X-28.084 Y34.000 E38.61374
G1 X-28.084 Y-34.000 E42.39256
G1 X-27.688 Y-36.018 E42.50682
G1 X-26.558 Y-37.735 E42.62108
G1 X-24.862 Y-38.898 E42.73533
G1 X-22.750 Y-39.334 E42.85520
G1 X22.750 Y-39.334 E45.38367
G1 X24.768 Y-38.938 E45.49793
G1 X26.485 Y-37.808 E45.61219 F1200.000
G1 X27.648 Y-36.112 E45.72644
G1 X28.084 Y-34.000 E45.84630
G1 X28.084 Y-0.060 E47.73238
G1 F4800
G1 X28.084 Y3.940 E43.93238
G1 E43.73238 F4800.00000
G92 E0
G1 Z1.400 F6000.000
G1 X17.265 Y25.920 F6000.000
G1 Z0.400 F6000.000
G1 E4.00000 F4800.00000
G1 X18.721 Y26.018 E4.08108 F1200.000
G1 X20.034 Y26.852 E4.16754
G1 X20.743 Y28.127 E4.24861
G1 X20.866 Y28.993 E4.29721
G1 X20.760 Y29.830 E4.34405
G1 X20.063 Y31.097 E4.42444
G1 X19.377 Y31.665 E4.47398
G1 X17.947 Y32.130 E4.55751
G1 X16.470 Y31.848 E4.64105
G1 X15.764 Y31.400 E4.68751
G1 X15.192 Y30.791 E4.73398
G1 X14.639 Y29.395 E4.81741
G1 X14.816 Y27.947 E4.89848
G1 X15.251 Y27.125 E4.95016
G1 X16.376 Y26.194 E5.03131
G1 X17.208 Y25.938 E5.07966 F1200.000
G1 X17.304 Y26.258 F6000.000
G1 X18.614 Y26.346 E5.15257 F1200.000
G1 X19.784 Y27.089 E5.22958
G1 X20.421 Y28.236 E5.30250
G1 X20.529 Y28.996 E5.34517
G1 X20.437 Y29.724 E5.38598
G1 X19.801 Y30.880 E5.45928
G1 X19.213 Y31.367 E5.50173
G1 X17.925 Y31.786 E5.57696
G1 X16.596 Y31.532 E5.65218
G1 X15.979 Y31.141 E5.69276
G1 X15.479 Y30.608 E5.73334
G1 X14.981 Y29.351 E5.80850
G1 X15.140 Y28.048 E5.88141
G1 X15.515 Y27.340 E5.92596
G1 X16.538 Y26.494 E5.99973
G1 X17.247 Y26.276 E6.04095 F1200.000
G1 X17.342 Y26.585 F6000.000
G1 X18.509 Y26.664 E6.10206 F1200.000
G1 X19.540 Y27.318 E6.16584
G1 X20.108 Y28.341 E6.22695
G1 X20.202 Y28.998 E6.26166
G1 X20.123 Y29.622 E6.29453
G1 X19.547 Y30.670 E6.35698
G1 X19.054 Y31.078 E6.39043
G1 X17.904 Y31.452 E6.45357
G1 X16.717 Y31.225 E6.51672
G1 X16.187 Y30.889 E6.54950
G1 X15.758 Y30.432 E6.58228
G1 X15.313 Y29.308 E6.64540
G1 X15.455 Y28.147 E6.70651
G1 X15.772 Y27.549 E6.74189
G1 X16.695 Y26.785 E6.80451
G1 X17.285 Y26.603 E6.83676 F1200.000
G1 X17.523 Y26.229 F6000.000
G1 F4800
G1 X18.509 Y26.664 E5.67215
G1 F4800
G1 X19.540 Y27.318 E4.51231
G1 F4800
G1 X20.108 Y28.341 E3.40111
G1 F4800
G1 X20.162 Y28.720 E3.03676
G1 E2.83676 F4800.00000
G92 E0
G1 Z1.400 F6000.000
G1 X-14.614 Y29.000 F6000.000
G1 Z0.400 F6000.000
G1 E4.00000 F4800.00000
G1 X-14.988 Y30.456 E4.08354 F1200.000
G1 X-15.511 Y31.176 E4.13297
G1 X-16.691 Y31.932 E4.21090
G1 X-17.602 Y32.121 E4.26257
G1 X-19.030 Y31.848 E4.34335
G1 X-19.782 Y31.371 E4.39289
G1 X-20.633 Y30.200 E4.47327
G1 X-20.854 Y29.337 E4.52281
G1 X-20.673 Y27.902 E4.60320
G1 X-20.244 Y27.121 E4.65274
G1 X-19.124 Y26.194 E4.73351
G1 X-18.235 Y25.920 E4.78519 F1200.000
G1 X-16.779 Y26.018 E4.86626
G1 X-15.512 Y26.823 E4.94969
G1 X-14.988 Y27.544 E4.99923
G1 X-14.629 Y28.942 E5.07943
G1 X-14.959 Y29.000 F6000.000
G1 X-15.295 Y30.311 E5.15465 F1200.000
G1 X-15.744 Y30.928 E5.19704
G1 X-16.820 Y31.618 E5.26804
G1 X-17.605 Y31.780 E5.31259
G1 X-18.904 Y31.532 E5.38612
G1 X-19.549 Y31.123 E5.42858
G1 X-20.325 Y30.055 E5.50188
G1 X-20.515 Y29.316 E5.54434
G1 X-20.349 Y28.007 E5.61764
G1 X-19.981 Y27.337 E5.66009
G1 X-18.962 Y26.494 E5.73363
G1 X-18.196 Y26.258 E5.77818 F1200.000
G1 X-16.886 Y26.346 E5.85110
G1 X-15.745 Y27.071 E5.92625
G1 X-15.295 Y27.689 E5.96871
G1 X-14.974 Y28.942 E6.04060
G1 X-15.294 Y29.000 F6000.000
G1 X-15.594 Y30.171 E6.10374 F1200.000
G1 X-15.970 Y30.688 E6.13717
G1 X-16.944 Y31.312 E6.19759
G1 X-17.607 Y31.449 E6.23298
G1 X-18.783 Y31.225 E6.29551
G1 X-19.324 Y30.882 E6.32897
G1 X-20.026 Y29.915 E6.39142
G1 X-20.185 Y29.295 E6.42487
G1 X-20.036 Y28.109 E6.48733
G1 X-19.727 Y27.548 E6.52078
G1 X-18.805 Y26.785 E6.58332
G1 X-18.158 Y26.585 E6.61870 F1200.000
G1 X-16.991 Y26.664 E6.67981
G1 X-15.970 Y27.311 E6.74293
G1 X-15.594 Y27.829 E6.77638
G1 X-15.308 Y28.942 E6.83639
G1 X-14.965 Y29.228 F6000.000
G1 F4800
G1 X-15.594 Y30.171 E5.63795
G1 F4800
G1 X-15.970 Y30.688 E5.03009
G1 F4800
G1 X-16.944 Y31.312 E3.93141
G1 F4800
G1 X-17.607 Y31.449 E3.28803
G1 F4800
G1 X-17.867 Y31.400 E3.03639
G1 E2.83639 F4800.00000
G92 E0
G1 Z1.400 F6000.000
G1 X-7.651 Y13.842 F6000.000
G1 Z0.400 F6000.000
G1 E4.00000 F4800.00000
G1 X-8.316 Y13.506 E4.04141 F1200.000
G1 X-10.481 Y11.906 E4.19101
G1 X-12.393 Y9.894 E4.34522
G1 X-13.837 Y7.750 E4.48889
G1 X-14.459 Y6.516 E4.56570
G1 X-15.350 Y3.995 E4.71428
G1 X-15.808 Y1.258 E4.86850
G1 X-15.804 Y-1.327 E5.01217
G1 X-15.629 Y-2.698 E5.08897
G1 X-14.955 Y-5.284 E5.23746
G1 X-13.855 Y-7.719 E5.38594
G1 X-13.130 Y-8.896 E5.46278
G1 X-11.452 Y-10.975 E5.61123
G1 X-9.514 Y-12.685 E5.75487
G1 X-8.302 Y-13.514 E5.83644
G1 X-5.914 Y-14.718 E5.98505
G1 X-3.342 Y-15.505 E6.13456
G1 X-0.691 Y-15.845 E6.28304
G1 X0.691 Y-15.845 E6.35984 F1200.000
G1 X3.256 Y-15.520 E6.50351
G1 X5.912 Y-14.718 E6.65773
G1 X8.318 Y-13.506 E6.80743
G1 X10.542 Y-11.846 E6.96165
G1 X12.328 Y-9.977 E7.10532
G1 X13.150 Y-8.866 E7.18212
G1 X14.453 Y-6.533 E7.33061
G1 X15.344 Y-4.014 E7.47909
G1 X15.635 Y-2.662 E7.55593
G1 X15.861 Y-0.000 E7.70441
G1 X15.635 Y2.662 E7.85289
G1 X15.344 Y4.014 E7.92973
G1 X14.453 Y6.533 E8.07822
G1 X13.141 Y8.882 E8.22772
G1 X11.451 Y10.975 E8.37722
G1 X9.432 Y12.753 E8.52672
G1 X7.156 Y14.153 E8.67520
G1 X5.897 Y14.723 E8.75204
G1 X3.342 Y15.505 E8.90053
G1 X0.691 Y15.845 E9.04901
G1 X-0.691 Y15.845 E9.12585
G1 X-3.342 Y15.505 E9.27433
G1 X-5.914 Y14.718 E9.42383
G1 X-7.597 Y13.869 E9.52859
G1 X-7.501 Y13.544 F6000.000
G1 X-8.140 Y13.221 E9.56842 F1200.000
G1 X-10.259 Y11.654 E9.71482
G1 X-12.131 Y9.684 E9.86586
G1 X-13.548 Y7.581 E10.00681
G1 X-14.152 Y6.385 E10.08126
G1 X-15.025 Y3.911 E10.22703
G1 X-15.474 Y1.230 E10.37808
G1 X-15.470 Y-1.306 E10.51902
G1 X-15.300 Y-2.635 E10.59347
G1 X-14.639 Y-5.172 E10.73919
G1 X-13.559 Y-7.562 E10.88491
G1 X-12.856 Y-8.703 E10.95938
G1 X-11.209 Y-10.743 E11.10508
G1 X-9.308 Y-12.421 E11.24600
G1 X-8.132 Y-13.225 E11.32520
G1 X-5.789 Y-14.406 E11.47099
G1 X-3.271 Y-15.178 E11.61733
G1 X-0.670 Y-15.511 E11.76305
G1 X0.670 Y-15.511 E11.83750 F1200.000
G1 X3.186 Y-15.192 E11.97845
G1 X5.788 Y-14.407 E12.12949
G1 X8.141 Y-13.220 E12.27595
G1 X10.320 Y-11.595 E12.42699
G1 X12.072 Y-9.762 E12.56794
G1 X12.869 Y-8.684 E12.64239
G1 X14.148 Y-6.395 E12.78811
G1 X15.021 Y-3.923 E12.93382
G1 X15.304 Y-2.613 E13.00829
G1 X15.526 Y-0.000 E13.15401
G1 X15.304 Y2.613 E13.29973
G1 X15.021 Y3.923 E13.37420
G1 X14.148 Y6.395 E13.51992
G1 X12.863 Y8.694 E13.66626
G1 X11.209 Y10.743 E13.81260
G1 X9.232 Y12.483 E13.95894
G1 X6.999 Y13.858 E14.10466
G1 X5.778 Y14.410 E14.17913
G1 X3.271 Y15.178 E14.32485
G1 X0.670 Y15.511 E14.47057
G1 X-0.670 Y15.511 E14.54504
G1 X-3.271 Y15.178 E14.69076
G1 X-5.789 Y14.406 E14.83710
G1 X-7.447 Y13.571 E14.94028
G1 X-7.355 Y13.254 F6000.000
G1 X-7.970 Y12.944 E14.97628 F1200.000
G1 X-10.043 Y11.411 E15.11100
G1 X-11.878 Y9.481 E15.25011
G1 X-13.268 Y7.417 E15.38013
G1 X-13.853 Y6.257 E15.44798
G1 X-14.710 Y3.830 E15.58247
G1 X-15.150 Y1.204 E15.72158
G1 X-15.146 Y-1.285 E15.85160
G1 X-14.981 Y-2.573 E15.91945
G1 X-14.332 Y-5.064 E16.05392
G1 X-13.272 Y-7.409 E16.18840
G1 X-12.591 Y-8.515 E16.25625
G1 X-10.974 Y-10.518 E16.39072
G1 X-9.109 Y-12.165 E16.52074
G1 X-7.967 Y-12.946 E16.59302
G1 X-5.668 Y-14.105 E16.72752
G1 X-3.202 Y-14.860 E16.86222
G1 X-0.649 Y-15.186 E16.99670
G1 X0.649 Y-15.186 E17.06454 F1200.000
G1 X3.118 Y-14.874 E17.19457
G1 X5.667 Y-14.105 E17.33367
G1 X7.970 Y-12.944 E17.46842
G1 X10.104 Y-11.352 E17.60752
G1 X11.824 Y-9.552 E17.73755
G1 X12.596 Y-8.508 E17.80539
G1 X13.851 Y-6.261 E17.93987
G1 X14.709 Y-3.834 E18.07434
G1 X14.982 Y-2.565 E18.14220
G1 X15.201 Y-0.000 E18.27667
G1 X14.982 Y2.565 E18.41115
G1 X14.709 Y3.834 E18.47900
G1 X13.851 Y6.261 E18.61348
G1 X12.594 Y8.512 E18.74818
G1 X10.974 Y10.518 E18.88287
G1 X9.039 Y12.221 E19.01757
G1 X6.847 Y13.571 E19.15205
G1 X5.664 Y14.106 E19.21990
G1 X3.202 Y14.860 E19.35438
G1 X0.649 Y15.186 E19.48885
G1 X-0.649 Y15.186 E19.55671
G1 X-3.202 Y14.860 E19.69118
G1 X-5.668 Y14.105 E19.82588
G1 X-7.301 Y13.281 E19.92145
G1 X-7.689 Y13.473 F6000.000
G1 F4800
G1 X-7.970 Y12.944 E19.20984
G1 F4800
G1 X-10.043 Y11.411 E16.76014
G1 F4800
G1 X-10.506 Y10.923 E16.12145
G1 E15.92145 F4800.00000
G92 E0
G1 Z1.400 F6000.000
G1 X8.393 Y-13.627 F6000.000
G1 X12.816 Y-19.556 F6000.000
G1 X12.459 Y-19.787 F6000.000
G1 X16.414 Y-26.020 F6000.000
G1 X16.467 Y-26.154 F6000.000
G1 Z0.400 F6000.000
G1 E4.00000 F4800.00000
G1 X15.719 Y-26.628 E4.04924 F1200.000
G1 X14.890 Y-27.759 E4.12717
G1 X14.645 Y-28.654 E4.17874
G1 X14.816 Y-30.053 E4.25706
G1 X15.251 Y-30.875 E4.30873
G1 X16.376 Y-31.806 E4.38989
G1 X17.265 Y-32.080 E4.44157 F1200.000
G1 X18.721 Y-31.982 E4.52264
G1 X20.034 Y-31.148 E4.60910
G1 X20.743 Y-29.873 E4.69018
G1 X20.866 Y-29.007 E4.73877
G1 X20.760 Y-28.170 E4.78562
G1 X20.036 Y-26.853 E4.86915
G1 X18.767 Y-26.048 E4.95269
G1 X17.866 Y-25.876 E5.00368
G1 X16.526 Y-26.142 E5.07956
G1 X16.594 Y-26.469 F6000.000
G1 X15.952 Y-26.877 E5.12183 F1200.000
G1 X15.196 Y-27.907 E5.19283
G1 X14.985 Y-28.679 E5.23731
G1 X15.140 Y-29.952 E5.30854
G1 X15.515 Y-30.660 E5.35309
G1 X16.538 Y-31.506 E5.42687
G1 X17.304 Y-31.742 E5.47141 F1200.000
G1 X18.614 Y-31.654 E5.54433
G1 X19.784 Y-30.911 E5.62134
G1 X20.421 Y-29.764 E5.69426
G1 X20.529 Y-29.004 E5.73693
G1 X20.437 Y-28.276 E5.77773
G1 X19.785 Y-27.089 E5.85296
G1 X18.642 Y-26.364 E5.92818
G1 X17.867 Y-26.216 E5.97202
G1 X16.653 Y-26.457 E6.04081
G1 X16.716 Y-26.775 F6000.000
G1 X16.177 Y-27.118 E6.07420 F1200.000
G1 X15.493 Y-28.050 E6.13462
G1 X15.314 Y-28.703 E6.16998
G1 X15.455 Y-29.853 E6.23049
G1 X15.772 Y-30.451 E6.26587
G1 X16.695 Y-31.215 E6.32849
G1 X17.342 Y-31.415 E6.36388 F1200.000
G1 X18.509 Y-31.336 E6.42499
G1 X19.540 Y-30.682 E6.48877
G1 X20.108 Y-29.659 E6.54988
G1 X20.202 Y-29.002 E6.58459
G1 X20.123 Y-28.378 E6.61745
G1 X19.541 Y-27.318 E6.68060
G1 X18.520 Y-26.671 E6.74374
G1 X17.868 Y-26.546 E6.77842
G1 X16.775 Y-26.764 E6.83664
G1 X16.387 Y-26.548 F6000.000
G1 F4800
G1 X16.177 Y-27.118 E6.17605
G1 F4800
G1 X15.493 Y-28.050 E5.07737
G1 F4800
G1 X15.314 Y-28.703 E4.43442
G1 F4800
G1 X15.455 Y-29.853 E3.33421
G1 F4800
G1 X15.601 Y-30.130 E3.03664
G1 E2.83664 F4800.00000
G92 E0
G1 Z1.400 F6000.000
G1 X-14.626 Y-28.952 F6000.000
G1 Z0.400 F6000.000
G1 E4.00000 F4800.00000
G1 X-14.988 Y-27.544 E4.08077 F1200.000
G1 X-15.511 Y-26.824 E4.13020
G1 X-16.691 Y-26.068 E4.20813
G1 X-17.548 Y-25.891 E4.25673
G1 X-18.389 Y-25.944 E4.30357
G1 X-19.749 Y-26.584 E4.38711
G1 X-20.633 Y-27.800 E4.47064
G1 X-20.854 Y-28.663 E4.52018
G1 X-20.673 Y-30.098 E4.60057
G1 X-20.244 Y-30.880 E4.65011
G1 X-19.124 Y-31.806 E4.73088
G1 X-18.235 Y-32.080 E4.78256 F1200.000
G1 X-16.779 Y-31.982 E4.86363
G1 X-15.466 Y-31.148 E4.95010
G1 X-14.757 Y-29.873 E5.03117
G1 X-14.635 Y-29.011 E5.07951
G1 X-14.966 Y-28.971 F6000.000
G1 X-15.295 Y-27.689 E5.15305 F1200.000
G1 X-15.744 Y-27.072 E5.19544
G1 X-16.820 Y-26.382 E5.26644
G1 X-17.571 Y-26.227 E5.30910
G1 X-18.304 Y-26.273 E5.34991
G1 X-19.529 Y-26.849 E5.42514
G1 X-20.325 Y-27.945 E5.50036
G1 X-20.515 Y-28.684 E5.54282
G1 X-20.349 Y-29.993 E5.61612
G1 X-19.981 Y-30.663 E5.65857
G1 X-18.962 Y-31.506 E5.73211
G1 X-18.196 Y-31.742 E5.77666 F1200.000
G1 X-16.886 Y-31.654 E5.84958
G1 X-15.716 Y-30.911 E5.92659
G1 X-15.079 Y-29.764 E5.99950
G1 X-14.975 Y-29.030 E6.04072
G1 X-15.296 Y-28.989 F6000.000
G1 X-15.594 Y-27.829 E6.10326 F1200.000
G1 X-15.970 Y-27.312 E6.13669
G1 X-16.944 Y-26.688 E6.19711
G1 X-17.594 Y-26.553 E6.23182
G1 X-18.222 Y-26.593 E6.26468
G1 X-19.316 Y-27.107 E6.32782
G1 X-20.026 Y-28.085 E6.39097
G1 X-20.185 Y-28.705 E6.42442
G1 X-20.036 Y-29.891 E6.48687
G1 X-19.727 Y-30.452 E6.52032
G1 X-18.805 Y-31.215 E6.58286
G1 X-18.158 Y-31.415 E6.61825 F1200.000
G1 X-16.991 Y-31.336 E6.67936
G1 X-15.960 Y-30.682 E6.74314
G1 X-15.392 Y-29.659 E6.80425
G1 X-15.305 Y-29.048 E6.83650
G1 X-14.977 Y-28.749 F6000.000
G1 F4800
G1 X-15.594 Y-27.829 E5.64646
G1 F4800
G1 X-15.970 Y-27.312 E5.03860
G1 F4800
G1 X-16.944 Y-26.688 E3.93992
G1 F4800
G1 X-17.594 Y-26.553 E3.30881
G1 F4800
G1 X-17.881 Y-26.571 E3.03650
G1 E2.83650 F4800.00000
G92 E0
G1 Z1.400 F6000.000
G1 X-19.192 Y-31.933 F6000.000
G1 X-19.576 Y-32.397 F6000.000
G1 X-20.732 Y-31.982 F6000.000
G1 X-21.750 Y-33.000 F6000.000
G1 X-21.892 Y-33.142 F6000.000
G1 Z0.400 F6000.000
G1 E4.00000 F4800.00000
G1 X21.892 Y-33.142 E6.43308 F1200.000
G1 X21.892 Y33.142 E10.11651
G1 X-21.892 Y33.142 E12.54959
G1 X-21.892 Y-33.082 E16.22968
G1 X-22.226 Y-33.476 F6000.000
G1 X22.226 Y-33.476 E18.69990 F1200.000
G1 X22.226 Y33.476 E22.42047
G1 X-22.226 Y33.476 E24.89069
G1 X-22.226 Y-33.416 E28.60792
G1 X-22.550 Y-33.800 F6000.000
G1 X22.550 Y-33.800 E30.96417 F1200.000
G1 X22.550 Y33.800 E34.49592
G1 X-22.550 Y33.800 E36.85217
G1 X-22.550 Y-33.740 E40.38079
G1 X-22.204 Y-33.600 F6000.000
G1 X-21.386 Y-32.858 F6000.000
G1 X-21.386 Y-21.386 E41.01827 F1200.000
G1 X-21.608 Y-21.386 E41.03058
G1 X-21.608 Y-21.052 F6000.000
G1 X-21.052 Y-21.052 E41.06145 F1200.000
G1 X-21.052 Y-28.291 E41.46374
G1 X-20.718 Y-27.434 F6000.000
G1 X-20.718 Y-20.718 E41.83695 F1200.000
G1 X-21.608 Y-20.718 E41.88639
G1 X-21.608 Y-20.384 F6000.000
G1 X-20.384 Y-20.384 E41.95441 F1200.000
G1 X-20.384 Y-26.974 E42.32063
G1 X-20.050 Y-26.514 F6000.000
G1 X-20.050 Y-20.050 E42.67986 F1200.000
G1 X-21.608 Y-20.050 E42.76645
G1 X-21.608 Y-19.715 F6000.000
G1 X-19.715 Y-19.715 E42.87160 F1200.000
G1 X-19.715 Y-26.254 E43.23495
G1 X-19.381 Y-26.097 F6000.000
G1 X-19.381 Y-19.381 E43.60813 F1200.000
G1 X-21.608 Y-19.381 E43.73185
G1 X-21.608 Y-19.047 F6000.000
G1 X-19.047 Y-19.047 E43.87415 F1200.000
G1 X-19.047 Y-25.939 E44.25715
G1 X-18.713 Y-25.782 F6000.000
G1 X-18.713 Y-18.713 E44.64999 F1200.000
G1 X-21.608 Y-18.713 E44.81086
G1 X-21.608 Y-18.379 F6000.000
G1 X-18.379 Y-18.379 E44.99029 F1200.000
