; generated by Slic3r 1.2.9 on 2016-06-01 at 13:24:31

; external perimeters extrusion width = 0.40mm
; perimeters extrusion width = 0.42mm
; infill extrusion width = 0.42mm
; solid infill extrusion width = 0.42mm
; top infill extrusion width = 0.42mm

M107
M190 S60 ; set bed temperature
M104 S200 ; set temperature
G28 ; home all axes

M109 S200 ; wait for temperature to be reached
G21 ; set units to millimeters
G90 ; use absolute coordinates
M82 ; use absolute distances for extrusion
G92 E0
G1 E-4.00000 F4800.00000
G92 E0
G1 Z1.000 F6000.000
G1 X28.752 Y0.000 F6000.000
G1 Z0.400 F6000.000
G1 E4.00000 F4800.00000
G1 X28.752 Y34.000 E5.88941 F1200.000
G1 X28.356 Y36.146 E6.01068
G1 X27.218 Y38.008 E6.13194
G1 X25.490 Y39.341 E6.25321
G1 X22.750 Y40.002 E6.40986
G1 X-22.750 Y40.002 E8.93834
G1 X-24.896 Y39.606 E9.05960
G1 X-26.758 Y38.468 E9.18087
G1 X-28.091 Y36.740 E9.30214
G1 X-28.752 Y34.000 E9.45879
G1 X-28.752 Y-34.000 E13.23761
G1 X-28.356 Y-36.146 E13.35888
G1 X-27.218 Y-38.008 E13.48014
G1 X-25.490 Y-39.341 E13.60141
G1 X-22.750 Y-40.002 E13.75806
G1 X22.750 Y-40.002 E16.28654
G1 X24.896 Y-39.606 E16.40780
G1 X26.758 Y-38.468 E16.52907 F1200.000
G1 X28.091 Y-36.740 E16.65034
G1 X28.752 Y-34.000 E16.80698
G1 X28.752 Y-0.060 E18.69306
G1 X28.418 Y0.000 F6000.000
G1 X28.418 Y34.000 E20.58247 F1200.000
G1 X28.022 Y36.083 E20.70029
G1 X26.888 Y37.874 E20.81810
G1 X25.175 Y39.123 E20.93591
G1 X22.750 Y39.668 E21.07404
G1 X-22.750 Y39.668 E23.60252
G1 X-24.833 Y39.272 E23.72033
G1 X-26.624 Y38.138 E23.83814
G1 X-27.873 Y36.425 E23.95596
G1 X-28.418 Y34.000 E24.09408
G1 X-28.418 Y-34.000 E27.87290
G1 X-28.022 Y-36.083 E27.99072
G1 X-26.888 Y-37.874 E28.10853
G1 X-25.175 Y-39.123 E28.22635
G1 X-22.750 Y-39.668 E28.36447
G1 X22.750 Y-39.668 E30.89295
G1 X24.833 Y-39.272 E31.01076
G1 X26.624 Y-38.138 E31.12857 F1200.000
G1 X27.873 Y-36.425 E31.24639
G1 X28.418 Y-34.000 E31.38451
G1 X28.418 Y-0.060 E33.27059
G1 X28.084 Y0.000 F6000.000
G1 X28.084 Y34.000 E35.16000 F1200.000
G1 X27.688 Y36.018 E35.27426
G1 X26.558 Y37.735 E35.38851
G1 X24.862 Y38.898 E35.50277
G1 X22.750 Y39.334 E35.62263
G1 X-22.750 Y39.334 E38.15111
G1 X-24.768 Y38.938 E38.26537
G1 X-26.485 Y37.808 E38.37962
G1 X-27.648 Y36.112 E38.49388
G1 X-28.084 Y34.000 E38.61374
G1 X-28.084 Y-34.000 E42.39256
G1 X-27.688 Y-36.018 E42.50682
G1 X-26.558 Y-37.735 E42.62108
G1 X-24.862 Y-38.898 E42.73533
G1 X-22.750 Y-39.334 E42.85520
G1 X22.750 Y-39.334 E45.38367
G1 X24.768 Y-38.938 E45.49793
G1 X26.485 Y-37.808 E45.61219 F1200.000
G1 X27.648 Y-36.112 E45.72644
G1 X28.084 Y-34.000 E45.84630
G1 X28.084 Y-0.060 E47.73238
G1 F4800
G1 X28.084 Y3.940 E43.93238
G1 E43.73238 F4800.00000
G92 E0
G1 Z1.400 F6000.000
G1 X-16.716 Y25.797 F6000.000
G1 Z0.400 F6000.000
G1 E4.00000 F4800.00000
G1 X-15.947 Y26.159 E4.04725 F1200.000
G1 X-15.297 Y26.696 E4.09413
G1 X-14.801 Y27.379 E4.14100
G1 X-14.491 Y28.163 E4.18788
G1 X-14.385 Y29.000 E4.23476
G1 X-14.491 Y29.837 E4.28163
G1 X-14.801 Y30.621 E4.32851
G1 X-15.297 Y31.304 E4.37538
G1 X-15.947 Y31.841 E4.42226
G1 X-16.710 Y32.200 E4.46913
G1 X-17.539 Y32.359 E4.51601
G1 X-18.381 Y32.306 E4.56288
G1 X-19.137 Y32.060 E4.60706
G1 X-19.890 Y31.598 E4.65619
G1 X-20.472 Y30.978 E4.70344
G1 X-20.855 Y30.281 E4.74762
G1 X-21.089 Y29.429 E4.79675
G1 X-21.089 Y28.578 E4.84400
G1 X-20.891 Y27.808 E4.88818
G1 X-20.477 Y27.027 E4.93731
G1 X-19.895 Y26.407 E4.98456
G1 X-19.183 Y25.955 E5.03144
G1 X-18.381 Y25.694 E5.07832
G1 X-17.587 Y25.645 E5.12249 F1200.000
G1 X-16.775 Y25.786 E5.16829
G1 X-16.818 Y26.118 F6000.000
G1 X-16.127 Y26.443 E5.21070 F1200.000
G1 X-15.542 Y26.927 E5.25289
G1 X-15.096 Y27.541 E5.29507
G1 X-14.817 Y28.247 E5.33725
G1 X-14.722 Y29.000 E5.37944
G1 X-14.817 Y29.753 E5.42162
G1 X-15.096 Y30.459 E5.46381
G1 X-15.542 Y31.073 E5.50599
G1 X-16.127 Y31.557 E5.54817
G1 X-16.814 Y31.880 E5.59036
G1 X-17.560 Y32.022 E5.63254
G1 X-18.317 Y31.975 E5.67473
G1 X-18.996 Y31.754 E5.71436
G1 X-19.677 Y31.336 E5.75879
G1 X-20.200 Y30.780 E5.80121
G1 X-20.544 Y30.155 E5.84084
G1 X-20.754 Y29.384 E5.88528
G1 X-20.754 Y28.620 E5.92769
G1 X-20.577 Y27.930 E5.96733
G1 X-20.203 Y27.223 E6.01176
G1 X-19.680 Y26.667 E6.05418
G1 X-19.039 Y26.260 E6.09636
G1 X-18.317 Y26.025 E6.13855
G1 X-17.606 Y25.981 E6.17818 F1200.000
G1 X-16.877 Y26.108 E6.21928
G1 X-16.917 Y26.430 F6000.000
G1 X-16.302 Y26.719 E6.25474 F1200.000
G1 X-15.781 Y27.151 E6.29012
G1 X-15.383 Y27.698 E6.32550
G1 X-15.133 Y28.328 E6.36088
G1 X-15.048 Y29.000 E6.39626
G1 X-15.133 Y29.672 E6.43164
G1 X-15.383 Y30.301 E6.46702
G1 X-15.781 Y30.849 E6.50240
G1 X-16.302 Y31.281 E6.53778
G1 X-16.915 Y31.569 E6.57316
G1 X-17.580 Y31.696 E6.60854
G1 X-18.256 Y31.654 E6.64393
G1 X-18.859 Y31.458 E6.67704
G1 X-19.471 Y31.083 E6.71454
G1 X-19.936 Y30.588 E6.75000
G1 X-20.241 Y30.033 E6.78312
G1 X-20.430 Y29.340 E6.82062
G1 X-20.430 Y28.661 E6.85608
G1 X-20.273 Y28.047 E6.88919
G1 X-19.937 Y27.413 E6.92669
G1 X-19.472 Y26.918 E6.96215
G1 X-18.900 Y26.556 E6.99753
G1 X-18.256 Y26.346 E7.03291
G1 X-17.624 Y26.306 E7.06603 F1200.000
G1 X-16.976 Y26.420 E7.10039
G1 X-16.610 Y26.173 F6000.000
G1 F4800
G1 X-16.302 Y26.719 E6.40041
G1 F4800
G1 X-15.781 Y27.151 E5.75707
G1 F4800
G1 X-15.383 Y27.698 E5.11373
G1 F4800
G1 X-15.133 Y28.328 E4.47040
G1 F4800
G1 X-15.048 Y29.000 E3.82706
G1 F4800
G1 X-15.118 Y29.550 E3.30039
G1 E3.10039 F4800.00000
G92 E0
G1 Z1.400 F6000.000
G1 X14.411 Y28.578 F6000.000
G1 Z0.400 F6000.000
G1 E4.00000 F4800.00000
G1 X14.621 Y27.761 E4.04688 F1200.000
G1 X15.028 Y27.022 E4.09375
G1 X15.605 Y26.407 E4.14063
G1 X16.317 Y25.955 E4.18750
G1 X17.119 Y25.694 E4.23438
G1 X17.913 Y25.645 E4.27856 F1200.000
G1 X18.784 Y25.797 E4.32769
G1 X19.553 Y26.159 E4.37494
G1 X20.203 Y26.696 E4.42181
G1 X20.699 Y27.379 E4.46869
G1 X21.009 Y28.163 E4.51556
G1 X21.115 Y29.000 E4.56244
G1 X21.009 Y29.837 E4.60932
G1 X20.699 Y30.621 E4.65619
G1 X20.203 Y31.304 E4.70307
G1 X19.553 Y31.841 E4.74994
G1 X18.790 Y32.200 E4.79682
G1 X17.961 Y32.359 E4.84369
G1 X17.119 Y32.306 E4.89057
G1 X16.363 Y32.060 E4.93475
G1 X15.610 Y31.598 E4.98388
G1 X15.028 Y30.978 E5.03113
G1 X14.621 Y30.239 E5.07801
G1 X14.411 Y29.422 E5.12488
G1 X14.411 Y28.638 E5.16842
G1 X14.746 Y28.620 F6000.000
G1 X14.934 Y27.885 E5.21061 F1200.000
G1 X15.300 Y27.220 E5.25279
G1 X15.820 Y26.667 E5.29497
G1 X16.461 Y26.260 E5.33716
G1 X17.183 Y26.025 E5.37934
G1 X17.894 Y25.981 E5.41897 F1200.000
G1 X18.682 Y26.118 E5.46341
G1 X19.373 Y26.443 E5.50583
G1 X19.958 Y26.927 E5.54801
G1 X20.404 Y27.541 E5.59019
G1 X20.683 Y28.247 E5.63238
G1 X20.778 Y29.000 E5.67456
G1 X20.683 Y29.753 E5.71675
G1 X20.404 Y30.459 E5.75893
G1 X19.958 Y31.073 E5.80111
G1 X19.373 Y31.557 E5.84330
G1 X18.686 Y31.880 E5.88548
G1 X17.940 Y32.022 E5.92766
G1 X17.183 Y31.975 E5.96985
G1 X16.504 Y31.754 E6.00948
G1 X15.823 Y31.336 E6.05392
G1 X15.300 Y30.780 E6.09633
G1 X14.934 Y30.115 E6.13852
G1 X14.746 Y29.380 E6.18070
G1 X14.746 Y28.680 E6.21955
G1 X15.070 Y28.661 F6000.000
G1 X15.238 Y28.005 E6.25493 F1200.000
G1 X15.564 Y27.412 E6.29031
G1 X16.028 Y26.918 E6.32569
G1 X16.600 Y26.556 E6.36107
G1 X17.244 Y26.346 E6.39645
G1 X17.876 Y26.306 E6.42956 F1200.000
G1 X18.583 Y26.430 E6.46706
G1 X19.198 Y26.719 E6.50253
G1 X19.719 Y27.151 E6.53791
G1 X20.117 Y27.698 E6.57329
G1 X20.367 Y28.328 E6.60867
G1 X20.452 Y29.000 E6.64405
G1 X20.367 Y29.672 E6.67943
G1 X20.117 Y30.301 E6.71481
G1 X19.719 Y30.849 E6.75019
G1 X19.198 Y31.281 E6.78557
G1 X18.585 Y31.569 E6.82095
G1 X17.920 Y31.696 E6.85633
G1 X17.244 Y31.654 E6.89171
G1 X16.641 Y31.458 E6.92482
G1 X16.029 Y31.083 E6.96232
G1 X15.564 Y30.588 E6.99778
G1 X15.238 Y29.995 E7.03316
G1 X15.070 Y29.339 E7.06854
G1 X15.070 Y28.721 E7.10079
G1 X14.762 Y28.406 F6000.000
G1 F4800
G1 X15.238 Y28.005 E6.40210
G1 F4800
G1 X15.564 Y27.412 E5.75876
G1 F4800
G1 X16.028 Y26.918 E5.11542
G1 F4800
G1 X16.600 Y26.556 E4.47208
G1 F4800
G1 X17.244 Y26.346 E3.82874
G1 E3.10079 F4800.00000
G92 E0
G1 Z1.400 F6000.000
G1 X7.140 Y14.161 F6000.000
G1 Z0.400 F6000.000
G1 E4.00000 F4800.00000
G1 X5.913 Y14.715 E4.07481 F1200.000
G1 X4.644 Y15.164 E4.14961
G1 X3.341 Y15.503 E4.22442
G1 X2.014 Y15.731 E4.29923
G1 X0.673 Y15.845 E4.37404
G1 X-0.673 Y15.845 E4.44884
G1 X-2.014 Y15.731 E4.52365
G1 X-3.341 Y15.503 E4.59846
G1 X-4.644 Y15.164 E4.67327
G1 X-5.913 Y14.715 E4.74807
G1 X-7.140 Y14.161 E4.82288
G1 X-8.315 Y13.504 E4.89769
G1 X-9.430 Y12.751 E4.97249
G1 X-10.478 Y11.905 E5.04730
G1 X-11.450 Y10.974 E5.12211
G1 X-12.339 Y9.963 E5.19692
G1 X-13.139 Y8.881 E5.27172
G1 X-13.845 Y7.734 E5.34653
G1 X-14.451 Y6.532 E5.42134
G1 X-14.953 Y5.283 E5.49614
G1 X-15.347 Y3.996 E5.57095
G1 X-15.631 Y2.680 E5.64576
G1 X-15.802 Y1.345 E5.72057
G1 X-15.853 Y0.136 E5.78781
G1 X-15.802 Y-1.342 E5.86997
G1 X-15.631 Y-2.680 E5.94496
G1 X-15.347 Y-3.996 E6.01977
G1 X-14.953 Y-5.283 E6.09458
G1 X-14.451 Y-6.532 E6.16939
G1 X-13.845 Y-7.734 E6.24419
G1 X-13.139 Y-8.881 E6.31900
G1 X-12.339 Y-9.963 E6.39381
G1 X-11.450 Y-10.974 E6.46861
G1 X-10.478 Y-11.905 E6.54342
G1 X-9.498 Y-12.696 E6.61339
G1 X-8.317 Y-13.503 E6.69289
G1 X-7.140 Y-14.161 E6.76783
G1 X-5.913 Y-14.715 E6.84263
G1 X-4.644 Y-15.164 E6.91744
G1 X-3.341 Y-15.503 E6.99225
G1 X-2.014 Y-15.731 E7.06706
G1 X-0.673 Y-15.845 E7.14186
G1 X0.673 Y-15.845 E7.21667 F1200.000
G1 X2.014 Y-15.731 E7.29148
G1 X3.255 Y-15.518 E7.36144
G1 X4.642 Y-15.165 E7.44095
G1 X5.913 Y-14.715 E7.51588
G1 X7.140 Y-14.161 E7.59069
G1 X8.315 Y-13.504 E7.66550
G1 X9.430 Y-12.751 E7.74031
G1 X10.478 Y-11.905 E7.81511
G1 X11.450 Y-10.974 E7.88992
G1 X12.339 Y-9.963 E7.96473
G1 X13.088 Y-8.951 E8.03469
G1 X13.844 Y-7.736 E8.11420
G1 X14.451 Y-6.532 E8.18913
G1 X14.954 Y-5.281 E8.26407
G1 X15.366 Y-3.911 E8.34358
G1 X15.631 Y-2.680 E8.41354
G1 X15.802 Y-1.345 E8.48835
G1 X15.859 Y0.000 E8.56315
G1 X15.802 Y1.345 E8.63796
G1 X15.631 Y2.680 E8.71277
G1 X15.347 Y3.996 E8.78758
G1 X14.953 Y5.283 E8.86238
G1 X14.451 Y6.532 E8.93719
G1 X13.845 Y7.734 E9.01200
G1 X13.139 Y8.881 E9.08680
G1 X12.339 Y9.963 E9.16161
G1 X11.450 Y10.974 E9.23642
G1 X10.478 Y11.905 E9.31123
G1 X9.430 Y12.751 E9.38603
G1 X8.315 Y13.504 E9.46084
G1 X7.192 Y14.132 E9.53231
G1 X6.989 Y13.862 F6000.000
G1 X5.788 Y14.405 E9.60554 F1200.000
G1 X4.546 Y14.844 E9.67877
G1 X3.271 Y15.176 E9.75200
G1 X1.972 Y15.399 E9.82523
G1 X0.659 Y15.511 E9.89846
G1 X-0.659 Y15.511 E9.97169
G1 X-1.972 Y15.399 E10.04492
G1 X-3.271 Y15.176 E10.11815
G1 X-4.546 Y14.844 E10.19138
G1 X-5.788 Y14.405 E10.26461
G1 X-6.989 Y13.862 E10.33784
G1 X-8.140 Y13.220 E10.41107
G1 X-9.231 Y12.482 E10.48430
G1 X-10.257 Y11.654 E10.55753
G1 X-11.208 Y10.742 E10.63076
G1 X-12.079 Y9.753 E10.70399
G1 X-12.862 Y8.693 E10.77722
G1 X-13.553 Y7.571 E10.85045
G1 X-14.146 Y6.395 E10.92368
G1 X-14.638 Y5.172 E10.99690
G1 X-15.024 Y3.912 E11.07013
G1 X-15.301 Y2.624 E11.14336
G1 X-15.469 Y1.317 E11.21659
G1 X-15.519 Y0.135 E11.28233
G1 X-15.469 Y-1.314 E11.36291
G1 X-15.301 Y-2.624 E11.43626
G1 X-15.024 Y-3.912 E11.50949
G1 X-14.638 Y-5.172 E11.58272
G1 X-14.146 Y-6.395 E11.65595
G1 X-13.553 Y-7.571 E11.72918
G1 X-12.862 Y-8.693 E11.80241
G1 X-12.079 Y-9.753 E11.87564
G1 X-11.208 Y-10.742 E11.94887
G1 X-10.257 Y-11.654 E12.02209
G1 X-9.299 Y-12.428 E12.09053
G1 X-8.141 Y-13.219 E12.16846
G1 X-6.989 Y-13.862 E12.24177
G1 X-5.788 Y-14.405 E12.31500
G1 X-4.546 Y-14.844 E12.38823
G1 X-3.271 Y-15.176 E12.46146
G1 X-1.972 Y-15.399 E12.53469
G1 X-0.659 Y-15.511 E12.60792
G1 X0.659 Y-15.511 E12.68115 F1200.000
G1 X1.972 Y-15.399 E12.75437
G1 X3.186 Y-15.191 E12.82281
G1 X4.545 Y-14.845 E12.90074
G1 X5.788 Y-14.405 E12.97405
G1 X6.989 Y-13.862 E13.04728
G1 X8.140 Y-13.220 E13.12051
G1 X9.231 Y-12.482 E13.19374
G1 X10.257 Y-11.654 E13.26697
G1 X11.208 Y-10.742 E13.34020
G1 X12.079 Y-9.753 E13.41343
G1 X12.811 Y-8.763 E13.48186
G1 X13.553 Y-7.573 E13.55979
G1 X14.146 Y-6.395 E13.63310
G1 X14.638 Y-5.171 E13.70640
G1 X15.042 Y-3.828 E13.78434
G1 X15.301 Y-2.624 E13.85277
G1 X15.469 Y-1.317 E13.92600
G1 X15.525 Y0.000 E13.99923
G1 X15.469 Y1.317 E14.07246
G1 X15.301 Y2.624 E14.14569
G1 X15.024 Y3.912 E14.21892
G1 X14.638 Y5.172 E14.29215
G1 X14.146 Y6.395 E14.36538
G1 X13.553 Y7.571 E14.43861
G1 X12.862 Y8.693 E14.51184
G1 X12.079 Y9.753 E14.58507
G1 X11.208 Y10.742 E14.65830
G1 X10.257 Y11.654 E14.73153
G1 X9.231 Y12.482 E14.80476
G1 X8.140 Y13.220 E14.87798
G1 X7.042 Y13.833 E14.94788
G1 X6.843 Y13.573 F6000.000
G1 X5.667 Y14.104 E15.01529 F1200.000
G1 X4.451 Y14.534 E15.08270
G1 X3.202 Y14.859 E15.15010
G1 X1.931 Y15.077 E15.21751
G1 X0.645 Y15.186 E15.28492
G1 X-0.645 Y15.186 E15.35233
G1 X-1.931 Y15.077 E15.41974
G1 X-3.202 Y14.859 E15.48714
G1 X-4.451 Y14.534 E15.55455
G1 X-5.667 Y14.104 E15.62196
G1 X-6.843 Y13.573 E15.68937
G1 X-7.970 Y12.943 E15.75677
G1 X-9.039 Y12.221 E15.82418
G1 X-10.042 Y11.410 E15.89159
G1 X-10.974 Y10.518 E15.95900
G1 X-11.826 Y9.549 E16.02641
G1 X-12.593 Y8.512 E16.09381
G1 X-13.270 Y7.413 E16.16122
G1 X-13.851 Y6.261 E16.22863
G1 X-14.332 Y5.064 E16.29604
G1 X-14.710 Y3.830 E16.36344
G1 X-14.982 Y2.569 E16.43085
G1 X-15.145 Y1.289 E16.49826
G1 X-15.195 Y0.133 E16.55869
G1 X-15.146 Y-1.288 E16.63301
G1 X-14.982 Y-2.569 E16.70046
G1 X-14.710 Y-3.830 E16.76787
G1 X-14.332 Y-5.064 E16.83528
G1 X-13.851 Y-6.261 E16.90268
G1 X-13.270 Y-7.413 E16.97009
G1 X-12.593 Y-8.512 E17.03750
G1 X-11.826 Y-9.549 E17.10491
G1 X-10.974 Y-10.518 E17.17232
G1 X-10.042 Y-11.410 E17.23972
G1 X-9.105 Y-12.167 E17.30267
G1 X-7.970 Y-12.943 E17.37450
G1 X-6.843 Y-13.573 E17.44193
G1 X-5.667 Y-14.104 E17.50934
G1 X-4.451 Y-14.534 E17.57675
G1 X-3.202 Y-14.859 E17.64416
G1 X-1.931 Y-15.077 E17.71156
G1 X-0.645 Y-15.186 E17.77897
G1 X0.645 Y-15.186 E17.84638 F1200.000
G1 X1.931 Y-15.077 E17.91379
G1 X3.118 Y-14.873 E17.97673
G1 X4.450 Y-14.534 E18.04856
G1 X5.667 Y-14.104 E18.11600
G1 X6.843 Y-13.573 E18.18340
G1 X7.970 Y-12.943 E18.25081
G1 X9.039 Y-12.221 E18.31822
G1 X10.042 Y-11.410 E18.38563
G1 X10.974 Y-10.518 E18.45303
G1 X11.826 Y-9.549 E18.52044
G1 X12.543 Y-8.580 E18.58339
G1 X13.270 Y-7.414 E18.65522
G1 X13.851 Y-6.261 E18.72265
G1 X14.332 Y-5.063 E18.79009
G1 X14.728 Y-3.747 E18.86191
G1 X14.982 Y-2.569 E18.92486
G1 X15.145 Y-1.289 E18.99227
G1 X15.200 Y0.000 E19.05968
G1 X15.145 Y1.289 E19.12708
G1 X14.982 Y2.569 E19.19449
G1 X14.710 Y3.830 E19.26190
G1 X14.332 Y5.064 E19.32931
G1 X13.851 Y6.261 E19.39671
G1 X13.270 Y7.413 E19.46412
G1 X12.593 Y8.512 E19.53153
G1 X11.826 Y9.549 E19.59894
G1 X10.974 Y10.518 E19.66635
G1 X10.042 Y11.410 E19.73375
G1 X9.039 Y12.221 E19.80116
G1 X7.970 Y12.943 E19.86857
G1 X6.896 Y13.543 E19.93284
G1 X6.815 Y13.972 F6000.000
G1 F4800
G1 X5.667 Y14.104 E18.65032
G1 F4800
G1 X4.451 Y14.534 E17.42461
G1 F4800
G1 X3.202 Y14.859 E16.19889
G1 F4800
G1 X3.134 Y14.871 E16.13284
G1 E15.93284 F4800.00000
G92 E0
G1 Z1.400 F6000.000
G1 X-9.614 Y-12.785 F6000.000
G1 X-14.187 Y-18.651 F6000.000
G1 X-13.537 Y-19.015 F6000.000
G1 X-12.771 Y-19.451 F6000.000
G1 X-15.870 Y-26.038 F6000.000
G1 X-15.947 Y-26.159 F6000.000
G1 Z0.400 F6000.000
G1 E4.00000 F4800.00000
G1 X-16.710 Y-25.800 E4.04688 F1200.000
G1 X-17.539 Y-25.642 E4.09375
G1 X-18.381 Y-25.694 E4.14063
G1 X-19.183 Y-25.955 E4.18750
G1 X-19.895 Y-26.407 E4.23438
G1 X-20.472 Y-27.022 E4.28125
G1 X-20.855 Y-27.719 E4.32543
G1 X-21.089 Y-28.571 E4.37456
G1 X-21.089 Y-29.422 E4.42181
G1 X-20.880 Y-30.235 E4.46849
G1 X-20.473 Y-30.978 E4.51553
G1 X-19.895 Y-31.593 E4.56244
G1 X-19.183 Y-32.045 E4.60931
G1 X-18.381 Y-32.306 E4.65619
G1 X-17.587 Y-32.355 E4.70036 F1200.000
G1 X-16.716 Y-32.203 E4.74949
G1 X-15.947 Y-31.841 E4.79675
G1 X-15.297 Y-31.304 E4.84362
G1 X-14.801 Y-30.621 E4.89050
G1 X-14.491 Y-29.837 E4.93737
G1 X-14.385 Y-29.000 E4.98425
G1 X-14.491 Y-28.163 E5.03112
G1 X-14.801 Y-27.379 E5.07800
G1 X-15.297 Y-26.696 E5.12488
G1 X-15.901 Y-26.197 E5.16842
G1 X-16.127 Y-26.443 F6000.000
G1 X-16.814 Y-26.120 E5.21060 F1200.000
G1 X-17.560 Y-25.978 E5.25278
G1 X-18.317 Y-26.025 E5.29497
G1 X-19.039 Y-26.260 E5.33715
G1 X-19.680 Y-26.667 E5.37934
G1 X-20.200 Y-27.220 E5.42152
G1 X-20.544 Y-27.845 E5.46115
