; generated by Slic3r 1.2.9 on 2016-06-07 at 11:33:39

; external perimeters extrusion width = 0.40mm
; perimeters extrusion width = 0.42mm
; infill extrusion width = 0.42mm
; solid infill extrusion width = 0.42mm
; top infill extrusion width = 0.42mm
; support material extrusion width = 0.40mm

M107
M190 S60 ; set bed temperature
M104 S205 ; set temperature
G28 ; home all axes

M109 S205 ; wait for temperature to be reached
G21 ; set units to millimeters
G90 ; use absolute coordinates
M82 ; use absolute distances for extrusion
G92 E0
G1 E-4.00000 F4800.00000
G92 E0
G1 Z1.000 F6000.000
G1 X28.752 Y0.000 F6000.000
G1 Z0.400 F6000.000
G1 E4.00000 F4800.00000
G1 X28.752 Y34.000 E5.88941 F1200.000
G1 X28.356 Y36.146 E6.01068
G1 X27.218 Y38.008 E6.13194
G1 X25.490 Y39.341 E6.25321
G1 X22.750 Y40.002 E6.40986
G1 X-22.750 Y40.002 E8.93834
G1 X-24.896 Y39.606 E9.05960
G1 X-26.758 Y38.468 E9.18087
G1 X-28.091 Y36.740 E9.30214
G1 X-28.752 Y34.000 E9.45879
G1 X-28.752 Y-34.000 E13.23761
G1 X-28.356 Y-36.146 E13.35888
G1 X-27.218 Y-38.008 E13.48014
G1 X-25.490 Y-39.341 E13.60141
G1 X-22.750 Y-40.002 E13.75806
G1 X22.750 Y-40.002 E16.28654
G1 X24.896 Y-39.606 E16.40780
G1 X26.758 Y-38.468 E16.52907 F1200.000
G1 X28.091 Y-36.740 E16.65034
G1 X28.752 Y-34.000 E16.80698
G1 X28.752 Y-0.060 E18.69306
G1 X28.418 Y0.000 F6000.000
G1 X28.418 Y34.000 E20.58247 F1200.000
G1 X28.022 Y36.083 E20.70029
G1 X26.888 Y37.874 E20.81810
G1 X25.175 Y39.123 E20.93591
G1 X22.750 Y39.668 E21.07404
G1 X-22.750 Y39.668 E23.60252
G1 X-24.833 Y39.272 E23.72033
G1 X-26.624 Y38.138 E23.83814
G1 X-27.873 Y36.425 E23.95596
G1 X-28.418 Y34.000 E24.09408
G1 X-28.418 Y-34.000 E27.87290
G1 X-28.022 Y-36.083 E27.99072
G1 X-26.888 Y-37.874 E28.10853
G1 X-25.175 Y-39.123 E28.22635
G1 X-22.750 Y-39.668 E28.36447
G1 X22.750 Y-39.668 E30.89295
G1 X24.833 Y-39.272 E31.01076
G1 X26.624 Y-38.138 E31.12857 F1200.000
G1 X27.873 Y-36.425 E31.24639
G1 X28.418 Y-34.000 E31.38451
G1 X28.418 Y-0.060 E33.27059
G1 X28.084 Y0.000 F6000.000
G1 X28.084 Y34.000 E35.16000 F1200.000
G1 X27.688 Y36.018 E35.27426
G1 X26.558 Y37.735 E35.38851
G1 X24.862 Y38.898 E35.50277
G1 X22.750 Y39.334 E35.62263
G1 X-22.750 Y39.334 E38.15111
G1 X-24.768 Y38.938 E38.26537
G1 X-26.485 Y37.808 E38.37962
G1 X-27.648 Y36.112 E38.49388
G1 X-28.084 Y34.000 E38.61374
G1 X-28.084 Y-34.000 E42.39256
G1 X-27.688 Y-36.018 E42.50682
G1 X-26.558 Y-37.735 E42.62108
G1 X-24.862 Y-38.898 E42.73533
G1 X-22.750 Y-39.334 E42.85520
G1 X22.750 Y-39.334 E45.38367
G1 X24.768 Y-38.938 E45.49793
G1 X26.485 Y-37.808 E45.61219 F1200.000
G1 X27.648 Y-36.112 E45.72644
G1 X28.084 Y-34.000 E45.84630
G1 X28.084 Y-0.060 E47.73238
G1 F4800
G1 X28.084 Y3.940 E43.93238
G1 E43.73238 F4800.00000
G92 E0
G1 Z1.400 F6000.000
G1 X-16.787 Y26.037 F6000.000
G1 Z0.400 F6000.000
G1 E4.00000 F4800.00000
G1 X-16.081 Y26.370 E4.04339 F1200.000
G1 X-15.479 Y26.868 E4.08679
G1 X-15.020 Y27.499 E4.13018
G1 X-14.733 Y28.225 E4.17357
G1 X-14.635 Y29.000 E4.21697
G1 X-14.733 Y29.775 E4.26036
G1 X-15.020 Y30.501 E4.30375
G1 X-15.479 Y31.132 E4.34715
G1 X-16.081 Y31.630 E4.39054
G1 X-16.747 Y31.944 E4.43147
G1 X-17.548 Y32.109 E4.47689
G1 X-18.334 Y32.060 E4.52066
G1 X-19.076 Y31.819 E4.56405
G1 X-19.736 Y31.400 E4.60744
G1 X-20.270 Y30.831 E4.65084
G1 X-20.646 Y30.147 E4.69423
G1 X-20.841 Y29.390 E4.73762
G1 X-20.841 Y28.610 E4.78102
G1 X-20.646 Y27.853 E4.82441
G1 X-20.270 Y27.169 E4.86780
G1 X-19.736 Y26.600 E4.91120
G1 X-19.071 Y26.178 E4.95497
G1 X-18.289 Y25.937 E5.00039
G1 X-17.554 Y25.891 E5.04132 F1200.000
G1 X-16.846 Y26.026 E5.08137
G1 X-16.891 Y26.358 F6000.000
G1 X-16.261 Y26.654 E5.12008 F1200.000
G1 X-15.725 Y27.098 E5.15878
G1 X-15.315 Y27.662 E5.19748
G1 X-15.059 Y28.309 E5.23618
G1 X-14.972 Y29.000 E5.27488
G1 X-15.059 Y29.691 E5.31358
G1 X-15.315 Y30.338 E5.35228
G1 X-15.725 Y30.902 E5.39099
G1 X-16.261 Y31.346 E5.42969
G1 X-16.854 Y31.625 E5.46607
G1 X-17.571 Y31.773 E5.50680
G1 X-18.271 Y31.729 E5.54573
G1 X-18.933 Y31.514 E5.58443
G1 X-19.521 Y31.141 E5.62313
G1 X-19.998 Y30.633 E5.66184
G1 X-20.333 Y30.023 E5.70054
G1 X-20.506 Y29.348 E5.73924
G1 X-20.506 Y28.652 E5.77794
G1 X-20.333 Y27.977 E5.81664
G1 X-19.998 Y27.367 E5.85534
G1 X-19.521 Y26.859 E5.89404
G1 X-18.929 Y26.484 E5.93298
G1 X-18.229 Y26.268 E5.97371
G1 X-17.576 Y26.227 E6.01009 F1200.000
G1 X-16.950 Y26.346 E6.04545
G1 X-16.992 Y26.668 F6000.000
G1 X-16.436 Y26.930 E6.07756 F1200.000
G1 X-15.963 Y27.322 E6.10967
G1 X-15.602 Y27.819 E6.14177
G1 X-15.375 Y28.390 E6.17388
G1 X-15.298 Y29.000 E6.20598
G1 X-15.375 Y29.610 E6.23809
G1 X-15.602 Y30.181 E6.27020
G1 X-15.963 Y30.678 E6.30230
G1 X-16.436 Y31.070 E6.33441
G1 X-16.957 Y31.315 E6.36447
G1 X-17.594 Y31.447 E6.39848
G1 X-18.209 Y31.408 E6.43067
G1 X-18.794 Y31.218 E6.46278
G1 X-19.313 Y30.889 E6.49488
G1 X-19.733 Y30.441 E6.52699
G1 X-20.029 Y29.902 E6.55909
G1 X-20.182 Y29.307 E6.59120
G1 X-20.182 Y28.693 E6.62331
G1 X-20.029 Y28.098 E6.65541
G1 X-19.733 Y27.559 E6.68752
G1 X-19.313 Y27.111 E6.71963
G1 X-18.793 Y26.781 E6.75181
G1 X-18.170 Y26.589 E6.78583
G1 X-17.596 Y26.553 E6.81589 F1200.000
G1 X-17.051 Y26.657 E6.84486
G1 X-16.684 Y26.413 F6000.000
G1 F4800
G1 X-16.436 Y26.930 E6.20569
G1 F4800
G1 X-15.963 Y27.322 E5.62188
G1 F4800
G1 X-15.602 Y27.819 E5.03808
G1 F4800
G1 X-15.375 Y28.390 E4.45427
G1 F4800
G1 X-15.298 Y29.000 E3.87046
G1 F4800
G1 X-15.375 Y29.610 E3.28666
G1 F4800
G1 X-15.469 Y29.846 E3.04486
G1 E2.84486 F4800.00000
G92 E0
G1 Z1.400 F6000.000
G1 X14.659 Y28.610 F6000.000
G1 Z0.400 F6000.000
G1 E4.00000 F4800.00000
G1 X14.843 Y27.896 E4.04093 F1200.000
G1 X15.225 Y27.174 E4.08635
G1 X15.764 Y26.600 E4.13012
G1 X16.429 Y26.178 E4.17389
G1 X17.211 Y25.937 E4.21931
G1 X17.946 Y25.891 E4.26024 F1200.000
G1 X18.713 Y26.037 E4.30363
G1 X19.419 Y26.370 E4.34703
G1 X20.021 Y26.868 E4.39042
G1 X20.480 Y27.499 E4.43381
G1 X20.751 Y28.184 E4.47474
G1 X20.866 Y28.993 E4.52016
G1 X20.767 Y29.775 E4.56393
G1 X20.480 Y30.501 E4.60732
G1 X20.021 Y31.132 E4.65072
G1 X19.419 Y31.630 E4.69411
G1 X18.713 Y31.963 E4.73750
G1 X17.946 Y32.109 E4.78090
G1 X17.166 Y32.060 E4.82429
G1 X16.424 Y31.819 E4.86768
G1 X15.764 Y31.400 E4.91108
G1 X15.230 Y30.831 E4.95447
G1 X14.854 Y30.147 E4.99786
G1 X14.659 Y29.390 E5.04126
G1 X14.659 Y28.670 E5.08131
G1 X14.994 Y28.652 F6000.000
G1 X15.156 Y28.018 E5.11770 F1200.000
G1 X15.499 Y27.370 E5.15843
G1 X15.979 Y26.859 E5.19736
G1 X16.571 Y26.484 E5.23629
G1 X17.271 Y26.268 E5.27702
G1 X17.924 Y26.227 E5.31340 F1200.000
G1 X18.609 Y26.358 E5.35210
G1 X19.239 Y26.654 E5.39080
G1 X19.775 Y27.098 E5.42951
G1 X20.185 Y27.662 E5.46821
G1 X20.426 Y28.270 E5.50459
G1 X20.529 Y28.996 E5.54532
G1 X20.441 Y29.691 E5.58425
G1 X20.185 Y30.338 E5.62295
G1 X19.775 Y30.902 E5.66165
G1 X19.239 Y31.346 E5.70036
G1 X18.609 Y31.642 E5.73906
G1 X17.924 Y31.773 E5.77776
G1 X17.229 Y31.729 E5.81646
G1 X16.567 Y31.514 E5.85516
G1 X15.979 Y31.141 E5.89386
G1 X15.502 Y30.633 E5.93256
G1 X15.167 Y30.023 E5.97127
G1 X14.994 Y29.348 E6.00997
G1 X14.994 Y28.712 E6.04533
G1 X15.318 Y28.693 F6000.000
G1 X15.461 Y28.135 E6.07539 F1200.000
G1 X15.766 Y27.560 E6.10941
G1 X16.187 Y27.111 E6.14159
G1 X16.707 Y26.781 E6.17378
G1 X17.330 Y26.589 E6.20780
G1 X17.904 Y26.553 E6.23786 F1200.000
G1 X18.508 Y26.668 E6.26996
G1 X19.064 Y26.930 E6.30207
G1 X19.537 Y27.322 E6.33417
G1 X19.898 Y27.819 E6.36628
G1 X20.110 Y28.354 E6.39634
G1 X20.202 Y28.998 E6.43035
G1 X20.125 Y29.610 E6.46254
G1 X19.898 Y30.181 E6.49465
G1 X19.537 Y30.678 E6.52675
G1 X19.064 Y31.070 E6.55886
G1 X18.508 Y31.332 E6.59096
G1 X17.904 Y31.447 E6.62307
G1 X17.291 Y31.408 E6.65518
G1 X16.706 Y31.218 E6.68728
G1 X16.187 Y30.889 E6.71939
G1 X15.767 Y30.441 E6.75150
G1 X15.471 Y29.902 E6.78360
G1 X15.318 Y29.307 E6.81571
G1 X15.318 Y28.753 E6.84468
G1 X15.010 Y28.438 F6000.000
G1 F4800
G1 X15.461 Y28.135 E6.24272
G1 F4800
G1 X15.766 Y27.560 E5.62424
G1 F4800
G1 X16.187 Y27.111 E5.03893
G1 F4800
G1 X16.707 Y26.781 E4.45362
G1 F4800
G1 X17.330 Y26.589 E3.83515
G1 E2.84468 F4800.00000
G92 E0
G1 Z1.400 F6000.000
G1 X7.186 Y14.135 F6000.000
G1 Z0.400 F6000.000
G1 E4.00000 F4800.00000
G1 X5.913 Y14.715 E4.07771 F1200.000
G1 X4.644 Y15.164 E4.15251
G1 X3.341 Y15.503 E4.22732
G1 X2.014 Y15.731 E4.30213
G1 X0.673 Y15.845 E4.37694
G1 X-0.673 Y15.845 E4.45174
G1 X-2.014 Y15.731 E4.52655
G1 X-3.341 Y15.503 E4.60136
G1 X-4.644 Y15.164 E4.67616
G1 X-5.913 Y14.715 E4.75097
G1 X-7.140 Y14.161 E4.82578
G1 X-8.315 Y13.504 E4.90059
G1 X-9.430 Y12.751 E4.97539
G1 X-10.478 Y11.905 E5.05020
G1 X-11.451 Y10.972 E5.12513
G1 X-12.391 Y9.893 E5.20464
G1 X-13.139 Y8.881 E5.27461
G1 X-13.845 Y7.734 E5.34941
G1 X-14.451 Y6.532 E5.42422
G1 X-14.953 Y5.283 E5.49903
G1 X-15.347 Y3.996 E5.57383
G1 X-15.631 Y2.678 E5.64877
G1 X-15.806 Y1.258 E5.72828
G1 X-15.859 Y-0.000 E5.79824
G1 X-15.802 Y-1.345 E5.87305
G1 X-15.631 Y-2.680 E5.94786
G1 X-15.347 Y-3.996 E6.02266
G1 X-14.953 Y-5.283 E6.09747
G1 X-14.451 Y-6.532 E6.17228
G1 X-13.845 Y-7.734 E6.24708
G1 X-13.139 Y-8.881 E6.32189
G1 X-12.339 Y-9.963 E6.39670
G1 X-11.450 Y-10.974 E6.47151
G1 X-10.478 Y-11.905 E6.54631
G1 X-9.498 Y-12.696 E6.61628
G1 X-8.317 Y-13.503 E6.69579
G1 X-7.140 Y-14.161 E6.77072
G1 X-5.913 Y-14.715 E6.84553
G1 X-4.644 Y-15.164 E6.92033
G1 X-3.341 Y-15.503 E6.99514
G1 X-2.014 Y-15.731 E7.06995
G1 X-0.673 Y-15.845 E7.14476
G1 X0.673 Y-15.845 E7.21956 F1200.000
G1 X2.014 Y-15.731 E7.29437
G1 X3.255 Y-15.518 E7.36433
G1 X4.642 Y-15.165 E7.44384
G1 X5.913 Y-14.715 E7.51878
G1 X7.140 Y-14.161 E7.59358
G1 X8.315 Y-13.504 E7.66839
G1 X9.432 Y-12.749 E7.74332
G1 X10.541 Y-11.845 E7.82283
G1 X11.450 Y-10.974 E7.89280
G1 X12.339 Y-9.963 E7.96760
G1 X13.139 Y-8.881 E8.04241
G1 X13.845 Y-7.734 E8.11722
G1 X14.451 Y-6.532 E8.19202
G1 X14.953 Y-5.283 E8.26683
G1 X15.347 Y-3.996 E8.34164
G1 X15.631 Y-2.680 E8.41645
G1 X15.802 Y-1.345 E8.49125
G1 X15.859 Y0.000 E8.56606
G1 X15.802 Y1.345 E8.64087
G1 X15.631 Y2.680 E8.71567
G1 X15.347 Y3.996 E8.79048
G1 X14.953 Y5.283 E8.86529
G1 X14.451 Y6.532 E8.94010
G1 X13.845 Y7.734 E9.01490
G1 X13.139 Y8.881 E9.08971
G1 X12.339 Y9.963 E9.16452
G1 X11.450 Y10.974 E9.23933
G1 X10.478 Y11.905 E9.31413
G1 X9.430 Y12.751 E9.38894
G1 X8.315 Y13.504 E9.46375
G1 X7.238 Y14.106 E9.53231
G1 X7.023 Y13.844 F6000.000
G1 X5.788 Y14.405 E9.60765 F1200.000
G1 X4.546 Y14.844 E9.68088
G1 X3.271 Y15.176 E9.75411
G1 X1.972 Y15.399 E9.82734
G1 X0.659 Y15.511 E9.90057
G1 X-0.659 Y15.511 E9.97380
G1 X-1.972 Y15.399 E10.04703
G1 X-3.271 Y15.176 E10.12026
G1 X-4.546 Y14.844 E10.19349
G1 X-5.788 Y14.405 E10.26672
G1 X-6.989 Y13.862 E10.33995
G1 X-8.140 Y13.220 E10.41318
G1 X-9.231 Y12.482 E10.48641
G1 X-10.257 Y11.654 E10.55964
G1 X-11.209 Y10.741 E10.63295
G1 X-12.130 Y9.684 E10.71088
G1 X-12.862 Y8.693 E10.77931
G1 X-13.553 Y7.571 E10.85254
G1 X-14.146 Y6.395 E10.92577
G1 X-14.638 Y5.172 E10.99900
G1 X-15.024 Y3.912 E11.07223
G1 X-15.302 Y2.622 E11.14554
G1 X-15.472 Y1.230 E11.22347
G1 X-15.525 Y-0.000 E11.29190
G1 X-15.469 Y-1.317 E11.36513
G1 X-15.301 Y-2.624 E11.43836
G1 X-15.024 Y-3.912 E11.51159
G1 X-14.638 Y-5.172 E11.58482
G1 X-14.146 Y-6.395 E11.65805
G1 X-13.553 Y-7.571 E11.73128
G1 X-12.862 Y-8.693 E11.80451
G1 X-12.079 Y-9.753 E11.87774
G1 X-11.208 Y-10.742 E11.95097
G1 X-10.257 Y-11.654 E12.02420
G1 X-9.299 Y-12.428 E12.09263
G1 X-8.141 Y-13.219 E12.17056
G1 X-6.989 Y-13.862 E12.24387
G1 X-5.788 Y-14.405 E12.31710
G1 X-4.546 Y-14.844 E12.39033
G1 X-3.271 Y-15.176 E12.46356
G1 X-1.972 Y-15.399 E12.53679
G1 X-0.659 Y-15.511 E12.61002
G1 X0.659 Y-15.511 E12.68325 F1200.000
G1 X1.972 Y-15.399 E12.75648
G1 X3.186 Y-15.191 E12.82491
G1 X4.545 Y-14.845 E12.90284
G1 X5.788 Y-14.405 E12.97615
G1 X6.989 Y-13.862 E13.04938
G1 X8.140 Y-13.220 E13.12261
G1 X9.233 Y-12.481 E13.19592
G1 X10.319 Y-11.594 E13.27385
G1 X11.208 Y-10.742 E13.34228
G1 X12.079 Y-9.753 E13.41551
G1 X12.862 Y-8.693 E13.48874
G1 X13.553 Y-7.571 E13.56197
G1 X14.146 Y-6.395 E13.63520
G1 X14.638 Y-5.172 E13.70843
G1 X15.024 Y-3.912 E13.78166
G1 X15.301 Y-2.624 E13.85489
G1 X15.469 Y-1.317 E13.92812
G1 X15.525 Y0.000 E14.00135
G1 X15.469 Y1.317 E14.07458
G1 X15.301 Y2.624 E14.14781
G1 X15.024 Y3.912 E14.22104
G1 X14.638 Y5.172 E14.29427
G1 X14.146 Y6.395 E14.36750
G1 X13.553 Y7.571 E14.44073
G1 X12.862 Y8.693 E14.51396
G1 X12.079 Y9.753 E14.58719
G1 X11.208 Y10.742 E14.66042
G1 X10.257 Y11.654 E14.73364
G1 X9.231 Y12.482 E14.80687
G1 X8.140 Y13.220 E14.88010
G1 X7.075 Y13.814 E14.94788
G1 X6.864 Y13.561 F6000.000
G1 X5.667 Y14.104 E15.01656 F1200.000
G1 X4.451 Y14.534 E15.08396
G1 X3.202 Y14.859 E15.15137
G1 X1.931 Y15.077 E15.21878
G1 X0.645 Y15.186 E15.28619
G1 X-0.645 Y15.186 E15.35360
G1 X-1.931 Y15.077 E15.42100
G1 X-3.202 Y14.859 E15.48841
G1 X-4.451 Y14.534 E15.55582
G1 X-5.667 Y14.104 E15.62323
G1 X-6.843 Y13.573 E15.69063
G1 X-7.970 Y12.943 E15.75804
G1 X-9.039 Y12.221 E15.82545
G1 X-10.042 Y11.410 E15.89286
G1 X-10.974 Y10.517 E15.96029
G1 X-11.877 Y9.480 E16.03212
G1 X-12.593 Y8.512 E16.09507
G1 X-13.270 Y7.413 E16.16247
G1 X-13.851 Y6.261 E16.22988
G1 X-14.332 Y5.064 E16.29729
G1 X-14.710 Y3.830 E16.36470
G1 X-14.982 Y2.568 E16.43213
G1 X-15.149 Y1.204 E16.50396
G1 X-15.200 Y-0.000 E16.56691
G1 X-15.145 Y-1.289 E16.63431
G1 X-14.982 Y-2.569 E16.70172
G1 X-14.710 Y-3.830 E16.76913
G1 X-14.332 Y-5.064 E16.83654
G1 X-13.851 Y-6.261 E16.90395
G1 X-13.270 Y-7.413 E16.97135
G1 X-12.593 Y-8.512 E17.03876
G1 X-11.826 Y-9.549 E17.10617
G1 X-10.974 Y-10.518 E17.17358
G1 X-10.042 Y-11.410 E17.24098
G1 X-9.105 Y-12.167 E17.30393
G1 X-7.970 Y-12.943 E17.37576
G1 X-6.843 Y-13.573 E17.44319
G1 X-5.667 Y-14.104 E17.51060
G1 X-4.451 Y-14.534 E17.57801
G1 X-3.202 Y-14.859 E17.64542
G1 X-1.931 Y-15.077 E17.71282
G1 X-0.645 Y-15.186 E17.78023
G1 X0.645 Y-15.186 E17.84764 F1200.000
G1 X1.931 Y-15.077 E17.91505
G1 X3.118 Y-14.873 E17.97799
G1 X4.450 Y-14.534 E18.04982
G1 X5.667 Y-14.104 E18.11726
G1 X6.843 Y-13.573 E18.18466
G1 X7.970 Y-12.943 E18.25207
G1 X9.039 Y-12.221 E18.31951
G1 X10.104 Y-11.351 E18.39134
G1 X10.974 Y-10.518 E18.45428
G1 X11.826 Y-9.549 E18.52169
G1 X12.593 Y-8.512 E18.58910
G1 X13.270 Y-7.413 E18.65650
G1 X13.851 Y-6.261 E18.72391
G1 X14.332 Y-5.064 E18.79132
G1 X14.710 Y-3.830 E18.85873
G1 X14.982 Y-2.569 E18.92614
G1 X15.145 Y-1.289 E18.99354
G1 X15.200 Y0.000 E19.06095
G1 X15.145 Y1.289 E19.12836
G1 X14.982 Y2.569 E19.19577
G1 X14.710 Y3.830 E19.26317
G1 X14.332 Y5.064 E19.33058
G1 X13.851 Y6.261 E19.39799
G1 X13.270 Y7.413 E19.46540
G1 X12.593 Y8.512 E19.53281
G1 X11.826 Y9.549 E19.60021
G1 X10.974 Y10.518 E19.66762
G1 X10.042 Y11.410 E19.73503
G1 X9.039 Y12.221 E19.80244
G1 X7.970 Y12.943 E19.86985
G1 X6.917 Y13.531 E19.93284
G1 X6.837 Y13.960 F6000.000
G1 F4800
G1 X5.667 Y14.104 E18.62723
G1 F4800
G1 X4.451 Y14.534 E17.40152
G1 F4800
G1 X3.202 Y14.859 E16.17580
G1 F4800
G1 X3.158 Y14.867 E16.13284
G1 E15.93284 F4800.00000
G92 E0
G1 Z1.400 F6000.000
G1 X-9.614 Y-12.785 F6000.000
G1 X-13.705 Y-19.064 F6000.000
G1 X-13.420 Y-19.225 F6000.000
G1 X-12.851 Y-19.548 F6000.000
G1 X-16.004 Y-26.249 F6000.000
G1 X-16.081 Y-26.370 F6000.000
G1 Z0.400 F6000.000
G1 E4.00000 F4800.00000
G1 X-16.747 Y-26.056 E4.04093 F1200.000
G1 X-17.548 Y-25.891 E4.08635
G1 X-18.334 Y-25.940 E4.13012
G1 X-19.076 Y-26.181 E4.17351
G1 X-19.736 Y-26.600 E4.21691
G1 X-20.270 Y-27.169 E4.26030
G1 X-20.646 Y-27.853 E4.30369
G1 X-20.841 Y-28.610 E4.34709
G1 X-20.841 Y-29.390 E4.39048
G1 X-20.646 Y-30.147 E4.43387
G1 X-20.270 Y-30.831 E4.47727
G1 X-19.736 Y-31.400 E4.52066
G1 X-19.071 Y-31.822 E4.56443
G1 X-18.289 Y-32.063 E4.60985
G1 X-17.554 Y-32.109 E4.65078 F1200.000
G1 X-16.787 Y-31.963 E4.69417
G1 X-16.081 Y-31.630 E4.73756
G1 X-15.479 Y-31.132 E4.78096
G1 X-15.020 Y-30.501 E4.82435
G1 X-14.749 Y-29.816 E4.86528
G1 X-14.634 Y-29.007 E4.91070
G1 X-14.733 Y-28.225 E4.95447
G1 X-15.020 Y-27.499 E4.99786
G1 X-15.479 Y-26.868 E5.04126
G1 X-16.035 Y-26.408 E5.08131
G1 X-16.261 Y-26.654 F6000.000
G1 X-16.854 Y-26.375 E5.11770 F1200.000
G1 X-17.571 Y-26.227 E5.15843
G1 X-18.271 Y-26.271 E5.19736
G1 X-18.933 Y-26.486 E5.23606
