; generated by Slic3r 1.2.9 on 2016-06-07 at 11:34:57

; external perimeters extrusion width = 0.40mm
; perimeters extrusion width = 0.42mm
; infill extrusion width = 0.42mm
; solid infill extrusion width = 0.42mm
; top infill extrusion width = 0.42mm
; support material extrusion width = 0.40mm

M107
M190 S60 ; set bed temperature
M104 S205 ; set temperature
G28 ; home all axes

M109 S205 ; wait for temperature to be reached
G21 ; set units to millimeters
G90 ; use absolute coordinates
M82 ; use absolute distances for extrusion
G92 E0
G1 E-4.00000 F4800.00000
G92 E0
G1 Z1.000 F6000.000
G1 X30.752 Y0.000 F6000.000
G1 Z0.400 F6000.000
G1 E4.00000 F4800.00000
G1 X30.752 Y26.000 E5.44484 F1200.000
G1 X30.356 Y28.146 E5.56611
G1 X29.218 Y30.008 E5.68738
G1 X27.490 Y31.341 E5.80864
G1 X24.750 Y32.002 E5.96529
G1 X-24.750 Y32.002 E8.71605
G1 X-26.896 Y31.606 E8.83732
G1 X-28.758 Y30.468 E8.95859
G1 X-30.091 Y28.740 E9.07985
G1 X-30.752 Y26.000 E9.23650
G1 X-30.752 Y-26.000 E12.12619
G1 X-30.356 Y-28.146 E12.24746
G1 X-29.218 Y-30.008 E12.36872
G1 X-27.490 Y-31.341 E12.48999
G1 X-24.750 Y-32.002 E12.64664
G1 X24.750 Y-32.002 E15.39740
G1 X26.896 Y-31.606 E15.51867
G1 X28.758 Y-30.468 E15.63993 F1200.000
G1 X30.091 Y-28.740 E15.76120
G1 X30.752 Y-26.000 E15.91785
G1 X30.752 Y-0.060 E17.35936
G1 X30.418 Y0.000 F6000.000
G1 X30.418 Y26.000 E18.80420 F1200.000
G1 X30.022 Y28.083 E18.92202
G1 X28.888 Y29.874 E19.03983
G1 X27.175 Y31.123 E19.15764
G1 X24.750 Y31.668 E19.29577
G1 X-24.750 Y31.668 E22.04653
G1 X-26.833 Y31.272 E22.16434
G1 X-28.624 Y30.138 E22.28216
G1 X-29.873 Y28.425 E22.39997
G1 X-30.418 Y26.000 E22.53810
G1 X-30.418 Y-26.000 E25.42778
G1 X-30.022 Y-28.083 E25.54560
G1 X-28.888 Y-29.874 E25.66341
G1 X-27.175 Y-31.123 E25.78123
G1 X-24.750 Y-31.668 E25.91935
G1 X24.750 Y-31.668 E28.67011
G1 X26.833 Y-31.272 E28.78792
G1 X28.624 Y-30.138 E28.90574 F1200.000
G1 X29.873 Y-28.425 E29.02355
G1 X30.418 Y-26.000 E29.16168
G1 X30.418 Y-0.060 E30.60319
G1 X30.084 Y0.000 F6000.000
G1 X30.084 Y26.000 E32.04803 F1200.000
G1 X29.688 Y28.018 E32.16229
G1 X28.558 Y29.735 E32.27654
G1 X26.862 Y30.898 E32.39080
G1 X24.750 Y31.334 E32.51066
G1 X-24.750 Y31.334 E35.26142
G1 X-26.768 Y30.938 E35.37568
G1 X-28.485 Y29.808 E35.48994
G1 X-29.648 Y28.112 E35.60419
G1 X-30.084 Y26.000 E35.72405
G1 X-30.084 Y-26.000 E38.61374
G1 X-29.688 Y-28.018 E38.72800
G1 X-28.558 Y-29.735 E38.84226
G1 X-26.862 Y-30.898 E38.95651
G1 X-24.750 Y-31.334 E39.07637
G1 X24.750 Y-31.334 E41.82713
G1 X26.768 Y-30.938 E41.94139
G1 X28.485 Y-29.808 E42.05565 F1200.000
G1 X29.648 Y-28.112 E42.16990
G1 X30.084 Y-26.000 E42.28977
G1 X30.084 Y-0.060 E43.73128
G1 F4800
G1 X30.084 Y3.940 E39.93128
G1 E39.73128 F4800.00000
G92 E0
G1 Z1.400 F6000.000
G1 X21.608 Y-22.858 F6000.000
G1 Z0.400 F6000.000
G1 E4.00000 F4800.00000
G1 X21.608 Y22.858 E6.54052 F1200.000
G1 X-21.608 Y22.858 E8.94210
G1 X-21.608 Y-22.858 E11.48262
G1 X21.548 Y-22.858 E13.88087
G1 X21.274 Y-22.524 F6000.000
G1 X21.274 Y22.524 E16.38425 F1200.000
G1 X-21.274 Y22.524 E18.74870
G1 X-21.274 Y-22.524 E21.25207
G1 X21.214 Y-22.524 E23.61319
G1 X20.950 Y-22.200 F6000.000
G1 X20.950 Y22.200 E25.93286 F1200.000
G1 X-20.950 Y22.200 E28.12192
G1 X-20.950 Y-22.200 E30.44160
G1 X20.890 Y-22.200 E32.62752
G1 X21.350 Y-22.200 F6000.000
G1 F4800
G1 X20.895 Y-18.200 E28.82752
G1 E28.62752 F4800.00000
G92 E0
G1 Z1.400 F6000.000
G1 X23.892 Y-25.142 F6000.000
G1 Z0.400 F6000.000
G1 E4.00000 F4800.00000
G1 X23.892 Y25.142 E6.79429 F1200.000
G1 X-23.892 Y25.142 E9.44966
G1 X-23.892 Y-25.142 E12.24395
G1 X23.832 Y-25.142 E14.89598
G1 X24.226 Y-25.476 F6000.000
G1 X24.226 Y25.476 E17.72741 F1200.000
G1 X-24.226 Y25.476 E20.41992
G1 X-24.226 Y-25.476 E23.25135
G1 X24.166 Y-25.476 E25.94052
G1 X24.550 Y-25.800 F6000.000
G1 X24.550 Y25.800 E28.63636 F1200.000
G1 X-24.550 Y25.800 E31.20158
G1 X-24.550 Y-25.800 E33.89742
G1 X24.490 Y-25.800 E36.45951
G1 X24.350 Y-25.454 F6000.000
G1 X23.699 Y-24.767 F6000.000
G1 X23.517 Y-24.949 E36.47380 F1200.000
G1 X23.044 Y-24.949 E36.50009
G1 X23.699 Y-24.294 E36.55156
G1 X23.699 Y-23.821 E36.57785
G1 X22.571 Y-24.949 E36.66651
G1 X22.098 Y-24.949 E36.69280
G1 X23.699 Y-23.348 E36.81863
G1 X23.699 Y-22.875 E36.84492
G1 X21.625 Y-24.949 E37.00793
G1 X21.153 Y-24.949 E37.03422
G1 X23.699 Y-22.403 E37.23442
G1 X23.699 Y-21.930 E37.26071
G1 X20.680 Y-24.949 E37.49808
G1 X20.207 Y-24.949 E37.52437
G1 X23.699 Y-21.457 E37.79892
G1 X23.699 Y-20.984 E37.82521
G1 X21.801 Y-22.881 E37.97439
G1 X21.631 Y-23.051 F6000.000
G1 X19.734 Y-24.949 E38.12356 F1200.000
G1 X19.261 Y-24.949 E38.14985
G1 X21.158 Y-23.051 E38.29903
G1 X20.686 Y-23.051 E38.32532
G1 X18.788 Y-24.949 E38.47449
G1 X18.316 Y-24.949 E38.50078
G1 X20.213 Y-23.051 E38.64996
G1 X19.740 Y-23.051 E38.67625
G1 X17.843 Y-24.949 E38.82542
G1 X17.370 Y-24.949 E38.85171
G1 X19.267 Y-23.051 E39.00088
G1 X18.794 Y-23.051 E39.02717
G1 X16.897 Y-24.949 E39.17635
G1 X16.424 Y-24.949 E39.20264
G1 X18.321 Y-23.051 E39.35181
G1 X17.849 Y-23.051 E39.37810
G1 X15.951 Y-24.949 E39.52728
G1 X15.479 Y-24.949 E39.55357
G1 X17.376 Y-23.051 E39.70274
G1 X16.903 Y-23.051 E39.72903
G1 X15.006 Y-24.949 E39.87821
G1 X14.533 Y-24.949 E39.90450
G1 X16.430 Y-23.051 E40.05367
G1 X15.957 Y-23.051 E40.07996
G1 X14.060 Y-24.949 E40.22913
G1 X13.587 Y-24.949 E40.25542
G1 X15.484 Y-23.051 E40.40460
G1 X15.012 Y-23.051 E40.43089
G1 X13.114 Y-24.949 E40.58006
G1 X12.642 Y-24.949 E40.60635
G1 X14.539 Y-23.051 E40.75553
G1 X14.066 Y-23.051 E40.78182
G1 X12.169 Y-24.949 E40.93099
G1 X11.696 Y-24.949 E40.95728
G1 X13.593 Y-23.051 E41.10645
G1 X13.120 Y-23.051 E41.13275
G1 X11.223 Y-24.949 E41.28192
G1 X10.750 Y-24.949 E41.30821
G1 X12.647 Y-23.051 E41.45738
G1 X12.175 Y-23.051 E41.48367
G1 X10.277 Y-24.949 E41.63285
G1 X9.805 Y-24.949 E41.65914
G1 X11.702 Y-23.051 E41.80831
G1 X11.229 Y-23.051 E41.83460
G1 X9.332 Y-24.949 E41.98378
G1 X8.859 Y-24.949 E42.01007
G1 X10.756 Y-23.051 E42.15924
G1 X10.283 Y-23.051 E42.18553
G1 X8.386 Y-24.949 E42.33470
G1 X7.913 Y-24.949 E42.36099
G1 X9.810 Y-23.051 E42.51017
G1 X9.338 Y-23.051 E42.53646
G1 X7.440 Y-24.949 E42.68563
G1 X6.968 Y-24.949 E42.71192
G1 X8.865 Y-23.051 E42.86110
G1 X8.392 Y-23.051 E42.88739
G1 X6.495 Y-24.949 E43.03656
G1 X6.022 Y-24.949 E43.06285
G1 X7.919 Y-23.051 E43.21203
G1 X7.446 Y-23.051 E43.23832
G1 X5.549 Y-24.949 E43.38749
G1 X5.076 Y-24.949 E43.41378
G1 X6.973 Y-23.051 E43.56295
G1 X6.501 Y-23.051 E43.58924
G1 X4.603 Y-24.949 E43.73842
G1 X4.131 Y-24.949 E43.76471
G1 X6.028 Y-23.051 E43.91388
G1 X5.555 Y-23.051 E43.94017
G1 X3.658 Y-24.949 E44.08935
G1 X3.185 Y-24.949 E44.11564
G1 X5.082 Y-23.051 E44.26481
G1 X4.609 Y-23.051 E44.29110
G1 X2.712 Y-24.949 E44.44027
G1 X2.239 Y-24.949 E44.46657
G1 X4.136 Y-23.051 E44.61574
G1 X3.664 Y-23.051 E44.64203
G1 X1.766 Y-24.949 E44.79120
G1 X1.294 Y-24.949 E44.81749
G1 X3.191 Y-23.051 E44.96667
G1 X2.718 Y-23.051 E44.99296
G1 X0.821 Y-24.949 E45.14213
G1 X0.348 Y-24.949 E45.16842
G1 X2.245 Y-23.051 E45.31760
G1 X1.772 Y-23.051 E45.34389
G1 X-0.125 Y-24.949 E45.49306
G1 X-0.598 Y-24.949 E45.51935
G1 X1.299 Y-23.051 E45.66852
G1 X0.827 Y-23.051 E45.69481
G1 X-1.071 Y-24.949 E45.84399
G1 X-1.543 Y-24.949 E45.87028
G1 X0.354 Y-23.051 E46.01945
G1 X-0.119 Y-23.051 E46.04574
G1 X-2.016 Y-24.949 E46.19492
G1 X-2.489 Y-24.949 E46.22121
G1 X-0.592 Y-23.051 E46.37038
G1 X-1.065 Y-23.051 E46.39667
G1 X-2.962 Y-24.949 E46.54585
G1 X-3.435 Y-24.949 E46.57214
G1 X-1.538 Y-23.051 E46.72131
G1 X-2.010 Y-23.051 E46.74760
G1 X-3.908 Y-24.949 E46.89677
G1 X-4.380 Y-24.949 E46.92306
G1 X-2.483 Y-23.051 E47.07224
G1 X-2.956 Y-23.051 E47.09853
G1 X-4.853 Y-24.949 E47.24770
G1 X-5.326 Y-24.949 E47.27399
G1 X-3.429 Y-23.051 E47.42317
G1 X-3.902 Y-23.051 E47.44946
G1 X-5.799 Y-24.949 E47.59863
G1 X-6.272 Y-24.949 E47.62492
G1 X-4.375 Y-23.051 E47.77409
G1 X-4.847 Y-23.051 E47.80038
G1 X-6.745 Y-24.949 E47.94956
G1 X-7.217 Y-24.949 E47.97585
G1 X-5.320 Y-23.051 E48.12502
G1 X-5.793 Y-23.051 E48.15131
G1 X-7.690 Y-24.949 E48.30049
G1 X-8.163 Y-24.949 E48.32678
G1 X-6.266 Y-23.051 E48.47595
G1 X-6.739 Y-23.051 E48.50224
G1 X-8.636 Y-24.949 E48.65142
G1 X-9.109 Y-24.949 E48.67771
G1 X-7.212 Y-23.051 E48.82688
G1 X-7.684 Y-23.051 E48.85317
G1 X-9.582 Y-24.949 E49.00234
G1 X-10.054 Y-24.949 E49.02863
G1 X-8.157 Y-23.051 E49.17781
G1 X-8.630 Y-23.051 E49.20410
G1 X-10.527 Y-24.949 E49.35327
G1 X-11.000 Y-24.949 E49.37956
G1 X-9.103 Y-23.051 E49.52874
G1 X-9.576 Y-23.051 E49.55503
G1 X-11.473 Y-24.949 E49.70420
G1 X-11.946 Y-24.949 E49.73049
G1 X-10.049 Y-23.051 E49.87967
G1 X-10.521 Y-23.051 E49.90596
G1 X-12.419 Y-24.949 E50.05513
G1 X-12.891 Y-24.949 E50.08142
G1 X-10.994 Y-23.051 E50.23059
G1 X-11.467 Y-23.051 E50.25688
G1 X-13.364 Y-24.949 E50.40606
G1 X-13.837 Y-24.949 E50.43235
G1 X-11.940 Y-23.051 E50.58152
G1 X-12.413 Y-23.051 E50.60781
G1 X-14.310 Y-24.949 E50.75699
G1 X-14.783 Y-24.949 E50.78328
G1 X-12.886 Y-23.051 E50.93245
G1 X-13.358 Y-23.051 E50.95874
G1 X-15.256 Y-24.949 E51.10791
G1 X-15.728 Y-24.949 E51.13420
G1 X-13.831 Y-23.051 E51.28338
G1 X-14.304 Y-23.051 E51.30967
G1 X-16.201 Y-24.949 E51.45884
G1 X-16.674 Y-24.949 E51.48513
G1 X-14.777 Y-23.051 E51.63431
G1 X-15.250 Y-23.051 E51.66060
G1 X-17.147 Y-24.949 E51.80977
G1 X-17.620 Y-24.949 E51.83606
G1 X-15.723 Y-23.051 E51.98524
G1 X-16.195 Y-23.051 E52.01153
G1 X-18.093 Y-24.949 E52.16070
G1 X-18.565 Y-24.949 E52.18699
G1 X-16.668 Y-23.051 E52.33616
G1 X-17.141 Y-23.051 E52.36245
G1 X-19.038 Y-24.949 E52.51163
G1 X-19.511 Y-24.949 E52.53792
G1 X-17.614 Y-23.051 E52.68709
G1 X-18.087 Y-23.051 E52.71338
G1 X-19.984 Y-24.949 E52.86256
G1 X-20.457 Y-24.949 E52.88885
G1 X-18.560 Y-23.051 E53.03802
G1 X-19.032 Y-23.051 E53.06431
G1 X-20.930 Y-24.949 E53.21348
G1 X-21.402 Y-24.949 E53.23978
G1 X-19.505 Y-23.051 E53.38895
G1 X-19.978 Y-23.051 E53.41524
G1 X-21.875 Y-24.949 E53.56441
G1 X-22.348 Y-24.949 E53.59070
G1 X-20.451 Y-23.051 E53.73988
G1 X-20.924 Y-23.051 E53.76617
G1 X-22.821 Y-24.949 E53.91534
G1 X-23.294 Y-24.949 E53.94163
G1 X-21.397 Y-23.051 E54.09081
G1 X-21.801 Y-22.983 E54.11363
G1 X-23.699 Y-24.881 E54.26281
G1 X-23.699 Y-24.408 E54.28910
G1 X-21.801 Y-22.511 E54.43827
G1 X-21.801 Y-22.038 E54.46456
G1 X-23.699 Y-23.935 E54.61373
G1 X-23.699 Y-23.462 E54.64002
G1 X-21.801 Y-21.565 E54.78920
G1 X-21.801 Y-21.092 E54.81549
G1 X-23.699 Y-22.989 E54.96466
G1 X-23.699 Y-22.516 E54.99095
G1 X-21.801 Y-20.619 E55.14013
G1 X-21.801 Y-20.146 E55.16642
G1 X-23.699 Y-22.044 E55.31559
G1 X-23.699 Y-21.571 E55.34188
G1 X-21.801 Y-19.674 E55.49106
G1 X-21.801 Y-19.201 E55.51735
G1 X-23.699 Y-21.098 E55.66652
G1 X-23.699 Y-20.625 E55.69281
G1 X-21.801 Y-18.728 E55.84198
G1 X-21.801 Y-18.255 E55.86827
G1 X-23.699 Y-20.152 E56.01745
G1 X-23.699 Y-19.679 E56.04374
G1 X-21.801 Y-17.782 E56.19291
G1 X-21.801 Y-17.309 E56.21920
G1 X-23.699 Y-19.207 E56.36838
G1 X-23.699 Y-18.734 E56.39467
G1 X-21.801 Y-16.837 E56.54384
G1 X-21.801 Y-16.364 E56.57013
G1 X-23.699 Y-18.261 E56.71931
G1 X-23.699 Y-17.788 E56.74560
G1 X-21.801 Y-15.891 E56.89477
G1 X-21.801 Y-15.418 E56.92106
G1 X-23.699 Y-17.315 E57.07023
G1 X-23.699 Y-16.842 E57.09653
G1 X-21.801 Y-14.945 E57.24570
G1 X-21.801 Y-14.472 E57.27199
G1 X-23.699 Y-16.370 E57.42116
G1 X-23.699 Y-15.897 E57.44745
G1 X-21.801 Y-14.000 E57.59663
G1 X-21.801 Y-13.527 E57.62292
G1 X-23.699 Y-15.424 E57.77209
G1 X-23.699 Y-14.951 E57.79838
G1 X-21.801 Y-13.054 E57.94756
G1 X-21.801 Y-12.581 E57.97385
G1 X-23.699 Y-14.478 E58.12302
G1 X-23.699 Y-14.005 E58.14931
G1 X-21.801 Y-12.108 E58.29848
G1 X-21.801 Y-11.635 E58.32478
G1 X-23.699 Y-13.533 E58.47395
G1 X-23.699 Y-13.060 E58.50024
G1 X-21.801 Y-11.163 E58.64941
G1 X-21.801 Y-10.690 E58.67570
G1 X-23.699 Y-12.587 E58.82488
G1 X-23.699 Y-12.114 E58.85117
G1 X-21.801 Y-10.217 E59.00034
G1 X-21.801 Y-9.744 E59.02663
G1 X-23.699 Y-11.641 E59.17581
G1 X-23.699 Y-11.168 E59.20210
G1 X-21.801 Y-9.271 E59.35127
G1 X-21.801 Y-8.799 E59.37756
G1 X-23.699 Y-10.696 E59.52673
G1 X-23.699 Y-10.223 E59.55303
G1 X-21.801 Y-8.326 E59.70220
G1 X-21.801 Y-7.853 E59.72849
G1 X-23.699 Y-9.750 E59.87766
G1 X-23.699 Y-9.277 E59.90395
G1 X-21.801 Y-7.380 E60.05313
G1 X-21.801 Y-6.907 E60.07942
G1 X-23.699 Y-8.804 E60.22859
G1 X-23.699 Y-8.331 E60.25488
G1 X-21.801 Y-6.434 E60.40406
G1 X-21.801 Y-5.962 E60.43035
G1 X-23.699 Y-7.859 E60.57952
G1 X-23.699 Y-7.386 E60.60581
G1 X-21.801 Y-5.489 E60.75498
G1 X-21.801 Y-5.016 E60.78128
G1 X-23.699 Y-6.913 E60.93045
G1 X-23.699 Y-6.440 E60.95674
G1 X-21.801 Y-4.543 E61.10591
G1 X-21.801 Y-4.070 E61.13220
G1 X-23.699 Y-5.967 E61.28138
G1 X-23.699 Y-5.494 E61.30767
G1 X-21.801 Y-3.597 E61.45684
G1 X-21.801 Y-3.125 E61.48313
G1 X-23.699 Y-5.022 E61.63231
G1 X-23.699 Y-4.549 E61.65860
G1 X-21.801 Y-2.652 E61.80777
G1 X-21.801 Y-2.179 E61.83406
G1 X-23.699 Y-4.076 E61.98323
G1 X-23.699 Y-3.603 E62.00952
G1 X-21.801 Y-1.706 E62.15870
G1 X-21.801 Y-1.233 E62.18499
G1 X-23.699 Y-3.130 E62.33416
G1 X-23.699 Y-2.657 E62.36045
G1 X-21.801 Y-0.760 E62.50963
G1 X-21.801 Y-0.288 E62.53592
G1 X-23.699 Y-2.185 E62.68509
G1 X-23.699 Y-1.712 E62.71138
G1 X-21.801 Y0.185 E62.86056
G1 X-21.801 Y0.658 E62.88685
G1 X-23.699 Y-1.239 E63.03602
G1 X-23.699 Y-0.766 E63.06231
G1 X-21.801 Y1.131 E63.21148
G1 X-21.801 Y1.604 E63.23777
G1 X-23.699 Y-0.293 E63.38695
G1 X-23.699 Y0.180 E63.41324
G1 X-21.801 Y2.077 E63.56241
G1 X-21.801 Y2.549 E63.58870
G1 X-23.699 Y0.652 E63.73788
G1 X-23.699 Y1.125 E63.76417
G1 X-21.801 Y3.022 E63.91334
G1 X-21.801 Y3.495 E63.93963
G1 X-23.699 Y1.598 E64.08881
G1 X-23.699 Y2.071 E64.11510
G1 X-21.801 Y3.968 E64.26427
G1 X-21.801 Y4.441 E64.29056
G1 X-23.699 Y2.544 E64.43973
G1 X-23.699 Y3.017 E64.46602
G1 X-21.801 Y4.914 E64.61520
G1 X-21.801 Y5.386 E64.64149
G1 X-23.699 Y3.489 E64.79066
G1 X-23.699 Y3.962 E64.81695
G1 X-21.801 Y5.859 E64.96613
G1 X-21.801 Y6.332 E64.99242
G1 X-23.699 Y4.435 E65.14159
G1 X-23.699 Y4.908 E65.16788
G1 X-21.801 Y6.805 E65.31706
G1 X-21.801 Y7.278 E65.34335
G1 X-23.699 Y5.381 E65.49252
G1 X-23.699 Y5.854 E65.51881
G1 X-21.801 Y7.751 E65.66798
G1 X-21.801 Y8.223 E65.69427
G1 X-23.699 Y6.326 E65.84345
G1 X-23.699 Y6.799 E65.86974
G1 X-21.801 Y8.696 E66.01891
G1 X-21.801 Y9.169 E66.04520
G1 X-23.699 Y7.272 E66.19438
G1 X-23.699 Y7.745 E66.22067
G1 X-21.801 Y9.642 E66.36984
G1 X-21.801 Y10.115 E66.39613
G1 X-23.699 Y8.218 E66.54531
G1 X-23.699 Y8.691 E66.57160
G1 X-21.801 Y10.588 E66.72077
G1 X-21.801 Y11.060 E66.74706
G1 X-23.699 Y9.163 E66.89623
G1 X-23.699 Y9.636 E66.92252
G1 X-21.801 Y11.533 E67.07170
G1 X-21.801 Y12.006 E67.09799
G1 X-23.699 Y10.109 E67.24716
G1 X-23.699 Y10.582 E67.27345
G1 X-21.801 Y12.479 E67.42263
G1 X-21.801 Y12.952 E67.44892
G1 X-23.699 Y11.055 E67.59809
G1 X-23.699 Y11.528 E67.62438
G1 X-21.801 Y13.425 E67.77356
G1 X-21.801 Y13.897 E67.79985
G1 X-23.699 Y12.000 E67.94902
G1 X-23.699 Y12.473 E67.97531
G1 X-21.801 Y14.370 E68.12448
G1 X-21.801 Y14.843 E68.15077
G1 X-23.699 Y12.946 E68.29995
G1 X-23.699 Y13.419 E68.32624
G1 X-21.801 Y15.316 E68.47541
G1 X-21.801 Y15.789 E68.50170
G1 X-23.699 Y13.892 E68.65088
G1 X-23.699 Y14.365 E68.67717
G1 X-21.801 Y16.262 E68.82634
G1 X-21.801 Y16.734 E68.85263
G1 X-23.699 Y14.837 E69.00180
G1 X-23.699 Y15.310 E69.02809
G1 X-21.801 Y17.207 E69.17727
G1 X-21.801 Y17.680 E69.20356
G1 X-23.699 Y15.783 E69.35273
G1 X-23.699 Y16.256 E69.37902
G1 X-21.801 Y18.153 E69.52820
G1 X-21.801 Y18.626 E69.55449
G1 X-23.699 Y16.729 E69.70366
G1 X-23.699 Y17.202 E69.72995
G1 X-21.801 Y19.099 E69.87913
G1 X-21.801 Y19.571 E69.90542
G1 X-23.699 Y17.674 E70.05459
G1 X-23.699 Y18.147 E70.08088
G1 X-21.801 Y20.044 E70.23005
G1 X-21.801 Y20.517 E70.25634
G1 X-23.699 Y18.620 E70.40552
G1 X-23.699 Y19.093 E70.43181
G1 X-21.801 Y20.990 E70.58098
G1 X-21.801 Y21.463 E70.60727
G1 X-23.699 Y19.566 E70.75645
G1 X-23.699 Y20.039 E70.78274
G1 X-21.801 Y21.936 E70.93191
G1 X-21.801 Y22.408 E70.95820
G1 X-23.699 Y20.511 E71.10738
G1 X-23.699 Y20.984 E71.13367
G1 X-21.801 Y22.881 E71.28284
G1 X-21.631 Y23.051 F6000.000
