; generated by Slic3r 1.2.9 on 2016-06-20 at 13:26:34

; external perimeters extrusion width = 0.40mm
; perimeters extrusion width = 0.40mm
; infill extrusion width = 0.67mm
; solid infill extrusion width = 0.40mm
; top infill extrusion width = 0.40mm
; support material extrusion width = 0.40mm

M190 S60 ; set bed temperature
M104 S210 ; set temperature
G28 ; home all axes

M109 S210 ; wait for temperature to be reached
G21 ; set units to millimeters
G90 ; use absolute coordinates
M82 ; use absolute distances for extrusion
G92 E0
G1 E-4.00000 F4800.00000
G92 E0
G1 Z1.000 F6000.000
G1 X31.092 Y0.000 F6000.000
G1 Z0.300 F6000.000
G1 E4.00000 F4800.00000
G1 X31.092 Y26.000 E5.08837 F3404.615
G1 X30.696 Y28.208 E5.18229
G1 X29.555 Y30.140 E5.27621
G1 X27.813 Y31.554 E5.37013
G1 X24.750 Y32.342 E5.50251
G1 X-24.750 Y32.342 E7.57460
G1 X-26.958 Y31.946 E7.66852
G1 X-28.890 Y30.805 E7.76244
G1 X-30.304 Y29.063 E7.85636
G1 X-31.092 Y26.000 E7.98874
G1 X-31.092 Y-26.000 E10.16547
G1 X-30.696 Y-28.208 E10.25939
G1 X-29.555 Y-30.140 E10.35331
G1 X-27.813 Y-31.554 E10.44723
G1 X-24.750 Y-32.342 E10.57962
G1 X24.750 Y-32.342 E12.65170
G1 X26.958 Y-31.946 E12.74562
G1 X28.890 Y-30.805 E12.83954 F3404.615
G1 X30.304 Y-29.063 E12.93346
G1 X31.092 Y-26.000 E13.06584
G1 X31.092 Y-0.060 E14.15170
G1 X30.757 Y0.000 F6000.000
G1 X30.757 Y26.000 E15.24007 F3404.615
G1 X30.360 Y28.147 E15.33145
G1 X29.223 Y30.010 E15.42283
G1 X27.494 Y31.343 E15.51421
G1 X24.750 Y32.007 E15.63239
G1 X-24.750 Y32.007 E17.70448
G1 X-26.897 Y31.610 E17.79586
G1 X-28.760 Y30.473 E17.88724
G1 X-30.093 Y28.744 E17.97862
G1 X-30.757 Y26.000 E18.09681
G1 X-30.757 Y-26.000 E20.27354
G1 X-30.360 Y-28.147 E20.36492
G1 X-29.223 Y-30.010 E20.45631
G1 X-27.494 Y-31.343 E20.54769
G1 X-24.750 Y-32.007 E20.66587
G1 X24.750 Y-32.007 E22.73796
G1 X26.897 Y-31.610 E22.82934
G1 X28.760 Y-30.473 E22.92072 F3404.615
G1 X30.093 Y-28.744 E23.01210
G1 X30.757 Y-26.000 E23.13028
G1 X30.757 Y-0.060 E24.21614
G1 X30.421 Y0.000 F6000.000
G1 X30.421 Y26.000 E25.30451 F3404.615
G1 X30.025 Y28.083 E25.39328
G1 X28.891 Y29.875 E25.48205
G1 X27.178 Y31.125 E25.57082
G1 X24.750 Y31.671 E25.67498
G1 X-24.750 Y31.671 E27.74707
G1 X-26.833 Y31.275 E27.83584
G1 X-28.625 Y30.141 E27.92461
G1 X-29.875 Y28.428 E28.01338
G1 X-30.421 Y26.000 E28.11755
G1 X-30.421 Y-26.000 E30.29428
G1 X-30.025 Y-28.083 E30.38305
G1 X-28.891 Y-29.875 E30.47182
G1 X-27.178 Y-31.125 E30.56059
G1 X-24.750 Y-31.671 E30.66476
G1 X24.750 Y-31.671 E32.73684
G1 X26.833 Y-31.275 E32.82561
G1 X28.625 Y-30.141 E32.91438 F3404.615
G1 X29.875 Y-28.428 E33.00315
G1 X30.421 Y-26.000 E33.10732
G1 X30.421 Y-0.060 E34.19318
G1 X30.086 Y0.000 F6000.000
G1 X30.086 Y26.000 E35.28154 F3404.615
G1 X29.689 Y28.018 E35.36762
G1 X28.559 Y29.736 E35.45370
G1 X26.864 Y30.899 E35.53978
G1 X24.750 Y31.336 E35.63013
G1 X-24.750 Y31.336 E37.70221
G1 X-26.768 Y30.939 E37.78829
G1 X-28.486 Y29.809 E37.87437
G1 X-29.649 Y28.114 E37.96045
G1 X-30.086 Y26.000 E38.05080
G1 X-30.086 Y-26.000 E40.22754
G1 X-29.689 Y-28.018 E40.31361
G1 X-28.559 Y-29.736 E40.39969
G1 X-26.864 Y-30.899 E40.48577
G1 X-24.750 Y-31.336 E40.57612
G1 X24.750 Y-31.336 E42.64821
G1 X26.768 Y-30.939 E42.73428
G1 X28.486 Y-29.809 E42.82036 F3404.615
G1 X29.649 Y-28.114 E42.90644
G1 X30.086 Y-26.000 E42.99679
G1 X30.086 Y-0.060 E44.08265
G1 F4800
G1 X30.086 Y3.940 E40.28265
G1 E40.08265 F4800.00000
G92 E0
G1 Z1.300 F6000.000
G1 X21.621 Y-22.871 F6000.000
G1 Z0.300 F6000.000
G1 E4.00000 F4800.00000
G1 X21.621 Y22.871 E5.91479 F3404.615
G1 X-21.621 Y22.871 E7.72494
G1 X-21.621 Y-22.871 E9.63973
G1 X21.561 Y-22.871 E11.44736
G1 X21.286 Y-22.536 F6000.000
G1 X21.286 Y22.536 E13.33406 F3404.615
G1 X-21.286 Y22.536 E15.11610
G1 X-21.286 Y-22.536 E17.00280
G1 X21.226 Y-22.536 E18.78233
G1 X20.950 Y-22.200 F6000.000
G1 X20.950 Y22.200 E20.64093 F3404.615
G1 X-20.950 Y22.200 E22.39488
G1 X-20.950 Y-22.200 E24.25348
G1 X20.890 Y-22.200 E26.00491
G1 X21.350 Y-22.200 F6000.000
G1 F4800
G1 X20.895 Y-18.200 E22.20491
G1 E22.00491 F4800.00000
G92 E0
G1 Z1.300 F6000.000
G1 X23.879 Y-25.129 F6000.000
G1 Z0.300 F6000.000
G1 E4.00000 F4800.00000
G1 X23.879 Y25.129 E6.10380 F3404.615
G1 X-23.879 Y25.129 E8.10294
G1 X-23.879 Y-25.129 E10.20674
G1 X23.819 Y-25.129 E12.20337
G1 X24.214 Y-25.464 F6000.000
G1 X24.214 Y25.464 E14.33526 F3404.615
G1 X-24.214 Y25.464 E16.36250
G1 X-24.214 Y-25.464 E18.49440
G1 X24.154 Y-25.464 E20.51913
G1 X24.550 Y-25.800 F6000.000
G1 X24.550 Y25.800 E22.67912 F3404.615
G1 X-24.550 Y25.800 E24.73446
G1 X-24.550 Y-25.800 E26.89445
G1 X24.490 Y-25.800 E28.94728
G1 X24.350 Y-25.454 F6000.000
G1 X23.493 Y-24.844 F6000.000
G1 X23.493 Y-23.493 E29.00380 F3404.615
G1 X23.594 Y-23.493 E29.00799
G1 X23.594 Y-23.158 F6000.000
G1 X23.158 Y-23.158 E29.02623 F3404.615
G1 X23.158 Y-24.844 E29.09680
G1 X22.822 Y-24.844 F6000.000
G1 X22.822 Y-22.822 E29.18142 F3404.615
G1 X23.594 Y-22.822 E29.21371
G1 X23.594 Y-22.487 F6000.000
G1 X22.487 Y-22.487 E29.26005 F3404.615
G1 X22.487 Y-24.844 E29.35871
G1 X22.151 Y-24.844 F6000.000
G1 X22.151 Y-22.151 E29.47143 F3404.615
G1 X23.594 Y-22.151 E29.53181
G1 X23.594 Y-21.815 F6000.000
G1 X21.906 Y-21.815 E29.60243 F3404.615
G1 X21.906 Y-21.480 F6000.000
G1 X23.594 Y-21.480 E29.67305 F3404.615
G1 X23.594 Y-21.144 F6000.000
G1 X21.906 Y-21.144 E29.74367 F3404.615
G1 X21.906 Y-20.808 F6000.000
G1 X23.594 Y-20.808 E29.81429 F3404.615
G1 X23.594 Y-20.473 F6000.000
G1 X21.906 Y-20.473 E29.88491 F3404.615
G1 X21.906 Y-20.137 F6000.000
G1 X23.594 Y-20.137 E29.95553 F3404.615
G1 X23.594 Y-19.802 F6000.000
G1 X21.906 Y-19.802 E30.02615 F3404.615
G1 X21.906 Y-19.466 F6000.000
G1 X23.594 Y-19.466 E30.09676 F3404.615
G1 X23.594 Y-19.130 F6000.000
G1 X21.906 Y-19.130 E30.16738 F3404.615
G1 X21.906 Y-18.795 F6000.000
G1 X23.594 Y-18.795 E30.23800 F3404.615
G1 X23.594 Y-18.459 F6000.000
G1 X21.906 Y-18.459 E30.30862 F3404.615
G1 X21.906 Y-18.123 F6000.000
G1 X23.594 Y-18.123 E30.37924 F3404.615
G1 X23.594 Y-17.788 F6000.000
G1 X21.906 Y-17.788 E30.44986 F3404.615
G1 X21.906 Y-17.452 F6000.000
G1 X23.594 Y-17.452 E30.52048 F3404.615
G1 X23.594 Y-17.117 F6000.000
G1 X21.906 Y-17.117 E30.59110 F3404.615
G1 X21.906 Y-16.781 F6000.000
G1 X23.594 Y-16.781 E30.66171 F3404.615
G1 X23.594 Y-16.445 F6000.000
G1 X21.906 Y-16.445 E30.73233 F3404.615
G1 X21.906 Y-16.110 F6000.000
G1 X23.594 Y-16.110 E30.80295 F3404.615
G1 X23.594 Y-15.774 F6000.000
G1 X21.906 Y-15.774 E30.87357 F3404.615
G1 X21.906 Y-15.438 F6000.000
G1 X23.594 Y-15.438 E30.94419 F3404.615
G1 X23.594 Y-15.103 F6000.000
G1 X21.906 Y-15.103 E31.01481 F3404.615
G1 X21.906 Y-14.767 F6000.000
G1 X23.594 Y-14.767 E31.08543 F3404.615
G1 X23.594 Y-14.432 F6000.000
G1 X21.906 Y-14.432 E31.15605 F3404.615
G1 X21.906 Y-14.096 F6000.000
G1 X23.594 Y-14.096 E31.22666 F3404.615
G1 X23.594 Y-13.760 F6000.000
G1 X21.906 Y-13.760 E31.29728 F3404.615
G1 X21.906 Y-13.425 F6000.000
G1 X23.594 Y-13.425 E31.36790 F3404.615
G1 X23.594 Y-13.089 F6000.000
G1 X21.906 Y-13.089 E31.43852 F3404.615
G1 X21.906 Y-12.754 F6000.000
G1 X23.594 Y-12.754 E31.50914 F3404.615
G1 X23.594 Y-12.418 F6000.000
G1 X21.906 Y-12.418 E31.57976 F3404.615
G1 X21.906 Y-12.082 F6000.000
G1 X23.594 Y-12.082 E31.65038 F3404.615
G1 X23.594 Y-11.747 F6000.000
G1 X21.906 Y-11.747 E31.72100 F3404.615
G1 X21.906 Y-11.411 F6000.000
G1 X23.594 Y-11.411 E31.79162 F3404.615
G1 X23.594 Y-11.075 F6000.000
G1 X21.906 Y-11.075 E31.86223 F3404.615
G1 X21.906 Y-10.740 F6000.000
G1 X23.594 Y-10.740 E31.93285 F3404.615
G1 X23.594 Y-10.404 F6000.000
G1 X21.906 Y-10.404 E32.00347 F3404.615
G1 X21.906 Y-10.069 F6000.000
G1 X23.594 Y-10.069 E32.07409 F3404.615
G1 X23.594 Y-9.733 F6000.000
G1 X21.906 Y-9.733 E32.14471 F3404.615
G1 X21.906 Y-9.397 F6000.000
G1 X23.594 Y-9.397 E32.21533 F3404.615
G1 X23.594 Y-9.062 F6000.000
G1 X21.906 Y-9.062 E32.28595 F3404.615
G1 X21.906 Y-8.726 F6000.000
G1 X23.594 Y-8.726 E32.35657 F3404.615
G1 X23.594 Y-8.390 F6000.000
G1 X21.906 Y-8.390 E32.42718 F3404.615
G1 X21.906 Y-8.055 F6000.000
G1 X23.594 Y-8.055 E32.49780 F3404.615
G1 X23.594 Y-7.484 F6000.000
G1 X21.906 Y-5.797 E32.59767 F3404.615
G1 X21.906 Y-5.126 F6000.000
G1 X23.594 Y-6.813 E32.69754 F3404.615
G1 X23.594 Y-6.141 F6000.000
G1 X21.906 Y-4.454 E32.79741 F3404.615
G1 X21.906 Y-3.783 F6000.000
G1 X23.594 Y-5.470 E32.89728 F3404.615
G1 X23.594 Y-4.799 F6000.000
G1 X21.906 Y-3.112 E32.99715 F3404.615
G1 X21.906 Y-2.441 F6000.000
G1 X23.594 Y-4.128 E33.09702 F3404.615
G1 X23.594 Y-3.456 F6000.000
G1 X21.906 Y-1.769 E33.19689 F3404.615
G1 X21.906 Y-1.098 F6000.000
G1 X23.594 Y-2.785 E33.29676 F3404.615
G1 X23.594 Y-2.114 F6000.000
G1 X21.906 Y-0.427 E33.39663 F3404.615
G1 X21.906 Y0.427 F6000.000
G1 X23.594 Y2.114 E33.49650 F3404.615
G1 X23.594 Y2.785 F6000.000
G1 X21.906 Y1.098 E33.59637 F3404.615
G1 X21.906 Y1.769 F6000.000
G1 X23.594 Y3.456 E33.69624 F3404.615
G1 X23.594 Y4.128 F6000.000
G1 X21.906 Y2.441 E33.79611 F3404.615
G1 X21.906 Y3.112 F6000.000
G1 X23.594 Y4.799 E33.89598 F3404.615
G1 X23.594 Y5.470 F6000.000
G1 X21.906 Y3.783 E33.99585 F3404.615
G1 X21.906 Y4.454 F6000.000
G1 X23.594 Y6.141 E34.09572 F3404.615
G1 X23.594 Y6.813 F6000.000
G1 X21.906 Y5.126 E34.19559 F3404.615
G1 X21.906 Y5.797 F6000.000
G1 X23.594 Y7.484 E34.29546 F3404.615
G1 X23.594 Y8.055 F6000.000
G1 X21.906 Y8.055 E34.36608 F3404.615
G1 X21.906 Y7.719 F6000.000
G1 X23.158 Y7.719 E34.41846 F3404.615
G1 X21.906 Y6.468 E34.49253
G1 X21.906 Y7.139 F6000.000
G1 X22.151 Y7.384 E34.50700 F3404.615
G1 X21.906 Y7.384 E34.51723
G1 X21.906 Y8.390 F6000.000
G1 X23.594 Y8.390 E34.58785 F3404.615
G1 X23.594 Y8.726 F6000.000
G1 X21.906 Y8.726 E34.65847 F3404.615
G1 X21.906 Y9.062 F6000.000
G1 X23.594 Y9.062 E34.72909 F3404.615
G1 X23.594 Y9.397 F6000.000
G1 X21.906 Y9.397 E34.79971 F3404.615
G1 X21.906 Y9.733 F6000.000
G1 X23.594 Y9.733 E34.87033 F3404.615
G1 X23.594 Y10.069 F6000.000
G1 X21.906 Y10.069 E34.94094 F3404.615
G1 X21.906 Y10.404 F6000.000
G1 X23.594 Y10.404 E35.01156 F3404.615
G1 X23.594 Y10.740 F6000.000
G1 X21.906 Y10.740 E35.08218 F3404.615
G1 X21.906 Y11.075 F6000.000
G1 X23.594 Y11.075 E35.15280 F3404.615
G1 X23.594 Y11.411 F6000.000
G1 X21.906 Y11.411 E35.22342 F3404.615
G1 X21.906 Y11.747 F6000.000
G1 X23.594 Y11.747 E35.29404 F3404.615
G1 X23.594 Y12.082 F6000.000
G1 X21.906 Y12.082 E35.36466 F3404.615
G1 X21.906 Y12.418 F6000.000
G1 X23.594 Y12.418 E35.43528 F3404.615
G1 X23.594 Y12.754 F6000.000
G1 X21.906 Y12.754 E35.50589 F3404.615
G1 X21.906 Y13.089 F6000.000
G1 X23.594 Y13.089 E35.57651 F3404.615
G1 X23.594 Y13.425 F6000.000
G1 X21.906 Y13.425 E35.64713 F3404.615
G1 X21.906 Y13.760 F6000.000
G1 X23.594 Y13.760 E35.71775 F3404.615
G1 X23.594 Y14.096 F6000.000
G1 X21.906 Y14.096 E35.78837 F3404.615
G1 X21.906 Y14.432 F6000.000
G1 X23.594 Y14.432 E35.85899 F3404.615
G1 X23.594 Y14.767 F6000.000
G1 X21.906 Y14.767 E35.92961 F3404.615
G1 X21.906 Y15.103 F6000.000
G1 X23.594 Y15.103 E36.00023 F3404.615
G1 X23.594 Y15.438 F6000.000
G1 X21.906 Y15.438 E36.07084 F3404.615
G1 X21.906 Y15.774 F6000.000
G1 X23.594 Y15.774 E36.14146 F3404.615
G1 X23.594 Y16.110 F6000.000
G1 X21.906 Y16.110 E36.21208 F3404.615
G1 X21.906 Y16.445 F6000.000
G1 X23.594 Y16.445 E36.28270 F3404.615
G1 X23.594 Y16.781 F6000.000
G1 X21.906 Y16.781 E36.35332 F3404.615
G1 X21.906 Y17.117 F6000.000
G1 X23.594 Y17.117 E36.42394 F3404.615
G1 X23.594 Y17.452 F6000.000
G1 X21.906 Y17.452 E36.49456 F3404.615
G1 X21.906 Y17.788 F6000.000
G1 X23.594 Y17.788 E36.56518 F3404.615
G1 X23.594 Y18.123 F6000.000
G1 X21.906 Y18.123 E36.63579 F3404.615
G1 X21.906 Y18.459 F6000.000
G1 X23.594 Y18.459 E36.70641 F3404.615
G1 X23.594 Y18.795 F6000.000
G1 X21.906 Y18.795 E36.77703 F3404.615
G1 X21.906 Y19.130 F6000.000
G1 X23.594 Y19.130 E36.84765 F3404.615
G1 X23.594 Y19.466 F6000.000
G1 X21.906 Y19.466 E36.91827 F3404.615
G1 X21.906 Y19.802 F6000.000
G1 X23.594 Y19.802 E36.98889 F3404.615
G1 X23.594 Y20.137 F6000.000
G1 X21.906 Y20.137 E37.05951 F3404.615
G1 X21.906 Y20.473 F6000.000
G1 X23.594 Y20.473 E37.13013 F3404.615
G1 X23.594 Y20.808 F6000.000
G1 X21.906 Y20.808 E37.20075 F3404.615
G1 X21.906 Y21.144 F6000.000
G1 X23.594 Y21.144 E37.27136 F3404.615
G1 X23.594 Y21.480 F6000.000
G1 X21.906 Y21.480 E37.34198 F3404.615
G1 X21.906 Y21.815 F6000.000
G1 X23.594 Y21.815 E37.41260 F3404.615
G1 X23.594 Y22.151 F6000.000
G1 X22.151 Y22.151 E37.47299 F3404.615
G1 X22.151 Y24.844 E37.58570
G1 X22.487 Y24.844 F6000.000
G1 X22.487 Y22.487 E37.68437 F3404.615
G1 X23.594 Y22.487 E37.73071
G1 X23.594 Y22.822 F6000.000
G1 X22.822 Y22.822 E37.76300 F3404.615
G1 X22.822 Y24.844 E37.84761
G1 X23.158 Y24.844 F6000.000
G1 X23.158 Y23.158 E37.91818 F3404.615
G1 X23.594 Y23.158 E37.93642
G1 X23.594 Y23.493 F6000.000
G1 X23.493 Y23.493 E37.94061 F3404.615
G1 X23.493 Y24.844 E37.99713
G1 X21.815 Y24.844 F6000.000
G1 X21.815 Y23.156 E38.06775 F3404.615
G1 X21.480 Y23.156 F6000.000
G1 X21.480 Y24.844 E38.13837 F3404.615
G1 X21.144 Y24.844 F6000.000
G1 X21.144 Y23.156 E38.20899 F3404.615
G1 X20.808 Y23.156 F6000.000
G1 X20.808 Y24.844 E38.27961 F3404.615
G1 X20.473 Y24.844 F6000.000
G1 X20.473 Y23.156 E38.35022 F3404.615
G1 X20.137 Y23.156 F6000.000
G1 X20.137 Y24.844 E38.42084 F3404.615
G1 X19.802 Y24.844 F6000.000
G1 X19.802 Y23.156 E38.49146 F3404.615
G1 X19.466 Y23.156 F6000.000
G1 X19.466 Y24.844 E38.56208 F3404.615
G1 X19.130 Y24.844 F6000.000
G1 X19.130 Y23.156 E38.63270 F3404.615
G1 X18.795 Y23.156 F6000.000
G1 X18.795 Y24.844 E38.70332 F3404.615
G1 X18.459 Y24.844 F6000.000
G1 X18.459 Y23.156 E38.77394 F3404.615
G1 X18.123 Y23.156 F6000.000
G1 X18.123 Y24.844 E38.84456 F3404.615
G1 X17.788 Y24.844 F6000.000
G1 X17.788 Y23.156 E38.91517 F3404.615
G1 X17.452 Y23.156 F6000.000
G1 X17.452 Y24.844 E38.98579 F3404.615
G1 X17.117 Y24.844 F6000.000
G1 X17.117 Y23.156 E39.05641 F3404.615
G1 X16.781 Y23.156 F6000.000
G1 X16.781 Y24.844 E39.12703 F3404.615
G1 X16.445 Y24.844 F6000.000
G1 X16.445 Y23.156 E39.19765 F3404.615
G1 X16.110 Y23.156 F6000.000
G1 X16.110 Y24.844 E39.26827 F3404.615
G1 X15.774 Y24.844 F6000.000
G1 X15.774 Y23.156 E39.33889 F3404.615
G1 X15.438 Y23.156 F6000.000
G1 X15.438 Y24.844 E39.40951 F3404.615
G1 X15.103 Y24.844 F6000.000
G1 X15.103 Y23.156 E39.48012 F3404.615
G1 X14.767 Y23.156 F6000.000
G1 X14.767 Y24.844 E39.55074 F3404.615
G1 X14.432 Y24.844 F6000.000
G1 X14.432 Y23.156 E39.62136 F3404.615
G1 X14.096 Y23.156 F6000.000
G1 X14.096 Y24.844 E39.69198 F3404.615
G1 X13.760 Y24.844 F6000.000
G1 X13.760 Y23.156 E39.76260 F3404.615
G1 X13.425 Y23.156 F6000.000
G1 X13.425 Y24.844 E39.83322 F3404.615
G1 X13.089 Y24.844 F6000.000
G1 X13.089 Y23.156 E39.90384 F3404.615
G1 X12.754 Y23.156 F6000.000
G1 X12.754 Y24.844 E39.97446 F3404.615
G1 X12.418 Y24.844 F6000.000
G1 X12.418 Y23.156 E40.04507 F3404.615
G1 X12.082 Y23.156 F6000.000
G1 X12.082 Y24.844 E40.11569 F3404.615
G1 X11.747 Y24.844 F6000.000
G1 X11.747 Y23.156 E40.18631 F3404.615
G1 X11.411 Y23.156 F6000.000
G1 X11.411 Y24.844 E40.25693 F3404.615
G1 X11.075 Y24.844 F6000.000
G1 X11.075 Y23.156 E40.32755 F3404.615
G1 X10.740 Y23.156 F6000.000
G1 X10.740 Y24.844 E40.39817 F3404.615
G1 X10.404 Y24.844 F6000.000
G1 X10.404 Y23.156 E40.46879 F3404.615
G1 X10.069 Y23.156 F6000.000
G1 X10.069 Y24.844 E40.53941 F3404.615
G1 X9.733 Y24.844 F6000.000
G1 X9.733 Y23.156 E40.61003 F3404.615
G1 X9.397 Y23.156 F6000.000
G1 X9.397 Y24.844 E40.68064 F3404.615
G1 X9.062 Y24.844 F6000.000
G1 X9.062 Y23.156 E40.75126 F3404.615
G1 X8.726 Y23.156 F6000.000
G1 X8.726 Y24.844 E40.82188 F3404.615
G1 X8.390 Y24.844 F6000.000
G1 X8.390 Y23.156 E40.89250 F3404.615
G1 X8.055 Y23.156 F6000.000
G1 X8.055 Y24.165 E40.93470 F3404.615
G1 X7.047 Y23.156 E40.99438
G1 X6.376 Y23.156 F6000.000
G1 X8.063 Y24.844 E41.09425 F3404.615
G1 X7.391 Y24.844 F6000.000
G1 X5.704 Y23.156 E41.19412 F3404.615
G1 X5.033 Y23.156 F6000.000
G1 X6.720 Y24.844 E41.29399 F3404.615
G1 X6.049 Y24.844 F6000.000
G1 X4.362 Y23.156 E41.39386 F3404.615
G1 X3.691 Y23.156 F6000.000
G1 X5.378 Y24.844 E41.49373 F3404.615
G1 X4.706 Y24.844 F6000.000
