; generated by Slic3r 1.2.9 on 2016-06-09 at 13:35:04

; external perimeters extrusion width = 0.40mm
; perimeters extrusion width = 0.67mm
; infill extrusion width = 0.67mm
; solid infill extrusion width = 0.67mm
; top infill extrusion width = 0.67mm

M107
M190 S60 ; set bed temperature
M104 S205 ; set temperature
G28 ; home all axes

M109 S205 ; wait for temperature to be reached
G21 ; set units to millimeters
G90 ; use absolute coordinates
M82 ; use absolute distances for extrusion
G92 E0
G1 E-4.00000 F4800.00000
G92 E0
G1 Z1.000 F6000.000
G1 X30.752 Y0.000 F6000.000
G1 Z0.400 F6000.000
G1 E4.00000 F4800.00000
G1 X30.752 Y26.000 E5.44484 F1200.000
G1 X30.356 Y28.146 E5.56611
G1 X29.218 Y30.008 E5.68738
G1 X27.490 Y31.341 E5.80864
G1 X24.750 Y32.002 E5.96529
G1 X-24.750 Y32.002 E8.71605
G1 X-26.896 Y31.606 E8.83732
G1 X-28.758 Y30.468 E8.95859
G1 X-30.091 Y28.740 E9.07985
G1 X-30.752 Y26.000 E9.23650
G1 X-30.752 Y-26.000 E12.12619
G1 X-30.356 Y-28.146 E12.24746
G1 X-29.218 Y-30.008 E12.36872
G1 X-27.490 Y-31.341 E12.48999
G1 X-24.750 Y-32.002 E12.64664
G1 X24.750 Y-32.002 E15.39740
G1 X26.896 Y-31.606 E15.51867
G1 X28.758 Y-30.468 E15.63993 F1200.000
G1 X30.091 Y-28.740 E15.76120
G1 X30.752 Y-26.000 E15.91785
G1 X30.752 Y-0.060 E17.35936
G1 X30.418 Y0.000 F6000.000
G1 X30.418 Y26.000 E18.80420 F1200.000
G1 X30.022 Y28.083 E18.92202
G1 X28.888 Y29.874 E19.03983
G1 X27.175 Y31.123 E19.15764
G1 X24.750 Y31.668 E19.29577
G1 X-24.750 Y31.668 E22.04653
G1 X-26.833 Y31.272 E22.16434
G1 X-28.624 Y30.138 E22.28216
G1 X-29.873 Y28.425 E22.39997
G1 X-30.418 Y26.000 E22.53810
G1 X-30.418 Y-26.000 E25.42778
G1 X-30.022 Y-28.083 E25.54560
G1 X-28.888 Y-29.874 E25.66341
G1 X-27.175 Y-31.123 E25.78123
G1 X-24.750 Y-31.668 E25.91935
G1 X24.750 Y-31.668 E28.67011
G1 X26.833 Y-31.272 E28.78792
G1 X28.624 Y-30.138 E28.90574 F1200.000
G1 X29.873 Y-28.425 E29.02355
G1 X30.418 Y-26.000 E29.16168
G1 X30.418 Y-0.060 E30.60319
G1 X30.084 Y0.000 F6000.000
G1 X30.084 Y26.000 E32.04803 F1200.000
G1 X29.688 Y28.018 E32.16229
G1 X28.558 Y29.735 E32.27654
G1 X26.862 Y30.898 E32.39080
G1 X24.750 Y31.334 E32.51066
G1 X-24.750 Y31.334 E35.26142
G1 X-26.768 Y30.938 E35.37568
G1 X-28.485 Y29.808 E35.48994
G1 X-29.648 Y28.112 E35.60419
G1 X-30.084 Y26.000 E35.72405
G1 X-30.084 Y-26.000 E38.61374
G1 X-29.688 Y-28.018 E38.72800
G1 X-28.558 Y-29.735 E38.84226
G1 X-26.862 Y-30.898 E38.95651
G1 X-24.750 Y-31.334 E39.07637
G1 X24.750 Y-31.334 E41.82713
G1 X26.768 Y-30.938 E41.94139
G1 X28.485 Y-29.808 E42.05565 F1200.000
G1 X29.648 Y-28.112 E42.16990
G1 X30.084 Y-26.000 E42.28977
G1 X30.084 Y-0.060 E43.73128
G1 F4800
G1 X30.084 Y3.940 E39.93128
G1 E39.73128 F4800.00000
G92 E0
G1 Z1.400 F6000.000
G1 X21.608 Y-22.858 F6000.000
G1 Z0.400 F6000.000
G1 E4.00000 F4800.00000
G1 X21.608 Y22.858 E6.54052 F1200.000
G1 X-21.608 Y22.858 E8.94210
G1 X-21.608 Y-22.858 E11.48262
G1 X21.548 Y-22.858 E13.88087
G1 X21.274 Y-22.524 F6000.000
G1 X21.274 Y22.524 E16.38425 F1200.000
G1 X-21.274 Y22.524 E18.74870
G1 X-21.274 Y-22.524 E21.25207
G1 X21.214 Y-22.524 E23.61319
G1 X20.950 Y-22.200 F6000.000
G1 X20.950 Y22.200 E25.93286 F1200.000
G1 X-20.950 Y22.200 E28.12192
G1 X-20.950 Y-22.200 E30.44160
G1 X20.890 Y-22.200 E32.62752
G1 X21.350 Y-22.200 F6000.000
G1 F4800
G1 X20.895 Y-18.200 E28.82752
G1 E28.62752 F4800.00000
G92 E0
G1 Z1.400 F6000.000
G1 X23.892 Y-25.142 F6000.000
G1 Z0.400 F6000.000
G1 E4.00000 F4800.00000
G1 X23.892 Y25.142 E6.79429 F1200.000
G1 X-23.892 Y25.142 E9.44966
G1 X-23.892 Y-25.142 E12.24395
G1 X23.832 Y-25.142 E14.89598
G1 X24.226 Y-25.476 F6000.000
G1 X24.226 Y25.476 E17.72741 F1200.000
G1 X-24.226 Y25.476 E20.41992
G1 X-24.226 Y-25.476 E23.25135
G1 X24.166 Y-25.476 E25.94052
G1 X24.550 Y-25.800 F6000.000
G1 X24.550 Y25.800 E28.63636 F1200.000
G1 X-24.550 Y25.800 E31.20158
G1 X-24.550 Y-25.800 E33.89742
G1 X24.490 Y-25.800 E36.45951
G1 X24.350 Y-25.454 F6000.000
G1 X23.391 Y-24.858 F6000.000
G1 X23.391 Y-23.391 E36.54100 F1200.000
G1 X23.608 Y-23.391 E36.55304
G1 X23.608 Y-23.057 F6000.000
G1 X23.057 Y-23.057 E36.58364 F1200.000
G1 X23.057 Y-24.858 E36.68370
G1 X22.723 Y-24.858 F6000.000
G1 X22.723 Y-22.723 E36.80234 F1200.000
G1 X23.608 Y-22.723 E36.85151
G1 X23.608 Y-22.389 F6000.000
G1 X22.389 Y-22.389 E36.91925 F1200.000
G1 X22.389 Y-24.858 E37.05645
G1 X22.055 Y-24.858 F6000.000
G1 X22.055 Y-22.055 E37.21223 F1200.000
G1 X23.608 Y-22.055 E37.29854
G1 X23.608 Y-21.720 F6000.000
G1 X21.892 Y-21.720 E37.39386 F1200.000
G1 X21.892 Y-21.386 F6000.000
G1 X23.608 Y-21.386 E37.48918 F1200.000
G1 X23.608 Y-21.052 F6000.000
G1 X21.892 Y-21.052 E37.58451 F1200.000
G1 X21.892 Y-20.718 F6000.000
G1 X23.608 Y-20.718 E37.67983 F1200.000
G1 X23.608 Y-20.384 F6000.000
G1 X21.892 Y-20.384 E37.77515 F1200.000
G1 X21.892 Y-20.050 F6000.000
G1 X23.608 Y-20.050 E37.87047 F1200.000
G1 X23.608 Y-19.715 F6000.000
G1 X21.892 Y-19.715 E37.96580 F1200.000
G1 X21.892 Y-19.381 F6000.000
G1 X23.608 Y-19.381 E38.06112 F1200.000
G1 X23.608 Y-19.047 F6000.000
G1 X21.892 Y-19.047 E38.15644 F1200.000
G1 X21.892 Y-18.713 F6000.000
G1 X23.608 Y-18.713 E38.25176 F1200.000
G1 X23.608 Y-18.379 F6000.000
G1 X21.892 Y-18.379 E38.34709 F1200.000
G1 X21.892 Y-18.045 F6000.000
G1 X23.608 Y-18.045 E38.44241 F1200.000
G1 X23.608 Y-17.710 F6000.000
G1 X21.892 Y-17.710 E38.53773 F1200.000
G1 X21.892 Y-17.376 F6000.000
G1 X23.608 Y-17.376 E38.63305 F1200.000
G1 X23.608 Y-17.042 F6000.000
G1 X21.892 Y-17.042 E38.72838 F1200.000
G1 X21.892 Y-16.708 F6000.000
G1 X23.608 Y-16.708 E38.82370 F1200.000
G1 X23.608 Y-16.374 F6000.000
G1 X21.892 Y-16.374 E38.91902 F1200.000
G1 X21.892 Y-16.040 F6000.000
G1 X23.608 Y-16.040 E39.01435 F1200.000
G1 X23.608 Y-15.705 F6000.000
G1 X21.892 Y-15.705 E39.10967 F1200.000
G1 X21.892 Y-15.371 F6000.000
G1 X23.608 Y-15.371 E39.20499 F1200.000
G1 X23.608 Y-15.037 F6000.000
G1 X21.892 Y-15.037 E39.30031 F1200.000
G1 X21.892 Y-14.703 F6000.000
G1 X23.608 Y-14.703 E39.39564 F1200.000
G1 X23.608 Y-14.369 F6000.000
G1 X21.892 Y-14.369 E39.49096 F1200.000
G1 X21.892 Y-14.035 F6000.000
G1 X23.608 Y-14.035 E39.58628 F1200.000
G1 X23.608 Y-13.701 F6000.000
G1 X21.892 Y-13.701 E39.68160 F1200.000
G1 X21.892 Y-13.366 F6000.000
G1 X23.608 Y-13.366 E39.77693 F1200.000
G1 X23.608 Y-13.032 F6000.000
G1 X21.892 Y-13.032 E39.87225 F1200.000
G1 X21.892 Y-12.698 F6000.000
G1 X23.608 Y-12.698 E39.96757 F1200.000
G1 X23.608 Y-12.364 F6000.000
G1 X21.892 Y-12.364 E40.06290 F1200.000
G1 X21.892 Y-12.030 F6000.000
G1 X23.608 Y-12.030 E40.15822 F1200.000
G1 X23.608 Y-11.696 F6000.000
G1 X21.892 Y-11.696 E40.25354 F1200.000
G1 X21.892 Y-11.361 F6000.000
G1 X23.608 Y-11.361 E40.34886 F1200.000
G1 X23.608 Y-11.027 F6000.000
G1 X21.892 Y-11.027 E40.44419 F1200.000
G1 X21.892 Y-10.693 F6000.000
G1 X23.608 Y-10.693 E40.53951 F1200.000
G1 X23.608 Y-10.359 F6000.000
G1 X21.892 Y-10.359 E40.63483 F1200.000
G1 X21.892 Y-10.025 F6000.000
G1 X23.608 Y-10.025 E40.73015 F1200.000
G1 X23.608 Y-9.691 F6000.000
G1 X21.892 Y-9.691 E40.82548 F1200.000
G1 X21.892 Y-9.356 F6000.000
G1 X23.608 Y-9.356 E40.92080 F1200.000
G1 X23.608 Y-9.022 F6000.000
G1 X21.892 Y-9.022 E41.01612 F1200.000
G1 X21.892 Y-8.688 F6000.000
G1 X23.608 Y-8.688 E41.11144 F1200.000
G1 X23.608 Y-8.354 F6000.000
G1 X21.892 Y-8.354 E41.20677 F1200.000
G1 X21.892 Y-8.020 F6000.000
G1 X23.608 Y-8.020 E41.30209 F1200.000
G1 X23.608 Y-7.568 F6000.000
G1 X21.892 Y-5.853 E41.43690 F1200.000
G1 X21.892 Y-6.521 F6000.000
G1 X23.057 Y-7.686 E41.52843 F1200.000
G1 X21.892 Y-7.686 E41.59315
G1 X21.892 Y-7.352 F6000.000
G1 X22.055 Y-7.352 E41.60216 F1200.000
G1 X21.892 Y-7.189 E41.61491
G1 X23.608 Y-6.900 F6000.000
G1 X21.892 Y-5.184 E41.74971 F1200.000
G1 X21.892 Y-4.516 F6000.000
G1 X23.608 Y-6.231 E41.88452 F1200.000
G1 X23.608 Y-5.563 F6000.000
G1 X21.892 Y-3.848 E42.01933 F1200.000
G1 X21.892 Y-3.179 F6000.000
G1 X23.608 Y-4.895 E42.15413 F1200.000
G1 X23.608 Y-4.226 F6000.000
G1 X21.892 Y-2.511 E42.28894 F1200.000
G1 X21.892 Y-1.843 F6000.000
G1 X23.608 Y-3.558 E42.42375 F1200.000
G1 X23.608 Y-2.890 F6000.000
G1 X21.892 Y-1.174 E42.55855 F1200.000
G1 X21.892 Y-0.506 F6000.000
G1 X23.608 Y-2.221 E42.69336 F1200.000
G1 X23.608 Y-1.553 F6000.000
G1 X22.055 Y0.000 E42.81542 F1200.000
G1 X23.608 Y1.553 E42.93748
G1 X23.608 Y0.885 F6000.000
G1 X22.723 Y0.000 E43.00702 F1200.000
G1 X23.608 Y-0.885 E43.07656
G1 X23.608 Y-0.217 F6000.000
G1 X23.391 Y0.000 E43.09357 F1200.000
G1 X23.608 Y0.217 E43.11059
G1 X21.892 Y0.506 F6000.000
G1 X23.608 Y2.221 E43.24540 F1200.000
G1 X23.608 Y2.890 F6000.000
G1 X21.892 Y1.174 E43.38020 F1200.000
G1 X21.892 Y1.843 F6000.000
G1 X23.608 Y3.558 E43.51501 F1200.000
G1 X23.608 Y4.226 F6000.000
G1 X21.892 Y2.511 E43.64981 F1200.000
G1 X21.892 Y3.179 F6000.000
G1 X23.608 Y4.895 E43.78462 F1200.000
G1 X23.608 Y5.563 F6000.000
G1 X21.892 Y3.848 E43.91943 F1200.000
G1 X21.892 Y4.516 F6000.000
G1 X23.608 Y6.231 E44.05423 F1200.000
G1 X23.608 Y6.900 F6000.000
G1 X21.892 Y5.184 E44.18904 F1200.000
G1 X21.892 Y5.853 F6000.000
G1 X23.608 Y7.568 E44.32385 F1200.000
G1 X23.608 Y8.020 F6000.000
G1 X21.892 Y8.020 E44.41917 F1200.000
G1 X21.892 Y7.686 F6000.000
G1 X23.057 Y7.686 E44.48389 F1200.000
G1 X21.892 Y6.521 E44.57542
G1 X21.892 Y7.189 F6000.000
G1 X22.055 Y7.352 E44.58817 F1200.000
G1 X21.892 Y7.352 E44.59718
G1 X21.892 Y8.354 F6000.000
G1 X23.608 Y8.354 E44.69250 F1200.000
G1 X23.608 Y8.688 F6000.000
G1 X21.892 Y8.688 E44.78783 F1200.000
G1 X21.892 Y9.022 F6000.000
G1 X23.608 Y9.022 E44.88315 F1200.000
G1 X23.608 Y9.356 F6000.000
G1 X21.892 Y9.356 E44.97847 F1200.000
G1 X21.892 Y9.691 F6000.000
G1 X23.608 Y9.691 E45.07379 F1200.000
G1 X23.608 Y10.025 F6000.000
G1 X21.892 Y10.025 E45.16912 F1200.000
G1 X21.892 Y10.359 F6000.000
G1 X23.608 Y10.359 E45.26444 F1200.000
G1 X23.608 Y10.693 F6000.000
G1 X21.892 Y10.693 E45.35976 F1200.000
G1 X21.892 Y11.027 F6000.000
G1 X23.608 Y11.027 E45.45508 F1200.000
G1 X23.608 Y11.361 F6000.000
G1 X21.892 Y11.361 E45.55041 F1200.000
G1 X21.892 Y11.696 F6000.000
G1 X23.608 Y11.696 E45.64573 F1200.000
G1 X23.608 Y12.030 F6000.000
G1 X21.892 Y12.030 E45.74105 F1200.000
G1 X21.892 Y12.364 F6000.000
G1 X23.608 Y12.364 E45.83637 F1200.000
G1 X23.608 Y12.698 F6000.000
G1 X21.892 Y12.698 E45.93170 F1200.000
G1 X21.892 Y13.032 F6000.000
G1 X23.608 Y13.032 E46.02702 F1200.000
G1 X23.608 Y13.366 F6000.000
G1 X21.892 Y13.366 E46.12234 F1200.000
G1 X21.892 Y13.701 F6000.000
G1 X23.608 Y13.701 E46.21767 F1200.000
G1 X23.608 Y14.035 F6000.000
G1 X21.892 Y14.035 E46.31299 F1200.000
G1 X21.892 Y14.369 F6000.000
G1 X23.608 Y14.369 E46.40831 F1200.000
G1 X23.608 Y14.703 F6000.000
G1 X21.892 Y14.703 E46.50363 F1200.000
G1 X21.892 Y15.037 F6000.000
G1 X23.608 Y15.037 E46.59896 F1200.000
G1 X23.608 Y15.371 F6000.000
G1 X21.892 Y15.371 E46.69428 F1200.000
G1 X21.892 Y15.705 F6000.000
G1 X23.608 Y15.705 E46.78960 F1200.000
G1 X23.608 Y16.040 F6000.000
G1 X21.892 Y16.040 E46.88492 F1200.000
G1 X21.892 Y16.374 F6000.000
G1 X23.608 Y16.374 E46.98025 F1200.000
G1 X23.608 Y16.708 F6000.000
G1 X21.892 Y16.708 E47.07557 F1200.000
G1 X21.892 Y17.042 F6000.000
G1 X23.608 Y17.042 E47.17089 F1200.000
G1 X23.608 Y17.376 F6000.000
G1 X21.892 Y17.376 E47.26622 F1200.000
G1 X21.892 Y17.710 F6000.000
G1 X23.608 Y17.710 E47.36154 F1200.000
G1 X23.608 Y18.045 F6000.000
G1 X21.892 Y18.045 E47.45686 F1200.000
G1 X21.892 Y18.379 F6000.000
G1 X23.608 Y18.379 E47.55218 F1200.000
G1 X23.608 Y18.713 F6000.000
G1 X21.892 Y18.713 E47.64751 F1200.000
G1 X21.892 Y19.047 F6000.000
G1 X23.608 Y19.047 E47.74283 F1200.000
G1 X23.608 Y19.381 F6000.000
G1 X21.892 Y19.381 E47.83815 F1200.000
G1 X21.892 Y19.715 F6000.000
G1 X23.608 Y19.715 E47.93347 F1200.000
G1 X23.608 Y20.050 F6000.000
G1 X21.892 Y20.050 E48.02880 F1200.000
G1 X21.892 Y20.384 F6000.000
G1 X23.608 Y20.384 E48.12412 F1200.000
G1 X23.608 Y20.718 F6000.000
G1 X21.892 Y20.718 E48.21944 F1200.000
G1 X21.892 Y21.052 F6000.000
G1 X23.608 Y21.052 E48.31476 F1200.000
G1 X23.608 Y21.386 F6000.000
G1 X21.892 Y21.386 E48.41009 F1200.000
G1 X21.892 Y21.720 F6000.000
G1 X23.608 Y21.720 E48.50541 F1200.000
G1 X23.608 Y22.055 F6000.000
G1 X22.055 Y22.055 E48.59172 F1200.000
G1 X22.055 Y24.858 E48.74749
G1 X22.389 Y24.858 F6000.000
G1 X22.389 Y22.389 E48.88470 F1200.000
G1 X23.608 Y22.389 E48.95244
G1 X23.608 Y22.723 F6000.000
G1 X22.723 Y22.723 E49.00161 F1200.000
G1 X22.723 Y24.858 E49.12024
G1 X23.057 Y24.858 F6000.000
G1 X23.057 Y23.057 E49.22031 F1200.000
G1 X23.608 Y23.057 E49.25091
G1 X23.608 Y23.391 F6000.000
G1 X23.391 Y23.391 E49.26294 F1200.000
G1 X23.391 Y24.858 E49.34444
G1 X21.720 Y24.858 F6000.000
G1 X21.720 Y23.142 E49.43976 F1200.000
G1 X21.386 Y23.142 F6000.000
G1 X21.386 Y24.858 E49.53508 F1200.000
G1 X21.052 Y24.858 F6000.000
G1 X21.052 Y23.142 E49.63041 F1200.000
G1 X20.718 Y23.142 F6000.000
G1 X20.718 Y24.858 E49.72573 F1200.000
G1 X20.384 Y24.858 F6000.000
G1 X20.384 Y23.142 E49.82105 F1200.000
G1 X20.050 Y23.142 F6000.000
G1 X20.050 Y24.858 E49.91637 F1200.000
G1 X19.715 Y24.858 F6000.000
G1 X19.715 Y23.142 E50.01170 F1200.000
G1 X19.381 Y23.142 F6000.000
G1 X19.381 Y24.858 E50.10702 F1200.000
G1 X19.047 Y24.858 F6000.000
G1 X19.047 Y23.142 E50.20234 F1200.000
G1 X18.713 Y23.142 F6000.000
G1 X18.713 Y24.858 E50.29766 F1200.000
G1 X18.379 Y24.858 F6000.000
G1 X18.379 Y23.142 E50.39299 F1200.000
G1 X18.045 Y23.142 F6000.000
G1 X18.045 Y24.858 E50.48831 F1200.000
G1 X17.710 Y24.858 F6000.000
G1 X17.710 Y23.142 E50.58363 F1200.000
G1 X17.376 Y23.142 F6000.000
G1 X17.376 Y24.858 E50.67896 F1200.000
G1 X17.042 Y24.858 F6000.000
G1 X17.042 Y23.142 E50.77428 F1200.000
G1 X16.708 Y23.142 F6000.000
G1 X16.708 Y24.858 E50.86960 F1200.000
G1 X16.374 Y24.858 F6000.000
G1 X16.374 Y23.142 E50.96492 F1200.000
G1 X16.040 Y23.142 F6000.000
G1 X16.040 Y24.858 E51.06025 F1200.000
G1 X15.705 Y24.858 F6000.000
G1 X15.705 Y23.142 E51.15557 F1200.000
G1 X15.371 Y23.142 F6000.000
G1 X15.371 Y24.858 E51.25089 F1200.000
G1 X15.037 Y24.858 F6000.000
G1 X15.037 Y23.142 E51.34621 F1200.000
G1 X14.703 Y23.142 F6000.000
G1 X14.703 Y24.858 E51.44154 F1200.000
G1 X14.369 Y24.858 F6000.000
G1 X14.369 Y23.142 E51.53686 F1200.000
G1 X14.035 Y23.142 F6000.000
G1 X14.035 Y24.858 E51.63218 F1200.000
G1 X13.701 Y24.858 F6000.000
G1 X13.701 Y23.142 E51.72750 F1200.000
G1 X13.366 Y23.142 F6000.000
G1 X13.366 Y24.858 E51.82283 F1200.000
G1 X13.032 Y24.858 F6000.000
G1 X13.032 Y23.142 E51.91815 F1200.000
G1 X12.698 Y23.142 F6000.000
G1 X12.698 Y24.858 E52.01347 F1200.000
G1 X12.364 Y24.858 F6000.000
G1 X12.364 Y23.142 E52.10879 F1200.000
G1 X12.030 Y23.142 F6000.000
G1 X12.030 Y24.858 E52.20412 F1200.000
G1 X11.696 Y24.858 F6000.000
G1 X11.696 Y23.142 E52.29944 F1200.000
G1 X11.361 Y23.142 F6000.000
G1 X11.361 Y24.858 E52.39476 F1200.000
G1 X11.027 Y24.858 F6000.000
G1 X11.027 Y23.142 E52.49009 F1200.000
G1 X10.693 Y23.142 F6000.000
G1 X10.693 Y24.858 E52.58541 F1200.000
G1 X10.359 Y24.858 F6000.000
G1 X10.359 Y23.142 E52.68073 F1200.000
G1 X10.025 Y23.142 F6000.000
G1 X10.025 Y24.858 E52.77605 F1200.000
G1 X9.691 Y24.858 F6000.000
G1 X9.691 Y23.142 E52.87138 F1200.000
G1 X9.356 Y23.142 F6000.000
G1 X9.356 Y24.858 E52.96670 F1200.000
G1 X9.022 Y24.858 F6000.000
G1 X9.022 Y23.142 E53.06202 F1200.000
G1 X8.688 Y23.142 F6000.000
G1 X8.688 Y24.858 E53.15734 F1200.000
G1 X8.354 Y24.858 F6000.000
G1 X8.354 Y23.142 E53.25267 F1200.000
G1 X8.020 Y23.142 F6000.000
G1 X8.020 Y24.059 E53.30363 F1200.000
G1 X7.103 Y23.142 E53.37571
G1 X6.434 Y23.142 F6000.000
G1 X8.150 Y24.858 E53.51052 F1200.000
G1 X7.481 Y24.858 F6000.000
G1 X5.766 Y23.142 E53.64532 F1200.000
G1 X5.098 Y23.142 F6000.000
G1 X6.813 Y24.858 E53.78013 F1200.000
G1 X6.145 Y24.858 F6000.000
G1 X4.429 Y23.142 E53.91494 F1200.000
G1 X3.761 Y23.142 F6000.000
G1 X5.476 Y24.858 E54.04974 F1200.000
G1 X4.808 Y24.858 F6000.000
G1 X3.093 Y23.142 E54.18455 F1200.000
G1 X2.424 Y23.142 F6000.000
G1 X4.140 Y24.858 E54.31936 F1200.000
G1 X3.471 Y24.858 F6000.000
G1 X1.756 Y23.142 E54.45416 F1200.000
G1 X1.088 Y23.142 F6000.000
G1 X2.803 Y24.858 E54.58897 F1200.000
