; generated by Slic3r 1.2.9 on 2016-06-01 at 13:20:08

; external perimeters extrusion width = 0.40mm
; perimeters extrusion width = 0.42mm
; infill extrusion width = 0.42mm
; solid infill extrusion width = 0.42mm
; top infill extrusion width = 0.42mm

M107
M190 S60 ; set bed temperature
M104 S200 ; set temperature
G28 ; home all axes

M109 S200 ; wait for temperature to be reached
G21 ; set units to millimeters
G90 ; use absolute coordinates
M82 ; use absolute distances for extrusion
G92 E0
G1 E-4.00000 F4800.00000
G92 E0
G1 Z1.000 F6000.000
G1 X28.752 Y0.000 F6000.000
G1 Z0.400 F6000.000
G1 E4.00000 F4800.00000
G1 X28.752 Y34.000 E5.88941 F1200.000
G1 X28.356 Y36.146 E6.01068
G1 X27.218 Y38.008 E6.13194
G1 X25.490 Y39.341 E6.25321
G1 X22.750 Y40.002 E6.40986
G1 X-22.750 Y40.002 E8.93834
G1 X-24.896 Y39.606 E9.05960
G1 X-26.758 Y38.468 E9.18087
G1 X-28.091 Y36.740 E9.30214
G1 X-28.752 Y34.000 E9.45879
G1 X-28.752 Y-34.000 E13.23761
G1 X-28.356 Y-36.146 E13.35888
G1 X-27.218 Y-38.008 E13.48014
G1 X-25.490 Y-39.341 E13.60141
G1 X-22.750 Y-40.002 E13.75806
G1 X22.750 Y-40.002 E16.28654
G1 X24.896 Y-39.606 E16.40780
G1 X26.758 Y-38.468 E16.52907 F1200.000
G1 X28.091 Y-36.740 E16.65034
G1 X28.752 Y-34.000 E16.80698
G1 X28.752 Y-0.060 E18.69306
G1 X28.418 Y0.000 F6000.000
G1 X28.418 Y34.000 E20.58247 F1200.000
G1 X28.022 Y36.083 E20.70029
G1 X26.888 Y37.874 E20.81810
G1 X25.175 Y39.123 E20.93591
G1 X22.750 Y39.668 E21.07404
G1 X-22.750 Y39.668 E23.60252
G1 X-24.833 Y39.272 E23.72033
G1 X-26.624 Y38.138 E23.83814
G1 X-27.873 Y36.425 E23.95596
G1 X-28.418 Y34.000 E24.09408
G1 X-28.418 Y-34.000 E27.87290
G1 X-28.022 Y-36.083 E27.99072
G1 X-26.888 Y-37.874 E28.10853
G1 X-25.175 Y-39.123 E28.22635
G1 X-22.750 Y-39.668 E28.36447
G1 X22.750 Y-39.668 E30.89295
G1 X24.833 Y-39.272 E31.01076
G1 X26.624 Y-38.138 E31.12857 F1200.000
G1 X27.873 Y-36.425 E31.24639
G1 X28.418 Y-34.000 E31.38451
G1 X28.418 Y-0.060 E33.27059
G1 X28.084 Y0.000 F6000.000
G1 X28.084 Y34.000 E35.16000 F1200.000
G1 X27.688 Y36.018 E35.27426
G1 X26.558 Y37.735 E35.38851
G1 X24.862 Y38.898 E35.50277
G1 X22.750 Y39.334 E35.62263
G1 X-22.750 Y39.334 E38.15111
G1 X-24.768 Y38.938 E38.26537
G1 X-26.485 Y37.808 E38.37962
G1 X-27.648 Y36.112 E38.49388
G1 X-28.084 Y34.000 E38.61374
G1 X-28.084 Y-34.000 E42.39256
G1 X-27.688 Y-36.018 E42.50682
G1 X-26.558 Y-37.735 E42.62108
G1 X-24.862 Y-38.898 E42.73533
G1 X-22.750 Y-39.334 E42.85520
G1 X22.750 Y-39.334 E45.38367
G1 X24.768 Y-38.938 E45.49793
G1 X26.485 Y-37.808 E45.61219 F1200.000
G1 X27.648 Y-36.112 E45.72644
G1 X28.084 Y-34.000 E45.84630
G1 X28.084 Y-0.060 E47.73238
G1 F4800
G1 X28.084 Y3.940 E43.93238
G1 E43.73238 F4800.00000
G92 E0
G1 Z1.400 F6000.000
G1 X-16.865 Y26.275 F6000.000
G1 Z0.400 F6000.000
G1 E4.00000 F4800.00000
G1 X-16.215 Y26.581 E4.03991 F1200.000
G1 X-15.661 Y27.039 E4.07982
G1 X-15.239 Y27.620 E4.11973
G1 X-14.975 Y28.287 E4.15964
G1 X-14.885 Y29.000 E4.19955
G1 X-14.975 Y29.713 E4.23946
G1 X-15.239 Y30.380 E4.27937
G1 X-15.661 Y30.961 E4.31929
G1 X-16.215 Y31.419 E4.35920
G1 X-16.865 Y31.725 E4.39911
G1 X-17.577 Y31.861 E4.43940
G1 X-18.325 Y31.802 E4.48111
G1 X-18.970 Y31.592 E4.51879
G1 X-19.576 Y31.208 E4.55870
G1 X-20.068 Y30.684 E4.59861
G1 X-20.414 Y30.055 E4.63852
G1 X-20.593 Y29.359 E4.67843
G1 X-20.593 Y28.641 E4.71834
G1 X-20.424 Y27.984 E4.75602
G1 X-20.073 Y27.321 E4.79773
G1 X-19.576 Y26.792 E4.83802
G1 X-18.964 Y26.404 E4.87831
G1 X-18.247 Y26.183 E4.92002
G1 X-17.570 Y26.141 E4.95770 F1200.000
G1 X-16.924 Y26.264 E4.99427
G1 X-16.969 Y26.595 F6000.000
G1 X-16.395 Y26.865 E5.02949 F1200.000
G1 X-15.907 Y27.269 E5.06471
G1 X-15.534 Y27.782 E5.09993
G1 X-15.301 Y28.371 E5.13515
G1 X-15.222 Y29.000 E5.17037
G1 X-15.301 Y29.629 E5.20559
G1 X-15.534 Y30.218 E5.24081
G1 X-15.907 Y30.731 E5.27603
G1 X-16.395 Y31.135 E5.31125
G1 X-16.969 Y31.405 E5.34646
G1 X-17.595 Y31.524 E5.38191
G1 X-18.259 Y31.472 E5.41894
G1 X-18.827 Y31.288 E5.45207
G1 X-19.362 Y30.948 E5.48729
G1 X-19.795 Y30.486 E5.52251
G1 X-20.101 Y29.931 E5.55772
G1 X-20.258 Y29.317 E5.59294
G1 X-20.258 Y28.683 E5.62816
G1 X-20.110 Y28.106 E5.66129
G1 X-19.798 Y27.517 E5.69832
G1 X-19.362 Y27.052 E5.73377
G1 X-18.823 Y26.710 E5.76922
G1 X-18.186 Y26.514 E5.80624
G1 X-17.591 Y26.477 E5.83937 F1200.000
G1 X-17.028 Y26.584 E5.87125
G1 X-17.070 Y26.906 F6000.000
G1 X-16.570 Y27.141 E5.90009 F1200.000
G1 X-16.145 Y27.493 E5.92892
G1 X-15.821 Y27.939 E5.95775
G1 X-15.618 Y28.452 E5.98658
G1 X-15.548 Y29.000 E6.01541
G1 X-15.618 Y29.548 E6.04425
G1 X-15.821 Y30.061 E6.07308
G1 X-16.145 Y30.507 E6.10191
G1 X-16.570 Y30.859 E6.13074
G1 X-17.070 Y31.094 E6.15957
G1 X-17.613 Y31.198 E6.18849
G1 X-18.196 Y31.152 E6.21902
G1 X-18.687 Y30.992 E6.24602
G1 X-19.153 Y30.696 E6.27485
G1 X-19.531 Y30.294 E6.30368
G1 X-19.797 Y29.810 E6.33252
G1 X-19.934 Y29.276 E6.36135
G1 X-19.934 Y28.724 E6.39018
G1 X-19.806 Y28.223 E6.41718
G1 X-19.532 Y27.707 E6.44771
G1 X-19.153 Y27.304 E6.47663
G1 X-18.686 Y27.007 E6.50554
G1 X-18.128 Y26.835 E6.53607
G1 X-17.612 Y26.803 E6.56307 F1200.000
G1 X-17.129 Y26.895 E6.58877
G1 X-16.761 Y26.651 F6000.000
G1 F4800
G1 X-16.570 Y27.141 E6.00911
G1 F4800
G1 X-16.145 Y27.493 E5.48484
G1 F4800
G1 X-15.821 Y27.939 E4.96057
G1 F4800
G1 X-15.618 Y28.452 E4.43630
G1 F4800
G1 X-15.548 Y29.000 E3.91203
G1 F4800
G1 X-15.618 Y29.548 E3.38776
G1 F4800
G1 X-15.821 Y30.061 E2.86349
G1 F4800
G1 X-15.867 Y30.124 E2.78877
G1 E2.58877 F4800.00000
G92 E0
G1 Z1.400 F6000.000
G1 X14.907 Y28.641 F6000.000
G1 Z0.400 F6000.000
G1 E4.00000 F4800.00000
G1 X15.076 Y27.984 E4.03768 F1200.000
G1 X15.427 Y27.321 E4.07939
G1 X15.924 Y26.792 E4.11968
G1 X16.536 Y26.404 E4.15997
G1 X17.253 Y26.183 E4.20168
G1 X17.930 Y26.141 E4.23936 F1200.000
G1 X18.635 Y26.275 E4.27927
G1 X19.285 Y26.581 E4.31918
G1 X19.839 Y27.039 E4.35909
G1 X20.261 Y27.620 E4.39900
G1 X20.525 Y28.287 E4.43891
G1 X20.615 Y29.000 E4.47882
G1 X20.525 Y29.713 E4.51873
G1 X20.261 Y30.380 E4.55864
G1 X19.839 Y30.961 E4.59855
G1 X19.285 Y31.419 E4.63847
G1 X18.635 Y31.725 E4.67838
G1 X17.923 Y31.861 E4.71867
G1 X17.175 Y31.802 E4.76038
G1 X16.530 Y31.592 E4.79806
G1 X15.924 Y31.208 E4.83797
G1 X15.432 Y30.684 E4.87788
G1 X15.105 Y30.090 E4.91555
G1 X14.907 Y29.366 E4.95727
G1 X14.907 Y28.701 E4.99422
G1 X15.242 Y28.683 F6000.000
G1 X15.390 Y28.106 E5.02735 F1200.000
G1 X15.702 Y27.517 E5.06438
G1 X16.138 Y27.052 E5.09983
G1 X16.677 Y26.710 E5.13527
G1 X17.314 Y26.514 E5.17230
G1 X17.909 Y26.477 E5.20543 F1200.000
G1 X18.531 Y26.595 E5.24065
G1 X19.105 Y26.865 E5.27587
G1 X19.593 Y27.269 E5.31109
G1 X19.966 Y27.782 E5.34630
G1 X20.199 Y28.371 E5.38152
G1 X20.278 Y29.000 E5.41674
G1 X20.199 Y29.629 E5.45196
G1 X19.966 Y30.218 E5.48718
G1 X19.593 Y30.731 E5.52240
G1 X19.105 Y31.135 E5.55762
G1 X18.531 Y31.405 E5.59284
G1 X17.905 Y31.524 E5.62829
G1 X17.241 Y31.472 E5.66531
G1 X16.673 Y31.288 E5.69844
G1 X16.138 Y30.948 E5.73366
G1 X15.705 Y30.486 E5.76888
G1 X15.417 Y29.964 E5.80201
G1 X15.242 Y29.321 E5.83903
G1 X15.242 Y28.743 E5.87115
G1 X15.566 Y28.724 F6000.000
G1 X15.694 Y28.223 E5.89815 F1200.000
G1 X15.968 Y27.707 E5.92868
G1 X16.347 Y27.304 E5.95759
G1 X16.814 Y27.007 E5.98651
G1 X17.372 Y26.835 E6.01703
G1 X17.888 Y26.803 E6.04404 F1200.000
G1 X18.430 Y26.906 E6.07287
G1 X18.930 Y27.141 E6.10170
G1 X19.355 Y27.493 E6.13053
G1 X19.679 Y27.939 E6.15937
G1 X19.882 Y28.452 E6.18820
G1 X19.952 Y29.000 E6.21703
G1 X19.882 Y29.548 E6.24586
G1 X19.679 Y30.061 E6.27469
G1 X19.355 Y30.507 E6.30353
G1 X18.930 Y30.859 E6.33236
G1 X18.430 Y31.094 E6.36119
G1 X17.887 Y31.198 E6.39011
G1 X17.304 Y31.152 E6.42063
G1 X16.813 Y30.992 E6.44764
G1 X16.347 Y30.696 E6.47647
G1 X15.969 Y30.294 E6.50530
G1 X15.720 Y29.841 E6.53230
G1 X15.566 Y29.278 E6.56283
G1 X15.566 Y28.784 E6.58861
G1 X15.258 Y28.469 F6000.000
G1 F4800
G1 X15.694 Y28.223 E6.04220
G1 F4800
G1 X15.968 Y27.707 E5.48711
G1 F4800
G1 X16.347 Y27.304 E4.96133
G1 F4800
G1 X16.814 Y27.007 E4.43555
G1 F4800
G1 X17.372 Y26.835 E3.88046
G1 E2.58861 F4800.00000
G92 E0
G1 Z1.400 F6000.000
G1 X7.361 Y14.037 F6000.000
G1 Z0.400 F6000.000
G1 E4.00000 F4800.00000
G1 X7.140 Y14.161 E4.01409 F1200.000
G1 X5.913 Y14.715 E4.08890
G1 X4.644 Y15.164 E4.16371
G1 X3.341 Y15.503 E4.23851
G1 X2.014 Y15.731 E4.31332
G1 X0.673 Y15.845 E4.38813
G1 X-0.673 Y15.845 E4.46294
G1 X-2.014 Y15.731 E4.53774
G1 X-3.341 Y15.503 E4.61255
G1 X-4.644 Y15.164 E4.68736
G1 X-5.913 Y14.715 E4.76216
G1 X-7.140 Y14.161 E4.83697
G1 X-8.315 Y13.504 E4.91178
G1 X-9.430 Y12.751 E4.98659
G1 X-10.478 Y11.905 E5.06139
G1 X-11.451 Y10.972 E5.13633
G1 X-12.391 Y9.893 E5.21584
G1 X-13.139 Y8.881 E5.28580
G1 X-13.845 Y7.734 E5.36061
G1 X-14.451 Y6.532 E5.43541
G1 X-14.953 Y5.283 E5.51022
G1 X-15.347 Y3.996 E5.58503
G1 X-15.631 Y2.678 E5.65996
G1 X-15.806 Y1.258 E5.73947
G1 X-15.859 Y-0.000 E5.80943
G1 X-15.802 Y-1.345 E5.88424
G1 X-15.631 Y-2.680 E5.95905
G1 X-15.347 Y-3.996 E6.03386
G1 X-14.953 Y-5.283 E6.10866
G1 X-14.451 Y-6.532 E6.18347
G1 X-13.845 Y-7.734 E6.25828
G1 X-13.139 Y-8.881 E6.33308
G1 X-12.339 Y-9.963 E6.40789
G1 X-11.450 Y-10.974 E6.48270
G1 X-10.478 Y-11.905 E6.55751
G1 X-9.498 Y-12.696 E6.62747
G1 X-8.317 Y-13.503 E6.70698
G1 X-7.140 Y-14.161 E6.78191
G1 X-5.913 Y-14.715 E6.85672
G1 X-4.644 Y-15.164 E6.93153
G1 X-3.341 Y-15.503 E7.00633
G1 X-2.014 Y-15.731 E7.08114
G1 X-0.673 Y-15.845 E7.15595
G1 X0.673 Y-15.845 E7.23076 F1200.000
G1 X2.014 Y-15.731 E7.30556
G1 X3.255 Y-15.518 E7.37553
G1 X4.642 Y-15.165 E7.45503
G1 X5.913 Y-14.715 E7.52997
G1 X7.140 Y-14.161 E7.60478
G1 X8.315 Y-13.504 E7.67958
G1 X9.432 Y-12.749 E7.75452
G1 X10.541 Y-11.845 E7.83403
G1 X11.450 Y-10.974 E7.90399
G1 X12.339 Y-9.963 E7.97880
G1 X13.139 Y-8.881 E8.05360
G1 X13.845 Y-7.734 E8.12841
G1 X14.451 Y-6.532 E8.20322
G1 X14.953 Y-5.283 E8.27803
G1 X15.347 Y-3.996 E8.35283
G1 X15.631 Y-2.680 E8.42764
G1 X15.802 Y-1.345 E8.50245
G1 X15.859 Y0.000 E8.57725
G1 X15.802 Y1.345 E8.65206
G1 X15.631 Y2.680 E8.72687
G1 X15.347 Y3.996 E8.80168
G1 X14.953 Y5.283 E8.87648
G1 X14.451 Y6.532 E8.95129
G1 X13.845 Y7.734 E9.02610
G1 X13.139 Y8.881 E9.10090
G1 X12.339 Y9.963 E9.17571
G1 X11.450 Y10.974 E9.25052
G1 X10.478 Y11.905 E9.32533
G1 X9.430 Y12.751 E9.40013
G1 X8.315 Y13.504 E9.47494
G1 X7.414 Y14.008 E9.53232
G1 X7.198 Y13.746 F6000.000
G1 X6.989 Y13.862 E9.54562 F1200.000
G1 X5.788 Y14.405 E9.61885
G1 X4.546 Y14.844 E9.69208
G1 X3.271 Y15.176 E9.76531
G1 X1.972 Y15.399 E9.83854
G1 X0.659 Y15.511 E9.91177
G1 X-0.659 Y15.511 E9.98500
G1 X-1.972 Y15.399 E10.05823
G1 X-3.271 Y15.176 E10.13146
G1 X-4.546 Y14.844 E10.20469
G1 X-5.788 Y14.405 E10.27792
G1 X-6.989 Y13.862 E10.35115
G1 X-8.140 Y13.220 E10.42438
G1 X-9.231 Y12.482 E10.49761
G1 X-10.257 Y11.654 E10.57084
G1 X-11.209 Y10.741 E10.64415
G1 X-12.130 Y9.684 E10.72208
G1 X-12.862 Y8.693 E10.79051
G1 X-13.553 Y7.571 E10.86374
G1 X-14.146 Y6.395 E10.93697
G1 X-14.638 Y5.172 E11.01020
G1 X-15.024 Y3.912 E11.08343
G1 X-15.302 Y2.622 E11.15674
G1 X-15.472 Y1.230 E11.23467
G1 X-15.525 Y-0.000 E11.30310
G1 X-15.469 Y-1.317 E11.37633
G1 X-15.301 Y-2.624 E11.44956
G1 X-15.024 Y-3.912 E11.52279
G1 X-14.638 Y-5.172 E11.59602
G1 X-14.146 Y-6.395 E11.66925
G1 X-13.553 Y-7.571 E11.74248
G1 X-12.862 Y-8.693 E11.81571
G1 X-12.079 Y-9.753 E11.88894
G1 X-11.208 Y-10.742 E11.96217
G1 X-10.257 Y-11.654 E12.03540
G1 X-9.299 Y-12.428 E12.10383
G1 X-8.141 Y-13.219 E12.18177
G1 X-6.989 Y-13.862 E12.25507
G1 X-5.788 Y-14.405 E12.32830
G1 X-4.546 Y-14.844 E12.40153
G1 X-3.271 Y-15.176 E12.47476
G1 X-1.972 Y-15.399 E12.54799
G1 X-0.659 Y-15.511 E12.62122
G1 X0.659 Y-15.511 E12.69445 F1200.000
G1 X1.972 Y-15.399 E12.76768
G1 X3.186 Y-15.191 E12.83611
G1 X4.545 Y-14.845 E12.91404
G1 X5.788 Y-14.405 E12.98735
G1 X6.989 Y-13.862 E13.06058
G1 X8.140 Y-13.220 E13.13381
G1 X9.233 Y-12.481 E13.20712
G1 X10.319 Y-11.594 E13.28505
G1 X11.208 Y-10.742 E13.35348
G1 X12.079 Y-9.753 E13.42671
G1 X12.862 Y-8.693 E13.49994
G1 X13.553 Y-7.571 E13.57317
G1 X14.146 Y-6.395 E13.64640
G1 X14.638 Y-5.172 E13.71963
G1 X15.024 Y-3.912 E13.79286
G1 X15.301 Y-2.624 E13.86609
G1 X15.469 Y-1.317 E13.93932
G1 X15.525 Y0.000 E14.01255
G1 X15.469 Y1.317 E14.08578
G1 X15.301 Y2.624 E14.15901
G1 X15.024 Y3.912 E14.23224
G1 X14.638 Y5.172 E14.30547
G1 X14.146 Y6.395 E14.37870
G1 X13.553 Y7.571 E14.45193
G1 X12.862 Y8.693 E14.52516
G1 X12.079 Y9.753 E14.59839
G1 X11.208 Y10.742 E14.67162
G1 X10.257 Y11.654 E14.74485
G1 X9.231 Y12.482 E14.81808
G1 X8.140 Y13.220 E14.89130
G1 X7.251 Y13.716 E14.94790
G1 X7.040 Y13.463 F6000.000
G1 X6.843 Y13.573 E14.95968 F1200.000
G1 X5.667 Y14.104 E15.02709
G1 X4.451 Y14.534 E15.09450
G1 X3.202 Y14.859 E15.16191
G1 X1.931 Y15.077 E15.22932
G1 X0.645 Y15.186 E15.29672
G1 X-0.645 Y15.186 E15.36413
G1 X-1.931 Y15.077 E15.43154
G1 X-3.202 Y14.859 E15.49895
G1 X-4.451 Y14.534 E15.56636
G1 X-5.667 Y14.104 E15.63376
G1 X-6.843 Y13.573 E15.70117
G1 X-7.970 Y12.943 E15.76858
G1 X-9.039 Y12.221 E15.83599
G1 X-10.042 Y11.410 E15.90339
G1 X-10.974 Y10.517 E15.97083
G1 X-11.877 Y9.480 E16.04266
G1 X-12.593 Y8.512 E16.10560
G1 X-13.270 Y7.413 E16.17301
G1 X-13.851 Y6.261 E16.24042
G1 X-14.332 Y5.064 E16.30783
G1 X-14.710 Y3.830 E16.37523
G1 X-14.982 Y2.568 E16.44267
G1 X-15.149 Y1.204 E16.51450
G1 X-15.200 Y-0.000 E16.57744
G1 X-15.145 Y-1.289 E16.64485
G1 X-14.982 Y-2.569 E16.71226
G1 X-14.710 Y-3.830 E16.77967
G1 X-14.332 Y-5.064 E16.84707
G1 X-13.851 Y-6.261 E16.91448
G1 X-13.270 Y-7.413 E16.98189
G1 X-12.593 Y-8.512 E17.04930
G1 X-11.826 Y-9.549 E17.11671
G1 X-10.974 Y-10.518 E17.18411
G1 X-10.042 Y-11.410 E17.25152
G1 X-9.105 Y-12.167 E17.31447
G1 X-7.970 Y-12.943 E17.38629
G1 X-6.843 Y-13.573 E17.45373
G1 X-5.667 Y-14.104 E17.52114
G1 X-4.451 Y-14.534 E17.58854
G1 X-3.202 Y-14.859 E17.65595
G1 X-1.931 Y-15.077 E17.72336
G1 X-0.645 Y-15.186 E17.79077
G1 X0.645 Y-15.186 E17.85818 F1200.000
G1 X1.931 Y-15.077 E17.92558
G1 X3.118 Y-14.873 E17.98853
G1 X4.450 Y-14.534 E18.06036
G1 X5.667 Y-14.104 E18.12779
G1 X6.843 Y-13.573 E18.19520
G1 X7.970 Y-12.943 E18.26261
G1 X9.039 Y-12.221 E18.33004
G1 X10.104 Y-11.351 E18.40187
G1 X10.974 Y-10.518 E18.46482
G1 X11.826 Y-9.549 E18.53222
G1 X12.593 Y-8.512 E18.59963
G1 X13.270 Y-7.413 E18.66704
G1 X13.851 Y-6.261 E18.73445
G1 X14.332 Y-5.064 E18.80186
G1 X14.710 Y-3.830 E18.86926
G1 X14.982 Y-2.569 E18.93667
G1 X15.145 Y-1.289 E19.00408
G1 X15.200 Y0.000 E19.07149
G1 X15.145 Y1.289 E19.13890
G1 X14.982 Y2.569 E19.20630
G1 X14.710 Y3.830 E19.27371
G1 X14.332 Y5.064 E19.34112
G1 X13.851 Y6.261 E19.40853
G1 X13.270 Y7.413 E19.47593
G1 X12.593 Y8.512 E19.54334
G1 X11.826 Y9.549 E19.61075
G1 X10.974 Y10.518 E19.67816
G1 X10.042 Y11.410 E19.74557
G1 X9.039 Y12.221 E19.81297
G1 X7.970 Y12.943 E19.88038
G1 X7.093 Y13.433 E19.93287
G1 X7.037 Y13.688 F6000.000
G1 F4800
G1 X6.843 Y13.573 E19.66152
G1 F4800
G1 X5.667 Y14.104 E18.43580
G1 F4800
G1 X4.451 Y14.534 E17.21009
G1 F4800
G1 X3.354 Y14.820 E16.13287
G1 E15.93287 F4800.00000
G92 E0
G1 Z1.400 F6000.000
G1 X-9.614 Y-12.785 F6000.000
G1 X-14.100 Y-18.989 F6000.000
G1 X-13.589 Y-19.272 F6000.000
G1 X-12.932 Y-19.646 F6000.000
G1 X-16.138 Y-26.460 F6000.000
G1 X-16.215 Y-26.581 F6000.000
G1 Z0.400 F6000.000
G1 E4.00000 F4800.00000
G1 X-16.865 Y-26.275 E4.03991 F1200.000
G1 X-17.577 Y-26.139 E4.08020
G1 X-18.325 Y-26.198 E4.12191
G1 X-18.970 Y-26.408 E4.15959
G1 X-19.576 Y-26.792 E4.19950
G1 X-20.068 Y-27.316 E4.23941
G1 X-20.395 Y-27.910 E4.27709
G1 X-20.593 Y-28.634 E4.31880
G1 X-20.593 Y-29.359 E4.35909
G1 X-20.412 Y-30.061 E4.39936
G1 X-20.067 Y-30.685 E4.43899
G1 X-19.576 Y-31.208 E4.47883
G1 X-18.964 Y-31.596 E4.51912
G1 X-18.247 Y-31.817 E4.56083
G1 X-17.570 Y-31.859 E4.59851 F1200.000
G1 X-16.865 Y-31.725 E4.63842
G1 X-16.215 Y-31.419 E4.67833
G1 X-15.661 Y-30.961 E4.71824
G1 X-15.239 Y-30.380 E4.75815
G1 X-14.975 Y-29.713 E4.79806
G1 X-14.885 Y-29.000 E4.83798
G1 X-14.975 Y-28.287 E4.87789
G1 X-15.239 Y-27.620 E4.91780
G1 X-15.661 Y-27.039 E4.95771
G1 X-16.169 Y-26.619 E4.99428
G1 X-16.395 Y-26.865 F6000.000
G1 X-16.969 Y-26.595 E5.02950 F1200.000
G1 X-17.595 Y-26.476 E5.06495
