; generated by Slic3r 1.2.9 on 2016-05-12 at 12:12:21

; external perimeters extrusion width = 0.40mm
; perimeters extrusion width = 0.67mm
; infill extrusion width = 0.67mm
; solid infill extrusion width = 0.67mm
; top infill extrusion width = 0.67mm
; support material extrusion width = 0.40mm

M107
M104 S210 ; set temperature
G28 ; home all axes
G1 X70Y70Z10 F5000 
M109 S210 ; wait for temperature to be reached
G21 ; set units to millimeters
G90 ; use absolute coordinates
M82 ; use absolute distances for extrusion
G92 E0
G1 E-4.00000 F4800.00000
G92 E0
G1 Z1.000 F3600.000
G1 X29.007 Y0.000 F3600.000
G1 Z0.300 F3600.000
G1 E4.00000 F4800.00000
G1 X29.007 Y24.000 E5.25388 F1200.000
G1 X28.610 Y26.193 E5.37029
G1 X27.470 Y28.107 E5.48671
G1 X25.731 Y29.501 E5.60313
G1 X22.750 Y30.257 E5.76380
G1 X-22.750 Y30.257 E8.14094
G1 X-24.943 Y29.860 E8.25736
G1 X-26.857 Y28.720 E8.37378
G1 X-28.251 Y26.981 E8.49019
G1 X-29.007 Y24.000 E8.65086
G1 X-29.007 Y-24.000 E11.15862
G1 X-28.610 Y-26.193 E11.27504
G1 X-27.470 Y-28.107 E11.39145
G1 X-25.731 Y-29.501 E11.50787
G1 X-22.750 Y-30.257 E11.66854
G1 X22.750 Y-30.257 E14.04569
G1 X24.943 Y-29.860 E14.16210
G1 X26.857 Y-28.720 E14.27852 F1200.000
G1 X28.251 Y-26.981 E14.39494
G1 X29.007 Y-24.000 E14.55561
G1 X29.007 Y-0.060 E15.80635
G1 X28.588 Y0.000 F3600.000
G1 X28.588 Y24.000 E17.06023 F1200.000
G1 X28.191 Y26.115 E17.17265
G1 X27.055 Y27.943 E17.28507
G1 X25.335 Y29.234 E17.39749
G1 X22.750 Y29.838 E17.53615
G1 X-22.750 Y29.838 E19.91329
G1 X-24.865 Y29.441 E20.02571
G1 X-26.693 Y28.305 E20.13813
G1 X-27.984 Y26.585 E20.25055
G1 X-28.588 Y24.000 E20.38921
G1 X-28.588 Y-24.000 E22.89697
G1 X-28.191 Y-26.115 E23.00939
G1 X-27.055 Y-27.943 E23.12181
G1 X-25.335 Y-29.234 E23.23423
G1 X-22.750 Y-29.838 E23.37289
G1 X22.750 Y-29.838 E25.75003
G1 X24.865 Y-29.441 E25.86245
G1 X26.693 Y-28.305 E25.97487 F1200.000
G1 X27.984 Y-26.585 E26.08729
G1 X28.588 Y-24.000 E26.22595
G1 X28.588 Y-0.060 E27.47669
G1 X28.169 Y0.000 F3600.000
G1 X28.169 Y24.000 E28.73057 F1200.000
G1 X27.773 Y26.034 E28.83885
G1 X26.642 Y27.771 E28.94712
G1 X24.941 Y28.956 E29.05540
G1 X22.750 Y29.419 E29.17241
G1 X-22.750 Y29.419 E31.54956
G1 X-24.784 Y29.023 E31.65783
G1 X-26.521 Y27.892 E31.76611
G1 X-27.706 Y26.191 E31.87438
G1 X-28.169 Y24.000 E31.99140
G1 X-28.169 Y-24.000 E34.49916
G1 X-27.773 Y-26.034 E34.60743
G1 X-26.642 Y-27.771 E34.71571
G1 X-24.941 Y-28.956 E34.82398
G1 X-22.750 Y-29.419 E34.94100
G1 X22.750 Y-29.419 E37.31814
G1 X24.784 Y-29.023 E37.42642
G1 X26.521 Y-27.892 E37.53470 F1200.000
G1 X27.706 Y-26.191 E37.64297
G1 X28.169 Y-24.000 E37.75999
G1 X28.169 Y-0.060 E39.01073
G1 F2880
G1 X28.169 Y2.340 E35.21073
G1 E35.01073 F4800.00000
G92 E0
G1 Z1.300 F3600.000
G1 X21.754 Y-23.004 F3600.000
G1 Z0.300 F3600.000
G1 E4.00000 F4800.00000
G1 X21.754 Y23.004 E6.40367 F1200.000
G1 X-21.754 Y23.004 E8.67673
G1 X-21.754 Y-23.004 E11.08040
G1 X21.694 Y-23.004 E13.35032
G1 X22.173 Y-23.423 F3600.000
G1 X22.173 Y23.423 E15.79776 F1200.000
G1 X-22.173 Y23.423 E18.11459
G1 X-22.173 Y-23.423 E20.56202
G1 X22.113 Y-23.423 E22.87572
G1 X22.550 Y-23.800 F3600.000
G1 X22.550 Y23.800 E24.86827 F1200.000
G1 X-22.550 Y23.800 E26.75617
G1 X-22.550 Y-23.800 E28.74872
G1 X22.490 Y-23.800 E30.63411
G1 X22.350 Y-23.454 F3600.000
G1 X21.507 Y-22.539 F3600.000
G1 X21.289 Y-22.757 E30.65027 F1200.000
G1 X20.694 Y-22.757 E30.68151
G1 X21.507 Y-21.944 E30.74186
G1 X21.507 Y-21.349 E30.77311
G1 X20.099 Y-22.757 E30.87765
G1 X19.503 Y-22.757 E30.90889
G1 X21.507 Y-20.753 E31.05762
G1 X21.507 Y-20.158 E31.08886
G1 X18.908 Y-22.757 E31.28177
G1 X18.313 Y-22.757 E31.31302
G1 X21.507 Y-19.563 E31.55012
G1 X21.507 Y-18.968 E31.58136
G1 X17.718 Y-22.757 E31.86265
G1 X17.122 Y-22.757 E31.89390
G1 X21.507 Y-18.373 E32.21937
G1 X21.507 Y-17.777 E32.25062
G1 X16.527 Y-22.757 E32.62028
G1 X15.932 Y-22.757 E32.65152
G1 X21.507 Y-17.182 E33.06537
G1 X21.507 Y-16.587 E33.09662
G1 X15.337 Y-22.757 E33.55466
G1 X14.742 Y-22.757 E33.58590
G1 X21.507 Y-15.992 E34.08813
G1 X21.507 Y-15.396 E34.11937
G1 X14.146 Y-22.757 E34.66578
G1 X13.551 Y-22.757 E34.69703
G1 X21.507 Y-14.801 E35.28763
G1 X21.507 Y-14.206 E35.31887
G1 X12.956 Y-22.757 E35.95366
G1 X12.361 Y-22.757 E35.98491
G1 X21.507 Y-13.611 E36.66388
G1 X21.507 Y-13.016 E36.69513
G1 X11.766 Y-22.757 E37.41829
G1 X11.170 Y-22.757 E37.44953
G1 X21.507 Y-12.420 E38.21688
G1 X21.507 Y-11.825 E38.24813
G1 X10.575 Y-22.757 E39.05966
G1 X9.980 Y-22.757 E39.09091
G1 X21.507 Y-11.230 E39.94663
G1 X21.507 Y-10.635 E39.97788
G1 X9.385 Y-22.757 E40.87779
G1 X8.790 Y-22.757 E40.90903
G1 X21.507 Y-10.040 E41.85313
G1 X21.507 Y-9.444 E41.88438
G1 X8.194 Y-22.757 E42.87266
G1 X7.599 Y-22.757 E42.90391
G1 X21.507 Y-8.849 E43.93638
G1 X21.507 Y-8.254 E43.96763
G1 X7.004 Y-22.757 E45.04429
G1 X6.409 Y-22.757 E45.07553
G1 X21.507 Y-7.659 E46.19638
G1 X21.507 Y-7.063 E46.22763
G1 X5.813 Y-22.757 E47.39266
G1 X5.218 Y-22.757 E47.42391
G1 X21.507 Y-6.468 E48.63313
G1 X21.507 Y-5.873 E48.66438
G1 X4.623 Y-22.757 E49.91779
G1 X4.028 Y-22.757 E49.94903
G1 X21.507 Y-5.278 E51.24663
G1 X21.507 Y-4.683 E51.27788
G1 X3.433 Y-22.757 E52.61966
G1 X2.837 Y-22.757 E52.65091
G1 X21.507 Y-4.087 E54.03688
G1 X21.507 Y-3.492 E54.06813
G1 X2.242 Y-22.757 E55.49829
G1 X1.647 Y-22.757 E55.52953
G1 X21.507 Y-2.897 E57.00388
G1 X21.507 Y-2.302 E57.03513
G1 X1.052 Y-22.757 E58.55366
G1 X0.457 Y-22.757 E58.58491
G1 X21.507 Y-1.707 E60.14763
G1 X21.507 Y-1.111 E60.17888
G1 X-0.139 Y-22.757 E61.78579
G1 X-0.734 Y-22.757 E61.81703
G1 X21.507 Y-0.516 E63.46813
G1 X21.507 Y0.079 E63.49937
G1 X-1.329 Y-22.757 E65.19466
G1 X-1.924 Y-22.757 E65.22590
G1 X21.507 Y0.674 E66.96538
G1 X21.507 Y1.269 E66.99662
G1 X-2.519 Y-22.757 E68.78028
G1 X-3.115 Y-22.757 E68.81153
G1 X21.507 Y1.865 E70.63937
G1 X21.507 Y2.460 E70.67062
G1 X-3.710 Y-22.757 E72.54265
G1 X-4.305 Y-22.757 E72.57390
G1 X21.507 Y3.055 E74.49012
G1 X21.507 Y3.650 E74.52137
G1 X-4.900 Y-22.757 E76.48178
G1 X-5.496 Y-22.757 E76.51302
G1 X21.507 Y4.246 E78.51762
G1 X21.507 Y4.841 E78.54886
G1 X-6.091 Y-22.757 E80.59765
G1 X-6.686 Y-22.757 E80.62889
G1 X21.507 Y5.436 E82.72187
G1 X21.507 Y6.031 E82.75311
G1 X-7.281 Y-22.757 E84.89027
G1 X-7.876 Y-22.757 E84.92152
G1 X21.507 Y6.626 E87.10286
G1 X21.507 Y7.222 E87.13411
G1 X-8.472 Y-22.757 E89.35964
G1 X-9.067 Y-22.757 E89.39089
G1 X21.507 Y7.817 E91.66061
G1 X21.507 Y8.412 E91.69185
G1 X-9.662 Y-22.757 E94.00576
G1 X-10.257 Y-22.757 E94.03701
G1 X21.507 Y9.007 E96.39511
G1 X21.507 Y9.602 E96.42635
G1 X-10.852 Y-22.757 E98.82863
G1 X-11.448 Y-22.757 E98.85988
G1 X21.507 Y10.198 E101.30635
G1 X21.507 Y10.793 E101.33760
G1 X-12.043 Y-22.757 E103.82826
G1 X-12.638 Y-22.757 E103.85950
G1 X21.507 Y11.388 E106.39435
G1 X21.507 Y11.983 E106.42559
G1 X-13.233 Y-22.757 E109.00463
G1 X-13.829 Y-22.757 E109.03587
G1 X21.507 Y12.579 E111.65909
G1 X21.507 Y13.174 E111.69034
G1 X-14.424 Y-22.757 E114.35775
G1 X-15.019 Y-22.757 E114.38899
G1 X21.507 Y13.769 E117.10059
G1 X21.507 Y14.364 E117.13183
G1 X-15.614 Y-22.757 E119.88762
G1 X-16.209 Y-22.757 E119.91886
G1 X21.507 Y14.959 E122.71883
G1 X21.507 Y15.555 E122.75008
G1 X-16.805 Y-22.757 E125.59424
G1 X-17.400 Y-22.757 E125.62548
G1 X21.507 Y16.150 E128.51383
G1 X21.507 Y16.745 E128.54507
G1 X-17.995 Y-22.757 E131.47760
G1 X-18.590 Y-22.757 E131.50885
G1 X21.507 Y17.340 E134.48557
G1 X21.507 Y17.935 E134.51682
G1 X-19.185 Y-22.757 E137.53772
G1 X-19.781 Y-22.757 E137.56897
G1 X21.507 Y18.531 E140.63406
G1 X21.507 Y19.126 E140.66531
G1 X-20.376 Y-22.757 E143.77459
G1 X-20.971 Y-22.757 E143.80584
G1 X21.507 Y19.721 E146.95931
G1 X21.507 Y20.316 E146.99055
G1 X-21.507 Y-22.697 E150.18379
G1 X-21.507 Y-22.102 E150.21503
G1 X21.507 Y20.911 E153.40827
G1 X21.507 Y21.507 E153.43951
G1 X-21.507 Y-21.507 E156.63275
G1 X-21.507 Y-20.911 E156.66399
G1 X21.507 Y22.102 E159.85723
G1 X21.507 Y22.697 E159.88847
G1 X-21.507 Y-20.316 E163.08171
G1 X-21.507 Y-19.721 E163.11295
G1 X20.971 Y22.757 E166.26642
G1 X20.376 Y22.757 E166.29767
G1 X-21.507 Y-19.126 E169.40695
G1 X-21.507 Y-18.531 E169.43820
G1 X19.781 Y22.757 E172.50329
G1 X19.185 Y22.757 E172.53454
G1 X-21.507 Y-17.935 E175.55544
G1 X-21.507 Y-17.340 E175.58669
G1 X18.590 Y22.757 E178.56341
G1 X17.995 Y22.757 E178.59465
G1 X-21.507 Y-16.745 E181.52719
G1 X-21.507 Y-16.150 E181.55843
G1 X17.400 Y22.757 E184.44678
G1 X16.805 Y22.757 E184.47802
G1 X-21.507 Y-15.555 E187.32218
G1 X-21.507 Y-14.959 E187.35342
G1 X16.209 Y22.757 E190.15339
G1 X15.614 Y22.757 E190.18464
G1 X-21.507 Y-14.364 E192.94042
G1 X-21.507 Y-13.769 E192.97167
G1 X15.019 Y22.757 E195.68326
G1 X14.424 Y22.757 E195.71451
G1 X-21.507 Y-13.174 E198.38192
G1 X-21.507 Y-12.579 E198.41316
G1 X13.829 Y22.757 E201.03638
G1 X13.233 Y22.757 E201.06763
G1 X-21.507 Y-11.983 E203.64666
G1 X-21.507 Y-11.388 E203.67791
G1 X12.638 Y22.757 E206.21275
G1 X12.043 Y22.757 E206.24400
G1 X-21.507 Y-10.793 E208.73465
G1 X-21.507 Y-10.198 E208.76590
G1 X11.448 Y22.757 E211.21237
G1 X10.852 Y22.757 E211.24362
G1 X-21.507 Y-9.602 E213.64590
G1 X-21.507 Y-9.007 E213.67714
G1 X10.257 Y22.757 E216.03524
G1 X9.662 Y22.757 E216.06649
G1 X-21.507 Y-8.412 E218.38039
G1 X-21.507 Y-7.817 E218.41164
G1 X9.067 Y22.757 E220.68136
G1 X8.472 Y22.757 E220.71261
G1 X-21.507 Y-7.222 E222.93814
G1 X-21.507 Y-6.626 E222.96938
G1 X7.876 Y22.757 E225.15073
G1 X7.281 Y22.757 E225.18198
G1 X-21.507 Y-6.031 E227.31913
G1 X-21.507 Y-5.436 E227.35038
G1 X6.686 Y22.757 E229.44335
G1 X6.091 Y22.757 E229.47460
G1 X-21.507 Y-4.841 E231.52338
G1 X-21.507 Y-4.246 E231.55463
G1 X5.496 Y22.757 E233.55922
G1 X4.900 Y22.757 E233.59047
G1 X-21.507 Y-3.650 E235.55088
G1 X-21.507 Y-3.055 E235.58212
G1 X4.305 Y22.757 E237.49834
G1 X3.710 Y22.757 E237.52959
G1 X-21.507 Y-2.460 E239.40162
G1 X-21.507 Y-1.865 E239.43287
G1 X3.115 Y22.757 E241.26071
G1 X2.519 Y22.757 E241.29196
G1 X-21.507 Y-1.269 E243.07562
G1 X-21.507 Y-0.674 E243.10686
G1 X1.924 Y22.757 E244.84634
G1 X1.329 Y22.757 E244.87758
G1 X-21.507 Y-0.079 E246.57287
G1 X-21.507 Y0.516 E246.60411
G1 X0.734 Y22.757 E248.25521
G1 X0.139 Y22.757 E248.28645
G1 X-21.507 Y1.111 E249.89336
G1 X-21.507 Y1.707 E249.92461
G1 X-0.457 Y22.757 E251.48733
G1 X-1.052 Y22.757 E251.51858
G1 X-21.507 Y2.302 E253.03711
G1 X-21.507 Y2.897 E253.06836
G1 X-1.647 Y22.757 E254.54270
G1 X-2.242 Y22.757 E254.57395
G1 X-21.507 Y3.492 E256.00411
G1 X-21.507 Y4.087 E256.03535
G1 X-2.837 Y22.757 E257.42133
G1 X-3.433 Y22.757 E257.45257
G1 X-21.507 Y4.683 E258.79436
G1 X-21.507 Y5.278 E258.82560
G1 X-4.028 Y22.757 E260.12320
G1 X-4.623 Y22.757 E260.15444
G1 X-21.507 Y5.873 E261.40785
G1 X-21.507 Y6.468 E261.43910
G1 X-5.218 Y22.757 E262.64832
G1 X-5.813 Y22.757 E262.67957
G1 X-21.507 Y7.063 E263.84460
G1 X-21.507 Y7.659 E263.87585
G1 X-6.409 Y22.757 E264.99670
G1 X-7.004 Y22.757 E265.02794
G1 X-21.507 Y8.254 E266.10460
G1 X-21.507 Y8.849 E266.13585
G1 X-7.599 Y22.757 E267.16832
G1 X-8.194 Y22.757 E267.19957
G1 X-21.507 Y9.444 E268.18785
G1 X-21.507 Y10.040 E268.21910
G1 X-8.790 Y22.757 E269.16320
G1 X-9.385 Y22.757 E269.19444
G1 X-21.507 Y10.635 E270.09435
G1 X-21.507 Y11.230 E270.12560
G1 X-9.980 Y22.757 E270.98132
G1 X-10.575 Y22.757 E271.01257
G1 X-21.507 Y11.825 E271.82410
G1 X-21.507 Y12.420 E271.85535
G1 X-11.170 Y22.757 E272.62270
G1 X-11.766 Y22.757 E272.65394
G1 X-21.507 Y13.016 E273.37710
G1 X-21.507 Y13.611 E273.40835
G1 X-12.361 Y22.757 E274.08732
G1 X-12.956 Y22.757 E274.11857
G1 X-21.507 Y14.206 E274.75335
G1 X-21.507 Y14.801 E274.78460
G1 X-13.551 Y22.757 E275.37520
G1 X-14.146 Y22.757 E275.40644
G1 X-21.507 Y15.396 E275.95285
G1 X-21.507 Y15.992 E275.98410
G1 X-14.742 Y22.757 E276.48632
G1 X-15.337 Y22.757 E276.51757
G1 X-21.507 Y16.587 E276.97560
G1 X-21.507 Y17.182 E277.00685
G1 X-15.932 Y22.757 E277.42070
G1 X-16.527 Y22.757 E277.45194
G1 X-21.507 Y17.777 E277.82160
G1 X-21.507 Y18.373 E277.85285
G1 X-17.123 Y22.757 E278.17832
G1 X-17.718 Y22.757 E278.20957
G1 X-21.507 Y18.968 E278.49086
G1 X-21.507 Y19.563 E278.52210
G1 X-18.313 Y22.757 E278.75920
G1 X-18.908 Y22.757 E278.79045
G1 X-21.507 Y20.158 E278.98336
G1 X-21.507 Y20.753 E279.01460
G1 X-19.503 Y22.757 E279.16333
G1 X-20.099 Y22.757 E279.19457
G1 X-21.507 Y21.349 E279.29911
G1 X-21.507 Y21.944 E279.33035
G1 X-20.694 Y22.757 E279.39070
G1 X-21.289 Y22.757 E279.42195
G1 X-21.507 Y22.539 E279.43811
G1 F2880
G1 X-21.289 Y22.757 E278.95063
G1 F2880
G1 X-20.694 Y22.757 E278.00821
G1 F2880
G1 X-21.507 Y21.944 E276.18794
G1 F2880
G1 X-21.507 Y21.597 E275.63811
G1 E275.43811 F4800.00000
G92 E0
G1 Z1.300 F3600.000
G1 Z0.300 F3600.000
G1 Z1.300 F3600.000
G1 X21.429 Y-22.679 F3600.000
G1 Z0.500 F3600.000
G1 E4.00000 F4800.00000
G1 X21.429 Y22.679 E6.36972 F2045.915
G1 X-21.429 Y22.679 E8.60883
G1 X-21.429 Y-22.679 E10.97856
G1 X21.369 Y-22.679 E13.21453
G1 X22.057 Y-23.307 F3600.000
G1 X22.057 Y23.307 E15.64991 F2045.915
G1 X-22.057 Y23.307 E17.95467
G1 X-22.057 Y-23.307 E20.39004
G1 X21.997 Y-23.307 E22.69167
G1 X22.550 Y-23.800 F3600.000
G1 X22.550 Y23.800 E24.10498 F2400.000
G1 X-22.550 Y23.800 E25.44406
G1 X-22.550 Y-23.800 E26.85736
G1 X22.490 Y-23.800 E28.19466
G1 X22.350 Y-23.454 F3600.000
G1 F2880
G1 X22.493 Y-21.400 E24.39466
G1 E24.19466 F4800.00000
G92 E0
G1 Z1.500 F3600.000
G1 X-20.742 Y-22.298 F3600.000
G1 Z0.500 F3600.000
G1 E4.00000 F4800.00000
G1 X-21.048 Y-21.992 E4.02285 F2027.461
G1 X-21.048 Y-21.095 E4.07012
G1 X-19.845 Y-22.298 E4.15983
G1 X-18.948 Y-22.298 E4.20710
G1 X-21.048 Y-20.198 E4.36366
G1 X-21.048 Y-19.302 E4.41093
G1 X-18.052 Y-22.298 E4.63434
G1 X-17.155 Y-22.298 E4.68162
G1 X-21.048 Y-18.405 E4.97188
G1 X-21.048 Y-17.508 E5.01915
G1 X-16.258 Y-22.298 E5.37627
G1 X-15.362 Y-22.298 E5.42355
G1 X-21.048 Y-16.612 E5.84752
G1 X-21.048 Y-15.715 E5.89479
G1 X-14.465 Y-22.298 E6.38562
G1 X-13.568 Y-22.298 E6.43289
G1 X-21.048 Y-14.818 E6.99057
G1 X-21.048 Y-13.922 E7.03784
G1 X-12.672 Y-22.298 E7.66237
G1 X-11.775 Y-22.298 E7.70965
G1 X-21.048 Y-13.025 E8.40103
G1 X-21.048 Y-12.128 E8.44830
G1 X-10.878 Y-22.298 E9.20654
G1 X-9.982 Y-22.298 E9.25382
G1 X-21.048 Y-11.232 E10.07891
G1 X-21.048 Y-10.335 E10.12618
G1 X-9.085 Y-22.298 E11.01813
G1 X-8.188 Y-22.298 E11.06540
G1 X-21.048 Y-9.438 E12.02420
G1 X-21.048 Y-8.542 E12.07147
G1 X-7.292 Y-22.298 E13.09713
G1 X-6.395 Y-22.298 E13.14440
G1 X-21.048 Y-7.645 E14.23691
G1 X-21.048 Y-6.748 E14.28418
G1 X-5.498 Y-22.298 E15.44354
G1 X-4.602 Y-22.298 E15.49081
G1 X-21.048 Y-5.852 E16.71703
G1 X-21.048 Y-4.955 E16.76430
G1 X-3.705 Y-22.298 E18.05737
G1 X-2.808 Y-22.298 E18.10464
G1 X-21.048 Y-4.058 E19.46456
G1 X-21.048 Y-3.162 E19.51183
G1 X-1.912 Y-22.298 E20.93861
G1 X-1.015 Y-22.298 E20.98588
G1 X-21.048 Y-2.265 E22.47951
G1 X-21.048 Y-1.368 E22.52678
G1 X-0.118 Y-22.298 E24.08726
G1 X0.778 Y-22.298 E24.13454
G1 X-21.048 Y-0.472 E25.76187
G1 X-21.048 Y0.425 E25.80914
G1 X1.675 Y-22.298 E27.50333
G1 X2.572 Y-22.298 E27.55061
G1 X-21.048 Y1.322 E29.31165
G1 X-21.048 Y2.218 E29.35892
G1 X3.468 Y-22.298 E31.18682
G1 X4.365 Y-22.298 E31.23409
G1 X-21.048 Y3.115 E33.12884
G1 X-21.048 Y4.012 E33.17611
G1 X5.262 Y-22.298 E35.13771
G1 X6.158 Y-22.298 E35.18499
G1 X-21.048 Y4.908 E37.21344
G1 X-21.048 Y5.805 E37.26071
G1 X7.055 Y-22.298 E39.35602
G1 X7.952 Y-22.298 E39.40330
G1 X-21.048 Y6.702 E41.56546
G1 X-21.048 Y7.598 E41.61273
G1 X8.848 Y-22.298 E43.84175
G1 X9.745 Y-22.298 E43.88902
G1 X-21.048 Y8.495 E46.18489
G1 X-21.048 Y9.392 E46.23216
G1 X10.642 Y-22.298 E48.59489
G1 X11.538 Y-22.298 E48.64216
G1 X-21.048 Y10.288 E51.07174
G1 X-21.048 Y11.185 E51.11901
G1 X12.435 Y-22.298 E53.61544
G1 X13.332 Y-22.298 E53.66271
G1 X-21.048 Y12.082 E56.22600
G1 X-21.048 Y12.978 E56.27327
G1 X14.228 Y-22.298 E58.90341
G1 X15.125 Y-22.298 E58.95068
G1 X-21.048 Y13.875 E61.64767
G1 X-21.048 Y14.772 E61.69494
G1 X16.022 Y-22.298 E64.45879
G1 X16.918 Y-22.298 E64.50606
G1 X-21.048 Y15.668 E67.33676
G1 X-21.048 Y16.565 E67.38403
G1 X17.815 Y-22.298 E70.28158
G1 X18.712 Y-22.298 E70.32886
G1 X-21.048 Y17.462 E73.29326
G1 X-21.048 Y18.358 E73.34053
G1 X19.608 Y-22.298 E76.37179
