; generated by Slic3r 1.2.9 on 2016-05-29 at 17:53:21

; external perimeters extrusion width = 0.40mm
; perimeters extrusion width = 0.42mm
; infill extrusion width = 0.42mm
; solid infill extrusion width = 0.42mm
; top infill extrusion width = 0.42mm
; support material extrusion width = 0.40mm

M107
M190 S60 ; set bed temperature
M104 S200 ; set temperature
G28 ; home all axes

M109 S200 ; wait for temperature to be reached
G21 ; set units to millimeters
G90 ; use absolute coordinates
M82 ; use absolute distances for extrusion
G92 E0
G1 E-4.00000 F4800.00000
G92 E0
G1 Z1.000 F3600.000
G1 X-38.002 Y0.000 F3600.000
G1 Z0.400 F3600.000
G1 E4.00000 F4800.00000
G1 X-38.002 Y-32.000 E5.77827 F1200.000
G1 X-37.606 Y-34.146 E5.89954
G1 X-36.468 Y-36.008 E6.02080
G1 X-34.740 Y-37.341 E6.14207
G1 X-32.000 Y-38.002 E6.29872
G1 X32.000 Y-38.002 E9.85526
G1 X34.146 Y-37.606 E9.97652
G1 X36.008 Y-36.468 E10.09779 F1200.000
G1 X37.341 Y-34.740 E10.21906
G1 X38.002 Y-32.000 E10.37571
G1 X38.002 Y32.000 E13.93225
G1 X37.606 Y34.146 E14.05351
G1 X36.468 Y36.008 E14.17478
G1 X34.740 Y37.341 E14.29605
G1 X32.000 Y38.002 E14.45270
G1 X-32.000 Y38.002 E18.00923
G1 X-34.146 Y37.606 E18.13050
G1 X-36.008 Y36.468 E18.25177
G1 X-37.341 Y34.740 E18.37303
G1 X-38.002 Y32.000 E18.52968
G1 X-38.002 Y0.060 E20.30462
G1 X-37.668 Y0.000 F3600.000
G1 X-37.668 Y-32.000 E22.08289 F1200.000
G1 X-37.272 Y-34.083 E22.20070
G1 X-36.138 Y-35.874 E22.31852
G1 X-34.425 Y-37.123 E22.43633
G1 X-32.000 Y-37.668 E22.57445
G1 X32.000 Y-37.668 E26.13099
G1 X34.083 Y-37.272 E26.24881
G1 X35.874 Y-36.138 E26.36662 F1200.000
G1 X37.123 Y-34.425 E26.48443
G1 X37.668 Y-32.000 E26.62256
G1 X37.668 Y32.000 E30.17910
G1 X37.272 Y34.083 E30.29691
G1 X36.138 Y35.874 E30.41472
G1 X34.425 Y37.123 E30.53254
G1 X32.000 Y37.668 E30.67066
G1 X-32.000 Y37.668 E34.22720
G1 X-34.083 Y37.272 E34.34502
G1 X-35.874 Y36.138 E34.46283
G1 X-37.123 Y34.425 E34.58064
G1 X-37.668 Y32.000 E34.71877
G1 X-37.668 Y0.060 E36.49370
G1 X-37.334 Y0.000 F3600.000
G1 X-37.334 Y-32.000 E38.27197 F1200.000
G1 X-36.938 Y-34.018 E38.38623
G1 X-35.808 Y-35.735 E38.50049
G1 X-34.112 Y-36.898 E38.61474
G1 X-32.000 Y-37.334 E38.73461
G1 X32.000 Y-37.334 E42.29114
G1 X34.018 Y-36.938 E42.40540
G1 X35.735 Y-35.808 E42.51966 F1200.000
G1 X36.898 Y-34.112 E42.63391
G1 X37.334 Y-32.000 E42.75378
G1 X37.334 Y32.000 E46.31031
G1 X36.938 Y34.018 E46.42457
G1 X35.808 Y35.735 E46.53883
G1 X34.112 Y36.898 E46.65308
G1 X32.000 Y37.334 E46.77295
G1 X-32.000 Y37.334 E50.32948
G1 X-34.018 Y36.938 E50.44374
G1 X-35.735 Y35.808 E50.55800
G1 X-36.898 Y34.112 E50.67225
G1 X-37.334 Y32.000 E50.79212
G1 X-37.334 Y0.060 E52.56705
G1 F2880
G1 X-37.334 Y-2.340 E48.76705
G1 E48.56705 F4800.00000
G92 E0
G1 Z1.400 F3600.000
G1 X24.683 Y25.315 F3600.000
G1 Z0.400 F3600.000
G1 E4.00000 F4800.00000
G1 X25.174 Y24.792 E4.03985 F1200.000
G1 X25.780 Y24.408 E4.07976
G1 X26.463 Y24.186 E4.11967
G1 X27.140 Y24.143 E4.15734 F1200.000
G1 X27.879 Y24.272 E4.19906
G1 X28.535 Y24.581 E4.23935
G1 X29.089 Y25.039 E4.27926
G1 X29.511 Y25.620 E4.31917
G1 X29.775 Y26.287 E4.35908
G1 X29.865 Y27.000 E4.39899
G1 X29.775 Y27.713 E4.43890
G1 X29.511 Y28.380 E4.47881
G1 X29.089 Y28.961 E4.51872
G1 X28.535 Y29.419 E4.55863
G1 X27.885 Y29.725 E4.59854
G1 X27.180 Y29.859 E4.63845
G1 X26.463 Y29.814 E4.67837
G1 X25.780 Y29.592 E4.71828
G1 X25.174 Y29.208 E4.75819
G1 X24.682 Y28.684 E4.79810
G1 X24.355 Y28.090 E4.83577
G1 X24.157 Y27.366 E4.87749
G1 X24.157 Y26.641 E4.91778
G1 X24.338 Y25.939 E4.95805
G1 X24.654 Y25.368 E4.99434
G1 X24.955 Y25.513 F3600.000
G1 X25.388 Y25.052 E5.02952 F1200.000
G1 X25.923 Y24.712 E5.06474
G1 X26.526 Y24.516 E5.09996
G1 X27.121 Y24.479 E5.13309 F1200.000
G1 X27.778 Y24.594 E5.17011
G1 X28.355 Y24.865 E5.20556
G1 X28.843 Y25.269 E5.24078
G1 X29.216 Y25.782 E5.27600
G1 X29.449 Y26.371 E5.31122
G1 X29.528 Y27.000 E5.34643
G1 X29.449 Y27.629 E5.38165
G1 X29.216 Y28.218 E5.41687
G1 X28.843 Y28.731 E5.45209
G1 X28.355 Y29.135 E5.48731
G1 X27.781 Y29.405 E5.52253
G1 X27.159 Y29.523 E5.55775
G1 X26.526 Y29.484 E5.59297
G1 X25.923 Y29.288 E5.62819
G1 X25.388 Y28.948 E5.66341
G1 X24.955 Y28.486 E5.69862
G1 X24.667 Y27.964 E5.73176
G1 X24.492 Y27.321 E5.76878
G1 X24.492 Y26.683 E5.80423
G1 X24.651 Y26.063 E5.83978
G1 X24.926 Y25.566 E5.87138
G1 X25.219 Y25.706 F3600.000
G1 X25.597 Y25.304 E5.90020 F1200.000
G1 X26.063 Y25.008 E5.92903
G1 X26.587 Y24.837 E5.95786
G1 X27.103 Y24.805 E5.98487 F1200.000
G1 X27.679 Y24.905 E6.01539
G1 X28.180 Y25.141 E6.04431
G1 X28.605 Y25.493 E6.07314
G1 X28.929 Y25.939 E6.10197
G1 X29.132 Y26.452 E6.13080
G1 X29.202 Y27.000 E6.15964
G1 X29.132 Y27.548 E6.18847
G1 X28.929 Y28.061 E6.21730
G1 X28.605 Y28.507 E6.24613
G1 X28.180 Y28.859 E6.27496
G1 X27.680 Y29.094 E6.30380
G1 X27.138 Y29.197 E6.33263
G1 X26.587 Y29.163 E6.36146
G1 X26.063 Y28.992 E6.39029
G1 X25.597 Y28.696 E6.41912
G1 X25.219 Y28.294 E6.44796
G1 X24.970 Y27.841 E6.47496
G1 X24.816 Y27.278 E6.50549
G1 X24.816 Y26.724 E6.53440
G1 X24.954 Y26.184 E6.56352
G1 X25.190 Y25.758 E6.58895
G1 X25.072 Y25.334 F3600.000
G1 F2880
G1 X25.597 Y25.304 E5.62323
G1 F2880
G1 X26.063 Y25.008 E4.74945
G1 F2880
G1 X26.587 Y24.837 E3.87566
G1 E2.58895 F4800.00000
G92 E0
G1 Z1.400 F3600.000
G1 X11.238 Y11.179 F3600.000
G1 Z0.400 F3600.000
G1 E4.00000 F4800.00000
G1 X10.557 Y11.834 E4.05252 F1200.000
G1 X10.079 Y12.244 E4.08751
G1 X9.392 Y12.778 E4.13589
G1 X8.674 Y13.276 E4.18445
G1 X7.929 Y13.734 E4.23302
G1 X7.161 Y14.150 E4.28158
G1 X6.370 Y14.523 E4.33015
G1 X5.561 Y14.852 E4.37872
G1 X4.734 Y15.136 E4.42728
G1 X3.893 Y15.373 E4.47585
G1 X3.035 Y15.566 E4.52469
G1 X1.828 Y15.753 E4.59257
G1 X1.305 Y15.805 E4.62181
G1 X0.437 Y15.853 E4.67011
G1 X-0.437 Y15.853 E4.71867
G1 X-1.310 Y15.804 E4.76724
G1 X-2.178 Y15.708 E4.81579
G1 X-3.024 Y15.568 E4.86346
G1 X-4.194 Y15.294 E4.93020
G1 X-4.738 Y15.134 E4.96174
G1 X-5.561 Y14.852 E5.01007
G1 X-6.370 Y14.523 E5.05863
G1 X-7.161 Y14.150 E5.10720
G1 X-7.929 Y13.734 E5.15572
G1 X-8.625 Y13.308 E5.20108
G1 X-9.607 Y12.617 E5.26782
G1 X-10.085 Y12.239 E5.30167
G1 X-10.741 Y11.668 E5.35002
G1 X-11.367 Y11.058 E5.39859
G1 X-11.959 Y10.415 E5.44716
G1 X-12.514 Y9.742 E5.49564
G1 X-12.975 Y9.119 E5.53870
G1 X-13.628 Y8.111 E5.60545
G1 X-13.949 Y7.545 E5.64159
G1 X-14.342 Y6.768 E5.68998
G1 X-14.693 Y5.968 E5.73855
G1 X-14.999 Y5.149 E5.78712
G1 X-15.260 Y4.315 E5.83568
G1 X-15.475 Y3.468 E5.88425
G1 X-15.642 Y2.610 E5.93281
G1 X-15.762 Y1.745 E5.98138
G1 X-15.835 Y0.874 E6.02995
G1 X-15.857 Y0.052 E6.07563
G1 X-15.813 Y-1.203 E6.14543
G1 X-15.762 Y-1.749 E6.17589
G1 X-15.642 Y-2.610 E6.22420
G1 X-15.475 Y-3.468 E6.27277
G1 X-15.260 Y-4.315 E6.32133
G1 X-15.000 Y-5.149 E6.36987
G1 X-14.707 Y-5.933 E6.41638
G1 X-14.216 Y-7.029 E6.48313
G1 X-13.945 Y-7.551 E6.51582
G1 X-13.510 Y-8.305 E6.56416
G1 X-13.032 Y-9.036 E6.61272
G1 X-12.515 Y-9.741 E6.66129
G1 X-11.959 Y-10.415 E6.70986
G1 X-11.367 Y-11.058 E6.75842
G1 X-10.741 Y-11.668 E6.80699
G1 X-10.082 Y-12.242 E6.85555
G1 X-9.392 Y-12.778 E6.90412
G1 X-8.669 Y-13.279 E6.95299
G1 X-7.586 Y-13.927 E7.02312
G1 X-7.130 Y-14.166 E7.05174
G1 X-6.367 Y-14.524 E7.09859
G1 X-5.366 Y-14.923 E7.15847
G1 X-4.730 Y-15.137 E7.19575
G1 X-3.838 Y-15.386 E7.24723
G1 X-3.020 Y-15.568 E7.29379
G1 X-2.178 Y-15.708 E7.34122
G1 X-1.310 Y-15.804 E7.38977
G1 X-0.437 Y-15.853 E7.43834
G1 X0.437 Y-15.853 E7.48690 F1200.000
G1 X1.310 Y-15.804 E7.53547
G1 X2.178 Y-15.708 E7.58402
G1 X3.024 Y-15.568 E7.63169
G1 X4.194 Y-15.294 E7.69843
G1 X4.738 Y-15.134 E7.72997
G1 X5.561 Y-14.852 E7.77830
G1 X6.370 Y-14.523 E7.82686
G1 X7.161 Y-14.150 E7.87543
G1 X7.929 Y-13.734 E7.92395
G1 X8.625 Y-13.308 E7.96931
G1 X9.607 Y-12.617 E8.03605
G1 X10.085 Y-12.239 E8.06990
G1 X10.741 Y-11.668 E8.11825
G1 X11.367 Y-11.058 E8.16682
G1 X11.959 Y-10.415 E8.21539
G1 X12.514 Y-9.742 E8.26387
G1 X12.975 Y-9.119 E8.30693
G1 X13.628 Y-8.111 E8.37367
G1 X13.949 Y-7.545 E8.40982
G1 X14.342 Y-6.768 E8.45821
G1 X14.693 Y-5.968 E8.50678
G1 X14.999 Y-5.149 E8.55534
G1 X15.260 Y-4.317 E8.60380
G1 X15.443 Y-3.607 E8.64456
G1 X15.672 Y-2.428 E8.71130
G1 X15.763 Y-1.741 E8.74983
G1 X15.836 Y-0.817 E8.80131
G1 X15.859 Y-0.000 E8.84673
G1 X15.835 Y0.874 E8.89530
G1 X15.762 Y1.745 E8.94387
G1 X15.642 Y2.610 E8.99243
G1 X15.475 Y3.468 E9.04100
G1 X15.260 Y4.315 E9.08956
G1 X15.000 Y5.149 E9.13810
G1 X14.707 Y5.933 E9.18462
G1 X14.216 Y7.029 E9.25136
G1 X13.945 Y7.551 E9.28405
G1 X13.510 Y8.305 E9.33239
G1 X13.032 Y9.036 E9.38096
G1 X12.515 Y9.741 E9.42952
G1 X11.960 Y10.414 E9.47802
G1 X11.281 Y11.137 E9.53311
G1 X11.006 Y10.938 F3600.000
G1 X10.332 Y11.586 E9.58509 F1200.000
G1 X9.868 Y11.985 E9.61911
G1 X9.194 Y12.509 E9.66654
G1 X8.491 Y12.996 E9.71408
G1 X7.762 Y13.444 E9.76162
G1 X7.010 Y13.852 E9.80916
G1 X6.236 Y14.217 E9.85671
G1 X5.443 Y14.539 E9.90425
G1 X4.634 Y14.817 E9.95179
G1 X3.811 Y15.049 E9.99933
G1 X2.973 Y15.237 E10.04704
G1 X1.786 Y15.421 E10.11379
G1 X1.279 Y15.471 E10.14212
G1 X0.428 Y15.518 E10.18950
G1 X-0.428 Y15.518 E10.23704
G1 X-1.282 Y15.471 E10.28458
G1 X-2.132 Y15.377 E10.33212
G1 X-2.959 Y15.240 E10.37867
G1 X-4.108 Y14.971 E10.44429
G1 X-4.637 Y14.816 E10.47489
G1 X-5.443 Y14.539 E10.52229
G1 X-6.236 Y14.217 E10.56983
G1 X-7.010 Y13.852 E10.61737
G1 X-7.762 Y13.445 E10.66489
G1 X-8.441 Y13.029 E10.70917
G1 X-9.407 Y12.350 E10.77479
G1 X-9.871 Y11.982 E10.80767
G1 X-10.514 Y11.422 E10.85508
G1 X-11.128 Y10.825 E10.90262
G1 X-11.707 Y10.196 E10.95017
G1 X-12.250 Y9.536 E10.99766
G1 X-12.700 Y8.928 E11.03966
G1 X-13.342 Y7.937 E11.10528
G1 X-13.654 Y7.387 E11.14044
G1 X-14.040 Y6.625 E11.18787
G1 X-14.383 Y5.842 E11.23542
G1 X-14.683 Y5.041 E11.28296
G1 X-14.939 Y4.224 E11.33050
G1 X-15.149 Y3.395 E11.37804
G1 X-15.313 Y2.555 E11.42559
G1 X-15.430 Y1.708 E11.47313
G1 X-15.501 Y0.855 E11.52067
G1 X-15.523 Y0.053 E11.56526
G1 X-15.479 Y-1.182 E11.63394
G1 X-15.430 Y-1.711 E11.66344
G1 X-15.313 Y-2.555 E11.71083
G1 X-15.149 Y-3.395 E11.75837
G1 X-14.939 Y-4.224 E11.80591
G1 X-14.683 Y-5.040 E11.85344
G1 X-14.398 Y-5.806 E11.89886
G1 X-13.915 Y-6.884 E11.96448
G1 X-13.652 Y-7.391 E11.99622
G1 X-13.226 Y-8.130 E12.04362
G1 X-12.758 Y-8.846 E12.09116
G1 X-12.251 Y-9.535 E12.13871
G1 X-11.707 Y-10.196 E12.18625
G1 X-11.128 Y-10.825 E12.23379
G1 X-10.514 Y-11.422 E12.28133
G1 X-9.869 Y-11.984 E12.32888
G1 X-9.194 Y-12.509 E12.37642
G1 X-8.488 Y-12.998 E12.42415
G1 X-7.422 Y-13.635 E12.49314
G1 X-6.981 Y-13.867 E12.52083
G1 X-6.234 Y-14.218 E12.56671
G1 X-5.251 Y-14.609 E12.62552
G1 X-4.632 Y-14.817 E12.66181
G1 X-3.756 Y-15.062 E12.71233
G1 X-2.956 Y-15.240 E12.75789
G1 X-2.132 Y-15.377 E12.80430
G1 X-1.282 Y-15.471 E12.85183
G1 X-0.428 Y-15.518 E12.89937
G1 X0.428 Y-15.518 E12.94692 F1200.000
G1 X1.282 Y-15.471 E12.99446
G1 X2.132 Y-15.377 E13.04199
G1 X2.959 Y-15.240 E13.08855
G1 X4.108 Y-14.971 E13.15417
G1 X4.637 Y-14.816 E13.18477
G1 X5.443 Y-14.539 E13.23217
G1 X6.236 Y-14.217 E13.27971
G1 X7.010 Y-13.852 E13.32725
G1 X7.762 Y-13.445 E13.37476
G1 X8.441 Y-13.029 E13.41904
G1 X9.407 Y-12.350 E13.48466
G1 X9.871 Y-11.982 E13.51754
G1 X10.514 Y-11.422 E13.56496
G1 X11.128 Y-10.825 E13.61250
G1 X11.707 Y-10.196 E13.66004
G1 X12.250 Y-9.536 E13.70754
G1 X12.700 Y-8.928 E13.74954
G1 X13.342 Y-7.937 E13.81515
G1 X13.654 Y-7.387 E13.85032
G1 X14.040 Y-6.625 E13.89775
G1 X14.383 Y-5.842 E13.94529
G1 X14.683 Y-5.041 E13.99284
G1 X14.938 Y-4.225 E14.04031
G1 X15.117 Y-3.533 E14.08003
G1 X15.342 Y-2.374 E14.14565
G1 X15.430 Y-1.705 E14.18314
G1 X15.502 Y-0.799 E14.23365
G1 X15.524 Y-0.000 E14.27808
G1 X15.501 Y0.855 E14.32562
G1 X15.430 Y1.708 E14.37317
G1 X15.313 Y2.555 E14.42071
G1 X15.149 Y3.395 E14.46825
G1 X14.939 Y4.224 E14.51579
G1 X14.683 Y5.040 E14.56332
G1 X14.398 Y5.806 E14.60874
G1 X13.915 Y6.884 E14.67435
G1 X13.652 Y7.391 E14.70610
G1 X13.226 Y8.130 E14.75350
G1 X12.758 Y8.846 E14.80104
G1 X12.251 Y9.535 E14.84859
G1 X11.707 Y10.195 E14.89609
G1 X11.050 Y10.896 E14.94952
G1 X10.782 Y10.704 F3600.000
G1 X10.114 Y11.346 E14.99790 F1200.000
G1 X9.662 Y11.734 E15.02899
G1 X9.002 Y12.248 E15.07271
G1 X8.314 Y12.725 E15.11648
G1 X7.600 Y13.164 E15.16024
G1 X6.863 Y13.562 E15.20400
G1 X6.106 Y13.920 E15.24777
G1 X5.330 Y14.235 E15.29153
G1 X4.537 Y14.507 E15.33529
G1 X3.731 Y14.735 E15.37906
G1 X2.913 Y14.918 E15.42288
G1 X1.745 Y15.100 E15.48460
G1 X1.254 Y15.148 E15.51040
G1 X0.419 Y15.194 E15.55410
G1 X-0.419 Y15.194 E15.59787
G1 X-1.255 Y15.148 E15.64163
G1 X-2.088 Y15.056 E15.68539
G1 X-2.895 Y14.922 E15.72815
G1 X-4.026 Y14.657 E15.78882
G1 X-4.538 Y14.507 E15.81673
G1 X-5.330 Y14.235 E15.86044
G1 X-6.106 Y13.920 E15.90421
G1 X-6.863 Y13.562 E15.94797
G1 X-7.600 Y13.164 E15.99172
G1 X-8.263 Y12.758 E16.03236
G1 X-9.213 Y12.090 E16.09303
G1 X-9.664 Y11.733 E16.12306
G1 X-10.295 Y11.183 E16.16678
G1 X-10.895 Y10.599 E16.21054
G1 X-11.462 Y9.983 E16.25431
G1 X-11.995 Y9.336 E16.29805
G1 X-12.433 Y8.744 E16.33657
G1 X-13.065 Y7.769 E16.39724
G1 X-13.368 Y7.234 E16.42939
G1 X-13.746 Y6.487 E16.47312
G1 X-14.083 Y5.720 E16.51688
G1 X-14.376 Y4.935 E16.56065
G1 X-14.627 Y4.136 E16.60441
G1 X-14.832 Y3.324 E16.64817
G1 X-14.993 Y2.502 E16.69194
G1 X-15.108 Y1.672 E16.73570
G1 X-15.177 Y0.837 E16.77946
G1 X-15.199 Y0.054 E16.82039
G1 X-15.156 Y-1.161 E16.88393
G1 X-15.108 Y-1.673 E16.91080
G1 X-14.993 Y-2.502 E16.95450
G1 X-14.832 Y-3.324 E16.99827
G1 X-14.627 Y-4.136 E17.04203
G1 X-14.377 Y-4.935 E17.08579
G1 X-14.098 Y-5.683 E17.12749
G1 X-13.623 Y-6.743 E17.18815
G1 X-13.368 Y-7.235 E17.21713
G1 X-12.949 Y-7.960 E17.26084
G1 X-12.491 Y-8.661 E17.30461
G1 X-11.995 Y-9.336 E17.34837
G1 X-11.462 Y-9.983 E17.39213
G1 X-10.895 Y-10.599 E17.43590
G1 X-10.295 Y-11.183 E17.47966
G1 X-9.663 Y-11.733 E17.52342
G1 X-9.002 Y-12.248 E17.56719
G1 X-8.313 Y-12.726 E17.61102
G1 X-7.264 Y-13.352 E17.67485
G1 X-6.837 Y-13.577 E17.70004
G1 X-6.105 Y-13.920 E17.74228
G1 X-5.139 Y-14.305 E17.79660
G1 X-4.536 Y-14.507 E17.82981
G1 X-3.677 Y-14.747 E17.87642
G1 X-2.894 Y-14.922 E17.91834
G1 X-2.088 Y-15.056 E17.96105
G1 X-1.255 Y-15.148 E18.00481
G1 X-0.419 Y-15.194 E18.04857
G1 X0.419 Y-15.194 E18.09233 F1200.000
G1 X1.255 Y-15.148 E18.13610
G1 X2.088 Y-15.056 E18.17986
G1 X2.895 Y-14.922 E18.22262
G1 X4.026 Y-14.657 E18.28328
G1 X4.538 Y-14.507 E18.31120
G1 X5.330 Y-14.235 E18.35491
G1 X6.106 Y-13.920 E18.39867
G1 X6.863 Y-13.562 E18.44244
G1 X7.600 Y-13.164 E18.48619
G1 X8.263 Y-12.758 E18.52683
G1 X9.213 Y-12.090 E18.58749
G1 X9.664 Y-11.733 E18.61753
G1 X10.295 Y-11.183 E18.66125
G1 X10.895 Y-10.599 E18.70501
G1 X11.462 Y-9.983 E18.74877
G1 X11.995 Y-9.336 E18.79252
G1 X12.433 Y-8.744 E18.83104
G1 X13.065 Y-7.769 E18.89170
G1 X13.368 Y-7.234 E18.92386
G1 X13.746 Y-6.487 E18.96759
G1 X14.083 Y-5.720 E19.01135
G1 X14.376 Y-4.935 E19.05511
G1 X14.626 Y-4.136 E19.09885
G1 X14.801 Y-3.462 E19.13525
G1 X15.022 Y-2.322 E19.19592
G1 X15.108 Y-1.671 E19.23021
G1 X15.179 Y-0.782 E19.27682
G1 X15.200 Y-0.000 E19.31768
G1 X15.177 Y0.837 E19.36145
G1 X15.108 Y1.672 E19.40521
G1 X14.993 Y2.502 E19.44897
G1 X14.832 Y3.324 E19.49274
G1 X14.627 Y4.136 E19.53650
G1 X14.377 Y4.935 E19.58026
G1 X14.098 Y5.683 E19.62196
G1 X13.623 Y6.743 E19.68262
G1 X13.368 Y7.235 E19.71160
G1 X12.949 Y7.960 E19.75531
G1 X12.491 Y8.661 E19.79908
G1 X11.995 Y9.336 E19.84284
G1 X11.463 Y9.982 E19.88659
G1 X10.825 Y10.663 E19.93530
G1 X10.884 Y11.091 F3600.000
G1 F2880
G1 X10.114 Y11.346 E18.37410
G1 F2880
G1 X9.662 Y11.734 E17.43168
G1 F2880
G1 X9.016 Y12.237 E16.13530
G1 E15.93530 F4800.00000
G92 E0
G1 Z1.400 F3600.000
G1 X14.878 Y-5.878 F3600.000
G1 X21.928 Y-12.151 F3600.000
G1 X21.184 Y-14.755 F3600.000
G1 X20.961 Y-15.439 F3600.000
G1 X23.358 Y-17.010 F3600.000
G1 X25.719 Y-24.278 F3600.000
G1 X25.780 Y-24.408 F3600.000
G1 Z0.400 F3600.000
G1 E4.00000 F4800.00000
G1 X25.174 Y-24.792 E4.03991 F1200.000
G1 X24.682 Y-25.316 E4.07982
G1 X24.336 Y-25.945 E4.11973
G1 X24.157 Y-26.641 E4.15964
G1 X24.157 Y-27.359 E4.19955
G1 X24.336 Y-28.055 E4.23946
G1 X24.682 Y-28.684 E4.27938
G1 X25.174 Y-29.208 E4.31929
G1 X25.780 Y-29.592 E4.35920
