; GCode generated by CraftWare

G28 X0 Y0
G28 Z0

M190 S60 ;set bed temp (wait)
M109 S205 ;set head temp (wait)
; ------------------------------------
; Layer #0
; ------------------------------------
G21 ; mm
G90 ; abs
G92 E0 ; reset extr
M106 S0
;segType:Skirt
G0 F4800 E-1.0000
G0 F2400 Z0.200
G0 X-9.937 Y8.500 F10800
G0 F4800 E0.0000
G1 X-6.437 Y12.000 E0.1646 F600
G1 X-6.125 Y12.187 E0.1767
G1 X-5.875 Y12.437 E0.1885
G1 X-5.562 Y12.625 E0.2006
G1 X-5.312 Y12.875 E0.2124
G1 X-4.375 Y13.437 E0.2487
G1 X-4.000 Y13.562 E0.2619
G1 X-3.375 Y13.937 E0.2861
G1 X-2.250 Y14.312 E0.3256
G1 X-2.000 Y14.437 E0.3349
G1 X-1.625 Y14.437 E0.3473
G1 X-1.500 Y14.562 E0.3532
G1 X-0.625 Y14.687 E0.3826
G1 X-0.125 Y14.687 E0.3993
G1 X0.000 Y14.812 E0.4051
G1 X3.500 Y14.812 E0.5215
G1 X4.375 Y14.687 E0.5509
G1 X4.875 Y14.687 E0.5676
G1 X5.000 Y14.562 E0.5734
G1 X5.875 Y14.437 E0.6028
G1 X6.000 Y14.312 E0.6087
G1 X6.437 Y14.250 E0.6234
G1 X6.750 Y14.062 E0.6355
G1 X7.000 Y14.062 E0.6439
G1 X7.625 Y13.687 E0.6681
G1 X8.000 Y13.562 E0.6813
G1 X9.562 Y12.625 E0.7418
G1 X10.062 Y12.125 E0.7654
G1 X10.375 Y11.937 E0.7775
G1 X13.625 Y8.687 E0.9304
G1 X13.812 Y8.375 E0.9425
G1 X14.312 Y7.875 E0.9660
G1 X14.500 Y7.562 E0.9781
G1 X14.750 Y7.312 E0.9899
G1 X15.687 Y5.750 E1.0505
G1 X15.687 Y5.500 E1.0588
G1 X15.875 Y5.187 E1.0709
G1 X16.000 Y4.812 E1.0841
G1 X16.187 Y4.500 E1.0962
G1 X16.187 Y4.250 E1.1045
G1 X16.312 Y4.125 E1.1104
G1 X16.437 Y3.250 E1.1398
G1 X16.562 Y3.125 E1.1457
G1 X16.562 Y2.625 E1.1623
G1 X16.687 Y1.750 E1.1917
G1 X16.687 Y-2.000 E1.3164
G1 X16.562 Y-2.125 E1.3223
G1 X16.562 Y-2.625 E1.3389
G1 X16.437 Y-3.500 E1.3683
G1 X16.312 Y-3.625 E1.3742
G1 X16.250 Y-4.062 E1.3889
G1 X16.000 Y-4.812 E1.4152
G1 X15.812 Y-5.125 E1.4273
G1 X15.812 Y-5.375 E1.4356
G1 X15.437 Y-6.000 E1.4599
G1 X15.312 Y-6.375 E1.4730
G1 X15.062 Y-6.625 E1.4848
G1 X14.937 Y-7.000 E1.4979
G1 X14.687 Y-7.250 E1.5097
G1 X14.500 Y-7.562 E1.5218
G1 X14.250 Y-7.812 E1.5336
G1 X14.062 Y-8.125 E1.5457
G1 X10.062 Y-12.125 E1.7338
G1 X9.750 Y-12.312 E1.7459
G1 X9.500 Y-12.562 E1.7577
G1 X8.875 Y-12.937 E1.7819
G1 X8.625 Y-13.187 E1.7937
G1 X8.250 Y-13.312 E1.8069
G1 X7.625 Y-13.687 E1.8311
G1 X6.875 Y-13.937 E1.8574
G1 X6.750 Y-14.062 E1.8633
G1 X6.500 Y-14.062 E1.8716
G1 X6.375 Y-14.187 E1.8775
G1 X6.125 Y-14.187 E1.8858
G1 X6.000 Y-14.312 E1.8917
G1 X5.750 Y-14.312 E1.9000
G1 X5.625 Y-14.437 E1.9059
G1 X5.125 Y-14.437 E1.9225
G1 X5.000 Y-14.562 E1.9284
G1 X4.500 Y-14.562 E1.9450
G1 X4.125 Y-14.687 E1.9581
G1 X-0.375 Y-14.687 E2.1078
G1 X-0.500 Y-14.562 E2.1137
G1 X-1.000 Y-14.562 E2.1303
G1 X-1.375 Y-14.437 E2.1435
G1 X-1.812 Y-14.375 E2.1582
G1 X-2.937 Y-14.000 E2.1976
G1 X-3.250 Y-13.812 E2.2097
G1 X-3.500 Y-13.812 E2.2180
G1 X-4.125 Y-13.437 E2.2423
G1 X-4.500 Y-13.312 E2.2554
G1 X-4.750 Y-13.062 E2.2672
G1 X-5.125 Y-12.937 E2.2803
G1 X-5.375 Y-12.687 E2.2921
G1 X-5.687 Y-12.500 E2.3042
G1 X-5.937 Y-12.250 E2.3160
G1 X-6.250 Y-12.062 E2.3281
G1 X-10.250 Y-8.062 E2.5163
G1 X-10.437 Y-7.750 E2.5284
G1 X-10.687 Y-7.500 E2.5401
G1 X-11.812 Y-5.625 E2.6128
G1 X-11.812 Y-5.375 E2.6212
G1 X-12.187 Y-4.750 E2.6454
G1 X-12.187 Y-4.500 E2.6537
G1 X-12.312 Y-4.375 E2.6596
G1 X-12.312 Y-4.125 E2.6679
G1 X-12.437 Y-4.000 E2.6738
G1 X-12.562 Y-3.125 E2.7032
G1 X-12.687 Y-3.000 E2.7091
G1 X-12.687 Y-2.500 E2.7257
G1 X-12.812 Y-1.625 E2.7551
G1 X-12.812 Y2.125 E2.8798
G1 X-12.687 Y2.250 E2.8857
G1 X-12.687 Y2.750 E2.9023
G1 X-12.562 Y3.625 E2.9317
G1 X-12.437 Y3.750 E2.9376
G1 X-12.437 Y4.000 E2.9459
G1 X-12.312 Y4.125 E2.9518
G1 X-12.250 Y4.562 E2.9665
G1 X-12.062 Y4.875 E2.9786
G1 X-12.062 Y5.125 E2.9869
G1 X-11.875 Y5.437 E2.9991
G1 X-11.750 Y5.812 E3.0122
G1 X-10.625 Y7.687 E3.0849
G1 X-10.125 Y8.187 E3.1085
G1 X-9.937 Y8.500 E3.1206
G1 X-10.312 Y8.500 E3.1331
G1 X-6.312 Y12.500 E3.3212
G1 X-6.000 Y12.687 E3.3333
G1 X-5.750 Y12.937 E3.3451
G1 X-5.125 Y13.312 E3.3693
G1 X-4.875 Y13.562 E3.3811
G1 X-4.500 Y13.687 E3.3942
G1 X-3.875 Y14.062 E3.4185
G1 X-3.500 Y14.187 E3.4316
G1 X-3.187 Y14.375 E3.4437
G1 X-2.250 Y14.687 E3.4766
G1 X-2.000 Y14.812 E3.4859
G1 X-1.625 Y14.812 E3.4984
G1 X-1.500 Y14.937 E3.5042
G1 X-0.625 Y15.062 E3.5336
G1 X-0.125 Y15.062 E3.5503
G1 X0.000 Y15.187 E3.5562
G1 X3.500 Y15.187 E3.6726
G1 X4.375 Y15.062 E3.7020
G1 X4.875 Y15.062 E3.7186
G1 X5.000 Y14.937 E3.7245
G1 X5.875 Y14.812 E3.7539
G1 X6.000 Y14.687 E3.7598
G1 X6.437 Y14.625 E3.7744
G1 X6.750 Y14.437 E3.7866
G1 X7.000 Y14.437 E3.7949
G1 X7.625 Y14.062 E3.8191
G1 X8.000 Y13.937 E3.8323
G1 X9.562 Y13.000 E3.8929
G1 X10.062 Y12.500 E3.9164
G1 X10.375 Y12.312 E3.9285
G1 X14.125 Y8.562 E4.1049
G1 X14.312 Y8.250 E4.1170
G1 X14.812 Y7.750 E4.1405
G1 X15.187 Y7.125 E4.1648
G1 X15.437 Y6.875 E4.1765
G1 X15.562 Y6.500 E4.1897
G1 X15.812 Y6.250 E4.2015
G1 X15.937 Y5.875 E4.2146
G1 X16.062 Y5.750 E4.2205
G1 X16.062 Y5.500 E4.2288
G1 X16.250 Y5.187 E4.2409
G1 X16.375 Y4.812 E4.2541
G1 X16.562 Y4.500 E4.2662
G1 X16.562 Y4.250 E4.2745
G1 X16.687 Y4.125 E4.2804
G1 X16.812 Y3.250 E4.3098
G1 X16.937 Y3.125 E4.3157
G1 X16.937 Y2.625 E4.3323
G1 X17.062 Y1.750 E4.3617
G1 X17.062 Y-2.000 E4.4864
G1 X16.937 Y-2.125 E4.4923
G1 X16.937 Y-2.625 E4.5089
G1 X16.812 Y-3.500 E4.5383
G1 X16.687 Y-3.625 E4.5442
G1 X16.625 Y-4.062 E4.5589
G1 X16.375 Y-4.812 E4.5852
G1 X16.187 Y-5.125 E4.5973
G1 X16.187 Y-5.375 E4.6056
G1 X15.812 Y-6.000 E4.6299
G1 X15.687 Y-6.375 E4.6430
G1 X15.437 Y-6.625 E4.6548
G1 X15.312 Y-7.000 E4.6679
G1 X15.062 Y-7.250 E4.6797
G1 X14.875 Y-7.562 E4.6918
G1 X14.625 Y-7.812 E4.7036
G1 X14.437 Y-8.125 E4.7157
G1 X10.437 Y-12.125 E4.9038
G1 X9.937 Y-12.625 E4.9273
G1 X9.625 Y-12.812 E4.9395
G1 X9.375 Y-13.062 E4.9512
G1 X8.125 Y-13.812 E4.9997
G1 X7.750 Y-13.937 E5.0128
G1 X7.437 Y-14.125 E5.0250
G1 X7.062 Y-14.250 E5.0381
G1 X6.750 Y-14.437 E5.0502
G1 X6.500 Y-14.437 E5.0586
G1 X6.375 Y-14.562 E5.0644
G1 X6.125 Y-14.562 E5.0727
G1 X6.000 Y-14.687 E5.0786
G1 X5.750 Y-14.687 E5.0869
G1 X5.625 Y-14.812 E5.0928
G1 X5.125 Y-14.812 E5.1095
G1 X5.000 Y-14.937 E5.1153
G1 X4.500 Y-14.937 E5.1320
G1 X4.125 Y-15.062 E5.1451
G1 X-0.375 Y-15.062 E5.2948
G1 X-0.500 Y-14.937 E5.3007
G1 X-1.000 Y-14.937 E5.3173
G1 X-1.375 Y-14.812 E5.3304
G1 X-1.812 Y-14.750 E5.3451
G1 X-2.937 Y-14.375 E5.3846
G1 X-3.250 Y-14.187 E5.3967
G1 X-3.500 Y-14.187 E5.4050
G1 X-4.125 Y-13.812 E5.4293
G1 X-4.500 Y-13.687 E5.4424
G1 X-4.750 Y-13.437 E5.4542
G1 X-5.125 Y-13.312 E5.4673
G1 X-5.375 Y-13.062 E5.4791
G1 X-5.687 Y-12.875 E5.4912
G1 X-5.937 Y-12.625 E5.5029
G1 X-6.250 Y-12.437 E5.5151
G1 X-10.250 Y-8.437 E5.7032
G1 X-10.500 Y-8.187 E5.7150
G1 X-10.687 Y-7.875 E5.7271
G1 X-11.187 Y-7.375 E5.7506
G1 X-11.937 Y-6.125 E5.7991
G1 X-12.062 Y-5.750 E5.8122
G1 X-12.187 Y-5.625 E5.8181
G1 X-12.187 Y-5.375 E5.8264
G1 X-12.562 Y-4.750 E5.8507
G1 X-12.562 Y-4.500 E5.8590
G1 X-12.687 Y-4.375 E5.8649
G1 X-12.687 Y-4.125 E5.8732
G1 X-12.812 Y-4.000 E5.8791
G1 X-12.937 Y-3.125 E5.9085
G1 X-13.062 Y-3.000 E5.9143
G1 X-13.062 Y-2.500 E5.9310
G1 X-13.187 Y-1.625 E5.9604
G1 X-13.187 Y2.125 E6.0851
G1 X-13.062 Y2.250 E6.0910
G1 X-13.062 Y2.750 E6.1076
G1 X-12.937 Y3.625 E6.1370
G1 X-12.812 Y3.750 E6.1429
G1 X-12.812 Y4.000 E6.1512
G1 X-12.687 Y4.125 E6.1571
G1 X-12.625 Y4.562 E6.1718
G1 X-12.437 Y4.875 E6.1839
G1 X-12.437 Y5.125 E6.1922
G1 X-12.250 Y5.437 E6.2043
G1 X-12.125 Y5.812 E6.2175
G1 X-11.000 Y7.687 E6.2902
G1 X-10.500 Y8.187 E6.3137
G1 X-10.312 Y8.500 E6.3258
G1 X-10.687 Y8.500 E6.3383
G1 X-6.687 Y12.500 E6.5265
G1 X-6.437 Y12.750 E6.5382
G1 X-6.125 Y12.937 E6.5503
G1 X-5.875 Y13.187 E6.5621
G1 X-5.562 Y13.375 E6.5742
G1 X-5.312 Y13.625 E6.5860
G1 X-4.375 Y14.187 E6.6223
G1 X-4.125 Y14.312 E6.6316
G1 X-3.500 Y14.562 E6.6540
G1 X-3.187 Y14.750 E6.6662
G1 X-2.062 Y15.125 E6.7056
G1 X-1.625 Y15.187 E6.7203
G1 X-1.500 Y15.312 E6.7262
G1 X-0.625 Y15.437 E6.7556
G1 X-0.125 Y15.437 E6.7722
G1 X0.000 Y15.562 E6.7781
G1 X3.500 Y15.562 E6.8945
G1 X4.375 Y15.437 E6.9239
G1 X4.875 Y15.437 E6.9405
G1 X5.000 Y15.312 E6.9464
G1 X5.875 Y15.187 E6.9758
G1 X6.000 Y15.062 E6.9817
G1 X6.437 Y15.000 E6.9964
G1 X6.750 Y14.812 E7.0085
G1 X7.000 Y14.812 E7.0168
G1 X7.625 Y14.437 E7.0411
G1 X8.000 Y14.312 E7.0542
G1 X9.562 Y13.375 E7.1148
G1 X10.062 Y12.875 E7.1383
G1 X10.375 Y12.687 E7.1504
G1 X14.375 Y8.687 E7.3386
G1 X14.562 Y8.375 E7.3507
G1 X15.062 Y7.875 E7.3742
G1 X15.250 Y7.562 E7.3864
G1 X15.500 Y7.312 E7.3981
G1 X16.437 Y5.750 E7.4587
G1 X16.437 Y5.500 E7.4670
G1 X16.625 Y5.187 E7.4792
G1 X16.750 Y4.812 E7.4923
G1 X16.937 Y4.500 E7.5044
G1 X16.937 Y4.250 E7.5127
G1 X17.062 Y4.125 E7.5186
G1 X17.187 Y3.250 E7.5480
G1 X17.312 Y3.125 E7.5539
G1 X17.312 Y2.625 E7.5705
G1 X17.437 Y1.750 E7.5999
G1 X17.437 Y-2.000 E7.7246
G1 X17.312 Y-2.125 E7.7305
G1 X17.312 Y-2.625 E7.7471
G1 X17.187 Y-3.500 E7.7765
G1 X17.062 Y-3.625 E7.7824
G1 X17.000 Y-4.062 E7.7971
G1 X16.750 Y-4.812 E7.8234
G1 X16.562 Y-5.125 E7.8355
G1 X16.562 Y-5.375 E7.8439
G1 X16.187 Y-6.000 E7.8681
G1 X16.062 Y-6.375 E7.8812
G1 X15.812 Y-6.625 E7.8930
G1 X15.687 Y-7.000 E7.9062
G1 X15.437 Y-7.250 E7.9179
G1 X15.250 Y-7.562 E7.9300
G1 X15.000 Y-7.812 E7.9418
G1 X14.812 Y-8.125 E7.9539
G1 X10.812 Y-12.125 E8.1421
G1 X10.062 Y-12.875 E8.1773
G1 X9.750 Y-13.062 E8.1894
G1 X9.500 Y-13.312 E8.2012
G1 X8.875 Y-13.687 E8.2254
G1 X8.625 Y-13.937 E8.2372
G1 X8.250 Y-14.062 E8.2504
G1 X7.625 Y-14.437 E8.2746
G1 X6.875 Y-14.687 E8.3009
G1 X6.750 Y-14.812 E8.3068
G1 X6.500 Y-14.812 E8.3151
G1 X6.375 Y-14.937 E8.3210
G1 X6.125 Y-14.937 E8.3293
G1 X6.000 Y-15.062 E8.3352
G1 X5.750 Y-15.062 E8.3435
G1 X5.625 Y-15.187 E8.3494
G1 X5.125 Y-15.187 E8.3660
G1 X5.000 Y-15.312 E8.3719
G1 X4.500 Y-15.312 E8.3885
G1 X4.125 Y-15.437 E8.4016
G1 X-0.375 Y-15.437 E8.5513
G1 X-0.500 Y-15.312 E8.5572
G1 X-1.000 Y-15.312 E8.5738
G1 X-1.375 Y-15.187 E8.5870
G1 X-1.812 Y-15.125 E8.6017
G1 X-2.937 Y-14.750 E8.6411
G1 X-3.250 Y-14.562 E8.6532
G1 X-3.500 Y-14.562 E8.6615
G1 X-4.125 Y-14.187 E8.6858
G1 X-4.500 Y-14.062 E8.6989
G1 X-4.750 Y-13.812 E8.7107
G1 X-5.125 Y-13.687 E8.7238
G1 X-5.375 Y-13.437 E8.7356
G1 X-5.687 Y-13.250 E8.7477
G1 X-5.937 Y-13.000 E8.7595
G1 X-6.250 Y-12.812 E8.7716
G1 X-10.250 Y-8.812 E8.9598
G1 X-11.000 Y-8.062 E8.9950
G1 X-11.187 Y-7.750 E9.0071
G1 X-11.437 Y-7.500 E9.0189
G1 X-12.562 Y-5.625 E9.0916
G1 X-12.562 Y-5.375 E9.0999
G1 X-12.937 Y-4.750 E9.1242
G1 X-12.937 Y-4.500 E9.1325
G1 X-13.062 Y-4.375 E9.1384
G1 X-13.062 Y-4.125 E9.1467
G1 X-13.187 Y-4.000 E9.1526
G1 X-13.312 Y-3.125 E9.1820
G1 X-13.437 Y-3.000 E9.1878
G1 X-13.437 Y-2.500 E9.2045
G1 X-13.562 Y-1.625 E9.2339
G1 X-13.562 Y2.125 E9.3586
G1 X-13.437 Y2.250 E9.3645
G1 X-13.437 Y2.690 E9.3791
G0 F4800 E8.3791
G0 X-8.682 Y4.437 F10800
G0 X5.582 Y9.680
G0 F4800 E9.3791
;segType:Perimeter
G1 X5.284 Y10.287 E9.4016 F359
G1 X4.617 Y10.475 E9.4246
G1 X3.984 Y10.615 E9.4462
G1 X3.350 Y10.715 E9.4675
G1 X2.604 Y10.781 E9.4924
G1 X1.955 Y10.799 E9.5141
G1 X1.314 Y10.778 E9.5354
G1 X0.636 Y10.713 E9.5580
G1 X0.005 Y10.614 E9.5793
G1 X-0.627 Y10.473 E9.6008
G1 X-1.338 Y10.271 E9.6254
G1 X-1.976 Y10.042 E9.6479
G1 X-2.598 Y9.772 E9.6705
G1 X-3.203 Y9.464 E9.6931
G1 X-3.787 Y9.119 E9.7156
G1 X-4.348 Y8.737 E9.7382
G1 X-4.884 Y8.321 E9.7608
G1 X-5.393 Y7.873 E9.7833
G1 X-5.873 Y7.393 E9.8059
G1 X-6.321 Y6.884 E9.8285
G1 X-6.737 Y6.348 E9.8510
G1 X-7.119 Y5.787 E9.8736
G1 X-7.464 Y5.203 E9.8962
G1 X-7.772 Y4.598 E9.9187
G1 X-8.042 Y3.976 E9.9413
G1 X-8.271 Y3.337 E9.9639
G1 X-8.460 Y2.686 E9.9864
G1 X-8.609 Y2.024 E10.0090
G1 X-8.715 Y1.354 E10.0316
G1 X-8.779 Y0.678 E10.0541
G1 X-8.800 Y0.000 E10.0767
G1 X-8.779 Y-0.678 E10.0993
G1 X-8.715 Y-1.354 E10.1218
G1 X-8.609 Y-2.024 E10.1444
G1 X-8.460 Y-2.686 E10.1669
G1 X-8.271 Y-3.337 E10.1895
G1 X-8.042 Y-3.976 E10.2121
G1 X-7.772 Y-4.598 E10.2346
G1 X-7.464 Y-5.203 E10.2572
G1 X-7.119 Y-5.787 E10.2798
G1 X-6.737 Y-6.348 E10.3023
G1 X-6.321 Y-6.884 E10.3249
G1 X-5.873 Y-7.393 E10.3475
G1 X-5.393 Y-7.873 E10.3700
G1 X-4.884 Y-8.322 E10.3926
G1 X-4.348 Y-8.737 E10.4152
G1 X-3.787 Y-9.119 E10.4377
G1 X-3.203 Y-9.464 E10.4603
G1 X-2.598 Y-9.772 E10.4829
G1 X-1.976 Y-10.042 E10.5054
G1 X-1.337 Y-10.271 E10.5280
G1 X-0.686 Y-10.460 E10.5506
G1 X-0.024 Y-10.609 E10.5731
G1 X0.646 Y-10.715 E10.5957
G1 X1.322 Y-10.779 E10.6183
G1 X2.000 Y-10.800 E10.6408
G1 X2.678 Y-10.779 E10.6634
G1 X3.354 Y-10.715 E10.6860
G1 X4.024 Y-10.609 E10.7085
G1 X4.686 Y-10.460 E10.7311
G1 X5.337 Y-10.271 E10.7537
G1 X5.976 Y-10.042 E10.7762
G1 X6.598 Y-9.772 E10.7988
G1 X7.203 Y-9.464 E10.8214
G1 X7.787 Y-9.119 E10.8439
G1 X8.348 Y-8.737 E10.8665
G1 X8.884 Y-8.322 E10.8891
G1 X9.393 Y-7.873 E10.9116
G1 X9.873 Y-7.393 E10.9342
G1 X10.322 Y-6.884 E10.9568
G1 X10.737 Y-6.348 E10.9793
G1 X11.119 Y-5.787 E11.0019
G1 X11.464 Y-5.203 E11.0245
G1 X11.772 Y-4.598 E11.0470
G1 X12.042 Y-3.976 E11.0696
G1 X12.271 Y-3.337 E11.0921
G1 X12.460 Y-2.686 E11.1147
G1 X12.609 Y-2.024 E11.1373
G1 X12.715 Y-1.354 E11.1598
G1 X12.779 Y-0.678 E11.1824
G1 X12.799 Y0.019 E11.2056
G1 X12.777 Y0.698 E11.2282
G1 X12.712 Y1.373 E11.2508
G1 X12.604 Y2.043 E11.2733
G1 X12.455 Y2.705 E11.2959
G1 X12.265 Y3.356 E11.3184
G1 X12.042 Y3.976 E11.3404
G1 X11.772 Y4.598 E11.3629
G1 X11.464 Y5.203 E11.3855
G1 X11.119 Y5.787 E11.4081
G1 X10.737 Y6.348 E11.4306
G1 X10.322 Y6.884 E11.4532
G1 X9.873 Y7.393 E11.4758
G1 X9.393 Y7.873 E11.4983
G1 X8.884 Y8.321 E11.5209
G1 X8.348 Y8.737 E11.5435
G1 X7.787 Y9.119 E11.5660
G1 X7.203 Y9.464 E11.5886
G1 X6.598 Y9.772 E11.6112
G1 X5.976 Y10.042 E11.6337
G1 X5.391 Y10.252 E11.6544
G1 X4.796 Y9.933
;segType:Loop
G0 X4.254 Y10.146 F10800
G1 X3.910 Y10.222 E11.6661 F600
G1 X3.301 Y10.318 E11.6866
G1 X2.581 Y10.382 E11.7107
G1 X1.956 Y10.399 E11.7315
G1 X1.340 Y10.379 E11.7520
G1 X0.686 Y10.316 E11.7738
G1 X0.079 Y10.220 E11.7942
G1 X-0.529 Y10.085 E11.8150
G1 X-1.215 Y9.890 E11.8387
G1 X-1.828 Y9.669 E11.8604
G1 X-2.428 Y9.410 E11.8821
G1 X-3.010 Y9.114 E11.9038
G1 X-3.573 Y8.781 E11.9256
G1 X-4.113 Y8.414 E11.9473
G1 X-4.629 Y8.013 E11.9690
G1 X-5.119 Y7.581 E11.9907
G1 X-5.581 Y7.119 E12.0125
G1 X-6.013 Y6.629 E12.0342
G1 X-6.414 Y6.113 E12.0559
G1 X-6.781 Y5.573 E12.0777
G1 X-7.114 Y5.010 E12.0994
G1 X-7.410 Y4.428 E12.1211
G1 X-7.669 Y3.828 E12.1429
G1 X-7.891 Y3.214 E12.1646
G1 X-8.073 Y2.586 E12.1863
G1 X-8.216 Y1.949 E12.2080
G1 X-8.318 Y1.303 E12.2298
G1 X-8.379 Y0.653 E12.2515
G1 X-8.400 Y0.000 E12.2732
G1 X-8.379 Y-0.653 E12.2950
G1 X-8.318 Y-1.303 E12.3167
G1 X-8.216 Y-1.949 E12.3384
G1 X-8.073 Y-2.586 E12.3601
G1 X-7.891 Y-3.214 E12.3819
G1 X-7.669 Y-3.828 E12.4036
G1 X-7.410 Y-4.428 E12.4253
G1 X-7.114 Y-5.010 E12.4471
G1 X-6.781 Y-5.573 E12.4688
G1 X-6.414 Y-6.113 E12.4905
G1 X-6.013 Y-6.629 E12.5123
G1 X-5.581 Y-7.119 E12.5340
G1 X-5.119 Y-7.581 E12.5557
G1 X-4.629 Y-8.013 E12.5774
G1 X-4.113 Y-8.414 E12.5992
G1 X-3.572 Y-8.781 E12.6209
G1 X-3.010 Y-9.114 E12.6426
G1 X-2.428 Y-9.410 E12.6644
G1 X-1.828 Y-9.669 E12.6861
G1 X-1.214 Y-9.891 E12.7078
G1 X-0.586 Y-10.073 E12.7296
G1 X0.051 Y-10.216 E12.7513
G1 X0.697 Y-10.318 E12.7730
G1 X1.347 Y-10.379 E12.7947
G1 X2.000 Y-10.400 E12.8165
G1 X2.653 Y-10.379 E12.8382
G1 X3.303 Y-10.318 E12.8599
G1 X3.949 Y-10.216 E12.8817
G1 X4.586 Y-10.073 E12.9034
G1 X5.214 Y-9.891 E12.9251
G1 X5.828 Y-9.669 E12.9468
G1 X6.428 Y-9.410 E12.9686
G1 X7.010 Y-9.114 E12.9903
G1 X7.572 Y-8.781 E13.0120
G1 X8.113 Y-8.414 E13.0338
G1 X8.629 Y-8.013 E13.0555
G1 X9.119 Y-7.581 E13.0772
G1 X9.581 Y-7.119 E13.0990
G1 X10.013 Y-6.629 E13.1207
G1 X10.414 Y-6.113 E13.1424
G1 X10.781 Y-5.572 E13.1642
G1 X11.114 Y-5.010 E13.1859
G1 X11.410 Y-4.428 E13.2076
G1 X11.669 Y-3.828 E13.2293
G1 X11.891 Y-3.214 E13.2511
G1 X12.073 Y-2.586 E13.2728
G1 X12.216 Y-1.949 E13.2945
G1 X12.318 Y-1.303 E13.3163
G1 X12.379 Y-0.654 E13.3380
G1 X12.399 Y0.019 E13.3603
G1 X12.377 Y0.672 E13.3821
G1 X12.315 Y1.322 E13.4038
G1 X12.211 Y1.967 E13.4255
G1 X12.068 Y2.604 E13.4473
G1 X11.884 Y3.232 E13.4690
G1 X11.669 Y3.828 E13.4901
G1 X11.410 Y4.428 E13.5118
G1 X11.114 Y5.010 E13.5335
G1 X10.781 Y5.572 E13.5553
G1 X10.414 Y6.113 E13.5770
G1 X10.013 Y6.629 E13.5987
G1 X9.581 Y7.119 E13.6205
G1 X9.119 Y7.581 E13.6422
G1 X8.629 Y8.013 E13.6639
G1 X8.113 Y8.414 E13.6857
G1 X7.573 Y8.781 E13.7074
G1 X7.010 Y9.114 E13.7291
G1 X6.428 Y9.410 E13.7508
G1 X5.828 Y9.669 E13.7726
G1 X5.216 Y9.890 E13.7942
G1 X4.519 Y10.087 E13.8183
G1 X4.437 Y10.105 E13.8211
G0 X2.406 Y8.025 F10800
G0 X0.014 Y2.726
;segType:Perimeter
G1 X-0.350 Y2.157 E13.8436 F359
G1 X-0.624 Y1.833 E13.8577
G1 X-0.827 Y1.500 E13.8707
G1 X-0.988 Y1.148 E13.8835
G1 X-1.104 Y0.779 E13.8964
G1 X-1.175 Y0.398 E13.9093
G1 X-1.200 Y0.012 E13.9221
G1 X-1.178 Y-0.374 E13.9350
G1 X-1.110 Y-0.755 E13.9479
G1 X-0.996 Y-1.125 E13.9607
G1 X-0.839 Y-1.478 E13.9736
G1 X-0.640 Y-1.810 E13.9865
G1 X-0.402 Y-2.115 E13.9994
G1 X-0.129 Y-2.390 E14.0122
G1 X0.175 Y-2.629 E14.0251
G1 X0.506 Y-2.830 E14.0380
G1 X0.858 Y-2.990 E14.0508
G1 X1.227 Y-3.105 E14.0637
G1 X1.608 Y-3.176 E14.0766
G1 X1.994 Y-3.200 E14.0894
G1 X2.380 Y-3.178 E14.1023
G1 X2.761 Y-3.109 E14.1152
G1 X3.130 Y-2.994 E14.1281
G1 X3.483 Y-2.836 E14.1409
G1 X3.815 Y-2.636 E14.1538
G1 X4.116 Y-2.401 E14.1665
G1 X4.396 Y-2.121 E14.1797
G1 X4.635 Y-1.816 E14.1926
G1 X4.835 Y-1.485 E14.2054
G1 X4.993 Y-1.132 E14.2183
G1 X5.108 Y-0.762 E14.2312
G1 X5.177 Y-0.382 E14.2440
G1 X5.200 Y0.000 E14.2567
G1 X5.177 Y0.388 E14.2697
G1 X5.106 Y0.771 E14.2826
G1 X4.990 Y1.142 E14.2956
G1 X4.829 Y1.496 E14.3085
G1 X4.625 Y1.832 E14.3216
G1 X4.308 Y2.200 E14.3377
G1 X-0.257 Y2.200 E14.4895
G1 X-0.927 Y2.290
;segType:Loop
G0 X-1.258 Y1.519 F10800
G1 X-1.362 Y1.292 E14.4979 F600
G1 X-1.493 Y0.876 E14.5124
G1 X-1.573 Y0.448 E14.5268
G1 X-1.601 Y0.014 E14.5413
G1 X-1.576 Y-0.421 E14.5558
G1 X-1.500 Y-0.850 E14.5703
G1 X-1.371 Y-1.265 E14.5847
G1 X-1.194 Y-1.663 E14.5992
G1 X-0.970 Y-2.036 E14.6137
G1 X-0.703 Y-2.380 E14.6282
G1 X-0.396 Y-2.689 E14.6427
G1 X-0.053 Y-2.958 E14.6572
G1 X0.318 Y-3.184 E14.6716
G1 X0.715 Y-3.364 E14.6861
G1 X1.131 Y-3.494 E14.7006
G1 X1.558 Y-3.574 E14.7151
G1 X1.993 Y-3.601 E14.7295
G1 X2.427 Y-3.576 E14.7440
G1 X2.856 Y-3.498 E14.7585
G1 X3.272 Y-3.369 E14.7730
G1 X3.669 Y-3.191 E14.7875
G1 X4.042 Y-2.966 E14.8020
G1 X4.382 Y-2.701 E14.8163
G1 X4.697 Y-2.386 E14.8311
G1 X4.965 Y-2.043 E14.8456
G1 X5.190 Y-1.671 E14.8601
G1 X5.368 Y-1.273 E14.8745
G1 X5.497 Y-0.857 E14.8890
G1 X5.575 Y-0.430 E14.9035
G1 X5.601 Y0.000 E14.9178
G1 X5.574 Y0.437 E14.9324
G1 X5.495 Y0.867 E14.9469
G1 X5.364 Y1.285 E14.9615
G1 X5.183 Y1.684 E14.9760
G1 X4.949 Y2.068 E14.9910
G1 X4.491 Y2.600 E15.0143
G1 X-0.499 Y2.600 E15.1803
G1 X-0.949 Y2.068 E15.2035
G1 X-1.180 Y1.690 E15.2182
;segType:HShell
G0 X0.259 Y6.367 F10800
G1 X3.834 Y6.367 E15.3372 F300
G1 X3.209 Y6.520 E15.3586
G1 X2.842 Y6.578 E15.3709
G1 X2.362 Y6.620 E15.3870
G1 X1.966 Y6.632 E15.4001
G1 X1.580 Y6.619 E15.4130
G1 X1.159 Y6.579 E15.4270
G1 X0.783 Y6.519 E15.4397
G1 X0.256 Y6.389 E15.4577
G0 X3.160 Y9.941 F10800
G1 X2.559 Y9.995 E15.4778 F300
G1 X1.957 Y10.011 E15.4979
G1 X1.365 Y9.991 E15.5176
G1 X0.735 Y9.932 E15.5386
G1 X0.152 Y9.839 E15.5582
G1 X-0.434 Y9.709 E15.5782
G1 X-1.096 Y9.521 E15.6011
G1 X-1.685 Y9.309 E15.6219
G1 X-2.263 Y9.059 E15.6428
G1 X-2.823 Y8.774 E15.6638
G1 X-3.365 Y8.453 E15.6847
G1 X-3.885 Y8.100 E15.7056
G1 X-4.382 Y7.714 E15.7265
G1 X-4.854 Y7.298 E15.7474
G1 X-5.298 Y6.854 E15.7684
G1 X-5.714 Y6.382 E15.7893
G1 X-6.100 Y5.885 E15.8102
G1 X-6.453 Y5.365 E15.8311
G1 X-6.774 Y4.823 E15.8520
G1 X-7.059 Y4.263 E15.8729
G1 X-7.309 Y3.686 E15.8939
G1 X-7.521 Y3.094 E15.9148
G1 X-7.697 Y2.490 E15.9357
G1 X-7.835 Y1.876 E15.9566
G1 X-7.933 Y1.255 E15.9775
G1 X-7.992 Y0.629 E15.9985
G1 X-8.012 Y0.000 E16.0194
G1 X-7.992 Y-0.629 E16.0403
G1 X-7.933 Y-1.255 E16.0612
G1 X-7.835 Y-1.876 E16.0821
G1 X-7.697 Y-2.490 E16.1031
G1 X-7.521 Y-3.094 E16.1240
G1 X-7.309 Y-3.686 E16.1449
G1 X-7.059 Y-4.263 E16.1658
G1 X-6.774 Y-4.823 E16.1867
G1 X-6.453 Y-5.365 E16.2077
G1 X-6.100 Y-5.885 E16.2286
G1 X-5.714 Y-6.382 E16.2495
G1 X-5.298 Y-6.854 E16.2704
G1 X-4.854 Y-7.298 E16.2913
G1 X-4.382 Y-7.714 E16.3122
G1 X-3.885 Y-8.100 E16.3332
G1 X-3.365 Y-8.453 E16.3541
G1 X-2.823 Y-8.774 E16.3750
G1 X-2.263 Y-9.059 E16.3959
G1 X-1.685 Y-9.309 E16.4169
G1 X-1.094 Y-9.521 E16.4378
G1 X-0.490 Y-9.697 E16.4587
G1 X0.124 Y-9.835 E16.4796
G1 X0.745 Y-9.933 E16.5005
G1 X1.371 Y-9.992 E16.5214
G1 X2.000 Y-10.012 E16.5424
G1 X2.629 Y-9.992 E16.5633
G1 X3.255 Y-9.933 E16.5842
G1 X3.876 Y-9.835 E16.6051
G1 X4.490 Y-9.697 E16.6260
G1 X5.094 Y-9.521 E16.6470
G1 X5.686 Y-9.309 E16.6679
G1 X6.263 Y-9.059 E16.6888
G1 X6.823 Y-8.774 E16.7097
G1 X7.365 Y-8.453 E16.7306
G1 X7.885 Y-8.100 E16.7516
G1 X8.382 Y-7.714 E16.7725
G1 X8.854 Y-7.298 E16.7934
G1 X9.298 Y-6.854 E16.8143
G1 X9.714 Y-6.382 E16.8352
G1 X10.100 Y-5.885 E16.8562
G1 X10.453 Y-5.365 E16.8771
G1 X10.774 Y-4.823 E16.8980
G1 X11.059 Y-4.263 E16.9189
G1 X11.309 Y-3.686 E16.9398
G1 X11.521 Y-3.094 E16.9607
G1 X11.697 Y-2.490 E16.9817
G1 X11.835 Y-1.876 E17.0026
G1 X11.933 Y-1.255 E17.0235
G1 X11.992 Y-0.630 E17.0444
G1 X12.011 Y0.018 E17.0659
G1 X11.990 Y0.646 E17.0869
G1 X11.930 Y1.273 E17.1078
G1 X11.830 Y1.894 E17.1287
G1 X11.692 Y2.508 E17.1496
G1 X11.516 Y3.112 E17.1706
G1 X11.309 Y3.685 E17.1909
G1 X11.059 Y4.263 E17.2118
G1 X10.774 Y4.823 E17.2327
G1 X10.453 Y5.365 E17.2536
G1 X10.100 Y5.885 E17.2745
G1 X9.714 Y6.382 E17.2955
G1 X9.298 Y6.854 E17.3164
G1 X8.854 Y7.298 E17.3373
G1 X8.382 Y7.714 E17.3582
G1 X7.885 Y8.100 E17.3791
G1 X7.365 Y8.453 E17.4001
G1 X6.823 Y8.774 E17.4210
G1 X6.263 Y9.059 E17.4419
G1 X5.685 Y9.309 E17.4628
G1 X5.097 Y9.521 E17.4836
G1 X4.424 Y9.711 E17.5069
G1 X3.838 Y9.841 E17.5269
G1 X3.346 Y9.918 E17.5434
G0 X2.120 Y9.631 F10800
G1 X1.958 Y9.635 E17.5488 F300
G1 X1.389 Y9.617 E17.5677
G1 X0.782 Y9.559 E17.5880
G1 X0.222 Y9.470 E17.6069
G1 X-0.342 Y9.345 E17.6261
G1 X-0.981 Y9.163 E17.6482
G1 X-1.547 Y8.960 E17.6682
G1 X-2.103 Y8.719 E17.6883
G1 X-2.642 Y8.445 E17.7085
G1 X-3.163 Y8.136 E17.7286
G1 X-3.664 Y7.796 E17.7487
G1 X-4.143 Y7.425 E17.7689
G1 X-4.597 Y7.024 E17.7890
G1 X-5.024 Y6.597 E17.8091
G1 X-5.425 Y6.143 E17.8293
G1 X-5.796 Y5.664 E17.8494
G1 X-6.136 Y5.163 E17.8696
G1 X-6.445 Y4.642 E17.8897
G1 X-6.719 Y4.103 E17.9098
G1 X-6.960 Y3.547 E17.9300
G1 X-7.164 Y2.978 E17.9501
G1 X-7.333 Y2.396 E17.9702
G1 X-7.466 Y1.805 E17.9904
G1 X-7.561 Y1.208 E18.0105
G1 X-7.617 Y0.605 E18.0306
G1 X-7.636 Y0.000 E18.0508
G1 X-7.617 Y-0.605 E18.0709
G1 X-7.561 Y-1.208 E18.0910
G1 X-7.466 Y-1.805 E18.1112
G1 X-7.333 Y-2.396 E18.1313
G1 X-7.164 Y-2.978 E18.1514
G1 X-6.960 Y-3.547 E18.1716
G1 X-6.719 Y-4.103 E18.1917
G1 X-6.445 Y-4.642 E18.2118
G1 X-6.136 Y-5.163 E18.2320
G1 X-5.796 Y-5.664 E18.2521
G1 X-5.425 Y-6.143 E18.2723
G1 X-5.025 Y-6.597 E18.2924
G1 X-4.596 Y-7.025 E18.3125
G1 X-4.143 Y-7.425 E18.3326
G1 X-3.664 Y-7.796 E18.3528
G1 X-3.163 Y-8.136 E18.3729
G1 X-2.642 Y-8.445 E18.3931
G1 X-2.103 Y-8.719 E18.4132
G1 X-1.547 Y-8.960 E18.4333
G1 X-0.978 Y-9.164 E18.4534
G1 X-0.396 Y-9.333 E18.4736
G1 X0.195 Y-9.466 E18.4937
G1 X0.792 Y-9.561 E18.5139
G1 X1.395 Y-9.617 E18.5340
G1 X2.000 Y-9.636 E18.5541
G1 X2.605 Y-9.617 E18.5743
G1 X3.208 Y-9.561 E18.5944
G1 X3.805 Y-9.466 E18.6145
G1 X4.396 Y-9.333 E18.6347
G1 X4.978 Y-9.164 E18.6548
G1 X5.547 Y-8.960 E18.6749
G1 X6.103 Y-8.719 E18.6951
G1 X6.642 Y-8.445 E18.7152
G1 X7.163 Y-8.136 E18.7353
G1 X7.664 Y-7.796 E18.7555
G1 X8.143 Y-7.425 E18.7756
G1 X8.596 Y-7.025 E18.7957
G1 X9.025 Y-6.596 E18.8159
G1 X9.425 Y-6.143 E18.8360
G1 X9.796 Y-5.664 E18.8562
G1 X10.136 Y-5.163 E18.8763
G1 X10.445 Y-4.642 E18.8964
G1 X10.719 Y-4.103 E18.9166
G1 X10.960 Y-3.547 E18.9367
G1 X11.164 Y-2.978 E18.9568
G1 X11.333 Y-2.396 E18.9770
G1 X11.466 Y-1.805 E18.9971
G1 X11.561 Y-1.208 E19.0172
G1 X11.617 Y-0.606 E19.0373
G1 X11.635 Y0.017 E19.0581
G1 X11.615 Y0.622 E19.0782
G1 X11.557 Y1.225 E19.0983
G1 X11.461 Y1.823 E19.1185
G1 X11.329 Y2.414 E19.1386
G1 X11.159 Y2.995 E19.1588
G1 X10.960 Y3.547 E19.1783
G1 X10.719 Y4.103 E19.1984
G1 X10.445 Y4.642 E19.2186
G1 X10.136 Y5.163 E19.2387
G1 X9.796 Y5.664 E19.2588
G1 X9.425 Y6.143 E19.2790
G1 X9.025 Y6.596 E19.2991
G1 X8.597 Y7.025 E19.3192
G1 X8.143 Y7.425 E19.3394
G1 X7.664 Y7.796 E19.3595
G1 X7.163 Y8.136 E19.3796
G1 X6.642 Y8.445 E19.3998
G1 X6.103 Y8.719 E19.4199
G1 X5.547 Y8.960 E19.4401
G1 X4.982 Y9.163 E19.4600
G1 X4.332 Y9.347 E19.4825
G1 X3.768 Y9.472 E19.5017
G1 X3.208 Y9.560 E19.5206
G1 X2.537 Y9.620 E19.5430
G1 X2.308 Y9.626 E19.5506
G0 X1.125 Y9.215 F10800
G1 X0.829 Y9.187 E19.5605 F300
G1 X0.292 Y9.102 E19.5786
G1 X-0.250 Y8.981 E19.5970
G1 X-0.866 Y8.806 E19.6184
G1 X-1.409 Y8.611 E19.6375
G1 X-1.943 Y8.379 E19.6569
G1 X-2.461 Y8.115 E19.6762
G1 X-2.962 Y7.819 E19.6956
G1 X-3.443 Y7.492 E19.7149
G1 X-3.903 Y7.135 E19.7343
G1 X-4.340 Y6.751 E19.7537
G1 X-4.751 Y6.340 E19.7730
G1 X-5.135 Y5.903 E19.7923
G1 X-5.492 Y5.443 E19.8117
G1 X-5.819 Y4.962 E19.8310
G1 X-6.115 Y4.461 E19.8504
G1 X-6.379 Y3.943 E19.8697
G1 X-6.611 Y3.409 E19.8891
G1 X-6.807 Y2.862 E19.9084
G1 X-6.969 Y2.303 E19.9278
G1 X-7.097 Y1.735 E19.9472
G1 X-7.188 Y1.161 E19.9665
G1 X-7.242 Y0.582 E19.9858
G1 X-7.261 Y0.000 E20.0052
G1 X-7.242 Y-0.582 E20.0246
G1 X-7.188 Y-1.161 E20.0439
G1 X-7.097 Y-1.735 E20.0632
G1 X-6.969 Y-2.303 E20.0826
G1 X-6.807 Y-2.862 E20.1020
G1 X-6.611 Y-3.409 E20.1213
G1 X-6.379 Y-3.943 E20.1407
G1 X-6.115 Y-4.461 E20.1600
G1 X-5.819 Y-4.962 E20.1793
G1 X-5.492 Y-5.443 E20.1987
G1 X-5.135 Y-5.904 E20.2181
G1 X-4.751 Y-6.340 E20.2374
G1 X-4.339 Y-6.751 E20.2567
G1 X-3.903 Y-7.135 E20.2761
G1 X-3.443 Y-7.492 E20.2954
G1 X-2.962 Y-7.819 E20.3148
G1 X-2.461 Y-8.115 E20.3342
G1 X-1.943 Y-8.379 E20.3535
G1 X-1.409 Y-8.611 E20.3729
G1 X-0.862 Y-8.807 E20.3922
G1 X-0.303 Y-8.969 E20.4116
G1 X0.265 Y-9.097 E20.4309
G1 X0.839 Y-9.188 E20.4502
G1 X1.418 Y-9.242 E20.4696
G1 X2.000 Y-9.261 E20.4889
G1 X2.582 Y-9.242 E20.5083
G1 X3.161 Y-9.188 E20.5277
G1 X3.735 Y-9.097 E20.5470
G1 X4.303 Y-8.969 E20.5663
G1 X4.862 Y-8.807 E20.5857
G1 X5.409 Y-8.611 E20.6050
G1 X5.943 Y-8.379 E20.6244
G1 X6.461 Y-8.115 E20.6437
G1 X6.962 Y-7.819 E20.6631
G1 X7.443 Y-7.492 E20.6825
G1 X7.903 Y-7.136 E20.7018
G1 X8.339 Y-6.751 E20.7211
G1 X8.751 Y-6.339 E20.7405
G1 X9.136 Y-5.903 E20.7599
G1 X9.492 Y-5.443 E20.7792
G1 X9.819 Y-4.962 E20.7985
G1 X10.115 Y-4.461 E20.8179
G1 X10.379 Y-3.943 E20.8372
G1 X10.611 Y-3.409 E20.8566
G1 X10.807 Y-2.862 E20.8759
G1 X10.969 Y-2.303 E20.8953
G1 X11.097 Y-1.735 E20.9147
G1 X11.188 Y-1.161 E20.9340
G1 X11.242 Y-0.583 E20.9533
G1 X11.260 Y0.016 E20.9732
G1 X11.240 Y0.598 E20.9926
G1 X11.185 Y1.177 E21.0119
G1 X11.093 Y1.752 E21.0313
G1 X10.965 Y2.320 E21.0507
G1 X10.802 Y2.879 E21.0700
G1 X10.611 Y3.408 E21.0888
G1 X10.379 Y3.943 E21.1081
G1 X10.115 Y4.461 E21.1275
G1 X9.819 Y4.962 E21.1468
G1 X9.492 Y5.443 E21.1662
G1 X9.135 Y5.903 E21.1855
G1 X8.751 Y6.339 E21.2049
G1 X8.340 Y6.751 E21.2242
G1 X7.904 Y7.135 E21.2436
G1 X7.443 Y7.492 E21.2629
G1 X6.962 Y7.819 E21.2823
G1 X6.461 Y8.115 E21.3016
G1 X5.943 Y8.379 E21.3210
G1 X5.408 Y8.611 E21.3404
G1 X4.867 Y8.806 E21.3595
G1 X4.240 Y8.982 E21.3812
G1 X3.698 Y9.103 E21.3996
G1 X3.162 Y9.187 E21.4177
G1 X2.515 Y9.245 E21.4393
G1 X1.959 Y9.260 E21.4578
G1 X1.413 Y9.242 E21.4760
G1 X1.312 Y9.232 E21.4793
G0 X0.187 Y8.694 F10800
G1 X-0.158 Y8.617 E21.4911 F300
G1 X-0.751 Y8.448 E21.5116
G1 X-1.271 Y8.261 E21.5300
G1 X-1.783 Y8.039 E21.5485
G1 X-2.281 Y7.786 E21.5671
G1 X-2.761 Y7.502 E21.5857
G1 X-3.222 Y7.188 E21.6042
G1 X-3.664 Y6.846 E21.6228
G1 X-4.083 Y6.477 E21.6414
G1 X-4.477 Y6.083 E21.6599
G1 X-4.846 Y5.664 E21.6785
G1 X-5.188 Y5.222 E21.6971
G1 X-5.502 Y4.761 E21.7156
G1 X-5.786 Y4.281 E21.7342
G1 X-6.039 Y3.783 E21.7527
G1 X-6.261 Y3.271 E21.7713
G1 X-6.450 Y2.746 E21.7899
G1 X-6.606 Y2.209 E21.8085
G1 X-6.728 Y1.664 E21.8270
G1 X-6.815 Y1.114 E21.8456
G1 X-6.868 Y0.559 E21.8641
G1 X-6.885 Y0.000 E21.8827
G1 X-6.868 Y-0.559 E21.9013
G1 X-6.815 Y-1.114 E21.9198
G1 X-6.728 Y-1.664 E21.9384
G1 X-6.606 Y-2.209 E21.9570
G1 X-6.450 Y-2.746 E21.9756
G1 X-6.261 Y-3.271 E21.9941
G1 X-6.039 Y-3.783 E22.0127
G1 X-5.786 Y-4.281 E22.0312
G1 X-5.502 Y-4.761 E22.0498
G1 X-5.188 Y-5.222 E22.0684
G1 X-4.846 Y-5.664 E22.0870
G1 X-4.477 Y-6.083 E22.1055
G1 X-4.082 Y-6.477 E22.1241
G1 X-3.664 Y-6.846 E22.1426
G1 X-3.223 Y-7.188 E22.1612
G1 X-2.761 Y-7.502 E22.1798
G1 X-2.280 Y-7.786 E22.1983
G1 X-1.783 Y-8.039 E22.2169
G1 X-1.271 Y-8.261 E22.2355
G1 X-0.746 Y-8.450 E22.2540
G1 X-0.209 Y-8.606 E22.2726
G1 X0.336 Y-8.728 E22.2912
G1 X0.886 Y-8.815 E22.3097
G1 X1.441 Y-8.868 E22.3283
G1 X2.000 Y-8.885 E22.3468
G1 X2.559 Y-8.868 E22.3654
G1 X3.114 Y-8.815 E22.3840
G1 X3.664 Y-8.728 E22.4025
G1 X4.209 Y-8.606 E22.4211
G1 X4.746 Y-8.450 E22.4397
G1 X5.271 Y-8.261 E22.4582
G1 X5.783 Y-8.039 E22.4768
G1 X6.280 Y-7.786 E22.4954
G1 X6.761 Y-7.502 E22.5139
G1 X7.223 Y-7.188 E22.5325
G1 X7.664 Y-6.846 E22.5511
G1 X8.082 Y-6.477 E22.5696
G1 X8.477 Y-6.082 E22.5882
G1 X8.846 Y-5.664 E22.6068
G1 X9.188 Y-5.223 E22.6253
G1 X9.502 Y-4.761 E22.6439
G1 X9.786 Y-4.280 E22.6625
G1 X10.039 Y-3.783 E22.6810
G1 X10.261 Y-3.271 E22.6996
G1 X10.450 Y-2.746 E22.7181
G1 X10.606 Y-2.209 E22.7367
G1 X10.728 Y-1.664 E22.7553
G1 X10.815 Y-1.114 E22.7738
G1 X10.868 Y-0.560 E22.7923
G1 X10.885 Y0.016 E22.8115
G1 X10.866 Y0.574 E22.8301
G1 X10.812 Y1.129 E22.8486
G1 X10.724 Y1.681 E22.8672
G1 X10.601 Y2.226 E22.8858
G1 X10.445 Y2.762 E22.9044
G1 X10.261 Y3.270 E22.9223
G1 X10.039 Y3.783 E22.9409
G1 X9.786 Y4.280 E22.9595
G1 X9.502 Y4.761 E22.9780
G1 X9.188 Y5.223 E22.9966
G1 X8.846 Y5.664 E23.0152
G1 X8.477 Y6.082 E23.0337
G1 X8.083 Y6.477 E23.0523
G1 X7.664 Y6.846 E23.0708
G1 X7.222 Y7.188 E23.0894
G1 X6.761 Y7.502 E23.1080
G1 X6.281 Y7.786 E23.1266
G1 X5.783 Y8.039 E23.1451
G1 X5.270 Y8.261 E23.1637
G1 X4.753 Y8.448 E23.1820
G1 X4.149 Y8.618 E23.2029
G1 X3.628 Y8.734 E23.2206
G1 X3.116 Y8.814 E23.2379
G1 X2.493 Y8.870 E23.2587
G1 X1.960 Y8.885 E23.2764
G1 X1.437 Y8.867 E23.2938
G1 X0.876 Y8.814 E23.3125
G1 X0.370 Y8.734 E23.3296
G0 X-0.725 Y8.059 F10800
G1 X-1.133 Y7.912 E23.3440 F300
G1 X-1.623 Y7.699 E23.3618
G1 X-2.100 Y7.457 E23.3796
G1 X-2.559 Y7.185 E23.3973
G1 X-3.002 Y6.884 E23.4151
G1 X-3.425 Y6.556 E23.4329
G1 X-3.825 Y6.203 E23.4507
G1 X-4.203 Y5.825 E23.4685
G1 X-4.556 Y5.425 E23.4862
G1 X-4.884 Y5.002 E23.5040
G1 X-5.185 Y4.559 E23.5218
G1 X-5.457 Y4.100 E23.5396
G1 X-5.699 Y3.623 E23.5574
G1 X-5.912 Y3.133 E23.5751
G1 X-6.093 Y2.630 E23.5929
G1 X-6.242 Y2.116 E23.6107
G1 X-6.359 Y1.594 E23.6285
G1 X-6.443 Y1.067 E23.6463
G1 X-6.493 Y0.535 E23.6640
G1 X-6.510 Y0.000 E23.6818
G1 X-6.493 Y-0.535 E23.6996
G1 X-6.443 Y-1.067 E23.7174
G1 X-6.359 Y-1.594 E23.7351
G1 X-6.242 Y-2.116 E23.7529
G1 X-6.093 Y-2.630 E23.7708
G1 X-5.912 Y-3.133 E23.7885
G1 X-5.699 Y-3.623 E23.8063
G1 X-5.457 Y-4.100 E23.8241
G1 X-5.185 Y-4.560 E23.8419
G1 X-4.884 Y-5.002 E23.8596
G1 X-4.556 Y-5.425 E23.8774
G1 X-4.204 Y-5.825 E23.8952
G1 X-3.825 Y-6.203 E23.9130
G1 X-3.424 Y-6.557 E23.9308
G1 X-3.002 Y-6.884 E23.9485
G1 X-2.560 Y-7.185 E23.9663
G1 X-2.099 Y-7.457 E23.9841
G1 X-1.623 Y-7.699 E24.0019
G1 X-1.133 Y-7.912 E24.0197
G1 X-0.630 Y-8.093 E24.0374
G1 X-0.116 Y-8.242 E24.0552
G1 X0.406 Y-8.359 E24.0730
G1 X0.933 Y-8.443 E24.0908
G1 X1.465 Y-8.493 E24.1085
G1 X2.000 Y-8.510 E24.1263
G1 X2.535 Y-8.493 E24.1442
G1 X3.067 Y-8.443 E24.1619
G1 X3.594 Y-8.359 E24.1797
G1 X4.116 Y-8.242 E24.1975
G1 X4.630 Y-8.093 E24.2153
G1 X5.133 Y-7.912 E24.2330
G1 X5.623 Y-7.699 E24.2508
G1 X6.099 Y-7.457 E24.2686
G1 X6.560 Y-7.185 E24.2864
G1 X7.002 Y-6.884 E24.3042
G1 X7.425 Y-6.557 E24.3219
G1 X7.825 Y-6.204 E24.3397
G1 X8.204 Y-5.825 E24.3575
G1 X8.557 Y-5.425 E24.3753
G1 X8.884 Y-5.002 E24.3930
G1 X9.185 Y-4.560 E24.4108
G1 X9.457 Y-4.099 E24.4286
G1 X9.699 Y-3.623 E24.4464
G1 X9.912 Y-3.133 E24.4642
G1 X10.093 Y-2.630 E24.4819
G1 X10.242 Y-2.116 E24.4997
G1 X10.359 Y-1.594 E24.5175
G1 X10.443 Y-1.066 E24.5353
G1 X10.493 Y-0.537 E24.5530
G1 X10.509 Y0.015 E24.5713
G1 X10.491 Y0.550 E24.5891
G1 X10.440 Y1.082 E24.6069
G1 X10.355 Y1.610 E24.6247
G1 X10.238 Y2.132 E24.6425
G1 X10.088 Y2.646 E24.6603
G1 X9.912 Y3.132 E24.6775
G1 X9.699 Y3.623 E24.6953
G1 X9.457 Y4.099 E24.7131
G1 X9.185 Y4.560 E24.7309
G1 X8.884 Y5.002 E24.7487
G1 X8.557 Y5.424 E24.7664
G1 X8.203 Y5.825 E24.7842
G1 X7.825 Y6.204 E24.8020
G1 X7.425 Y6.556 E24.8197
G1 X7.002 Y6.884 E24.8376
G1 X6.560 Y7.185 E24.8553
G1 X6.100 Y7.457 E24.8731
G1 X5.623 Y7.699 E24.8909
G1 X5.132 Y7.912 E24.9087
G1 X4.638 Y8.090 E24.9262
G1 X4.057 Y8.254 E24.9462
G1 X3.558 Y8.365 E24.9632
G1 X3.070 Y8.442 E24.9797
G1 X2.472 Y8.495 E24.9996
G1 X1.961 Y8.509 E25.0166
G1 X1.460 Y8.492 E25.0333
G1 X0.923 Y8.441 E25.0512
G1 X0.432 Y8.364 E25.0678
G1 X-0.065 Y8.253 E25.0847
G1 X-0.546 Y8.116 E25.1014
G0 X-1.547 Y7.317 F10800
G1 X-1.919 Y7.128 E25.1152 F300
G1 X-2.358 Y6.868 E25.1322
G1 X-2.781 Y6.580 E25.1492
G1 X-3.186 Y6.267 E25.1662
G1 X-3.568 Y5.929 E25.1832
G1 X-3.929 Y5.568 E25.2002
G1 X-4.267 Y5.186 E25.2172
G1 X-4.580 Y4.781 E25.2342
G1 X-4.868 Y4.358 E25.2512
G1 X-5.128 Y3.919 E25.2682
G1 X-5.360 Y3.463 E25.2852
G1 X-5.563 Y2.995 E25.3022
G1 X-5.736 Y2.515 E25.3191
G1 X-5.878 Y2.022 E25.3362
G1 X-5.990 Y1.523 E25.3532
G1 X-6.070 Y1.020 E25.3702
G1 X-6.118 Y0.512 E25.3871
G1 X-6.134 Y0.000 E25.4042
G1 X-6.118 Y-0.512 E25.4212
G1 X-6.070 Y-1.020 E25.4381
G1 X-5.990 Y-1.523 E25.4551
G1 X-5.878 Y-2.022 E25.4721
G1 X-5.736 Y-2.515 E25.4892
G1 X-5.563 Y-2.995 E25.5061
G1 X-5.360 Y-3.463 E25.5231
G1 X-5.128 Y-3.919 E25.5401
G1 X-4.868 Y-4.358 E25.5571
G1 X-4.580 Y-4.781 E25.5741
G1 X-4.267 Y-5.186 E25.5912
G1 X-3.930 Y-5.568 E25.6081
G1 X-3.568 Y-5.929 E25.6251
G1 X-3.185 Y-6.268 E25.6421
G1 X-2.781 Y-6.580 E25.6591
G1 X-2.358 Y-6.868 E25.6761
G1 X-1.918 Y-7.128 E25.6931
G1 X-1.463 Y-7.360 E25.7101
G1 X-0.994 Y-7.563 E25.7271
G1 X-0.514 Y-7.736 E25.7440
G1 X-0.022 Y-7.878 E25.7611
G1 X0.477 Y-7.990 E25.7781
G1 X0.980 Y-8.070 E25.7951
G1 X1.488 Y-8.118 E25.8120
G1 X2.000 Y-8.134 E25.8291
G1 X2.512 Y-8.118 E25.8461
G1 X3.020 Y-8.070 E25.8631
G1 X3.523 Y-7.990 E25.8800
G1 X4.022 Y-7.878 E25.8970
G1 X4.514 Y-7.736 E25.9141
G1 X4.995 Y-7.563 E25.9310
G1 X5.463 Y-7.360 E25.9480
G1 X5.918 Y-7.128 E25.9650
G1 X6.358 Y-6.868 E25.9820
G1 X6.781 Y-6.580 E25.9990
G1 X7.185 Y-6.267 E26.0160
G1 X7.568 Y-5.930 E26.0330
G1 X7.930 Y-5.568 E26.0500
G1 X8.267 Y-5.185 E26.0670
G1 X8.580 Y-4.781 E26.0840
G1 X8.868 Y-4.358 E26.1010
G1 X9.128 Y-3.918 E26.1180
G1 X9.360 Y-3.463 E26.1350
G1 X9.563 Y-2.995 E26.1520
G1 X9.736 Y-2.514 E26.1689
G1 X9.878 Y-2.022 E26.1860
G1 X9.990 Y-1.523 E26.2030
G1 X10.070 Y-1.019 E26.2200
G1 X10.118 Y-0.514 E26.2369
G1 X10.134 Y0.014 E26.2544
G1 X10.116 Y0.525 E26.2714
G1 X10.067 Y1.034 E26.2884
G1 X9.986 Y1.539 E26.3054
G1 X9.874 Y2.038 E26.3225
G1 X9.730 Y2.529 E26.3395
G1 X9.563 Y2.993 E26.3559
G1 X9.360 Y3.463 E26.3729
G1 X9.128 Y3.918 E26.3899
G1 X8.868 Y4.358 E26.4069
G1 X8.580 Y4.781 E26.4239
G1 X8.268 Y5.185 E26.4409
G1 X7.929 Y5.568 E26.4579
G1 X7.568 Y5.930 E26.4749
G1 X7.186 Y6.267 E26.4918
G1 X6.781 Y6.580 E26.5089
G1 X6.358 Y6.868 E26.5259
G1 X5.919 Y7.128 E26.5429
G1 X5.463 Y7.360 E26.5599
G1 X4.993 Y7.563 E26.5769
G1 X4.523 Y7.733 E26.5935
G1 X3.965 Y7.890 E26.6128
G1 X3.489 Y7.996 E26.6291
G1 X3.025 Y8.069 E26.6447
G1 X2.450 Y8.120 E26.6639
G1 X1.962 Y8.134 E26.6801
G1 X1.484 Y8.118 E26.6960
G1 X0.970 Y8.069 E26.7132
G1 X0.502 Y7.995 E26.7289
G1 X0.027 Y7.889 E26.7451
G1 X-0.521 Y7.733 E26.7641
G1 X-0.994 Y7.563 E26.7808
G1 X-1.377 Y7.397 E26.7947
G0 X-2.234 Y6.498 F10800
G1 X-2.560 Y6.276 E26.8078 F300
G1 X-2.946 Y5.977 E26.8240
G1 X-3.311 Y5.656 E26.8402
G1 X-3.656 Y5.311 E26.8564
G1 X-3.977 Y4.946 E26.8726
G1 X-4.276 Y4.560 E26.8888
G1 X-4.551 Y4.156 E26.9051
G1 X-4.799 Y3.738 E26.9213
G1 X-5.020 Y3.303 E26.9375
G1 X-5.214 Y2.856 E26.9537
G1 X-5.378 Y2.399 E26.9699
G1 X-5.514 Y1.929 E26.9861
G1 X-5.621 Y1.453 E27.0024
G1 X-5.698 Y0.972 E27.0185
G1 X-5.743 Y0.488 E27.0347
G1 X-5.759 Y0.000 E27.0510
G1 X-5.743 Y-0.488 E27.0672
G1 X-5.698 Y-0.972 E27.0834
G1 X-5.621 Y-1.453 E27.0996
G1 X-5.514 Y-1.929 E27.1158
G1 X-5.378 Y-2.399 E27.1321
G1 X-5.214 Y-2.856 E27.1482
G1 X-5.020 Y-3.303 E27.1644
G1 X-4.799 Y-3.738 E27.1807
G1 X-4.551 Y-4.157 E27.1968
G1 X-4.276 Y-4.560 E27.2131
G1 X-3.977 Y-4.947 E27.2293
G1 X-3.656 Y-5.311 E27.2455
G1 X-3.311 Y-5.655 E27.2617
G1 X-2.945 Y-5.978 E27.2779
G1 X-2.561 Y-6.276 E27.2941
G1 X-2.157 Y-6.551 E27.3103
G1 X-1.738 Y-6.799 E27.3266
G1 X-1.303 Y-7.020 E27.3428
G1 X-0.856 Y-7.214 E27.3590
G1 X-0.399 Y-7.378 E27.3751
G1 X0.071 Y-7.514 E27.3914
G1 X0.548 Y-7.621 E27.4077
G1 X1.027 Y-7.698 E27.4238
G1 X1.512 Y-7.743 E27.4400
G1 X2.000 Y-7.759 E27.4562
G1 X2.488 Y-7.743 E27.4725
G1 X2.973 Y-7.698 E27.4887
G1 X3.452 Y-7.621 E27.5048
G1 X3.929 Y-7.514 E27.5211
G1 X4.399 Y-7.378 E27.5373
G1 X4.856 Y-7.214 E27.5535
G1 X5.303 Y-7.020 E27.5697
G1 X5.738 Y-6.799 E27.5859
G1 X6.157 Y-6.551 E27.6021
G1 X6.561 Y-6.276 E27.6184
G1 X6.946 Y-5.978 E27.6346
G1 X7.311 Y-5.656 E27.6508
G1 X7.656 Y-5.311 E27.6670
G1 X7.978 Y-4.946 E27.6832
G1 X8.276 Y-4.561 E27.6994
G1 X8.551 Y-4.157 E27.7156
G1 X8.799 Y-3.738 E27.7318
G1 X9.020 Y-3.303 E27.7480
G1 X9.214 Y-2.856 E27.7643
G1 X9.378 Y-2.399 E27.7804
G1 X9.514 Y-1.929 E27.7967
G1 X9.621 Y-1.453 E27.8129
G1 X9.698 Y-0.972 E27.8291
G1 X9.743 Y-0.490 E27.8452
G1 X9.758 Y0.013 E27.8619
G1 X9.741 Y0.501 E27.8782
G1 X9.695 Y0.986 E27.8944
G1 X9.617 Y1.468 E27.9106
G1 X9.510 Y1.945 E27.9269
G1 X9.373 Y2.413 E27.9431
G1 X9.214 Y2.855 E27.9587
G1 X9.020 Y3.303 E27.9750
G1 X8.799 Y3.738 E27.9912
G1 X8.551 Y4.157 E28.0074
G1 X8.276 Y4.561 E28.0236
G1 X7.978 Y4.945 E28.0398
G1 X7.655 Y5.311 E28.0561
G1 X7.311 Y5.656 E28.0723
G1 X6.947 Y5.977 E28.0884
G1 X6.560 Y6.276 E28.1047
G1 X6.157 Y6.551 E28.1209
G1 X5.738 Y6.799 E28.1371
G1 X5.304 Y7.020 E28.1533
G1 X4.855 Y7.214 E28.1696
G1 X4.408 Y7.375 E28.1853
G1 X3.873 Y7.526 E28.2038
G1 X3.419 Y7.627 E28.2193
G1 X2.979 Y7.696 E28.2341
G1 X2.428 Y7.745 E28.2525
G1 X1.963 Y7.758 E28.2680
G1 X1.508 Y7.743 E28.2831
G1 X1.018 Y7.696 E28.2995
G1 X0.573 Y7.626 E28.3145
G1 X0.119 Y7.525 E28.3300
G1 X-0.407 Y7.375 E28.3481
G1 X-0.856 Y7.214 E28.3640
G1 X-1.303 Y7.020 E28.3802
G1 X-1.738 Y6.799 E28.3965
G1 X-2.076 Y6.599 E28.4095
G0 X-2.777 Y5.626 F10800
G1 X-3.054 Y5.382 E28.4218 F300
G1 X-3.382 Y5.054 E28.4372
G1 X-3.688 Y4.707 E28.4526
G1 X-3.972 Y4.340 E28.4680
G1 X-4.234 Y3.955 E28.4835
G1 X-4.470 Y3.557 E28.4989
G1 X-4.680 Y3.144 E28.5143
G1 X-4.865 Y2.718 E28.5298
G1 X-5.021 Y2.283 E28.5451
G1 X-5.151 Y1.835 E28.5606
G1 X-5.252 Y1.382 E28.5761
G1 X-5.325 Y0.925 E28.5915
G1 X-5.369 Y0.465 E28.6069
G1 X-5.383 Y0.000 E28.6223
G1 X-5.369 Y-0.465 E28.6378
G1 X-5.325 Y-0.925 E28.6532
G1 X-5.252 Y-1.382 E28.6686
G1 X-5.151 Y-1.835 E28.6840
G1 X-5.021 Y-2.283 E28.6995
G1 X-4.865 Y-2.718 E28.7149
G1 X-4.680 Y-3.144 E28.7303
G1 X-4.470 Y-3.557 E28.7457
G1 X-4.234 Y-3.955 E28.7611
G1 X-3.973 Y-4.340 E28.7766
G1 X-3.687 Y-4.707 E28.7921
G1 X-3.383 Y-5.054 E28.8074
G1 X-3.054 Y-5.381 E28.8228
G1 X-2.706 Y-5.689 E28.8383
G1 X-2.340 Y-5.972 E28.8537
G1 X-1.955 Y-6.233 E28.8692
G1 X-1.557 Y-6.470 E28.8846
G1 X-1.144 Y-6.680 E28.9000
G1 X-0.718 Y-6.865 E28.9154
G1 X-0.283 Y-7.021 E28.9308
G1 X0.165 Y-7.151 E28.9463
G1 X0.618 Y-7.252 E28.9618
G1 X1.074 Y-7.325 E28.9771
G1 X1.535 Y-7.369 E28.9925
G1 X2.000 Y-7.383 E29.0080
G1 X2.465 Y-7.369 E29.0235
G1 X2.926 Y-7.325 E29.0388
G1 X3.382 Y-7.252 E29.0542
G1 X3.835 Y-7.151 E29.0697
G1 X4.283 Y-7.021 E29.0852
G1 X4.718 Y-6.865 E29.1005
G1 X5.144 Y-6.680 E29.1160
G1 X5.557 Y-6.470 E29.1314
G1 X5.955 Y-6.234 E29.1468
G1 X6.340 Y-5.972 E29.1623
G1 X6.707 Y-5.688 E29.1777
G1 X7.054 Y-5.382 E29.1931
G1 X7.382 Y-5.054 E29.2085
G1 X7.688 Y-4.707 E29.2239
G1 X7.972 Y-4.340 E29.2394
G1 X8.234 Y-3.955 E29.2548
G1 X8.470 Y-3.557 E29.2702
G1 X8.680 Y-3.144 E29.2857
G1 X8.865 Y-2.718 E29.3011
G1 X9.021 Y-2.283 E29.3165
G1 X9.151 Y-1.835 E29.3320
G1 X9.252 Y-1.382 E29.3474
G1 X9.325 Y-0.925 E29.3628
G1 X9.369 Y-0.467 E29.3781
G1 X9.383 Y0.012 E29.3940
G1 X9.367 Y0.476 E29.4095
G1 X9.322 Y0.938 E29.4249
G1 X9.248 Y1.396 E29.4404
G1 X9.146 Y1.851 E29.4559
G1 X9.016 Y2.297 E29.4713
G1 X8.865 Y2.716 E29.4861
G1 X8.680 Y3.144 E29.5016
G1 X8.470 Y3.557 E29.5170
G1 X8.233 Y3.955 E29.5325
G1 X7.972 Y4.340 E29.5479
G1 X7.689 Y4.706 E29.5633
G1 X7.381 Y5.054 E29.5788
G1 X7.054 Y5.383 E29.5942
G1 X6.707 Y5.688 E29.6095
G1 X6.340 Y5.973 E29.6250
G1 X5.955 Y6.234 E29.6405
G1 X5.557 Y6.470 E29.6559
G1 X5.144 Y6.680 E29.6713
G1 X4.716 Y6.865 E29.6868
G1 X4.293 Y7.017 E29.7017
G1 X3.781 Y7.162 E29.7194
G1 X3.349 Y7.258 E29.7342
G1 X2.933 Y7.323 E29.7482
G1 X2.406 Y7.370 E29.7658
G1 X1.964 Y7.383 E29.7805
G1 X1.532 Y7.368 E29.7948
G1 X1.065 Y7.324 E29.8105
G1 X0.643 Y7.257 E29.8247
G1 X0.211 Y7.161 E29.8394
G1 X-0.292 Y7.017 E29.8568
G1 X-0.718 Y6.865 E29.8718
G1 X-1.144 Y6.680 E29.8873
G1 X-1.557 Y6.470 E29.9027
G1 X-1.955 Y6.234 E29.9181
G1 X-2.340 Y5.972 E29.9335
G1 X-2.633 Y5.745 E29.9459
G0 X-1.534 Y5.991 F10800
G1 X5.628 Y5.991 E30.1841 F300
G1 X5.376 Y6.141 E30.1939
G1 X4.984 Y6.340 E30.2085
G1 X4.578 Y6.516 E30.2232
G1 X4.179 Y6.660 E30.2373
G1 X3.690 Y6.798 E30.2542
G1 X3.279 Y6.889 E30.2682
G1 X2.888 Y6.950 E30.2814
G1 X2.384 Y6.995 E30.2982
G1 X1.965 Y7.007 E30.3122
G1 X1.556 Y6.993 E30.3258
G1 X1.112 Y6.951 E30.3406
G1 X0.713 Y6.888 E30.3540
G1 X0.304 Y6.797 E30.3680
G1 X-0.177 Y6.660 E30.3846
G1 X-0.580 Y6.516 E30.3988
G1 X-0.984 Y6.340 E30.4135
G1 X-1.376 Y6.141 E30.4281
G1 X-1.548 Y6.039 E30.4348
G0 X-1.938 Y0.607 F10800
G1 X-1.958 Y0.497 E30.4385 F300
G1 X-1.990 Y0.015 E30.4545
G1 X-1.962 Y-0.466 E30.4706
G1 X-1.877 Y-0.941 E30.4866
G1 X-1.735 Y-1.402 E30.5027
G1 X-1.539 Y-1.842 E30.5187
G1 X-1.291 Y-2.256 E30.5347
G1 X-0.994 Y-2.637 E30.5508
G1 X-0.654 Y-2.979 E30.5668
G1 X-0.275 Y-3.277 E30.5829
G1 X0.137 Y-3.528 E30.5989
G1 X0.577 Y-3.727 E30.6150
G1 X1.037 Y-3.871 E30.6310
G1 X1.510 Y-3.959 E30.6470
G1 X1.992 Y-3.990 E30.6631
G1 X2.474 Y-3.961 E30.6791
G1 X2.948 Y-3.875 E30.6952
G1 X3.409 Y-3.733 E30.7112
G1 X3.849 Y-3.535 E30.7273
G1 X4.262 Y-3.286 E30.7433
G1 X4.639 Y-2.992 E30.7592
G1 X4.987 Y-2.644 E30.7756
G1 X5.285 Y-2.264 E30.7916
G1 X5.534 Y-1.851 E30.8077
G1 X5.732 Y-1.410 E30.8237
G1 X5.874 Y-0.950 E30.8398
G1 X5.961 Y-0.477 E30.8558
G1 X5.990 Y0.000 E30.8716
G1 X5.960 Y0.484 E30.8878
G1 X5.872 Y0.961 E30.9039
G1 X5.727 Y1.424 E30.9200
G1 X5.526 Y1.865 E30.9362
G1 X5.264 Y2.297 E30.9529
G1 X4.669 Y2.988 E30.9833
G1 X-0.679 Y2.988 E31.1611
G1 X-1.264 Y2.295 E31.1913
G1 X-1.524 Y1.870 E31.2079
G1 X-1.724 Y1.431 E31.2239
G1 X-1.870 Y0.970 E31.2400
G1 X-1.903 Y0.791 E31.2461
G0 X-2.339 Y-0.443 F10800
G1 X-2.336 Y-0.510 E31.2483 F300
G1 X-2.242 Y-1.030 E31.2659
G1 X-2.087 Y-1.534 E31.2834
G1 X-1.872 Y-2.016 E31.3009
G1 X-1.601 Y-2.469 E31.3185
G1 X-1.276 Y-2.885 E31.3361
G1 X-0.904 Y-3.260 E31.3536
G1 X-0.489 Y-3.586 E31.3712
G1 X-0.039 Y-3.860 E31.3887
G1 X0.443 Y-4.079 E31.4063
G1 X0.947 Y-4.236 E31.4239
G1 X1.464 Y-4.332 E31.4414
G1 X1.991 Y-4.365 E31.4589
G1 X2.518 Y-4.335 E31.4765
G1 X3.038 Y-4.240 E31.4940
G1 X3.542 Y-4.084 E31.5116
G1 X4.024 Y-3.868 E31.5292
G1 X4.475 Y-3.596 E31.5467
G1 X4.888 Y-3.274 E31.5641
G1 X5.269 Y-2.894 E31.5820
G1 X5.594 Y-2.477 E31.5996
G1 X5.867 Y-2.025 E31.6171
G1 X6.084 Y-1.543 E31.6347
G1 X6.240 Y-1.039 E31.6523
G1 X6.334 Y-0.522 E31.6698
G1 X6.365 Y0.000 E31.6871
G1 X6.333 Y0.530 E31.7048
G1 X6.237 Y1.052 E31.7224
G1 X6.078 Y1.558 E31.7401
G1 X5.859 Y2.041 E31.7578
G1 X5.569 Y2.518 E31.7763
G1 X4.842 Y3.363 E31.8134
G1 X-0.853 Y3.363 E32.0028
G1 X-1.569 Y2.516 E32.0397
G1 X-1.856 Y2.046 E32.0580
G1 X-2.075 Y1.565 E32.0756
G1 X-2.234 Y1.062 E32.0931
G1 X-2.331 Y0.543 E32.1107
G1 X-2.365 Y0.017 E32.1282
G1 X-2.350 Y-0.256 E32.1373
G0 X-2.472 Y-1.558 F10800
G1 X-2.439 Y-1.667 E32.1411 F300
G1 X-2.206 Y-2.189 E32.1601
G1 X-1.911 Y-2.681 E32.1792
G1 X-1.559 Y-3.134 E32.1983
G1 X-1.154 Y-3.541 E32.2174
G1 X-0.704 Y-3.895 E32.2364
G1 X-0.215 Y-4.193 E32.2554
G1 X0.309 Y-4.430 E32.2746
G1 X0.856 Y-4.601 E32.2936
G1 X1.418 Y-4.706 E32.3126
G1 X1.990 Y-4.741 E32.3317
G1 X2.563 Y-4.708 E32.3508
G1 X3.127 Y-4.605 E32.3699
G1 X3.675 Y-4.436 E32.3889
G1 X4.198 Y-4.201 E32.4080
G1 X4.688 Y-3.906 E32.4271
G1 X5.137 Y-3.555 E32.4460
G1 X5.550 Y-3.143 E32.4654
G1 X5.904 Y-2.691 E32.4845
G1 X6.200 Y-2.200 E32.5036
G1 X6.436 Y-1.676 E32.5227
G1 X6.605 Y-1.128 E32.5417
G1 X6.707 Y-0.567 E32.5607
G1 X6.741 Y0.000 E32.5796
G1 X6.707 Y0.575 E32.5988
G1 X6.602 Y1.142 E32.6179
G1 X6.429 Y1.692 E32.6371
G1 X6.191 Y2.217 E32.6563
G1 X5.873 Y2.740 E32.6766
G1 X5.014 Y3.739 E32.7205
G1 X-1.027 Y3.739 E32.9214
G1 X-1.875 Y2.736 E32.9650
G1 X-2.189 Y2.222 E32.9851
G1 X-2.426 Y1.700 E33.0041
G1 X-2.599 Y1.153 E33.0232
G1 X-2.704 Y0.590 E33.0423
G1 X-2.741 Y0.018 E33.0613
G1 X-2.709 Y-0.554 E33.0804
G1 X-2.608 Y-1.119 E33.0995
G1 X-2.528 Y-1.379 E33.1086
G0 X-2.350 Y-2.679 F10800
G1 X-2.221 Y-2.894 E33.1168 F300
G1 X-1.841 Y-3.382 E33.1375
G1 X-1.404 Y-3.822 E33.1581
G1 X-0.918 Y-4.204 E33.1786
G1 X-0.391 Y-4.525 E33.1992
G1 X0.175 Y-4.781 E33.2198
G1 X0.765 Y-4.966 E33.2404
G1 X1.372 Y-5.079 E33.2609
G1 X1.989 Y-5.117 E33.2815
G1 X2.608 Y-5.081 E33.3021
G1 X3.216 Y-4.971 E33.3227
G1 X3.808 Y-4.788 E33.3432
G1 X4.373 Y-4.534 E33.3639
G1 X4.901 Y-4.215 E33.3844
G1 X5.386 Y-3.837 E33.4048
G1 X5.832 Y-3.393 E33.4258
G1 X6.213 Y-2.904 E33.4464
G1 X6.533 Y-2.375 E33.4670
G1 X6.787 Y-1.809 E33.4876
G1 X6.970 Y-1.218 E33.5082
G1 X7.081 Y-0.612 E33.5286
G1 X7.117 Y0.000 E33.5490
G1 X7.080 Y0.621 E33.5697
G1 X6.967 Y1.233 E33.5904
G1 X6.781 Y1.827 E33.6111
G1 X6.524 Y2.393 E33.6318
G1 X6.178 Y2.961 E33.6539
G1 X5.186 Y4.114 E33.7045
G1 X-1.201 Y4.114 E33.9169
G1 X-2.180 Y2.957 E33.9673
G1 X-2.521 Y2.399 E33.9891
G1 X-2.777 Y1.835 E34.0097
G1 X-2.964 Y1.244 E34.0303
G1 X-3.077 Y0.637 E34.0508
G1 X-3.117 Y0.020 E34.0714
G1 X-3.083 Y-0.598 E34.0920
G1 X-2.973 Y-1.208 E34.1126
G1 X-2.791 Y-1.799 E34.1332
G1 X-2.539 Y-2.363 E34.1537
G1 X-2.446 Y-2.518 E34.1598
G0 X-1.992 Y-3.763 F10800
G1 X-1.654 Y-4.103 E34.1757 F300
G1 X-1.133 Y-4.512 E34.1977
G1 X-0.566 Y-4.858 E34.2198
G1 X0.041 Y-5.133 E34.2420
G1 X0.675 Y-5.331 E34.2641
G1 X1.325 Y-5.452 E34.2861
G1 X1.988 Y-5.493 E34.3082
G1 X2.652 Y-5.455 E34.3303
G1 X3.306 Y-5.336 E34.3524
G1 X3.940 Y-5.140 E34.3745
G1 X4.548 Y-4.867 E34.3966
G1 X5.115 Y-4.525 E34.4186
G1 X5.635 Y-4.119 E34.4406
G1 X6.113 Y-3.642 E34.4631
G1 X6.523 Y-3.117 E34.4852
G1 X6.866 Y-2.549 E34.5073
G1 X7.139 Y-1.942 E34.5294
G1 X7.335 Y-1.307 E34.5515
G1 X7.454 Y-0.657 E34.5735
G1 X7.493 Y0.000 E34.5954
G1 X7.453 Y0.666 E34.6176
G1 X7.332 Y1.323 E34.6398
G1 X7.132 Y1.961 E34.6620
G1 X6.856 Y2.569 E34.6842
G1 X6.483 Y3.182 E34.7081
G1 X5.358 Y4.490 E34.7655
G1 X-1.375 Y4.490 E34.9894
G1 X-2.485 Y3.177 E35.0466
G1 X-2.853 Y2.575 E35.0701
G1 X-3.128 Y1.970 E35.0922
G1 X-3.329 Y1.336 E35.1143
G1 X-3.450 Y0.684 E35.1364
G1 X-3.493 Y0.022 E35.1584
G1 X-3.456 Y-0.642 E35.1805
G1 X-3.339 Y-1.297 E35.2027
G1 X-3.143 Y-1.931 E35.2248
G1 X-2.873 Y-2.536 E35.2468
G1 X-2.532 Y-3.106 E35.2689
G1 X-2.124 Y-3.630 E35.2909
G0 X-1.451 Y-4.740 F10800
G1 X-1.348 Y-4.821 E35.2953 F300
G1 X-0.742 Y-5.190 E35.3189
G1 X-0.094 Y-5.484 E35.3426
G1 X0.584 Y-5.696 E35.3662
G1 X1.279 Y-5.825 E35.3897
G1 X1.988 Y-5.869 E35.4133
G1 X2.697 Y-5.828 E35.4370
G1 X3.395 Y-5.701 E35.4606
G1 X4.073 Y-5.492 E35.4842
G1 X4.722 Y-5.200 E35.5078
G1 X5.328 Y-4.835 E35.5314
G1 X5.884 Y-4.401 E35.5548
G1 X6.395 Y-3.891 E35.5788
G1 X6.833 Y-3.331 E35.6025
G1 X7.199 Y-2.724 E35.6261
G1 X7.491 Y-2.074 E35.6497
G1 X7.700 Y-1.396 E35.6733
G1 X7.827 Y-0.702 E35.6968
G1 X7.869 Y0.000 E35.7202
G1 X7.827 Y0.711 E35.7439
G1 X7.697 Y1.414 E35.7677
G1 X7.483 Y2.095 E35.7914
G1 X7.189 Y2.744 E35.8151
G1 X6.787 Y3.404 E35.8408
G1 X5.530 Y4.865 E35.9049
G1 X-1.549 Y4.865 E36.1404
G1 X-2.790 Y3.398 E36.2043
G1 X-3.186 Y2.751 E36.2295
G1 X-3.479 Y2.104 E36.2531
G1 X-3.693 Y1.427 E36.2768
G1 X-3.823 Y0.731 E36.3003
G1 X-3.869 Y0.023 E36.3239
G1 X-3.830 Y-0.686 E36.3475
G1 X-3.704 Y-1.386 E36.3712
G1 X-3.495 Y-2.064 E36.3948
G1 X-3.206 Y-2.710 E36.4183
G1 X-2.842 Y-3.318 E36.4419
G1 X-2.405 Y-3.879 E36.4655
G1 X-1.904 Y-4.384 E36.4892
G1 X-1.599 Y-4.624 E36.5021
G0 X-0.723 Y-5.611 F10800
G1 X-0.228 Y-5.835 E36.5202 F300
G1 X0.493 Y-6.061 E36.5453
G1 X1.233 Y-6.199 E36.5703
G1 X1.987 Y-6.245 E36.5954
G1 X2.742 Y-6.201 E36.6206
G1 X3.484 Y-6.066 E36.6457
G1 X4.206 Y-5.844 E36.6708
G1 X4.897 Y-5.533 E36.6960
G1 X5.541 Y-5.145 E36.7210
G1 X6.133 Y-4.683 E36.7460
G1 X6.676 Y-4.141 E36.7715
G1 X7.143 Y-3.544 E36.7967
G1 X7.532 Y-2.898 E36.8218
G1 X7.843 Y-2.207 E36.8470
G1 X8.066 Y-1.486 E36.8721
G1 X8.200 Y-0.748 E36.8971
G1 X8.245 Y0.000 E36.9220
G1 X8.200 Y0.757 E36.9472
G1 X8.062 Y1.504 E36.9725
G1 X7.835 Y2.229 E36.9978
G1 X7.521 Y2.920 E37.0230
G1 X7.092 Y3.625 E37.0504
G1 X5.702 Y5.240 E37.1213
G1 X-1.723 Y5.240 E37.3683
G1 X-3.095 Y3.618 E37.4390
G1 X-3.518 Y2.927 E37.4659
G1 X-3.831 Y2.239 E37.4910
G1 X-4.058 Y1.518 E37.5162
G1 X-4.197 Y0.778 E37.5412
G1 X-4.245 Y0.025 E37.5663
G1 X-4.203 Y-0.729 E37.5914
G1 X-4.070 Y-1.475 E37.6166
G1 X-3.847 Y-2.196 E37.6417
G1 X-3.540 Y-2.884 E37.6668
G1 X-3.152 Y-3.531 E37.6919
G1 X-2.687 Y-4.128 E37.7170
G1 X-2.154 Y-4.665 E37.7422
G1 X-1.562 Y-5.130 E37.7673
G1 X-0.918 Y-5.523 E37.7924
G1 X-0.894 Y-5.534 E37.7932
G0 X0.127 Y-6.340 F10800
G1 X0.402 Y-6.426 E37.8029 F300
G1 X1.187 Y-6.572 E37.8294
G1 X1.986 Y-6.621 E37.8560
G1 X2.786 Y-6.574 E37.8827
G1 X3.573 Y-6.432 E37.9093
G1 X4.339 Y-6.195 E37.9359
G1 X5.071 Y-5.866 E37.9627
G1 X5.754 Y-5.455 E37.9892
G1 X6.382 Y-4.965 E38.0156
G1 X6.958 Y-4.390 E38.0427
G1 X7.452 Y-3.758 E38.0694
G1 X7.865 Y-3.073 E38.0960
G1 X8.195 Y-2.340 E38.1227
G1 X8.431 Y-1.575 E38.1494
G1 X8.574 Y-0.793 E38.1758
G1 X8.621 Y0.000 E38.2022
G1 X8.573 Y0.802 E38.2290
G1 X8.427 Y1.595 E38.2558
G1 X8.186 Y2.364 E38.2826
G1 X7.854 Y3.096 E38.3093
G1 X7.397 Y3.847 E38.3385
G1 X5.874 Y5.616 E38.4162
G1 X-1.897 Y5.616 E38.6746
G1 X-3.400 Y3.839 E38.7521
G1 X-3.850 Y3.104 E38.7807
G1 X-4.182 Y2.374 E38.8074
G1 X-4.423 Y1.610 E38.8340
G1 X-4.570 Y0.825 E38.8606
G1 X-4.621 Y0.027 E38.8872
G1 X-4.577 Y-0.773 E38.9138
G1 X-4.435 Y-1.563 E38.9405
G1 X-4.199 Y-2.329 E38.9672
G1 X-3.873 Y-3.057 E38.9937
G1 X-3.463 Y-3.743 E39.0203
G1 X-2.970 Y-4.376 E39.0470
G1 X-2.404 Y-4.945 E39.0737
G1 X-1.777 Y-5.439 E39.1002
G1 X-1.094 Y-5.855 E39.1269
G1 X-0.362 Y-6.187 E39.1536
G1 X-0.053 Y-6.283 E39.1644
; ------------------------------------
; Layer #1
; ------------------------------------
G21 ; mm
G90 ; abs
G92 E0 ; reset extr
M106 S0
G0 F4800 E-1.0000
G0 F2400 Z0.400
G0 X5.336 Y-1.741 F10800
G0 X5.653 Y0.907
G0 X5.583 Y9.680
G0 F4800 E0.0000
;segType:Perimeter
G1 X5.284 Y10.286 E0.0225 F2159
G1 X4.547 Y10.490 E0.0479
G1 X3.945 Y10.622 E0.0684
G1 X3.345 Y10.716 E0.0886
G1 X2.530 Y10.784 E0.1158
G1 X1.909 Y10.798 E0.1365
G1 X1.307 Y10.778 E0.1565
G1 X0.625 Y10.712 E0.1793
G1 X0.033 Y10.618 E0.1992
G1 X-0.569 Y10.486 E0.2197
G1 X-1.338 Y10.271 E0.2463
G1 X-1.976 Y10.042 E0.2688
G1 X-2.598 Y9.772 E0.2914
G1 X-3.203 Y9.464 E0.3140
G1 X-3.787 Y9.119 E0.3365
G1 X-4.348 Y8.737 E0.3591
G1 X-4.884 Y8.321 E0.3817
G1 X-5.393 Y7.873 E0.4042
G1 X-5.873 Y7.393 E0.4268
G1 X-6.321 Y6.884 E0.4494
G1 X-6.737 Y6.348 E0.4719
G1 X-7.119 Y5.787 E0.4945
G1 X-7.464 Y5.203 E0.5171
G1 X-7.772 Y4.598 E0.5396
G1 X-8.042 Y3.976 E0.5622
G1 X-8.271 Y3.337 E0.5848
G1 X-8.460 Y2.686 E0.6073
G1 X-8.609 Y2.024 E0.6299
G1 X-8.715 Y1.354 E0.6525
G1 X-8.779 Y0.678 E0.6750
G1 X-8.800 Y0.000 E0.6976
G1 X-8.779 Y-0.678 E0.7202
G1 X-8.715 Y-1.354 E0.7427
G1 X-8.609 Y-2.024 E0.7653
G1 X-8.460 Y-2.686 E0.7879
G1 X-8.271 Y-3.337 E0.8104
G1 X-8.042 Y-3.976 E0.8330
G1 X-7.772 Y-4.598 E0.8556
G1 X-7.464 Y-5.203 E0.8781
G1 X-7.119 Y-5.787 E0.9007
G1 X-6.737 Y-6.348 E0.9232
G1 X-6.321 Y-6.884 E0.9458
G1 X-5.873 Y-7.393 E0.9684
G1 X-5.393 Y-7.873 E0.9909
G1 X-4.884 Y-8.322 E1.0135
G1 X-4.348 Y-8.737 E1.0361
G1 X-3.787 Y-9.119 E1.0586
G1 X-3.203 Y-9.464 E1.0812
G1 X-2.598 Y-9.772 E1.1038
G1 X-1.976 Y-10.042 E1.1263
G1 X-1.337 Y-10.271 E1.1489
G1 X-0.686 Y-10.460 E1.1715
G1 X-0.024 Y-10.609 E1.1940
G1 X0.646 Y-10.715 E1.2166
G1 X1.322 Y-10.779 E1.2392
G1 X2.000 Y-10.800 E1.2617
G1 X2.678 Y-10.779 E1.2843
G1 X3.354 Y-10.715 E1.3069
G1 X4.024 Y-10.609 E1.3294
G1 X4.686 Y-10.460 E1.3520
G1 X5.337 Y-10.271 E1.3746
G1 X5.976 Y-10.042 E1.3971
G1 X6.598 Y-9.772 E1.4197
G1 X7.203 Y-9.464 E1.4423
G1 X7.787 Y-9.119 E1.4648
G1 X8.348 Y-8.737 E1.4874
G1 X8.884 Y-8.322 E1.5100
G1 X9.393 Y-7.873 E1.5325
G1 X9.873 Y-7.393 E1.5551
G1 X10.322 Y-6.884 E1.5777
G1 X10.737 Y-6.348 E1.6002
G1 X11.119 Y-5.787 E1.6228
G1 X11.464 Y-5.203 E1.6454
G1 X11.772 Y-4.598 E1.6679
G1 X12.042 Y-3.976 E1.6905
G1 X12.271 Y-3.337 E1.7131
G1 X12.460 Y-2.686 E1.7356
G1 X12.609 Y-2.024 E1.7582
G1 X12.715 Y-1.354 E1.7808
G1 X12.779 Y-0.678 E1.8033
G1 X12.799 Y0.039 E1.8272
G1 X12.775 Y0.717 E1.8497
G1 X12.708 Y1.392 E1.8723
G1 X12.600 Y2.062 E1.8949
G1 X12.450 Y2.723 E1.9174
G1 X12.258 Y3.374 E1.9400
G1 X12.042 Y3.976 E1.9613
G1 X11.772 Y4.598 E1.9838
G1 X11.464 Y5.203 E2.0064
G1 X11.119 Y5.787 E2.0290
G1 X10.737 Y6.348 E2.0515
G1 X10.322 Y6.884 E2.0741
G1 X9.873 Y7.393 E2.0967
G1 X9.393 Y7.873 E2.1192
G1 X8.884 Y8.321 E2.1418
G1 X8.348 Y8.737 E2.1644
G1 X7.787 Y9.119 E2.1869
G1 X7.203 Y9.464 E2.2095
G1 X6.598 Y9.772 E2.2321
G1 X5.976 Y10.042 E2.2546
G1 X5.392 Y10.252 E2.2753
G1 X4.797 Y9.930
;segType:Loop
G0 X4.255 Y10.144 F10800
G1 X3.871 Y10.229 E2.2884 F3600
G1 X3.298 Y10.318 E2.3077
G1 X2.509 Y10.385 E2.3340
G1 X1.912 Y10.398 E2.3539
G1 X1.333 Y10.378 E2.3731
G1 X0.676 Y10.315 E2.3951
G1 X0.107 Y10.225 E2.4142
G1 X-0.472 Y10.098 E2.4340
G1 X-1.217 Y9.890 E2.4597
G1 X-1.828 Y9.669 E2.4813
G1 X-2.428 Y9.410 E2.5030
G1 X-3.010 Y9.114 E2.5247
G1 X-3.573 Y8.781 E2.5465
G1 X-4.113 Y8.414 E2.5682
G1 X-4.629 Y8.013 E2.5899
G1 X-5.119 Y7.581 E2.6117
G1 X-5.581 Y7.119 E2.6334
G1 X-6.013 Y6.629 E2.6551
G1 X-6.414 Y6.113 E2.6769
G1 X-6.781 Y5.573 E2.6986
G1 X-7.114 Y5.010 E2.7203
G1 X-7.410 Y4.428 E2.7420
G1 X-7.669 Y3.828 E2.7638
G1 X-7.891 Y3.214 E2.7855
G1 X-8.073 Y2.586 E2.8072
G1 X-8.216 Y1.949 E2.8290
G1 X-8.318 Y1.303 E2.8507
G1 X-8.379 Y0.653 E2.8724
G1 X-8.400 Y0.000 E2.8942
G1 X-8.379 Y-0.653 E2.9159
G1 X-8.318 Y-1.303 E2.9376
G1 X-8.216 Y-1.949 E2.9593
G1 X-8.073 Y-2.586 E2.9811
G1 X-7.891 Y-3.214 E3.0028
G1 X-7.669 Y-3.828 E3.0245
G1 X-7.410 Y-4.428 E3.0463
G1 X-7.114 Y-5.010 E3.0680
G1 X-6.781 Y-5.573 E3.0897
G1 X-6.414 Y-6.113 E3.1114
G1 X-6.013 Y-6.629 E3.1332
G1 X-5.581 Y-7.119 E3.1549
G1 X-5.119 Y-7.581 E3.1766
G1 X-4.629 Y-8.013 E3.1984
G1 X-4.113 Y-8.414 E3.2201
G1 X-3.572 Y-8.781 E3.2418
G1 X-3.010 Y-9.114 E3.2636
G1 X-2.428 Y-9.410 E3.2853
G1 X-1.828 Y-9.669 E3.3070
G1 X-1.214 Y-9.891 E3.3287
G1 X-0.586 Y-10.073 E3.3505
G1 X0.051 Y-10.216 E3.3722
G1 X0.697 Y-10.318 E3.3939
G1 X1.347 Y-10.379 E3.4157
G1 X2.000 Y-10.400 E3.4374
G1 X2.653 Y-10.379 E3.4591
G1 X3.303 Y-10.318 E3.4809
G1 X3.949 Y-10.216 E3.5026
G1 X4.586 Y-10.073 E3.5243
G1 X5.214 Y-9.891 E3.5460
G1 X5.828 Y-9.669 E3.5678
G1 X6.428 Y-9.410 E3.5895
G1 X7.010 Y-9.114 E3.6112
G1 X7.572 Y-8.781 E3.6330
G1 X8.113 Y-8.414 E3.6547
G1 X8.629 Y-8.013 E3.6764
G1 X9.119 Y-7.581 E3.6982
G1 X9.581 Y-7.119 E3.7199
G1 X10.013 Y-6.629 E3.7416
G1 X10.414 Y-6.113 E3.7633
G1 X10.781 Y-5.572 E3.7851
G1 X11.114 Y-5.010 E3.8068
G1 X11.410 Y-4.428 E3.8285
G1 X11.669 Y-3.828 E3.8503
G1 X11.891 Y-3.214 E3.8720
G1 X12.073 Y-2.586 E3.8937
G1 X12.216 Y-1.949 E3.9154
G1 X12.318 Y-1.303 E3.9372
G1 X12.379 Y-0.654 E3.9589
G1 X12.398 Y0.037 E3.9819
G1 X12.375 Y0.690 E4.0036
G1 X12.312 Y1.340 E4.0253
G1 X12.207 Y1.985 E4.0471
G1 X12.063 Y2.622 E4.0688
G1 X11.878 Y3.250 E4.0905
G1 X11.669 Y3.828 E4.1110
G1 X11.410 Y4.428 E4.1327
G1 X11.114 Y5.010 E4.1545
G1 X10.781 Y5.572 E4.1762
G1 X10.414 Y6.113 E4.1979
G1 X10.013 Y6.629 E4.2196
G1 X9.581 Y7.119 E4.2414
G1 X9.119 Y7.581 E4.2631
G1 X8.629 Y8.013 E4.2848
G1 X8.113 Y8.414 E4.3066
G1 X7.573 Y8.781 E4.3283
G1 X7.010 Y9.114 E4.3500
G1 X6.428 Y9.410 E4.3718
G1 X5.828 Y9.669 E4.3935
G1 X5.217 Y9.890 E4.4151
G1 X4.451 Y10.102 E4.4415
G1 X4.439 Y10.104 E4.4419
G0 X2.414 Y8.023 F10800
G0 X0.036 Y2.725
;segType:Perimeter
G1 X-0.332 Y2.158 E4.4644 F2159
G1 X-0.622 Y1.836 E4.4789
G1 X-0.827 Y1.500 E4.4919
G1 X-0.988 Y1.148 E4.5048
G1 X-1.104 Y0.779 E4.5177
G1 X-1.175 Y0.398 E4.5306
G1 X-1.200 Y0.012 E4.5434
G1 X-1.178 Y-0.374 E4.5563
G1 X-1.110 Y-0.755 E4.5692
G1 X-0.996 Y-1.125 E4.5820
G1 X-0.839 Y-1.478 E4.5949
G1 X-0.640 Y-1.810 E4.6078
G1 X-0.402 Y-2.115 E4.6206
G1 X-0.129 Y-2.390 E4.6335
G1 X0.175 Y-2.629 E4.6464
G1 X0.506 Y-2.830 E4.6592
G1 X0.858 Y-2.990 E4.6721
G1 X1.227 Y-3.105 E4.6850
G1 X1.608 Y-3.176 E4.6979
G1 X1.994 Y-3.200 E4.7107
G1 X2.380 Y-3.178 E4.7236
G1 X2.761 Y-3.109 E4.7365
G1 X3.130 Y-2.994 E4.7493
G1 X3.483 Y-2.836 E4.7622
G1 X3.815 Y-2.636 E4.7751
G1 X4.113 Y-2.403 E4.7876
G1 X4.399 Y-2.117 E4.8011
G1 X4.637 Y-1.812 E4.8140
G1 X4.837 Y-1.480 E4.8269
G1 X4.995 Y-1.127 E4.8397
G1 X5.109 Y-0.757 E4.8526
G1 X5.177 Y-0.377 E4.8655
G1 X5.200 Y0.000 E4.8780
G1 X5.177 Y0.388 E4.8910
G1 X5.106 Y0.771 E4.9039
G1 X4.990 Y1.142 E4.9168
G1 X4.829 Y1.496 E4.9298
G1 X4.622 Y1.835 E4.9430
G1 X4.283 Y2.200 E4.9595
G1 X-0.238 Y2.200 E5.1099
G1 X-0.905 Y2.306
;segType:Loop
G0 X-1.253 Y1.530 F10800
G1 X-1.362 Y1.292 E5.1186 F3600
G1 X-1.493 Y0.876 E5.1331
G1 X-1.573 Y0.448 E5.1476
G1 X-1.601 Y0.014 E5.1621
G1 X-1.576 Y-0.421 E5.1766
G1 X-1.500 Y-0.850 E5.1911
G1 X-1.371 Y-1.265 E5.2055
G1 X-1.194 Y-1.663 E5.2200
G1 X-0.970 Y-2.036 E5.2345
G1 X-0.703 Y-2.380 E5.2490
G1 X-0.396 Y-2.689 E5.2635
G1 X-0.053 Y-2.958 E5.2779
G1 X0.318 Y-3.184 E5.2924
G1 X0.715 Y-3.364 E5.3069
G1 X1.131 Y-3.494 E5.3214
G1 X1.558 Y-3.574 E5.3359
G1 X1.993 Y-3.601 E5.3503
G1 X2.427 Y-3.576 E5.3648
G1 X2.856 Y-3.498 E5.3793
G1 X3.272 Y-3.369 E5.3938
G1 X3.669 Y-3.191 E5.4083
G1 X4.042 Y-2.966 E5.4227
G1 X4.378 Y-2.704 E5.4369
G1 X4.700 Y-2.382 E5.4520
G1 X4.968 Y-2.039 E5.4665
G1 X5.192 Y-1.666 E5.4810
G1 X5.370 Y-1.268 E5.4955
G1 X5.498 Y-0.852 E5.5100
G1 X5.575 Y-0.425 E5.5244
G1 X5.601 Y0.000 E5.5386
G1 X5.574 Y0.437 E5.5531
G1 X5.495 Y0.867 E5.5677
G1 X5.364 Y1.285 E5.5823
G1 X5.183 Y1.684 E5.5968
G1 X4.943 Y2.078 E5.6122
G1 X4.458 Y2.600 E5.6359
G1 X-0.472 Y2.600 E5.7998
G1 X-0.944 Y2.076 E5.8233
G1 X-1.173 Y1.700 E5.8379
;segType:HShell
G0 X-1.935 Y0.619 F10800
G1 X-1.958 Y0.497 E5.8421 F1800
G1 X-1.990 Y0.015 E5.8581
G1 X-1.962 Y-0.466 E5.8742
G1 X-1.877 Y-0.941 E5.8902
G1 X-1.735 Y-1.402 E5.9062
G1 X-1.539 Y-1.842 E5.9223
G1 X-1.291 Y-2.256 E5.9383
G1 X-0.994 Y-2.637 E5.9544
G1 X-0.654 Y-2.979 E5.9704
G1 X-0.275 Y-3.277 E5.9865
G1 X0.137 Y-3.528 E6.0025
G1 X0.577 Y-3.727 E6.0186
G1 X1.037 Y-3.871 E6.0346
G1 X1.510 Y-3.959 E6.0506
G1 X1.992 Y-3.990 E6.0667
G1 X2.474 Y-3.961 E6.0827
G1 X2.948 Y-3.875 E6.0988
G1 X3.409 Y-3.733 E6.1148
G1 X3.849 Y-3.535 E6.1309
G1 X4.262 Y-3.286 E6.1469
G1 X4.635 Y-2.995 E6.1626
G1 X4.991 Y-2.640 E6.1793
G1 X5.288 Y-2.259 E6.1954
G1 X5.537 Y-1.845 E6.2115
G1 X5.733 Y-1.405 E6.2275
G1 X5.875 Y-0.944 E6.2435
G1 X5.961 Y-0.471 E6.2595
G1 X5.990 Y0.000 E6.2752
G1 X5.960 Y0.484 E6.2913
G1 X5.872 Y0.961 E6.3075
G1 X5.727 Y1.424 E6.3236
G1 X5.526 Y1.865 E6.3397
G1 X5.253 Y2.313 E6.3572
G1 X4.627 Y2.988 E6.3878
G1 X-0.645 Y2.988 E6.5631
G1 X-1.257 Y2.308 E6.5935
G1 X-1.524 Y1.870 E6.6106
G1 X-1.724 Y1.431 E6.6267
G1 X-1.870 Y0.970 E6.6427
G1 X-1.901 Y0.803 E6.6484
G0 X-2.340 Y-0.431 F10800
G1 X-2.336 Y-0.510 E6.6510 F1800
G1 X-2.242 Y-1.030 E6.6686
G1 X-2.087 Y-1.534 E6.6861
G1 X-1.872 Y-2.016 E6.7037
G1 X-1.601 Y-2.469 E6.7212
G1 X-1.276 Y-2.885 E6.7388
G1 X-0.904 Y-3.260 E6.7564
G1 X-0.489 Y-3.586 E6.7739
G1 X-0.039 Y-3.860 E6.7914
G1 X0.443 Y-4.079 E6.8090
G1 X0.947 Y-4.236 E6.8266
G1 X1.464 Y-4.332 E6.8441
G1 X1.991 Y-4.365 E6.8617
G1 X2.518 Y-4.335 E6.8792
G1 X3.038 Y-4.240 E6.8968
G1 X3.542 Y-4.084 E6.9143
G1 X4.024 Y-3.868 E6.9319
G1 X4.475 Y-3.596 E6.9494
G1 X4.884 Y-3.276 E6.9667
G1 X5.272 Y-2.889 E6.9850
G1 X5.598 Y-2.472 E7.0026
G1 X5.870 Y-2.019 E7.0201
G1 X6.085 Y-1.537 E7.0377
G1 X6.241 Y-1.033 E7.0552
G1 X6.334 Y-0.516 E7.0727
G1 X6.365 Y0.000 E7.0899
G1 X6.333 Y0.530 E7.1075
G1 X6.237 Y1.052 E7.1252
G1 X6.078 Y1.558 E7.1428
G1 X5.859 Y2.042 E7.1605
G1 X5.554 Y2.541 E7.1800
G1 X4.790 Y3.363 E7.2173
G1 X-0.812 Y3.363 E7.4036
G1 X-1.559 Y2.534 E7.4407
G1 X-1.856 Y2.046 E7.4597
G1 X-2.075 Y1.565 E7.4773
G1 X-2.234 Y1.062 E7.4949
G1 X-2.331 Y0.543 E7.5124
G1 X-2.365 Y0.017 E7.5300
G1 X-2.351 Y-0.243 E7.5386
G0 X-2.476 Y-1.546 F10800
G1 X-2.439 Y-1.667 E7.5428 F1800
G1 X-2.206 Y-2.189 E7.5618
G1 X-1.911 Y-2.681 E7.5809
G1 X-1.559 Y-3.134 E7.6000
G1 X-1.154 Y-3.541 E7.6191
G1 X-0.704 Y-3.895 E7.6381
G1 X-0.215 Y-4.193 E7.6572
G1 X0.309 Y-4.430 E7.6763
G1 X0.856 Y-4.601 E7.6954
G1 X1.418 Y-4.706 E7.7144
G1 X1.990 Y-4.741 E7.7334
G1 X2.563 Y-4.708 E7.7525
G1 X3.127 Y-4.605 E7.7716
G1 X3.675 Y-4.436 E7.7907
G1 X4.198 Y-4.201 E7.8098
G1 X4.688 Y-3.906 E7.8288
G1 X5.133 Y-3.558 E7.8476
G1 X5.554 Y-3.138 E7.8673
G1 X5.908 Y-2.685 E7.8865
G1 X6.204 Y-2.193 E7.9055
G1 X6.438 Y-1.669 E7.9246
G1 X6.606 Y-1.122 E7.9437
G1 X6.708 Y-0.561 E7.9626
G1 X6.741 Y0.000 E7.9813
G1 X6.707 Y0.575 E8.0005
G1 X6.602 Y1.142 E8.0197
G1 X6.429 Y1.692 E8.0389
G1 X6.191 Y2.218 E8.0580
G1 X5.855 Y2.769 E8.0795
G1 X4.954 Y3.739 E8.1235
G1 X-0.979 Y3.739 E8.3209
G1 X-1.861 Y2.759 E8.3647
G1 X-2.189 Y2.222 E8.3856
G1 X-2.426 Y1.700 E8.4047
G1 X-2.599 Y1.153 E8.4238
G1 X-2.704 Y0.590 E8.4428
G1 X-2.741 Y0.018 E8.4619
G1 X-2.709 Y-0.554 E8.4810
G1 X-2.608 Y-1.119 E8.5000
G1 X-2.531 Y-1.367 E8.5087
G0 X-2.356 Y-2.669 F10800
G1 X-2.221 Y-2.894 E8.5174 F1800
G1 X-1.841 Y-3.382 E8.5380
G1 X-1.404 Y-3.822 E8.5586
G1 X-0.918 Y-4.204 E8.5792
G1 X-0.391 Y-4.525 E8.5997
G1 X0.175 Y-4.781 E8.6203
G1 X0.765 Y-4.966 E8.6409
G1 X1.372 Y-5.079 E8.6614
G1 X1.989 Y-5.117 E8.6820
G1 X2.608 Y-5.081 E8.7026
G1 X3.216 Y-4.971 E8.7232
G1 X3.808 Y-4.788 E8.7438
G1 X4.373 Y-4.534 E8.7644
G1 X4.901 Y-4.215 E8.7849
G1 X5.382 Y-3.840 E8.8052
G1 X5.836 Y-3.387 E8.8265
G1 X6.218 Y-2.897 E8.8472
G1 X6.537 Y-2.367 E8.8678
G1 X6.790 Y-1.802 E8.8884
G1 X6.971 Y-1.211 E8.9089
G1 X7.081 Y-0.606 E8.9294
G1 X7.117 Y0.000 E8.9496
G1 X7.080 Y0.621 E8.9703
G1 X6.967 Y1.233 E8.9910
G1 X6.781 Y1.827 E9.0117
G1 X6.523 Y2.394 E9.0324
G1 X6.156 Y2.996 E9.0559
G1 X5.117 Y4.114 E9.1066
G1 X-1.146 Y4.114 E9.3149
G1 X-2.163 Y2.984 E9.3655
G1 X-2.521 Y2.399 E9.3883
G1 X-2.777 Y1.835 E9.4089
G1 X-2.964 Y1.244 E9.4295
G1 X-3.077 Y0.637 E9.4500
G1 X-3.117 Y0.020 E9.4706
G1 X-3.083 Y-0.598 E9.4912
G1 X-2.973 Y-1.208 E9.5118
G1 X-2.791 Y-1.799 E9.5324
G1 X-2.539 Y-2.363 E9.5529
G1 X-2.452 Y-2.508 E9.5585
G0 X-2.001 Y-3.754 F10800
G1 X-1.654 Y-4.103 E9.5749 F1800
G1 X-1.133 Y-4.512 E9.5969
G1 X-0.566 Y-4.858 E9.6190
G1 X0.041 Y-5.133 E9.6412
G1 X0.675 Y-5.331 E9.6633
G1 X1.325 Y-5.452 E9.6853
G1 X1.988 Y-5.493 E9.7074
G1 X2.652 Y-5.455 E9.7295
G1 X3.306 Y-5.336 E9.7516
G1 X3.940 Y-5.140 E9.7737
G1 X4.548 Y-4.867 E9.7958
G1 X5.115 Y-4.525 E9.8178
G1 X5.631 Y-4.122 E9.8396
G1 X6.118 Y-3.637 E9.8625
G1 X6.528 Y-3.110 E9.8847
G1 X6.871 Y-2.541 E9.9068
G1 X7.142 Y-1.934 E9.9289
G1 X7.336 Y-1.300 E9.9510
G1 X7.454 Y-0.651 E9.9729
G1 X7.493 Y0.000 E9.9946
G1 X7.453 Y0.666 E10.0168
G1 X7.332 Y1.323 E10.0390
G1 X7.132 Y1.961 E10.0612
G1 X6.855 Y2.570 E10.0835
G1 X6.457 Y3.224 E10.1090
G1 X5.281 Y4.490 E10.1664
G1 X-1.313 Y4.490 E10.3857
G1 X-2.466 Y3.210 E10.4430
G1 X-2.853 Y2.575 E10.4678
G1 X-3.128 Y1.970 E10.4899
G1 X-3.329 Y1.336 E10.5120
G1 X-3.450 Y0.684 E10.5340
G1 X-3.493 Y0.022 E10.5561
G1 X-3.456 Y-0.642 E10.5782
G1 X-3.339 Y-1.297 E10.6003
G1 X-3.143 Y-1.931 E10.6224
G1 X-2.873 Y-2.536 E10.6445
G1 X-2.532 Y-3.106 E10.6666
G1 X-2.132 Y-3.620 E10.6882
G0 X-1.461 Y-4.732 F10800
G1 X-1.348 Y-4.821 E10.6930 F1800
G1 X-0.742 Y-5.190 E10.7166
G1 X-0.094 Y-5.484 E10.7403
G1 X0.584 Y-5.696 E10.7639
G1 X1.279 Y-5.825 E10.7874
G1 X1.988 Y-5.869 E10.8110
G1 X2.697 Y-5.828 E10.8347
G1 X3.395 Y-5.701 E10.8583
G1 X4.073 Y-5.492 E10.8819
G1 X4.722 Y-5.200 E10.9055
G1 X5.328 Y-4.835 E10.9290
G1 X5.880 Y-4.404 E10.9523
G1 X6.399 Y-3.886 E10.9767
G1 X6.838 Y-3.323 E11.0005
G1 X7.204 Y-2.715 E11.0241
G1 X7.494 Y-2.066 E11.0477
G1 X7.702 Y-1.389 E11.0713
G1 X7.828 Y-0.696 E11.0947
G1 X7.869 Y0.000 E11.1179
G1 X7.827 Y0.711 E11.1416
G1 X7.697 Y1.414 E11.1654
G1 X7.483 Y2.095 E11.1891
G1 X7.188 Y2.746 E11.2129
G1 X6.757 Y3.452 E11.2404
G1 X5.445 Y4.865 E11.3045
G1 X-1.480 Y4.865 E11.5348
G1 X-2.768 Y3.435 E11.5988
G1 X-3.186 Y2.751 E11.6255
G1 X-3.479 Y2.104 E11.6491
G1 X-3.693 Y1.427 E11.6728
G1 X-3.823 Y0.731 E11.6963
G1 X-3.869 Y0.023 E11.7199
G1 X-3.830 Y-0.686 E11.7435
G1 X-3.704 Y-1.386 E11.7672
G1 X-3.495 Y-2.064 E11.7908
G1 X-3.206 Y-2.710 E11.8143
G1 X-2.842 Y-3.318 E11.8379
G1 X-2.405 Y-3.879 E11.8615
G1 X-1.904 Y-4.384 E11.8852
G1 X-1.609 Y-4.616 E11.8977
G0 X-0.734 Y-5.606 F10800
G1 X-0.228 Y-5.835 E11.9162 F1800
G1 X0.493 Y-6.061 E11.9413
G1 X1.233 Y-6.199 E11.9663
G1 X1.987 Y-6.245 E11.9914
G1 X2.742 Y-6.201 E12.0166
G1 X3.484 Y-6.066 E12.0417
G1 X4.206 Y-5.844 E12.0668
G1 X4.897 Y-5.533 E12.0920
G1 X5.541 Y-5.145 E12.1170
G1 X6.129 Y-4.686 E12.1418
G1 X6.681 Y-4.135 E12.1678
G1 X7.148 Y-3.536 E12.1930
G1 X7.538 Y-2.888 E12.2182
G1 X7.846 Y-2.198 E12.2433
G1 X8.067 Y-1.478 E12.2684
G1 X8.201 Y-0.741 E12.2933
G1 X8.245 Y0.000 E12.3180
G1 X8.200 Y0.757 E12.3432
G1 X8.062 Y1.504 E12.3685
G1 X7.835 Y2.229 E12.3937
G1 X7.520 Y2.922 E12.4190
G1 X7.058 Y3.680 E12.4486
G1 X5.608 Y5.240 E12.5194
G1 X-1.647 Y5.240 E12.7607
G1 X-3.070 Y3.660 E12.8314
G1 X-3.518 Y2.927 E12.8600
G1 X-3.831 Y2.239 E12.8852
G1 X-4.058 Y1.518 E12.9103
G1 X-4.197 Y0.778 E12.9354
G1 X-4.245 Y0.025 E12.9604
G1 X-4.203 Y-0.729 E12.9856
G1 X-4.070 Y-1.475 E13.0108
G1 X-3.847 Y-2.196 E13.0359
G1 X-3.540 Y-2.884 E13.0609
G1 X-3.152 Y-3.531 E13.0860
G1 X-2.687 Y-4.128 E13.1112
G1 X-2.154 Y-4.665 E13.1364
G1 X-1.562 Y-5.130 E13.1614
G1 X-0.918 Y-5.523 E13.1865
G1 X-0.905 Y-5.529 E13.1870
G0 X0.115 Y-6.336 F10800
G1 X0.402 Y-6.426 E13.1970 F1800
G1 X1.187 Y-6.572 E13.2235
G1 X1.986 Y-6.621 E13.2502
G1 X2.786 Y-6.574 E13.2768
G1 X3.573 Y-6.432 E13.3034
G1 X4.339 Y-6.195 E13.3301
G1 X5.071 Y-5.866 E13.3568
G1 X5.753 Y-5.455 E13.3833
G1 X6.378 Y-4.968 E13.4096
G1 X6.963 Y-4.385 E13.4371
G1 X7.458 Y-3.749 E13.4639
G1 X7.871 Y-3.062 E13.4905
G1 X8.198 Y-2.330 E13.5172
G1 X8.432 Y-1.567 E13.5437
G1 X8.574 Y-0.786 E13.5702
G1 X8.621 Y0.000 E13.5963
G1 X8.573 Y0.802 E13.6231
G1 X8.427 Y1.595 E13.6499
G1 X8.186 Y2.364 E13.6767
G1 X7.852 Y3.098 E13.7035
G1 X7.359 Y3.907 E13.7350
G1 X5.772 Y5.616 E13.8126
G1 X-1.814 Y5.616 E14.0649
G1 X-3.372 Y3.886 E14.1423
G1 X-3.850 Y3.104 E14.1728
G1 X-4.182 Y2.374 E14.1995
G1 X-4.423 Y1.610 E14.2261
G1 X-4.570 Y0.825 E14.2527
G1 X-4.621 Y0.027 E14.2793
G1 X-4.577 Y-0.773 E14.3059
G1 X-4.435 Y-1.563 E14.3326
G1 X-4.199 Y-2.329 E14.3593
G1 X-3.873 Y-3.057 E14.3858
G1 X-3.463 Y-3.743 E14.4124
G1 X-2.970 Y-4.376 E14.4391
G1 X-2.404 Y-4.945 E14.4658
G1 X-1.777 Y-5.439 E14.4923
G1 X-1.094 Y-5.855 E14.5189
G1 X-0.362 Y-6.187 E14.5457
G1 X-0.065 Y-6.280 E14.5560
G0 X4.540 Y-2.241 F10800
G0 X5.171 Y-1.193
G0 X7.580 Y4.233
G1 X7.400 Y4.466 E14.5658 F1800
G1 X7.107 Y4.797 E14.5805
G1 X6.797 Y5.109 E14.5951
G1 X6.570 Y5.309 E14.6052
G1 X7.574 Y4.228 E14.6543
G0 X0.265 Y6.367 F10800
G1 X3.828 Y6.367 E14.7728 F1800
G1 X3.176 Y6.525 E14.7951
G1 X2.846 Y6.578 E14.8062
G1 X2.309 Y6.622 E14.8241
G1 X1.935 Y6.631 E14.8365
G1 X1.579 Y6.618 E14.8484
G1 X1.151 Y6.577 E14.8627
G1 X0.805 Y6.522 E14.8743
G1 X0.263 Y6.389 E14.8929
G0 X3.158 Y9.941 F10800
G1 X2.488 Y9.997 E14.9153 F1800
G1 X1.914 Y10.010 E14.9344
G1 X1.359 Y9.991 E14.9529
G1 X0.724 Y9.930 E14.9740
G1 X0.179 Y9.844 E14.9924
G1 X-0.378 Y9.721 E15.0114
G1 X-1.099 Y9.520 E15.0363
G1 X-1.685 Y9.309 E15.0570
G1 X-2.263 Y9.059 E15.0779
G1 X-2.823 Y8.774 E15.0988
G1 X-3.365 Y8.453 E15.1198
G1 X-3.885 Y8.100 E15.1407
G1 X-4.382 Y7.714 E15.1616
G1 X-4.854 Y7.298 E15.1825
G1 X-5.298 Y6.854 E15.2034
G1 X-5.714 Y6.382 E15.2243
G1 X-6.100 Y5.885 E15.2453
G1 X-6.453 Y5.365 E15.2662
G1 X-6.774 Y4.823 E15.2871
G1 X-7.059 Y4.263 E15.3080
G1 X-7.309 Y3.686 E15.3290
G1 X-7.521 Y3.094 E15.3499
G1 X-7.697 Y2.490 E15.3708
G1 X-7.835 Y1.876 E15.3917
G1 X-7.933 Y1.255 E15.4126
G1 X-7.992 Y0.629 E15.4335
G1 X-8.012 Y0.000 E15.4545
G1 X-7.992 Y-0.629 E15.4754
G1 X-7.933 Y-1.255 E15.4963
G1 X-7.835 Y-1.876 E15.5172
G1 X-7.697 Y-2.490 E15.5382
G1 X-7.521 Y-3.094 E15.5591
G1 X-7.309 Y-3.686 E15.5800
G1 X-7.059 Y-4.263 E15.6009
G1 X-6.774 Y-4.823 E15.6218
G1 X-6.453 Y-5.365 E15.6428
G1 X-6.100 Y-5.885 E15.6637
G1 X-5.714 Y-6.382 E15.6846
G1 X-5.298 Y-6.854 E15.7055
G1 X-4.854 Y-7.298 E15.7264
G1 X-4.382 Y-7.714 E15.7473
G1 X-3.885 Y-8.100 E15.7683
G1 X-3.365 Y-8.453 E15.7892
G1 X-2.823 Y-8.774 E15.8101
G1 X-2.263 Y-9.059 E15.8310
G1 X-1.685 Y-9.309 E15.8520
G1 X-1.094 Y-9.521 E15.8729
G1 X-0.490 Y-9.697 E15.8938
G1 X0.124 Y-9.835 E15.9147
G1 X0.745 Y-9.933 E15.9356
G1 X1.371 Y-9.992 E15.9565
G1 X2.000 Y-10.012 E15.9775
G1 X2.629 Y-9.992 E15.9984
G1 X3.255 Y-9.933 E16.0193
G1 X3.876 Y-9.835 E16.0402
G1 X4.490 Y-9.697 E16.0611
G1 X5.094 Y-9.521 E16.0821
G1 X5.686 Y-9.309 E16.1030
G1 X6.263 Y-9.059 E16.1239
G1 X6.823 Y-8.774 E16.1448
G1 X7.365 Y-8.453 E16.1657
G1 X7.885 Y-8.100 E16.1866
G1 X8.382 Y-7.714 E16.2076
G1 X8.854 Y-7.298 E16.2285
G1 X9.298 Y-6.854 E16.2494
G1 X9.714 Y-6.382 E16.2703
G1 X10.100 Y-5.885 E16.2913
G1 X10.453 Y-5.365 E16.3122
G1 X10.774 Y-4.823 E16.3331
G1 X11.059 Y-4.263 E16.3540
G1 X11.309 Y-3.686 E16.3749
G1 X11.521 Y-3.094 E16.3958
G1 X11.697 Y-2.490 E16.4168
G1 X11.835 Y-1.876 E16.4377
G1 X11.933 Y-1.255 E16.4586
G1 X11.992 Y-0.630 E16.4795
G1 X12.010 Y0.036 E16.5016
G1 X11.989 Y0.664 E16.5225
G1 X11.927 Y1.291 E16.5435
G1 X11.826 Y1.911 E16.5644
G1 X11.687 Y2.524 E16.5853
G1 X11.509 Y3.129 E16.6063
G1 X11.309 Y3.686 E16.6259
G1 X11.059 Y4.263 E16.6469
G1 X10.774 Y4.823 E16.6678
G1 X10.453 Y5.365 E16.6887
G1 X10.100 Y5.885 E16.7096
G1 X9.714 Y6.382 E16.7305
G1 X9.298 Y6.854 E16.7515
G1 X8.854 Y7.298 E16.7724
G1 X8.382 Y7.714 E16.7933
G1 X7.885 Y8.100 E16.8142
G1 X7.365 Y8.453 E16.8351
G1 X6.823 Y8.774 E16.8561
G1 X6.263 Y9.059 E16.8770
G1 X5.685 Y9.309 E16.8979
G1 X5.100 Y9.520 E16.9186
G1 X4.358 Y9.725 E16.9442
G1 X3.799 Y9.847 E16.9632
G1 X3.344 Y9.918 E16.9786
G0 X2.119 Y9.630 F10800
G1 X1.917 Y9.635 E16.9853 F1800
G1 X1.383 Y9.616 E17.0031
G1 X0.772 Y9.558 E17.0235
G1 X0.249 Y9.475 E17.0411
G1 X-0.288 Y9.357 E17.0594
G1 X-0.984 Y9.162 E17.0834
G1 X-1.547 Y8.960 E17.1033
G1 X-2.103 Y8.719 E17.1235
G1 X-2.642 Y8.445 E17.1436
G1 X-3.163 Y8.136 E17.1637
G1 X-3.664 Y7.796 E17.1839
G1 X-4.143 Y7.425 E17.2040
G1 X-4.597 Y7.024 E17.2241
G1 X-5.024 Y6.597 E17.2443
G1 X-5.425 Y6.143 E17.2644
G1 X-5.796 Y5.664 E17.2845
G1 X-6.136 Y5.163 E17.3047
G1 X-6.445 Y4.642 E17.3248
G1 X-6.719 Y4.103 E17.3449
G1 X-6.960 Y3.547 E17.3651
G1 X-7.164 Y2.978 E17.3852
G1 X-7.333 Y2.396 E17.4053
G1 X-7.466 Y1.805 E17.4255
G1 X-7.561 Y1.208 E17.4456
G1 X-7.617 Y0.605 E17.4657
G1 X-7.636 Y0.000 E17.4859
G1 X-7.617 Y-0.605 E17.5060
G1 X-7.561 Y-1.208 E17.5262
G1 X-7.466 Y-1.805 E17.5463
G1 X-7.333 Y-2.396 E17.5664
G1 X-7.164 Y-2.978 E17.5866
G1 X-6.960 Y-3.547 E17.6067
G1 X-6.719 Y-4.103 E17.6268
G1 X-6.445 Y-4.642 E17.6470
G1 X-6.136 Y-5.163 E17.6671
G1 X-5.796 Y-5.664 E17.6872
G1 X-5.425 Y-6.143 E17.7074
G1 X-5.025 Y-6.597 E17.7275
G1 X-4.596 Y-7.025 E17.7476
G1 X-4.143 Y-7.425 E17.7678
G1 X-3.664 Y-7.796 E17.7879
G1 X-3.163 Y-8.136 E17.8080
G1 X-2.642 Y-8.445 E17.8282
G1 X-2.103 Y-8.719 E17.8483
G1 X-1.547 Y-8.960 E17.8684
G1 X-0.978 Y-9.164 E17.8886
G1 X-0.396 Y-9.333 E17.9087
G1 X0.195 Y-9.466 E17.9289
G1 X0.792 Y-9.561 E17.9490
G1 X1.395 Y-9.617 E17.9691
G1 X2.000 Y-9.636 E17.9892
G1 X2.605 Y-9.617 E18.0094
G1 X3.208 Y-9.561 E18.0295
G1 X3.805 Y-9.466 E18.0496
G1 X4.396 Y-9.333 E18.0698
G1 X4.978 Y-9.164 E18.0899
G1 X5.547 Y-8.960 E18.1101
G1 X6.103 Y-8.719 E18.1302
G1 X6.642 Y-8.445 E18.1503
G1 X7.163 Y-8.136 E18.1705
G1 X7.664 Y-7.796 E18.1906
G1 X8.143 Y-7.425 E18.2107
G1 X8.596 Y-7.025 E18.2309
G1 X9.025 Y-6.596 E18.2510
G1 X9.425 Y-6.143 E18.2711
G1 X9.796 Y-5.664 E18.2913
G1 X10.136 Y-5.163 E18.3114
G1 X10.445 Y-4.642 E18.3315
G1 X10.719 Y-4.103 E18.3517
G1 X10.960 Y-3.547 E18.3718
G1 X11.164 Y-2.978 E18.3919
G1 X11.333 Y-2.396 E18.4121
G1 X11.466 Y-1.805 E18.4322
G1 X11.561 Y-1.208 E18.4523
G1 X11.617 Y-0.607 E18.4724
G1 X11.635 Y0.035 E18.4938
G1 X11.614 Y0.639 E18.5139
G1 X11.554 Y1.242 E18.5340
G1 X11.458 Y1.840 E18.5542
G1 X11.324 Y2.429 E18.5743
G1 X11.152 Y3.012 E18.5945
G1 X10.960 Y3.547 E18.6134
G1 X10.719 Y4.103 E18.6335
G1 X10.445 Y4.642 E18.6537
G1 X10.136 Y5.163 E18.6738
G1 X9.796 Y5.664 E18.6939
G1 X9.425 Y6.143 E18.7141
G1 X9.025 Y6.596 E18.7342
G1 X8.597 Y7.025 E18.7543
G1 X8.143 Y7.425 E18.7745
G1 X7.664 Y7.796 E18.7946
G1 X7.163 Y8.136 E18.8148
G1 X6.642 Y8.445 E18.8349
G1 X6.103 Y8.719 E18.8550
G1 X5.547 Y8.960 E18.8752
G1 X4.986 Y9.162 E18.8950
G1 X4.268 Y9.360 E18.9198
G1 X3.730 Y9.478 E18.9381
G1 X3.206 Y9.560 E18.9557
G1 X2.468 Y9.622 E18.9804
G1 X2.307 Y9.626 E18.9857
G0 X1.125 Y9.214 F10800
G1 X0.819 Y9.185 E18.9959 F1800
G1 X0.318 Y9.106 E19.0128
G1 X-0.197 Y8.993 E19.0303
G1 X-0.870 Y8.804 E19.0536
G1 X-1.409 Y8.611 E19.0726
G1 X-1.943 Y8.379 E19.0920
G1 X-2.461 Y8.115 E19.1113
G1 X-2.962 Y7.819 E19.1307
G1 X-3.443 Y7.492 E19.1500
G1 X-3.903 Y7.135 E19.1694
G1 X-4.340 Y6.751 E19.1888
G1 X-4.751 Y6.340 E19.2081
G1 X-5.135 Y5.903 E19.2274
G1 X-5.492 Y5.443 E19.2468
G1 X-5.819 Y4.962 E19.2661
G1 X-6.115 Y4.461 E19.2855
G1 X-6.379 Y3.943 E19.3048
G1 X-6.611 Y3.409 E19.3242
G1 X-6.807 Y2.862 E19.3435
G1 X-6.969 Y2.303 E19.3629
G1 X-7.097 Y1.735 E19.3823
G1 X-7.188 Y1.161 E19.4016
G1 X-7.242 Y0.582 E19.4209
G1 X-7.261 Y0.000 E19.4403
G1 X-7.242 Y-0.582 E19.4597
G1 X-7.188 Y-1.161 E19.4790
G1 X-7.097 Y-1.735 E19.4983
G1 X-6.969 Y-2.303 E19.5177
G1 X-6.807 Y-2.862 E19.5371
G1 X-6.611 Y-3.409 E19.5564
G1 X-6.379 Y-3.943 E19.5758
G1 X-6.115 Y-4.461 E19.5951
G1 X-5.819 Y-4.962 E19.6144
G1 X-5.492 Y-5.443 E19.6338
G1 X-5.135 Y-5.904 E19.6532
G1 X-4.751 Y-6.340 E19.6725
G1 X-4.339 Y-6.751 E19.6918
G1 X-3.903 Y-7.135 E19.7112
G1 X-3.443 Y-7.492 E19.7305
G1 X-2.962 Y-7.819 E19.7499
G1 X-2.461 Y-8.115 E19.7693
G1 X-1.943 Y-8.379 E19.7886
G1 X-1.409 Y-8.611 E19.8080
G1 X-0.862 Y-8.807 E19.8273
G1 X-0.303 Y-8.969 E19.8467
G1 X0.265 Y-9.097 E19.8660
G1 X0.839 Y-9.188 E19.8853
G1 X1.418 Y-9.242 E19.9047
G1 X2.000 Y-9.261 E19.9240
G1 X2.582 Y-9.242 E19.9434
G1 X3.161 Y-9.188 E19.9628
G1 X3.735 Y-9.097 E19.9821
G1 X4.303 Y-8.969 E20.0014
G1 X4.862 Y-8.807 E20.0208
G1 X5.409 Y-8.611 E20.0401
G1 X5.943 Y-8.379 E20.0595
G1 X6.461 Y-8.115 E20.0788
G1 X6.962 Y-7.819 E20.0982
G1 X7.443 Y-7.492 E20.1176
G1 X7.903 Y-7.136 E20.1369
G1 X8.339 Y-6.751 E20.1562
G1 X8.751 Y-6.339 E20.1756
G1 X9.136 Y-5.903 E20.1950
G1 X9.492 Y-5.443 E20.2143
G1 X9.819 Y-4.962 E20.2336
G1 X10.115 Y-4.461 E20.2530
G1 X10.379 Y-3.943 E20.2723
G1 X10.611 Y-3.409 E20.2917
G1 X10.807 Y-2.862 E20.3110
G1 X10.969 Y-2.303 E20.3304
G1 X11.097 Y-1.735 E20.3498
G1 X11.188 Y-1.161 E20.3691
G1 X11.242 Y-0.584 E20.3883
G1 X11.260 Y0.033 E20.4089
G1 X11.239 Y0.615 E20.4282
G1 X11.182 Y1.194 E20.4476
G1 X11.089 Y1.768 E20.4670
G1 X10.960 Y2.334 E20.4863
G1 X10.795 Y2.896 E20.5057
G1 X10.611 Y3.409 E20.5239
G1 X10.379 Y3.943 E20.5432
G1 X10.115 Y4.461 E20.5626
G1 X9.819 Y4.962 E20.5819
G1 X9.492 Y5.443 E20.6013
G1 X9.135 Y5.903 E20.6206
G1 X8.751 Y6.339 E20.6400
G1 X8.340 Y6.751 E20.6593
G1 X7.904 Y7.135 E20.6787
G1 X7.443 Y7.492 E20.6980
G1 X6.962 Y7.819 E20.7174
G1 X6.461 Y8.115 E20.7367
G1 X5.943 Y8.379 E20.7561
G1 X5.408 Y8.611 E20.7755
G1 X4.872 Y8.804 E20.7944
G1 X4.178 Y8.996 E20.8184
G1 X3.661 Y9.109 E20.8360
G1 X3.161 Y9.187 E20.8528
G1 X2.448 Y9.247 E20.8766
G1 X1.919 Y9.259 E20.8942
G1 X1.407 Y9.241 E20.9112
G1 X1.312 Y9.232 E20.9144
G0 X0.185 Y8.692 F10800
G1 X-0.106 Y8.629 E20.9243 F1800
G1 X-0.756 Y8.446 E20.9468
G1 X-1.271 Y8.261 E20.9650
G1 X-1.783 Y8.039 E20.9836
G1 X-2.281 Y7.786 E21.0021
G1 X-2.761 Y7.502 E21.0207
G1 X-3.222 Y7.188 E21.0393
G1 X-3.664 Y6.846 E21.0578
G1 X-4.083 Y6.477 E21.0764
G1 X-4.477 Y6.083 E21.0950
G1 X-4.846 Y5.664 E21.1135
G1 X-5.188 Y5.222 E21.1321
G1 X-5.502 Y4.761 E21.1507
G1 X-5.786 Y4.281 E21.1692
G1 X-6.039 Y3.783 E21.1878
G1 X-6.261 Y3.271 E21.2063
G1 X-6.450 Y2.746 E21.2249
G1 X-6.606 Y2.209 E21.2435
G1 X-6.728 Y1.664 E21.2621
G1 X-6.815 Y1.114 E21.2806
G1 X-6.868 Y0.559 E21.2992
G1 X-6.885 Y0.000 E21.3177
G1 X-6.868 Y-0.559 E21.3363
G1 X-6.815 Y-1.114 E21.3549
G1 X-6.728 Y-1.664 E21.3734
G1 X-6.606 Y-2.209 E21.3920
G1 X-6.450 Y-2.746 E21.4106
G1 X-6.261 Y-3.271 E21.4291
G1 X-6.039 Y-3.783 E21.4477
G1 X-5.786 Y-4.281 E21.4663
G1 X-5.502 Y-4.761 E21.4848
G1 X-5.188 Y-5.222 E21.5034
G1 X-4.846 Y-5.664 E21.5220
G1 X-4.477 Y-6.083 E21.5405
G1 X-4.082 Y-6.477 E21.5591
G1 X-3.664 Y-6.846 E21.5777
G1 X-3.223 Y-7.188 E21.5962
G1 X-2.761 Y-7.502 E21.6148
G1 X-2.280 Y-7.786 E21.6334
G1 X-1.783 Y-8.039 E21.6519
G1 X-1.271 Y-8.261 E21.6705
G1 X-0.746 Y-8.450 E21.6890
G1 X-0.209 Y-8.606 E21.7076
G1 X0.336 Y-8.728 E21.7262
G1 X0.886 Y-8.815 E21.7447
G1 X1.441 Y-8.868 E21.7633
G1 X2.000 Y-8.885 E21.7819
G1 X2.559 Y-8.868 E21.8005
G1 X3.114 Y-8.815 E21.8190
G1 X3.664 Y-8.728 E21.8375
G1 X4.209 Y-8.606 E21.8561
G1 X4.746 Y-8.450 E21.8747
G1 X5.271 Y-8.261 E21.8933
G1 X5.783 Y-8.039 E21.9118
G1 X6.280 Y-7.786 E21.9304
G1 X6.761 Y-7.502 E21.9490
G1 X7.223 Y-7.188 E21.9675
G1 X7.664 Y-6.846 E21.9861
G1 X8.082 Y-6.477 E22.0046
G1 X8.477 Y-6.082 E22.0232
G1 X8.846 Y-5.664 E22.0418
G1 X9.188 Y-5.223 E22.0603
G1 X9.502 Y-4.761 E22.0789
G1 X9.786 Y-4.280 E22.0975
G1 X10.039 Y-3.783 E22.1160
G1 X10.261 Y-3.271 E22.1346
G1 X10.450 Y-2.746 E22.1532
G1 X10.606 Y-2.209 E22.1717
G1 X10.728 Y-1.664 E22.1903
G1 X10.815 Y-1.114 E22.2089
G1 X10.867 Y-0.562 E22.2273
G1 X10.884 Y0.032 E22.2471
G1 X10.864 Y0.590 E22.2656
G1 X10.810 Y1.146 E22.2842
G1 X10.720 Y1.696 E22.3028
G1 X10.597 Y2.240 E22.3213
G1 X10.438 Y2.779 E22.3400
G1 X10.261 Y3.271 E22.3574
G1 X10.039 Y3.783 E22.3759
G1 X9.786 Y4.280 E22.3945
G1 X9.502 Y4.761 E22.4131
G1 X9.188 Y5.223 E22.4316
G1 X8.846 Y5.664 E22.4502
G1 X8.477 Y6.082 E22.4688
G1 X8.083 Y6.477 E22.4873
G1 X7.664 Y6.846 E22.5059
G1 X7.222 Y7.188 E22.5245
G1 X6.761 Y7.502 E22.5430
G1 X6.281 Y7.786 E22.5616
G1 X5.783 Y8.039 E22.5801
G1 X5.270 Y8.261 E22.5987
G1 X4.759 Y8.446 E22.6168
G1 X4.088 Y8.631 E22.6400
G1 X3.592 Y8.740 E22.6569
G1 X3.116 Y8.814 E22.6729
G1 X2.428 Y8.872 E22.6958
G1 X1.921 Y8.884 E22.7127
G1 X1.432 Y8.867 E22.7290
G1 X0.866 Y8.813 E22.7479
G1 X0.388 Y8.737 E22.7640
G1 X0.369 Y8.732 E22.7647
G0 X-0.730 Y8.057 F10800
G1 X-1.133 Y7.912 E22.7789 F1800
G1 X-1.623 Y7.699 E22.7967
G1 X-2.100 Y7.457 E22.8144
G1 X-2.559 Y7.185 E22.8322
G1 X-3.002 Y6.884 E22.8500
G1 X-3.425 Y6.556 E22.8678
G1 X-3.825 Y6.203 E22.8856
G1 X-4.203 Y5.825 E22.9034
G1 X-4.556 Y5.425 E22.9211
G1 X-4.884 Y5.002 E22.9389
G1 X-5.185 Y4.559 E22.9567
G1 X-5.457 Y4.100 E22.9745
G1 X-5.699 Y3.623 E22.9923
G1 X-5.912 Y3.133 E23.0100
G1 X-6.093 Y2.630 E23.0278
G1 X-6.242 Y2.116 E23.0456
G1 X-6.359 Y1.594 E23.0634
G1 X-6.443 Y1.067 E23.0812
G1 X-6.493 Y0.535 E23.0989
G1 X-6.510 Y0.000 E23.1167
G1 X-6.493 Y-0.535 E23.1345
G1 X-6.443 Y-1.067 E23.1523
G1 X-6.359 Y-1.594 E23.1700
G1 X-6.242 Y-2.116 E23.1878
G1 X-6.093 Y-2.630 E23.2057
G1 X-5.912 Y-3.133 E23.2234
G1 X-5.699 Y-3.623 E23.2412
G1 X-5.457 Y-4.100 E23.2590
G1 X-5.185 Y-4.560 E23.2767
G1 X-4.884 Y-5.002 E23.2945
G1 X-4.556 Y-5.425 E23.3123
G1 X-4.204 Y-5.825 E23.3301
G1 X-3.825 Y-6.203 E23.3479
G1 X-3.424 Y-6.557 E23.3657
G1 X-3.002 Y-6.884 E23.3834
G1 X-2.560 Y-7.185 E23.4012
G1 X-2.099 Y-7.457 E23.4190
G1 X-1.623 Y-7.699 E23.4368
G1 X-1.133 Y-7.912 E23.4546
G1 X-0.630 Y-8.093 E23.4723
G1 X-0.116 Y-8.242 E23.4901
G1 X0.406 Y-8.359 E23.5079
G1 X0.933 Y-8.443 E23.5257
G1 X1.465 Y-8.493 E23.5434
G1 X2.000 Y-8.510 E23.5612
G1 X2.535 Y-8.493 E23.5790
G1 X3.067 Y-8.443 E23.5968
G1 X3.594 Y-8.359 E23.6146
G1 X4.116 Y-8.242 E23.6323
G1 X4.630 Y-8.093 E23.6502
G1 X5.133 Y-7.912 E23.6679
G1 X5.623 Y-7.699 E23.6857
G1 X6.099 Y-7.457 E23.7035
G1 X6.560 Y-7.185 E23.7213
G1 X7.002 Y-6.884 E23.7391
G1 X7.425 Y-6.557 E23.7568
G1 X7.825 Y-6.204 E23.7746
G1 X8.204 Y-5.825 E23.7924
G1 X8.557 Y-5.425 E23.8102
G1 X8.884 Y-5.002 E23.8279
G1 X9.185 Y-4.560 E23.8457
G1 X9.457 Y-4.099 E23.8635
G1 X9.699 Y-3.623 E23.8813
G1 X9.912 Y-3.133 E23.8991
G1 X10.093 Y-2.630 E23.9168
G1 X10.242 Y-2.116 E23.9346
G1 X10.359 Y-1.594 E23.9524
G1 X10.443 Y-1.067 E23.9702
G1 X10.492 Y-0.539 E23.9878
G1 X10.509 Y0.031 E24.0068
G1 X10.490 Y0.565 E24.0245
G1 X10.438 Y1.097 E24.0423
G1 X10.352 Y1.625 E24.0601
G1 X10.233 Y2.145 E24.0779
G1 X10.081 Y2.663 E24.0958
G1 X9.912 Y3.133 E24.1124
G1 X9.699 Y3.623 E24.1302
G1 X9.457 Y4.099 E24.1480
G1 X9.185 Y4.560 E24.1657
G1 X8.884 Y5.002 E24.1835
G1 X8.557 Y5.424 E24.2013
G1 X8.203 Y5.825 E24.2191
G1 X7.825 Y6.204 E24.2369
G1 X7.425 Y6.556 E24.2546
G1 X7.002 Y6.884 E24.2724
G1 X6.560 Y7.185 E24.2902
G1 X6.100 Y7.457 E24.3080
G1 X5.623 Y7.699 E24.3258
G1 X5.132 Y7.912 E24.3436
G1 X4.645 Y8.088 E24.3608
G1 X3.998 Y8.267 E24.3831
G1 X3.522 Y8.371 E24.3993
G1 X3.072 Y8.442 E24.4145
G1 X2.408 Y8.497 E24.4366
G1 X1.923 Y8.508 E24.4528
G1 X1.456 Y8.492 E24.4683
G1 X0.914 Y8.440 E24.4864
G1 X0.457 Y8.367 E24.5018
G1 X-0.015 Y8.264 E24.5179
G1 X-0.551 Y8.114 E24.5364
G0 X-1.547 Y7.317 F10800
G1 X-1.919 Y7.128 E24.5503 F1800
G1 X-2.358 Y6.868 E24.5673
G1 X-2.781 Y6.580 E24.5843
G1 X-3.186 Y6.267 E24.6013
G1 X-3.568 Y5.929 E24.6183
G1 X-3.929 Y5.568 E24.6352
G1 X-4.267 Y5.186 E24.6522
G1 X-4.580 Y4.781 E24.6692
G1 X-4.868 Y4.358 E24.6863
G1 X-5.128 Y3.919 E24.7032
G1 X-5.360 Y3.463 E24.7202
G1 X-5.563 Y2.995 E24.7372
G1 X-5.736 Y2.515 E24.7542
G1 X-5.878 Y2.022 E24.7712
G1 X-5.990 Y1.523 E24.7882
G1 X-6.070 Y1.020 E24.8052
G1 X-6.118 Y0.512 E24.8222
G1 X-6.134 Y0.000 E24.8392
G1 X-6.118 Y-0.512 E24.8562
G1 X-6.070 Y-1.020 E24.8732
G1 X-5.990 Y-1.523 E24.8902
G1 X-5.878 Y-2.022 E24.9072
G1 X-5.736 Y-2.515 E24.9242
G1 X-5.563 Y-2.995 E24.9412
G1 X-5.360 Y-3.463 E24.9582
G1 X-5.128 Y-3.919 E24.9752
G1 X-4.868 Y-4.358 E24.9922
G1 X-4.580 Y-4.781 E25.0092
G1 X-4.267 Y-5.186 E25.0262
G1 X-3.930 Y-5.568 E25.0431
G1 X-3.568 Y-5.929 E25.0601
G1 X-3.185 Y-6.268 E25.0772
G1 X-2.781 Y-6.580 E25.0941
G1 X-2.358 Y-6.868 E25.1111
G1 X-1.918 Y-7.128 E25.1281
G1 X-1.463 Y-7.360 E25.1451
G1 X-0.994 Y-7.563 E25.1621
G1 X-0.514 Y-7.736 E25.1791
G1 X-0.022 Y-7.878 E25.1961
G1 X0.477 Y-7.990 E25.2131
G1 X0.980 Y-8.070 E25.2301
G1 X1.488 Y-8.118 E25.2471
G1 X2.000 Y-8.134 E25.2641
G1 X2.512 Y-8.118 E25.2811
G1 X3.020 Y-8.070 E25.2981
G1 X3.523 Y-7.990 E25.3151
G1 X4.022 Y-7.878 E25.3321
G1 X4.514 Y-7.736 E25.3491
G1 X4.995 Y-7.563 E25.3661
G1 X5.463 Y-7.360 E25.3831
G1 X5.918 Y-7.128 E25.4001
G1 X6.358 Y-6.868 E25.4171
G1 X6.781 Y-6.580 E25.4341
G1 X7.185 Y-6.267 E25.4511
G1 X7.568 Y-5.930 E25.4680
G1 X7.930 Y-5.568 E25.4851
G1 X8.267 Y-5.185 E25.5020
G1 X8.580 Y-4.781 E25.5190
G1 X8.868 Y-4.358 E25.5360
G1 X9.128 Y-3.918 E25.5530
G1 X9.360 Y-3.463 E25.5700
G1 X9.563 Y-2.995 E25.5870
G1 X9.736 Y-2.514 E25.6040
G1 X9.878 Y-2.022 E25.6210
G1 X9.990 Y-1.523 E25.6380
G1 X10.070 Y-1.020 E25.6550
G1 X10.117 Y-0.516 E25.6718
G1 X10.133 Y0.030 E25.6900
G1 X10.115 Y0.540 E25.7070
G1 X10.065 Y1.049 E25.7240
G1 X9.983 Y1.553 E25.7410
G1 X9.870 Y2.050 E25.7579
G1 X9.724 Y2.546 E25.7751
G1 X9.563 Y2.994 E25.7910
G1 X9.360 Y3.463 E25.8080
G1 X9.128 Y3.918 E25.8249
G1 X8.868 Y4.358 E25.8419
G1 X8.580 Y4.781 E25.8590
G1 X8.268 Y5.185 E25.8759
G1 X7.929 Y5.568 E25.8929
G1 X7.568 Y5.930 E25.9099
G1 X7.186 Y6.267 E25.9269
G1 X6.781 Y6.580 E25.9439
G1 X6.358 Y6.868 E25.9609
G1 X5.919 Y7.128 E25.9779
G1 X5.463 Y7.360 E25.9949
G1 X4.993 Y7.563 E26.0119
G1 X4.531 Y7.730 E26.0283
G1 X3.907 Y7.902 E26.0498
G1 X3.453 Y8.001 E26.0653
G1 X3.027 Y8.069 E26.0796
G1 X2.388 Y8.122 E26.1009
G1 X1.926 Y8.133 E26.1163
G1 X1.481 Y8.117 E26.1311
G1 X0.961 Y8.067 E26.1485
G1 X0.527 Y7.998 E26.1631
G1 X0.076 Y7.900 E26.1785
G1 X-0.527 Y7.730 E26.1993
G1 X-0.994 Y7.563 E26.2158
G1 X-1.377 Y7.397 E26.2297
G0 X-2.234 Y6.498 F10800
G1 X-2.560 Y6.276 E26.2428 F1800
G1 X-2.946 Y5.977 E26.2591
G1 X-3.311 Y5.656 E26.2752
G1 X-3.656 Y5.311 E26.2915
G1 X-3.977 Y4.946 E26.3076
G1 X-4.276 Y4.560 E26.3239
G1 X-4.551 Y4.156 E26.3401
G1 X-4.799 Y3.738 E26.3563
G1 X-5.020 Y3.303 E26.3725
G1 X-5.214 Y2.856 E26.3887
G1 X-5.378 Y2.399 E26.4049
G1 X-5.514 Y1.929 E26.4212
G1 X-5.621 Y1.453 E26.4374
G1 X-5.698 Y0.972 E26.4536
G1 X-5.743 Y0.488 E26.4697
G1 X-5.759 Y0.000 E26.4860
G1 X-5.743 Y-0.488 E26.5022
G1 X-5.698 Y-0.972 E26.5184
G1 X-5.621 Y-1.453 E26.5346
G1 X-5.514 Y-1.929 E26.5508
G1 X-5.378 Y-2.399 E26.5671
G1 X-5.214 Y-2.856 E26.5833
G1 X-5.020 Y-3.303 E26.5995
G1 X-4.799 Y-3.738 E26.6157
G1 X-4.551 Y-4.157 E26.6319
G1 X-4.276 Y-4.560 E26.6481
G1 X-3.977 Y-4.947 E26.6644
G1 X-3.656 Y-5.311 E26.6805
G1 X-3.311 Y-5.655 E26.6967
G1 X-2.945 Y-5.978 E26.7130
G1 X-2.561 Y-6.276 E26.7291
G1 X-2.157 Y-6.551 E26.7454
G1 X-1.738 Y-6.799 E26.7616
G1 X-1.303 Y-7.020 E26.7778
G1 X-0.856 Y-7.214 E26.7940
G1 X-0.399 Y-7.378 E26.8102
G1 X0.071 Y-7.514 E26.8264
G1 X0.548 Y-7.621 E26.8427
G1 X1.027 Y-7.698 E26.8588
G1 X1.512 Y-7.743 E26.8750
G1 X2.000 Y-7.759 E26.8913
G1 X2.488 Y-7.743 E26.9075
G1 X2.973 Y-7.698 E26.9237
G1 X3.452 Y-7.621 E26.9399
G1 X3.929 Y-7.514 E26.9561
G1 X4.399 Y-7.378 E26.9724
G1 X4.856 Y-7.214 E26.9885
G1 X5.303 Y-7.020 E27.0048
G1 X5.738 Y-6.799 E27.0209
G1 X6.157 Y-6.551 E27.0372
G1 X6.561 Y-6.276 E27.0534
G1 X6.946 Y-5.978 E27.0696
G1 X7.311 Y-5.656 E27.0858
G1 X7.656 Y-5.311 E27.1020
G1 X7.978 Y-4.946 E27.1182
G1 X8.276 Y-4.561 E27.1344
G1 X8.551 Y-4.157 E27.1507
G1 X8.799 Y-3.738 E27.1669
G1 X9.020 Y-3.303 E27.1831
G1 X9.214 Y-2.856 E27.1993
G1 X9.378 Y-2.399 E27.2154
G1 X9.514 Y-1.929 E27.2317
G1 X9.621 Y-1.452 E27.2480
G1 X9.698 Y-0.973 E27.2641
G1 X9.743 Y-0.493 E27.2802
G1 X9.758 Y0.028 E27.2975
G1 X9.740 Y0.515 E27.3137
G1 X9.693 Y1.000 E27.3299
G1 X9.615 Y1.481 E27.3461
G1 X9.506 Y1.956 E27.3623
G1 X9.367 Y2.430 E27.3787
G1 X9.214 Y2.856 E27.3938
G1 X9.020 Y3.303 E27.4100
G1 X8.799 Y3.738 E27.4262
G1 X8.551 Y4.157 E27.4424
G1 X8.276 Y4.561 E27.4587
G1 X7.978 Y4.945 E27.4748
G1 X7.655 Y5.311 E27.4911
G1 X7.311 Y5.656 E27.5073
G1 X6.947 Y5.977 E27.5234
G1 X6.560 Y6.276 E27.5397
G1 X6.157 Y6.551 E27.5559
G1 X5.738 Y6.799 E27.5721
G1 X5.304 Y7.020 E27.5883
G1 X4.854 Y7.214 E27.6046
G1 X4.417 Y7.373 E27.6201
G1 X3.818 Y7.538 E27.6408
G1 X3.384 Y7.632 E27.6555
G1 X2.982 Y7.696 E27.6691
G1 X2.368 Y7.747 E27.6895
G1 X1.928 Y7.757 E27.7042
G1 X1.505 Y7.742 E27.7183
G1 X1.009 Y7.695 E27.7348
G1 X0.596 Y7.629 E27.7487
G1 X0.167 Y7.535 E27.7634
G1 X-0.413 Y7.373 E27.7834
G1 X-0.856 Y7.214 E27.7990
G1 X-1.303 Y7.020 E27.8153
G1 X-1.738 Y6.799 E27.8315
G1 X-2.076 Y6.599 E27.8445
G0 X-1.534 Y5.991 F10800
G1 X5.628 Y5.991 E28.0828 F1800
G1 X5.376 Y6.141 E28.0925
G1 X4.984 Y6.340 E28.1071
G1 X4.577 Y6.516 E28.1219
G1 X4.189 Y6.657 E28.1356
G1 X3.638 Y6.809 E28.1546
G1 X3.245 Y6.894 E28.1680
G1 X2.891 Y6.950 E28.1799
G1 X2.328 Y6.997 E28.1987
G1 X1.933 Y7.006 E28.2119
G1 X1.554 Y6.993 E28.2245
G1 X1.104 Y6.950 E28.2395
G1 X0.736 Y6.891 E28.2519
G1 X0.348 Y6.806 E28.2651
G1 X-0.185 Y6.657 E28.2835
G1 X-0.580 Y6.515 E28.2975
G1 X-0.984 Y6.340 E28.3121
G1 X-1.376 Y6.141 E28.3268
G1 X-1.548 Y6.039 E28.3334
G0 X-2.777 Y5.626 F10800
G1 X-3.054 Y5.382 E28.3457 F1800
G1 X-3.382 Y5.054 E28.3611
G1 X-3.688 Y4.707 E28.3765
G1 X-3.972 Y4.340 E28.3919
G1 X-4.234 Y3.955 E28.4074
G1 X-4.470 Y3.557 E28.4228
G1 X-4.680 Y3.144 E28.4382
G1 X-4.865 Y2.718 E28.4536
G1 X-5.021 Y2.283 E28.4690
G1 X-5.151 Y1.835 E28.4845
G1 X-5.252 Y1.382 E28.5000
G1 X-5.325 Y0.925 E28.5153
G1 X-5.369 Y0.465 E28.5307
G1 X-5.383 Y0.000 E28.5462
G1 X-5.369 Y-0.465 E28.5617
G1 X-5.325 Y-0.925 E28.5770
G1 X-5.252 Y-1.382 E28.5924
G1 X-5.151 Y-1.835 E28.6079
G1 X-5.021 Y-2.283 E28.6234
G1 X-4.865 Y-2.718 E28.6387
G1 X-4.680 Y-3.144 E28.6542
G1 X-4.470 Y-3.557 E28.6696
G1 X-4.234 Y-3.955 E28.6850
G1 X-3.973 Y-4.340 E28.7005
G1 X-3.687 Y-4.707 E28.7159
G1 X-3.383 Y-5.054 E28.7313
G1 X-3.054 Y-5.381 E28.7467
G1 X-2.706 Y-5.689 E28.7622
G1 X-2.340 Y-5.972 E28.7776
G1 X-1.955 Y-6.233 E28.7930
G1 X-1.557 Y-6.470 E28.8084
G1 X-1.144 Y-6.680 E28.8239
G1 X-0.718 Y-6.865 E28.8393
G1 X-0.283 Y-7.021 E28.8547
G1 X0.165 Y-7.151 E28.8702
G1 X0.618 Y-7.252 E28.8856
G1 X1.074 Y-7.325 E28.9010
G1 X1.535 Y-7.369 E28.9164
G1 X2.000 Y-7.383 E28.9319
G1 X2.465 Y-7.369 E28.9473
G1 X2.926 Y-7.325 E28.9627
G1 X3.382 Y-7.252 E28.9781
G1 X3.835 Y-7.151 E28.9935
G1 X4.283 Y-7.021 E29.0090
G1 X4.718 Y-6.865 E29.0244
G1 X5.144 Y-6.680 E29.0398
G1 X5.557 Y-6.470 E29.0553
G1 X5.955 Y-6.234 E29.0707
G1 X6.340 Y-5.972 E29.0861
G1 X6.707 Y-5.688 E29.1016
G1 X7.054 Y-5.382 E29.1170
G1 X7.382 Y-5.054 E29.1324
G1 X7.688 Y-4.707 E29.1478
G1 X7.972 Y-4.340 E29.1632
G1 X8.234 Y-3.955 E29.1787
G1 X8.470 Y-3.557 E29.1941
G1 X8.680 Y-3.144 E29.2095
G1 X8.865 Y-2.718 E29.2250
G1 X9.021 Y-2.283 E29.2403
G1 X9.151 Y-1.835 E29.2558
G1 X9.252 Y-1.382 E29.2713
G1 X9.325 Y-0.926 E29.2866
G1 X9.368 Y-0.470 E29.3019
G1 X9.382 Y0.027 E29.3184
G1 X9.365 Y0.490 E29.3338
G1 X9.320 Y0.952 E29.3493
G1 X9.246 Y1.409 E29.3646
G1 X9.143 Y1.861 E29.3801
G1 X9.010 Y2.313 E29.3958
G1 X8.865 Y2.717 E29.4100
G1 X8.680 Y3.144 E29.4255
G1 X8.470 Y3.557 E29.4409
G1 X8.233 Y3.955 E29.4563
G1 X7.972 Y4.340 E29.4718
G1 X7.689 Y4.706 E29.4872
G1 X7.381 Y5.054 E29.5026
G1 X7.054 Y5.383 E29.5181
G1 X6.707 Y5.688 E29.5334
G1 X6.340 Y5.973 E29.5489
G1 X5.955 Y6.234 E29.5643
G1 X5.557 Y6.470 E29.5797
G1 X5.144 Y6.680 E29.5951
G1 X4.716 Y6.865 E29.6107
G1 X4.303 Y7.015 E29.6253
G1 X3.728 Y7.173 E29.6451
G1 X3.314 Y7.263 E29.6592
G1 X2.937 Y7.323 E29.6719
G1 X2.348 Y7.372 E29.6916
G1 X1.930 Y7.382 E29.7054
G1 X1.530 Y7.368 E29.7188
G1 X1.056 Y7.322 E29.7346
G1 X0.666 Y7.260 E29.7477
G1 X0.257 Y7.171 E29.7617
G1 X-0.299 Y7.015 E29.7809
G1 X-0.718 Y6.865 E29.7957
G1 X-1.144 Y6.680 E29.8111
G1 X-1.557 Y6.470 E29.8265
G1 X-1.955 Y6.234 E29.8419
G1 X-2.340 Y5.972 E29.8574
G1 X-2.633 Y5.745 E29.8697
G0 X-3.232 Y4.656 F10800
G1 X-3.398 Y4.468 E29.8781 F1800
G1 X-3.669 Y4.119 E29.8928
G1 X-3.672 Y4.114 E29.8930
G1 X-2.698 Y5.196 E29.9414
G1 X-2.797 Y5.108 E29.9458
G1 X-3.108 Y4.797 E29.9604
G1 X-3.108 Y4.797 E29.9605
; ------------------------------------
; Layer #2
; ------------------------------------
G21 ; mm
G90 ; abs
G92 E0 ; reset extr
M106 S0
;segType:Perimeter
G0 F4800 E-1.0000
G0 F2400 Z0.600
G0 X5.585 Y9.680 F10800
G0 F4800 E0.0000
G1 X5.285 Y10.285 E0.0225 F2159
G1 X4.478 Y10.504 E0.0503
G1 X3.905 Y10.629 E0.0698
G1 X3.340 Y10.717 E0.0888
G1 X2.776 Y10.771 E0.1076
G1 X1.863 Y10.798 E0.1380
G1 X1.300 Y10.777 E0.1568
G1 X0.615 Y10.710 E0.1797
G1 X0.061 Y10.624 E0.1983
G1 X-0.511 Y10.498 E0.2178
G1 X-1.339 Y10.271 E0.2463
G1 X-1.976 Y10.042 E0.2688
G1 X-2.598 Y9.772 E0.2914
G1 X-3.203 Y9.464 E0.3140
G1 X-3.787 Y9.119 E0.3365
G1 X-4.348 Y8.737 E0.3591
G1 X-4.884 Y8.321 E0.3817
G1 X-5.393 Y7.873 E0.4042
G1 X-5.873 Y7.393 E0.4268
G1 X-6.321 Y6.884 E0.4494
G1 X-6.737 Y6.348 E0.4719
G1 X-7.119 Y5.787 E0.4945
G1 X-7.464 Y5.203 E0.5171
G1 X-7.772 Y4.598 E0.5396
G1 X-8.042 Y3.976 E0.5622
G1 X-8.271 Y3.337 E0.5848
G1 X-8.460 Y2.686 E0.6073
G1 X-8.609 Y2.024 E0.6299
G1 X-8.715 Y1.354 E0.6525
G1 X-8.779 Y0.678 E0.6750
G1 X-8.800 Y0.000 E0.6976
G1 X-8.779 Y-0.678 E0.7202
G1 X-8.715 Y-1.354 E0.7427
G1 X-8.609 Y-2.024 E0.7653
G1 X-8.460 Y-2.686 E0.7879
G1 X-8.271 Y-3.337 E0.8104
G1 X-8.042 Y-3.976 E0.8330
G1 X-7.772 Y-4.598 E0.8556
G1 X-7.464 Y-5.203 E0.8781
G1 X-7.119 Y-5.787 E0.9007
G1 X-6.737 Y-6.348 E0.9233
G1 X-6.321 Y-6.884 E0.9458
G1 X-5.873 Y-7.393 E0.9684
G1 X-5.393 Y-7.873 E0.9910
G1 X-4.884 Y-8.322 E1.0135
G1 X-4.348 Y-8.737 E1.0361
G1 X-3.787 Y-9.119 E1.0586
G1 X-3.203 Y-9.464 E1.0812
G1 X-2.598 Y-9.772 E1.1038
G1 X-1.976 Y-10.042 E1.1264
G1 X-1.337 Y-10.271 E1.1489
G1 X-0.686 Y-10.460 E1.1715
G1 X-0.024 Y-10.609 E1.1940
G1 X0.646 Y-10.715 E1.2166
G1 X1.322 Y-10.779 E1.2392
G1 X2.000 Y-10.800 E1.2617
G1 X2.678 Y-10.779 E1.2843
G1 X3.354 Y-10.715 E1.3069
G1 X4.024 Y-10.609 E1.3294
G1 X4.686 Y-10.460 E1.3520
G1 X5.337 Y-10.271 E1.3746
G1 X5.976 Y-10.042 E1.3971
G1 X6.598 Y-9.772 E1.4197
G1 X7.203 Y-9.464 E1.4423
G1 X7.787 Y-9.119 E1.4648
G1 X8.348 Y-8.737 E1.4874
G1 X8.884 Y-8.322 E1.5100
G1 X9.393 Y-7.873 E1.5325
G1 X9.873 Y-7.393 E1.5551
G1 X10.322 Y-6.884 E1.5777
G1 X10.737 Y-6.348 E1.6002
G1 X11.119 Y-5.787 E1.6228
G1 X11.464 Y-5.203 E1.6454
G1 X11.772 Y-4.598 E1.6679
G1 X12.042 Y-3.976 E1.6905
G1 X12.271 Y-3.337 E1.7131
G1 X12.460 Y-2.686 E1.7356
G1 X12.609 Y-2.024 E1.7582
G1 X12.715 Y-1.354 E1.7808
G1 X12.779 Y-0.679 E1.8033
G1 X12.798 Y0.058 E1.8278
G1 X12.773 Y0.736 E1.8504
G1 X12.706 Y1.411 E1.8729
G1 X12.596 Y2.080 E1.8955
G1 X12.444 Y2.742 E1.9181
G1 X12.251 Y3.393 E1.9406
G1 X12.042 Y3.976 E1.9613
G1 X11.772 Y4.598 E1.9838
G1 X11.464 Y5.203 E2.0064
G1 X11.119 Y5.787 E2.0290
G1 X10.737 Y6.348 E2.0515
G1 X10.322 Y6.884 E2.0741
G1 X9.873 Y7.393 E2.0967
G1 X9.393 Y7.873 E2.1192
G1 X8.884 Y8.321 E2.1418
G1 X8.348 Y8.737 E2.1644
G1 X7.787 Y9.119 E2.1869
G1 X7.203 Y9.464 E2.2095
G1 X6.598 Y9.772 E2.2321
G1 X5.976 Y10.042 E2.2546
G1 X5.392 Y10.252 E2.2753
G1 X4.799 Y9.928
;segType:Loop
G0 X4.292 Y10.136 F10800
G1 X3.832 Y10.235 E2.2909 F3600
G1 X3.290 Y10.320 E2.3092
G1 X2.751 Y10.372 E2.3271
G1 X1.865 Y10.397 E2.3566
G1 X1.326 Y10.378 E2.3746
G1 X0.665 Y10.313 E2.3967
G1 X0.135 Y10.230 E2.4145
G1 X-0.415 Y10.110 E2.4332
G1 X-1.218 Y9.889 E2.4609
G1 X-1.828 Y9.669 E2.4825
G1 X-2.428 Y9.410 E2.5042
G1 X-3.010 Y9.114 E2.5260
G1 X-3.573 Y8.781 E2.5477
G1 X-4.113 Y8.414 E2.5694
G1 X-4.629 Y8.013 E2.5912
G1 X-5.119 Y7.581 E2.6129
G1 X-5.581 Y7.119 E2.6346
G1 X-6.013 Y6.629 E2.6563
G1 X-6.414 Y6.113 E2.6781
G1 X-6.781 Y5.573 E2.6998
G1 X-7.114 Y5.010 E2.7215
G1 X-7.410 Y4.428 E2.7433
G1 X-7.669 Y3.828 E2.7650
G1 X-7.891 Y3.214 E2.7867
G1 X-8.073 Y2.586 E2.8084
G1 X-8.216 Y1.949 E2.8302
G1 X-8.318 Y1.303 E2.8519
G1 X-8.379 Y0.653 E2.8736
G1 X-8.400 Y0.000 E2.8954
G1 X-8.379 Y-0.653 E2.9171
G1 X-8.318 Y-1.303 E2.9388
G1 X-8.216 Y-1.949 E2.9606
G1 X-8.073 Y-2.586 E2.9823
G1 X-7.891 Y-3.214 E3.0040
G1 X-7.669 Y-3.828 E3.0257
G1 X-7.410 Y-4.428 E3.0475
G1 X-7.114 Y-5.010 E3.0692
G1 X-6.781 Y-5.573 E3.0909
G1 X-6.414 Y-6.113 E3.1127
G1 X-6.013 Y-6.629 E3.1344
G1 X-5.581 Y-7.119 E3.1561
G1 X-5.119 Y-7.581 E3.1778
G1 X-4.629 Y-8.013 E3.1996
G1 X-4.113 Y-8.414 E3.2213
G1 X-3.572 Y-8.781 E3.2430
G1 X-3.010 Y-9.114 E3.2648
G1 X-2.428 Y-9.410 E3.2865
G1 X-1.828 Y-9.669 E3.3082
G1 X-1.214 Y-9.891 E3.3300
G1 X-0.586 Y-10.073 E3.3517
G1 X0.051 Y-10.216 E3.3734
G1 X0.697 Y-10.318 E3.3951
G1 X1.347 Y-10.379 E3.4169
G1 X2.000 Y-10.400 E3.4386
G1 X2.653 Y-10.379 E3.4603
G1 X3.303 Y-10.318 E3.4821
G1 X3.949 Y-10.216 E3.5038
G1 X4.586 Y-10.073 E3.5255
G1 X5.214 Y-9.891 E3.5473
G1 X5.828 Y-9.669 E3.5690
G1 X6.428 Y-9.410 E3.5907
G1 X7.010 Y-9.114 E3.6124
G1 X7.572 Y-8.781 E3.6342
G1 X8.113 Y-8.414 E3.6559
G1 X8.629 Y-8.013 E3.6776
G1 X9.119 Y-7.581 E3.6994
G1 X9.581 Y-7.119 E3.7211
G1 X10.013 Y-6.629 E3.7428
G1 X10.414 Y-6.113 E3.7646
G1 X10.781 Y-5.572 E3.7863
G1 X11.114 Y-5.010 E3.8080
G1 X11.410 Y-4.428 E3.8297
G1 X11.669 Y-3.828 E3.8515
G1 X11.891 Y-3.214 E3.8732
G1 X12.073 Y-2.586 E3.8949
G1 X12.216 Y-1.949 E3.9167
G1 X12.318 Y-1.303 E3.9384
G1 X12.379 Y-0.655 E3.9601
G1 X12.398 Y0.056 E3.9837
G1 X12.374 Y0.709 E4.0054
G1 X12.309 Y1.359 E4.0272
G1 X12.203 Y2.003 E4.0489
G1 X12.057 Y2.640 E4.0706
G1 X11.871 Y3.268 E4.0924
G1 X11.669 Y3.828 E4.1122
G1 X11.410 Y4.428 E4.1339
G1 X11.114 Y5.010 E4.1557
G1 X10.781 Y5.572 E4.1774
G1 X10.414 Y6.113 E4.1991
G1 X10.013 Y6.629 E4.2209
G1 X9.581 Y7.119 E4.2426
G1 X9.119 Y7.581 E4.2643
G1 X8.629 Y8.013 E4.2860
G1 X8.113 Y8.414 E4.3078
G1 X7.573 Y8.781 E4.3295
G1 X7.010 Y9.114 E4.3512
G1 X6.428 Y9.410 E4.3730
G1 X5.828 Y9.669 E4.3947
G1 X5.219 Y9.889 E4.4162
G1 X4.474 Y10.091 E4.4419
G0 F4800 E3.4419
G0 X2.765 Y8.705 F10800
G0 X0.058 Y2.723
G0 F4800 E4.4419
;segType:Perimeter
G1 X-0.314 Y2.159 E4.4644 F2159
G1 X-0.621 Y1.838 E4.4792
G1 X-0.827 Y1.500 E4.4923
G1 X-0.988 Y1.148 E4.5052
G1 X-1.104 Y0.779 E4.5181
G1 X-1.175 Y0.398 E4.5309
G1 X-1.200 Y0.012 E4.5438
G1 X-1.178 Y-0.374 E4.5567
G1 X-1.110 Y-0.755 E4.5696
G1 X-0.996 Y-1.125 E4.5824
G1 X-0.839 Y-1.478 E4.5953
G1 X-0.640 Y-1.810 E4.6082
G1 X-0.402 Y-2.115 E4.6210
G1 X-0.129 Y-2.390 E4.6339
G1 X0.175 Y-2.629 E4.6468
G1 X0.506 Y-2.830 E4.6596
G1 X0.858 Y-2.990 E4.6725
G1 X1.227 Y-3.105 E4.6854
G1 X1.608 Y-3.176 E4.6983
G1 X1.994 Y-3.200 E4.7111
G1 X2.380 Y-3.178 E4.7240
G1 X2.761 Y-3.109 E4.7369
G1 X3.130 Y-2.994 E4.7497
G1 X3.483 Y-2.836 E4.7626
G1 X3.815 Y-2.636 E4.7755
G1 X4.109 Y-2.406 E4.7879
G1 X4.402 Y-2.114 E4.8017
G1 X4.640 Y-1.808 E4.8146
G1 X4.839 Y-1.476 E4.8274
G1 X4.996 Y-1.122 E4.8403
G1 X5.110 Y-0.752 E4.8532
G1 X5.178 Y-0.372 E4.8660
G1 X5.200 Y0.000 E4.8784
G1 X5.177 Y0.388 E4.8913
G1 X5.106 Y0.771 E4.9043
G1 X4.990 Y1.142 E4.9172
G1 X4.829 Y1.496 E4.9302
G1 X4.627 Y1.828 E4.9431
G1 X4.333 Y2.200 E4.9588
G1 X-0.219 Y2.200 E5.1102
G1 X-0.883 Y2.320
;segType:Loop
G0 X-1.220 Y1.602 F10800
G1 X-1.362 Y1.292 E5.1216 F3600
G1 X-1.493 Y0.876 E5.1361
G1 X-1.573 Y0.448 E5.1506
G1 X-1.601 Y0.014 E5.1650
G1 X-1.576 Y-0.421 E5.1795
G1 X-1.500 Y-0.850 E5.1940
G1 X-1.371 Y-1.265 E5.2085
G1 X-1.194 Y-1.663 E5.2230
G1 X-0.970 Y-2.036 E5.2374
G1 X-0.703 Y-2.380 E5.2519
G1 X-0.396 Y-2.689 E5.2664
G1 X-0.053 Y-2.958 E5.2809
G1 X0.318 Y-3.184 E5.2954
G1 X0.715 Y-3.364 E5.3099
G1 X1.131 Y-3.494 E5.3243
G1 X1.558 Y-3.574 E5.3388
G1 X1.993 Y-3.601 E5.3533
G1 X2.427 Y-3.576 E5.3678
G1 X2.856 Y-3.498 E5.3823
G1 X3.272 Y-3.369 E5.3967
G1 X3.669 Y-3.191 E5.4112
G1 X4.042 Y-2.966 E5.4257
G1 X4.374 Y-2.706 E5.4397
G1 X4.703 Y-2.379 E5.4551
G1 X4.971 Y-2.034 E5.4697
G1 X5.194 Y-1.660 E5.4842
G1 X5.372 Y-1.263 E5.4986
G1 X5.499 Y-0.847 E5.5131
G1 X5.576 Y-0.419 E5.5276
G1 X5.601 Y0.000 E5.5415
G1 X5.574 Y0.437 E5.5561
G1 X5.495 Y0.867 E5.5706
G1 X5.364 Y1.285 E5.5852
G1 X5.183 Y1.684 E5.5998
G1 X4.956 Y2.057 E5.6143
G1 X4.527 Y2.600 E5.6373
G1 X-0.446 Y2.600 E5.8027
G1 X-0.939 Y2.083 E5.8265
G1 X-1.132 Y1.768 E5.8388
;segType:HShell
G0 X-1.921 Y0.697 F10800
G1 X-1.958 Y0.497 E5.8455 F1800
G1 X-1.990 Y0.015 E5.8616
G1 X-1.962 Y-0.466 E5.8776
G1 X-1.877 Y-0.941 E5.8937
G1 X-1.735 Y-1.402 E5.9097
G1 X-1.539 Y-1.842 E5.9257
G1 X-1.291 Y-2.256 E5.9418
G1 X-0.994 Y-2.637 E5.9578
G1 X-0.654 Y-2.979 E5.9739
G1 X-0.275 Y-3.277 E5.9899
G1 X0.137 Y-3.528 E6.0059
G1 X0.577 Y-3.727 E6.0220
G1 X1.037 Y-3.871 E6.0381
G1 X1.510 Y-3.959 E6.0541
G1 X1.992 Y-3.990 E6.0701
G1 X2.474 Y-3.961 E6.0862
G1 X2.948 Y-3.875 E6.1022
G1 X3.409 Y-3.733 E6.1183
G1 X3.849 Y-3.535 E6.1343
G1 X4.262 Y-3.286 E6.1503
G1 X4.631 Y-2.997 E6.1659
G1 X4.994 Y-2.636 E6.1829
G1 X5.292 Y-2.253 E6.1991
G1 X5.539 Y-1.839 E6.2151
G1 X5.735 Y-1.399 E6.2311
G1 X5.877 Y-0.938 E6.2472
G1 X5.962 Y-0.465 E6.2632
G1 X5.990 Y0.000 E6.2787
G1 X5.960 Y0.484 E6.2948
G1 X5.872 Y0.961 E6.3109
G1 X5.727 Y1.424 E6.3271
G1 X5.526 Y1.865 E6.3432
G1 X5.274 Y2.279 E6.3593
G1 X4.714 Y2.988 E6.3893
G1 X-0.612 Y2.988 E6.5665
G1 X-1.249 Y2.321 E6.5972
G1 X-1.524 Y1.870 E6.6147
G1 X-1.724 Y1.431 E6.6308
G1 X-1.870 Y0.970 E6.6468
G1 X-1.886 Y0.881 E6.6499
G0 X-2.397 Y-2.601 F10800
G1 X-2.221 Y-2.894 E6.6612 F1800
G1 X-1.841 Y-3.382 E6.6818
G1 X-1.404 Y-3.822 E6.7024
G1 X-0.918 Y-4.204 E6.7230
G1 X-0.391 Y-4.525 E6.7435
G1 X0.175 Y-4.781 E6.7642
G1 X0.765 Y-4.966 E6.7847
G1 X1.372 Y-5.079 E6.8053
G1 X1.989 Y-5.117 E6.8258
G1 X2.608 Y-5.081 E6.8464
G1 X3.216 Y-4.971 E6.8670
G1 X3.808 Y-4.788 E6.8876
G1 X4.373 Y-4.534 E6.9082
G1 X4.902 Y-4.215 E6.9287
G1 X5.378 Y-3.843 E6.9489
G1 X5.839 Y-3.384 E6.9705
G1 X6.223 Y-2.890 E6.9913
G1 X6.540 Y-2.359 E7.0119
G1 X6.792 Y-1.795 E7.0324
G1 X6.973 Y-1.204 E7.0530
G1 X7.082 Y-0.599 E7.0734
G1 X7.117 Y0.000 E7.0934
G1 X7.080 Y0.621 E7.1141
G1 X6.967 Y1.233 E7.1348
G1 X6.781 Y1.827 E7.1555
G1 X6.524 Y2.393 E7.1761
G1 X6.200 Y2.924 E7.1968
G1 X5.260 Y4.114 E7.2473
G1 X-1.094 Y4.114 E7.4586
G1 X-2.146 Y3.011 E7.5093
G1 X-2.521 Y2.399 E7.5332
G1 X-2.777 Y1.835 E7.5538
G1 X-2.964 Y1.244 E7.5744
G1 X-3.077 Y0.637 E7.5949
G1 X-3.117 Y0.020 E7.6155
G1 X-3.083 Y-0.598 E7.6361
G1 X-2.973 Y-1.208 E7.6567
G1 X-2.791 Y-1.799 E7.6773
G1 X-2.539 Y-2.363 E7.6978
G1 X-2.493 Y-2.440 E7.7008
G0 X-2.057 Y-3.697 F10800
G1 X-1.654 Y-4.103 E7.7198 F1800
G1 X-1.133 Y-4.512 E7.7418
G1 X-0.566 Y-4.858 E7.7639
G1 X0.041 Y-5.133 E7.7861
G1 X0.675 Y-5.331 E7.8082
G1 X1.325 Y-5.452 E7.8302
