; generated by Slic3r 1.2.9 on 2016-05-09 at 13:28:17

; external perimeters extrusion width = 0.40mm
; perimeters extrusion width = 0.67mm
; infill extrusion width = 0.67mm
; solid infill extrusion width = 0.67mm
; top infill extrusion width = 0.67mm
; support material extrusion width = 0.40mm

M107
M104 S210 ; set temperature
G28 ; home all axes
G1 X70Y70Z10 F5000 
M109 S210 ; wait for temperature to be reached
G21 ; set units to millimeters
G90 ; use absolute coordinates
M82 ; use absolute distances for extrusion
G92 E0
G1 E-3.50000 F1800.00000
G92 E0
G1 Z0.300 F3600.000
G1 X26.000 Y-32.257 F3600.000
G1 E3.50000 F1800.00000
G1 X28.193 Y-31.860 E3.61642 F1200.000
G1 X30.107 Y-30.720 E3.73283
G1 X31.501 Y-28.981 E3.84925
G1 X32.257 Y-26.000 E4.00992
G1 X32.257 Y26.000 E6.72666
G1 X31.860 Y28.193 E6.84307
G1 X30.720 Y30.107 E6.95949
G1 X28.981 Y31.501 E7.07591
G1 X26.000 Y32.257 E7.23658
G1 X-26.000 Y32.257 E9.95331
G1 X-28.193 Y31.860 E10.06973
G1 X-30.107 Y30.720 E10.18615
G1 X-31.501 Y28.981 E10.30257
G1 X-32.257 Y26.000 E10.46324
G1 X-32.257 Y-26.000 E13.17997
G1 X-31.860 Y-28.193 E13.29639
G1 X-30.720 Y-30.107 E13.41281
G1 X-28.981 Y-31.501 E13.52922
G1 X-26.000 Y-32.257 E13.68989
G1 X25.940 Y-32.257 E16.40349
G1 X26.000 Y-31.838 F3600.000
G1 X28.115 Y-31.441 E16.51591 F1200.000
G1 X29.943 Y-30.305 E16.62833
G1 X31.234 Y-28.585 E16.74075
G1 X31.838 Y-26.000 E16.87941
G1 X31.838 Y26.000 E19.59615
G1 X31.441 Y28.115 E19.70857
G1 X30.305 Y29.943 E19.82099
G1 X28.585 Y31.234 E19.93341
G1 X26.000 Y31.838 E20.07207
G1 X-26.000 Y31.838 E22.78880
G1 X-28.115 Y31.441 E22.90122
G1 X-29.943 Y30.305 E23.01364
G1 X-31.234 Y28.585 E23.12606
G1 X-31.838 Y26.000 E23.26472
G1 X-31.838 Y-26.000 E25.98146
G1 X-31.441 Y-28.115 E26.09388
G1 X-30.305 Y-29.943 E26.20630
G1 X-28.585 Y-31.234 E26.31872
G1 X-26.000 Y-31.838 E26.45738
G1 X25.940 Y-31.838 E29.17098
G1 X26.000 Y-31.419 F3600.000
G1 X28.034 Y-31.023 E29.27925 F1200.000
G1 X29.771 Y-29.892 E29.38753
G1 X30.956 Y-28.191 E29.49581
G1 X31.419 Y-26.000 E29.61282
G1 X31.419 Y26.000 E32.32956
G1 X31.023 Y28.034 E32.43783
G1 X29.892 Y29.771 E32.54611
G1 X28.191 Y30.956 E32.65438
G1 X26.000 Y31.419 E32.77140
G1 X-26.000 Y31.419 E35.48814
G1 X-28.034 Y31.023 E35.59641
G1 X-29.771 Y29.892 E35.70469
G1 X-30.956 Y28.191 E35.81296
G1 X-31.419 Y26.000 E35.92998
G1 X-31.419 Y-26.000 E38.64672
G1 X-31.023 Y-28.034 E38.75499
G1 X-29.892 Y-29.771 E38.86327
G1 X-28.191 Y-30.956 E38.97154
G1 X-26.000 Y-31.419 E39.08856
G1 X25.940 Y-31.419 E41.80216
G1 E38.30216 F1800.00000
G92 E0
G1 X-22.320 Y20.906 F3600.000
G1 E3.50000 F1800.00000
G1 X-21.820 Y21.141 E3.52310 F1200.000
G1 X-21.395 Y21.493 E3.54620
G1 X-21.071 Y21.939 E3.56930
G1 X-20.868 Y22.452 E3.59240
G1 X-20.798 Y23.000 E3.61551
G1 X-20.868 Y23.548 E3.63861
G1 X-21.071 Y24.061 E3.66171
G1 X-21.395 Y24.507 E3.68481
G1 X-21.820 Y24.859 E3.70791
G1 X-22.320 Y25.094 E3.73101
G1 X-22.862 Y25.197 E3.75411
G1 X-23.413 Y25.163 E3.77721
G1 X-23.937 Y24.992 E3.80032
G1 X-24.405 Y24.695 E3.82349
G1 X-24.800 Y24.260 E3.84812
G1 X-25.047 Y23.810 E3.86957
G1 X-25.185 Y23.274 E3.89275
G1 X-25.174 Y22.686 E3.91738
G1 X-25.047 Y22.190 E3.93883
G1 X-24.781 Y21.706 E3.96193
G1 X-24.403 Y21.304 E3.98503
G1 X-23.936 Y21.007 E4.00821
G1 X-23.373 Y20.835 E4.03284
G1 X-22.862 Y20.803 E4.05429
G1 X-22.379 Y20.895 E4.07488
G1 X-22.011 Y20.651 F3600.000
G1 E0.57488 F1800.00000
G92 E0
G1 X-25.000 Y20.770 F3600.000
G1 X-25.000 Y20.770 F3600.000
G1 X-25.423 Y24.302 F3600.000
G1 E3.50000 F1800.00000
G1 X-25.234 Y24.253 E3.51019 F1200.000
G1 X-25.109 Y24.480 E3.52370
G1 X-24.650 Y24.987 E3.55942
G1 X-24.248 Y25.242 E3.58428
G1 X-24.301 Y25.423 E3.59413
G1 X-25.423 Y25.423 E3.65274
G1 X-25.423 Y24.362 E3.70816
G1 E0.20816 F1800.00000
G92 E0
G1 X-19.992 Y23.000 F3600.000
G1 X16.866 Y21.736 F3600.000
G1 X17.617 Y22.602 F3600.000
G1 X17.900 Y22.898 F3600.000
G1 X17.939 Y22.938 F3600.000
G1 X20.000 Y23.000 F3600.000
G1 X20.803 Y23.133 F3600.000
G1 E3.50000 F1800.00000
G1 X20.815 Y22.735 E3.51667 F1200.000
G1 X20.898 Y22.348 E3.53322
G1 X20.993 Y22.097 E3.54447
G1 X21.118 Y21.859 E3.55572
G1 X21.351 Y21.543 E3.57214
G1 X21.541 Y21.353 E3.58339
G1 X21.752 Y21.187 E3.59464
G1 X22.097 Y20.993 E3.61119
G1 X22.474 Y20.863 E3.62788
G1 X22.874 Y20.803 E3.64481
G1 X23.133 Y20.804 E3.65566
G1 X23.400 Y20.836 E3.66691
G1 X23.780 Y20.942 E3.68346
G1 X24.139 Y21.117 E3.70013
G1 X24.457 Y21.351 E3.71668
G1 X24.647 Y21.541 E3.72793
G1 X24.813 Y21.752 E3.73918
G1 X25.007 Y22.097 E3.75572
G1 X25.137 Y22.473 E3.77240
G1 X25.197 Y22.867 E3.78907
G1 X25.185 Y23.265 E3.80575
G1 X25.102 Y23.652 E3.82230
G1 X25.007 Y23.903 E3.83355
G1 X24.882 Y24.141 E3.84480
G1 X24.649 Y24.457 E3.86122
G1 X24.459 Y24.647 E3.87247
G1 X24.248 Y24.813 E3.88372
G1 X23.903 Y25.007 E3.90026
G1 X23.527 Y25.137 E3.91694
G1 X23.133 Y25.197 E3.93361
G1 X22.735 Y25.185 E3.95029
G1 X22.348 Y25.102 E3.96684
G1 X22.097 Y25.007 E3.97808
G1 X21.867 Y24.886 E3.98894
G1 X21.543 Y24.649 E4.00574
G1 X21.353 Y24.459 E4.01700
G1 X21.187 Y24.248 E4.02825
G1 X20.993 Y23.903 E4.04480
G1 X20.863 Y23.527 E4.06147
G1 X20.812 Y23.192 E4.07564
G1 X20.452 Y22.944 F3600.000
G1 E0.57564 F1800.00000
G92 E0
G1 X20.764 Y25.000 F3600.000
G1 X20.764 Y25.000 F3600.000
G1 X24.316 Y25.423 F3600.000
G1 E3.50000 F1800.00000
G1 X24.266 Y25.235 E3.51013 F1200.000
G1 X24.458 Y25.127 E3.52161
G1 X24.710 Y24.930 E3.53833
G1 X24.936 Y24.704 E3.55506
G1 X25.250 Y24.277 E3.58271
G1 X25.423 Y24.334 E3.59222
G1 X25.423 Y25.423 E3.64911
G1 X24.376 Y25.423 E3.70381
G1 E0.20381 F1800.00000
G92 E0
G1 X23.181 Y20.005 F3600.000
G1 X21.000 Y16.292 F3600.000
G1 X22.009 Y-17.092 F3600.000
G1 X22.751 Y-17.757 F3600.000
G1 X23.059 Y-18.059 F3600.000
G1 X23.234 Y-18.240 F3600.000
G1 X23.181 Y-20.005 F3600.000
G1 X25.423 Y-24.315 F3600.000
G1 E3.50000 F1800.00000
G1 X25.242 Y-24.262 E3.50983 F1200.000
G1 X25.031 Y-24.590 E3.53022
G1 X24.711 Y-24.931 E3.55466
G1 X24.277 Y-25.250 E3.58278
G1 X24.334 Y-25.423 E3.59229
G1 X25.423 Y-25.423 E3.64917
G1 X25.423 Y-24.375 E3.70392
G1 X24.951 Y-24.017 F3600.000
G1 X25.057 Y-23.780 E3.71478 F1200.000
G1 X25.137 Y-23.524 E3.72602
G1 X25.197 Y-23.133 E3.74257
G1 X25.185 Y-22.734 E3.75926
G1 X25.099 Y-22.339 E3.77619
G1 X25.006 Y-22.097 E3.78704
G1 X24.882 Y-21.859 E3.79829
G1 X24.649 Y-21.543 E3.81471
G1 X24.459 Y-21.353 E3.82596
G1 X24.248 Y-21.187 E3.83721
G1 X23.903 Y-20.993 E3.85376
G1 X23.527 Y-20.863 E3.87043
G1 X23.133 Y-20.803 E3.88711
G1 X22.735 Y-20.815 E3.90378
G1 X22.348 Y-20.898 E3.92033
G1 X22.097 Y-20.993 E3.93158
G1 X21.859 Y-21.118 E3.94283
G1 X21.541 Y-21.353 E3.95938
G1 X21.267 Y-21.643 E3.97606
G1 X21.049 Y-21.983 E3.99299
G1 X20.943 Y-22.220 E4.00385
G1 X20.863 Y-22.476 E4.01509
G1 X20.803 Y-22.867 E4.03164
G1 X20.815 Y-23.266 E4.04833
G1 X20.901 Y-23.661 E4.06526
G1 X20.994 Y-23.903 E4.07612
G1 X21.118 Y-24.141 E4.08736
G1 X21.351 Y-24.457 E4.10378
G1 X21.541 Y-24.647 E4.11503
G1 X21.752 Y-24.813 E4.12628
G1 X22.097 Y-25.007 E4.14283
G1 X22.474 Y-25.137 E4.15952
G1 X22.874 Y-25.197 E4.17644
G1 X23.133 Y-25.196 E4.18730
G1 X23.400 Y-25.164 E4.19855
G1 X23.780 Y-25.058 E4.21509
G1 X24.139 Y-24.883 E4.23177
G1 X24.459 Y-24.647 E4.24844
G1 X24.733 Y-24.357 E4.26513
G1 X24.919 Y-24.067 E4.27955
G1 X25.210 Y-24.003 F3600.000
G1 E0.77955 F1800.00000
G92 E0
G1 X21.150 Y-20.638 F3600.000
G1 X19.975 Y-17.742 F3600.000
G1 X20.313 Y-17.275 F3600.000
G1 X20.501 Y-17.000 F3600.000
G1 X17.000 Y-17.000 F3600.000
G1 X16.996 Y-16.996 F3600.000
G1 E3.50000 F1800.00000
G1 X16.996 Y16.996 E5.27592 F1200.000
G1 X-16.996 Y16.996 E7.05184
G1 X-16.996 Y-16.996 E8.82777
G1 X16.936 Y-16.996 E10.60055
G1 X16.577 Y-16.577 F3600.000
G1 X16.577 Y16.577 E12.33271 F1200.000
G1 X-16.577 Y16.577 E14.06486
G1 X-16.577 Y-16.577 E15.79701
G1 X16.517 Y-16.577 E17.52603
G1 X16.200 Y-16.200 F3600.000
G1 X16.200 Y16.200 E18.88231 F1200.000
G1 X-16.200 Y16.200 E20.23858
G1 X-16.200 Y-16.200 E21.59486
G1 X16.140 Y-16.200 E22.94862
G1 X16.600 Y-16.200 F3600.000
G1 E19.44862 F1800.00000
G92 E0
G1 X20.765 Y-25.004 F3600.000
G1 E3.50000 F1800.00000
G1 X20.441 Y-24.564 E3.52851 F1200.000
G1 X20.266 Y-24.231 E3.54818
G1 X20.136 Y-23.888 E3.56734
G1 X20.022 Y-23.363 E3.59542
G1 X20.005 Y-22.819 E3.62386
G1 X20.085 Y-22.297 E3.65144
G1 X20.197 Y-21.937 E3.67112
G1 X20.347 Y-21.603 E3.69027
G1 X20.637 Y-21.151 E3.71835
G1 X21.010 Y-20.754 E3.74680
G1 X21.436 Y-20.441 E3.77438
G1 X21.770 Y-20.266 E3.79408
G1 X22.122 Y-20.132 E3.81379
G1 X22.638 Y-20.022 E3.84136
G1 X23.181 Y-20.005 E3.86974
G1 X23.718 Y-20.087 E3.89811
G1 X24.231 Y-20.264 E3.92648
G1 X24.691 Y-20.523 E3.95406
G1 X25.004 Y-20.768 E3.97481
G1 X25.004 Y20.765 E6.14472
G1 X24.552 Y20.432 E6.17402
G1 X24.064 Y20.195 E6.20239
G1 X23.555 Y20.053 E6.22997
G1 X23.182 Y20.008 E6.24964
G1 X22.815 Y20.007 E6.26879
G1 X22.283 Y20.086 E6.29687
G1 X21.769 Y20.264 E6.32532
G1 X21.309 Y20.523 E6.35290
G1 X21.012 Y20.756 E6.37261
G1 X20.745 Y21.023 E6.39231
G1 X20.441 Y21.436 E6.41910
G1 X20.266 Y21.770 E6.43880
G1 X20.132 Y22.122 E6.45850
G1 X20.022 Y22.638 E6.48608
G1 X20.005 Y23.181 E6.51445
G1 X20.087 Y23.718 E6.54282
G1 X20.264 Y24.231 E6.57120
G1 X20.523 Y24.691 E6.59878
G1 X20.768 Y25.004 E6.61953
G1 X-20.772 Y25.004 E8.78981
G1 X-20.368 Y24.447 E8.82575
G1 X-20.090 Y23.747 E8.86510
G1 X-19.996 Y23.000 E8.90444
G1 X-20.090 Y22.253 E8.94378
G1 X-20.368 Y21.553 E8.98312
G1 X-20.810 Y20.944 E9.02246
G1 X-21.390 Y20.464 E9.06180
G1 X-22.072 Y20.143 E9.10114
G1 X-22.811 Y20.002 E9.14048
G1 X-23.517 Y20.046 E9.17740
G1 X-24.272 Y20.277 E9.21865
G1 X-25.004 Y20.742 E9.26396
G1 X-25.004 Y-20.765 E11.43247
G1 X-24.552 Y-20.432 E11.46177
G1 X-24.078 Y-20.201 E11.48935
G1 X-23.718 Y-20.089 E11.50903
G1 X-23.357 Y-20.023 E11.52818
G1 X-22.835 Y-20.006 E11.55547
G1 X-22.460 Y-20.051 E11.57525
G1 X-22.093 Y-20.141 E11.59495
G1 X-21.606 Y-20.343 E11.62253
G1 X-21.150 Y-20.638 E11.65090
G1 X-20.754 Y-21.010 E11.67927
G1 X-20.432 Y-21.448 E11.70764
G1 X-20.201 Y-21.922 E11.73522
G1 X-20.089 Y-22.282 E11.75490
G1 X-20.023 Y-22.643 E11.77405
G1 X-20.005 Y-23.180 E11.80213
G1 X-20.087 Y-23.718 E11.83058
G1 X-20.259 Y-24.217 E11.85816
G1 X-20.434 Y-24.551 E11.87786
G1 X-20.747 Y-25.004 E11.90661
G1 X20.705 Y-25.004 E14.07226
G1 X21.734 Y-25.235 F3600.000
G1 X21.542 Y-25.127 E14.08374 F1200.000
G1 X21.290 Y-24.930 E14.10047
G1 X21.064 Y-24.704 E14.11719
G1 X20.798 Y-24.342 E14.14067
G1 X20.649 Y-24.058 E14.15737
G1 X20.539 Y-23.769 E14.17358
G1 X20.439 Y-23.312 E14.19800
G1 X20.425 Y-22.844 E14.22244
G1 X20.494 Y-22.391 E14.24638
G1 X20.589 Y-22.086 E14.26308
G1 X20.716 Y-21.803 E14.27929
G1 X20.969 Y-21.410 E14.30371
G1 X21.289 Y-21.069 E14.32815
G1 X21.658 Y-20.798 E14.35208
G1 X21.942 Y-20.649 E14.36881
G1 X22.241 Y-20.535 E14.38553
G1 X22.689 Y-20.439 E14.40947
G1 X23.156 Y-20.425 E14.43386
G1 X23.617 Y-20.495 E14.45825
G1 X24.059 Y-20.648 E14.48265
G1 X24.458 Y-20.873 E14.50658
G1 X24.710 Y-21.070 E14.52331
G1 X24.936 Y-21.296 E14.54003
G1 X25.250 Y-21.723 E14.56769
G1 X25.423 Y-21.666 E14.57720
G1 X25.423 Y21.684 E16.84204
G1 X25.235 Y21.734 E16.85216
G1 X25.127 Y21.542 E16.86364
G1 X24.930 Y21.290 E16.88037
G1 X24.704 Y21.064 E16.89709
G1 X24.335 Y20.792 E16.92103
G1 X23.915 Y20.588 E16.94542
G1 X23.473 Y20.465 E16.96936
G1 X23.156 Y20.426 E16.98606
G1 X22.846 Y20.426 E17.00227
G1 X22.383 Y20.495 E17.02669
G1 X21.941 Y20.648 E17.05113
G1 X21.542 Y20.873 E17.07506
G1 X21.290 Y21.070 E17.09179
G1 X21.064 Y21.296 E17.10851
G1 X20.798 Y21.658 E17.13199
G1 X20.649 Y21.942 E17.14871
G1 X20.535 Y22.241 E17.16544
G1 X20.439 Y22.689 E17.18937
G1 X20.425 Y23.156 E17.21376
G1 X20.495 Y23.617 E17.23816
G1 X20.648 Y24.059 E17.26255
G1 X20.873 Y24.458 E17.28649
G1 X21.070 Y24.710 E17.30321
G1 X21.297 Y24.937 E17.31998
G1 X21.725 Y25.249 E17.34766
G1 X21.668 Y25.423 E17.35719
G1 X-21.671 Y25.423 E19.62144
G1 X-21.715 Y25.226 E19.63196
G1 X-21.617 Y25.180 E19.63765
G1 X-21.118 Y24.767 E19.67146
G1 X-20.738 Y24.244 E19.70527
G1 X-20.499 Y23.642 E19.73908
G1 X-20.418 Y23.000 E19.77289
G1 X-20.499 Y22.358 E19.80671
G1 X-20.738 Y21.756 E19.84052
G1 X-21.118 Y21.233 E19.87433
G1 X-21.617 Y20.820 E19.90814
G1 X-22.202 Y20.545 E19.94195
G1 X-22.838 Y20.423 E19.97577
G1 X-23.441 Y20.461 E20.00735
G1 X-24.095 Y20.661 E20.04307
G1 X-24.646 Y21.011 E20.07714
G1 X-25.089 Y21.482 E20.11096
G1 X-25.234 Y21.747 E20.12670
G1 X-25.423 Y21.698 E20.13689
G1 X-25.423 Y-21.684 E22.40340
G1 X-25.235 Y-21.734 E22.41352
G1 X-25.127 Y-21.542 E22.42500
G1 X-24.930 Y-21.290 E22.44173
G1 X-24.704 Y-21.064 E22.45845
G1 X-24.335 Y-20.792 E22.48239
G1 X-23.923 Y-20.592 E22.50632
G1 X-23.617 Y-20.497 E22.52303
G1 X-23.312 Y-20.440 E22.53923
G1 X-22.854 Y-20.425 E22.56320
G1 X-22.535 Y-20.464 E22.57997
G1 X-22.224 Y-20.541 E22.59669
G1 X-21.801 Y-20.716 E22.62063
G1 X-21.409 Y-20.969 E22.64502
G1 X-21.069 Y-21.289 E22.66941
G1 X-20.792 Y-21.665 E22.69381
G1 X-20.592 Y-22.077 E22.71774
G1 X-20.497 Y-22.383 E22.73445
G1 X-20.440 Y-22.688 E22.75065
G1 X-20.425 Y-23.155 E22.77508
G1 X-20.495 Y-23.617 E22.79951
G1 X-20.645 Y-24.050 E22.82345
G1 X-20.794 Y-24.334 E22.84017
G1 X-20.975 Y-24.597 E22.85690
G1 X-21.289 Y-24.931 E22.88083
G1 X-21.723 Y-25.250 E22.90895
G1 X-21.666 Y-25.423 E22.91846
G1 X21.684 Y-25.423 E25.18330
G1 X21.718 Y-25.293 E25.19029
G1 E21.69029 F1800.00000
G92 E0
G1 X-20.803 Y-23.133 F3600.000
G1 E3.50000 F1800.00000
G1 X-20.817 Y-22.728 E3.51693 F1200.000
G1 X-20.864 Y-22.473 E3.52779
G1 X-20.944 Y-22.217 E3.53903
G1 X-21.117 Y-21.861 E3.55558
G1 X-21.353 Y-21.541 E3.57225
G1 X-21.643 Y-21.268 E3.58893
G1 X-21.977 Y-21.051 E3.60560
G1 X-22.342 Y-20.900 E3.62215
G1 X-22.603 Y-20.836 E3.63340
G1 X-22.870 Y-20.803 E3.64466
G1 X-23.272 Y-20.817 E3.66147
G1 X-23.527 Y-20.864 E3.67232
G1 X-23.783 Y-20.944 E3.68357
G1 X-24.139 Y-21.117 E3.70012
G1 X-24.457 Y-21.351 E3.71666
G1 X-24.647 Y-21.541 E3.72791
G1 X-24.813 Y-21.752 E3.73916
G1 X-25.007 Y-22.097 E3.75571
G1 X-25.137 Y-22.473 E3.77238
G1 X-25.197 Y-22.867 E3.78906
G1 X-25.185 Y-23.262 E3.80561
G1 X-25.136 Y-23.527 E3.81686
G1 X-25.056 Y-23.783 E3.82811
G1 X-24.883 Y-24.139 E3.84465
G1 X-24.647 Y-24.459 E3.86133
G1 X-24.360 Y-24.730 E3.87788
G1 X-24.138 Y-24.883 E3.88913
G1 X-23.900 Y-25.008 E3.90038
G1 X-23.526 Y-25.137 E3.91694
G1 X-23.126 Y-25.197 E3.93386
G1 X-22.867 Y-25.196 E3.94472
G1 X-22.600 Y-25.164 E3.95597
G1 X-22.220 Y-25.058 E3.97252
G1 X-21.861 Y-24.883 E3.98919
G1 X-21.541 Y-24.647 E4.00586
G1 X-21.270 Y-24.360 E4.02241
G1 X-21.117 Y-24.138 E4.03366
G1 X-20.992 Y-23.900 E4.04491
G1 X-20.863 Y-23.527 E4.06146
G1 X-20.812 Y-23.192 E4.07563
G1 X-20.451 Y-22.942 F3600.000
G1 E0.57563 F1800.00000
G92 E0
G1 X-20.764 Y-25.000 F3600.000
G1 X-20.764 Y-25.000 F3600.000
G1 X-24.276 Y-25.246 F3600.000
G1 E3.50000 F1800.00000
G1 X-24.597 Y-25.025 E3.52038 F1200.000
G1 X-24.931 Y-24.711 E3.54431
G1 X-25.250 Y-24.277 E3.57243
G1 X-25.423 Y-24.334 E3.58194
G1 X-25.423 Y-25.423 E3.63882
G1 X-24.331 Y-25.423 E3.69584
G1 X-24.294 Y-25.303 E3.70237
G1 X-25.800 Y-25.800 F3600.000
G1 X25.800 Y-25.800 E5.86236 F1200.000
G1 X25.800 Y25.800 E8.02235
G1 X-25.800 Y25.800 E10.18235
G1 X-25.800 Y-25.740 E12.33983
G1 X-25.454 Y-25.600 F3600.000
G1 X-24.120 Y-25.378 F3600.000
G1 X-23.620 Y-25.462 E12.36630 F1200.000
G1 X-23.157 Y-25.498 E12.39056
G1 X-22.528 Y-25.478 E12.42346
G1 X-22.074 Y-25.415 E12.44740
G1 X-21.979 Y-25.190 E12.46016
G1 X-21.888 Y-25.121 E12.46611
G1 E8.96611 F1800.00000
G92 E0
G1 X-20.764 Y-25.000 F3600.000
G1 X-20.764 Y-25.000 F3600.000
G1 X-25.121 Y-24.112 F3600.000
G1 E3.50000 F1800.00000
G1 X-25.190 Y-24.021 E3.50594 F1200.000
G1 X-25.415 Y-23.926 E3.51871
G1 X-25.464 Y-23.598 E3.53602
G1 X-25.492 Y-23.286 E3.55241
G1 X-25.498 Y-22.839 E3.57577
G1 X-25.462 Y-22.379 E3.59985
G1 X-25.380 Y-21.891 E3.62573
G1 E0.12573 F1800.00000
G92 E0
G1 X-17.243 Y-16.945 F3600.000
G1 E3.50000 F1800.00000
G1 X-20.891 Y-20.593 E3.76961 F1200.000
G1 X-21.226 Y-20.335 E3.79169
G1 X-17.243 Y-16.352 E4.08605
G1 X-17.243 Y-15.760 E4.11702
G1 X-21.594 Y-20.110 E4.43857
G1 X-22.013 Y-19.937 E4.46227
