; generated by Slic3r 1.2.9 on 2016-06-01 at 13:08:36

; external perimeters extrusion width = 0.40mm
; perimeters extrusion width = 0.67mm
; infill extrusion width = 0.67mm
; solid infill extrusion width = 0.67mm
; top infill extrusion width = 0.67mm

M107
M190 S60 ; set bed temperature
M104 S200 ; set temperature
G28 ; home all axes

M109 S200 ; wait for temperature to be reached
G21 ; set units to millimeters
G90 ; use absolute coordinates
M82 ; use absolute distances for extrusion
G92 E0
G1 E-4.00000 F4800.00000
G92 E0
G1 Z1.000 F3600.000
G1 X0.000 Y8.013 F3600.000
G1 Z0.300 F3600.000
G1 E4.00000 F4800.00000
G1 X-5.000 Y8.013 E4.26122 F938.625
G1 X-7.411 Y7.616 E4.38888
G1 X-9.567 Y6.466 E4.51654
G1 X-11.240 Y4.685 E4.64420
G1 X-12.253 Y2.461 E4.77186
G1 X-12.513 Y0.500 E4.87523
G1 X-12.513 Y-2.500 E5.03197
G1 X-12.116 Y-4.911 E5.15963
G1 X-10.966 Y-7.067 E5.28728
G1 X-9.185 Y-8.740 E5.41494
G1 X-6.961 Y-9.753 E5.54260
G1 X-5.000 Y-10.013 E5.64597
G1 X5.000 Y-10.013 E6.16842
G1 X7.411 Y-9.616 E6.29608
G1 X9.567 Y-8.466 E6.42374 F938.625
G1 X11.240 Y-6.685 E6.55140
G1 X12.253 Y-4.461 E6.67906
G1 X12.513 Y-2.500 E6.78243
G1 X12.513 Y0.500 E6.93916
G1 X12.116 Y2.911 E7.06682
G1 X10.966 Y5.067 E7.19448
G1 X9.185 Y6.740 E7.32214
G1 X6.961 Y7.753 E7.44980
G1 X5.000 Y8.013 E7.55317
G1 X0.060 Y8.013 E7.81126
G1 X0.000 Y7.594 F3600.000
G1 X-5.000 Y7.594 E8.07248 F938.625
G1 X-7.340 Y7.197 E8.19651
G1 X-9.419 Y6.050 E8.32053
G1 X-11.002 Y4.282 E8.44456
G1 X-11.914 Y2.090 E8.56858
G1 X-12.094 Y0.500 E8.65217
G1 X-12.094 Y-2.500 E8.80890
G1 X-11.697 Y-4.840 E8.93293
G1 X-10.550 Y-6.919 E9.05696
G1 X-8.782 Y-8.502 E9.18098
G1 X-6.590 Y-9.414 E9.30501
G1 X-5.000 Y-9.594 E9.38859
G1 X5.000 Y-9.594 E9.91104
G1 X7.340 Y-9.197 E10.03507
G1 X9.419 Y-8.050 E10.15909 F938.625
G1 X11.002 Y-6.282 E10.28312
G1 X11.914 Y-4.090 E10.40714
G1 X12.094 Y-2.500 E10.49073
G1 X12.094 Y0.500 E10.64746
G1 X11.697 Y2.840 E10.77149
G1 X10.550 Y4.919 E10.89551
G1 X8.782 Y6.502 E11.01954
G1 X6.590 Y7.414 E11.14356
G1 X5.000 Y7.594 E11.22715
G1 X0.060 Y7.594 E11.48524
G1 X0.000 Y7.176 F3600.000
G1 X-5.000 Y7.176 E11.74646 F938.625
G1 X-7.268 Y6.779 E11.86675
G1 X-9.266 Y5.635 E11.98703
G1 X-10.756 Y3.880 E12.10731
G1 X-11.562 Y1.724 E12.22759
G1 X-11.676 Y0.500 E12.29179
G1 X-11.676 Y-2.500 E12.44852
G1 X-11.279 Y-4.768 E12.56881
G1 X-10.135 Y-6.766 E12.68909
G1 X-8.380 Y-8.256 E12.80937
G1 X-6.224 Y-9.062 E12.92965
G1 X-5.000 Y-9.176 E12.99385
G1 X5.000 Y-9.176 E13.51630
G1 X7.268 Y-8.779 E13.63658
G1 X9.266 Y-7.635 E13.75686 F938.625
G1 X10.756 Y-5.880 E13.87714
G1 X11.562 Y-3.724 E13.99742
G1 X11.676 Y-2.500 E14.06162
G1 X11.676 Y0.500 E14.21836
G1 X11.279 Y2.768 E14.33864
G1 X10.135 Y4.766 E14.45892
G1 X8.380 Y6.256 E14.57920
G1 X6.224 Y7.062 E14.69949
G1 X5.000 Y7.176 E14.76368
G1 X0.060 Y7.176 E15.02177
G1 X0.000 Y6.757 F3600.000
G1 X-5.000 Y6.757 E15.28300 F938.625
G1 X-7.193 Y6.360 E15.39942
G1 X-9.107 Y5.220 E15.51583
G1 X-10.501 Y3.481 E15.63225
G1 X-11.257 Y0.500 E15.79292
G1 X-11.257 Y-2.500 E15.94966
G1 X-10.860 Y-4.693 E16.06607
G1 X-9.720 Y-6.607 E16.18249
G1 X-7.981 Y-8.001 E16.29891
G1 X-5.000 Y-8.757 E16.45958
G1 X5.000 Y-8.757 E16.98203
G1 X7.193 Y-8.360 E17.09844
G1 X9.107 Y-7.220 E17.21486 F938.625
G1 X10.501 Y-5.481 E17.33128
G1 X11.257 Y-2.500 E17.49195
G1 X11.257 Y0.500 E17.64868
G1 X10.860 Y2.693 E17.76510
G1 X9.720 Y4.607 E17.88152
G1 X7.981 Y6.001 E17.99794
G1 X5.000 Y6.757 E18.15861
G1 X0.060 Y6.757 E18.41670
G1 X0.000 Y6.338 F3600.000
G1 X-5.000 Y6.338 E18.67792 F938.625
G1 X-7.115 Y5.941 E18.79034
G1 X-8.943 Y4.805 E18.90276
G1 X-10.234 Y3.085 E19.01518
G1 X-10.838 Y0.500 E19.15384
G1 X-10.838 Y-2.500 E19.31058
G1 X-10.441 Y-4.615 E19.42300
G1 X-9.305 Y-6.443 E19.53542
G1 X-7.585 Y-7.734 E19.64784
G1 X-5.000 Y-8.338 E19.78650
G1 X5.000 Y-8.338 E20.30894
G1 X7.115 Y-7.941 E20.42136
G1 X8.943 Y-6.805 E20.53378 F938.625
G1 X10.234 Y-5.085 E20.64620
G1 X10.838 Y-2.500 E20.78486
G1 X10.838 Y0.500 E20.94160
G1 X10.441 Y2.615 E21.05402
G1 X9.305 Y4.443 E21.16644
G1 X7.585 Y5.734 E21.27886
G1 X5.000 Y6.338 E21.41752
G1 X0.060 Y6.338 E21.67561
G1 X0.000 Y5.919 F3600.000
G1 X-5.000 Y5.919 E21.93683 F938.625
G1 X-7.034 Y5.523 E22.04511
G1 X-8.771 Y4.392 E22.15339
G1 X-9.956 Y2.691 E22.26166
G1 X-10.419 Y0.500 E22.37868
G1 X-10.419 Y-2.500 E22.53541
G1 X-10.023 Y-4.534 E22.64369
G1 X-8.892 Y-6.271 E22.75196
G1 X-7.191 Y-7.456 E22.86024
G1 X-5.000 Y-7.919 E22.97726
G1 X5.000 Y-7.919 E23.49971
G1 X7.034 Y-7.523 E23.60798
G1 X8.771 Y-6.392 E23.71626 F938.625
G1 X9.956 Y-4.691 E23.82453
G1 X10.419 Y-2.500 E23.94155
G1 X10.419 Y0.500 E24.09828
G1 X10.023 Y2.534 E24.20656
G1 X8.892 Y4.271 E24.31484
G1 X7.191 Y5.456 E24.42311
G1 X5.000 Y5.919 E24.54013
G1 X0.060 Y5.919 E24.79822
G1 F2880
G1 X-2.340 Y5.919 E20.99822
G1 E20.79822 F4800.00000
G92 E0
G1 Z1.300 F3600.000
G1 X-4.004 Y-0.496 F3600.000
G1 Z0.300 F3600.000
G1 E4.00000 F4800.00000
G1 X-4.004 Y-1.504 E4.05265 F938.625
G1 X4.004 Y-1.504 E4.47101
G1 X4.004 Y-0.496 E4.52366
G1 X-3.944 Y-0.496 E4.93889
G1 X-4.423 Y-0.077 F3600.000
G1 X-4.423 Y-1.923 E5.03531 F938.625
G1 X4.423 Y-1.923 E5.49744
G1 X4.423 Y-0.077 E5.59386
G1 X-4.363 Y-0.077 E6.05286
G1 X-4.800 Y0.300 F3600.000
G1 X-4.800 Y-2.300 E6.16169 F938.625
G1 X4.800 Y-2.300 E6.56355
G1 X4.800 Y0.300 E6.67239
G1 X-4.740 Y0.300 E7.07174
G1 X-4.600 Y-0.046 F3600.000
G1 X-3.794 Y-1.000 F3600.000
G1 X3.794 Y-1.000 E7.92563 F938.625
M106 S255
G1 F2880
G1 X1.394 Y-1.000 E4.12563
G1 E3.92563 F4800.00000
G92 E0
G1 Z1.300 F3600.000
G1 X-4.307 Y-0.193 F3600.000
G1 Z0.500 F3600.000
G1 E4.00000 F4800.00000
G1 X-4.307 Y-1.807 E4.08435 F600.000
G1 X4.307 Y-1.807 E4.53442
G1 X4.307 Y-0.193 E4.61878
G1 X-4.247 Y-0.193 E5.06571
G1 X-4.800 Y0.300 F3600.000
G1 X-4.800 Y-2.300 E5.14291 F600.000
G1 X4.800 Y-2.300 E5.42795
G1 X4.800 Y0.300 E5.50514
G1 X-4.740 Y0.300 E5.78840
G1 X-4.600 Y-0.046 F3600.000
G1 X-3.993 Y-1.000 F3600.000
G1 X3.993 Y-1.000 E6.65138 F600.000
G1 F2880
G1 X1.593 Y-1.000 E2.85138
G1 E2.65138 F4800.00000
G92 E0
G1 Z1.500 F3600.000
G1 X-4.307 Y-0.193 F3600.000
G1 Z0.700 F3600.000
G1 E4.00000 F4800.00000
G1 X-4.307 Y-1.807 E4.08435 F600.000
G1 X4.307 Y-1.807 E4.53442
G1 X4.307 Y-0.193 E4.61878
G1 X-4.247 Y-0.193 E5.06571
G1 X-4.800 Y0.300 F3600.000
G1 X-4.800 Y-2.300 E5.14291 F600.000
G1 X4.800 Y-2.300 E5.42795
G1 X4.800 Y0.300 E5.50514
G1 X-4.740 Y0.300 E5.78840
G1 X-4.600 Y-0.046 F3600.000
G1 X-3.993 Y-1.000 F3600.000
G1 X3.993 Y-1.000 E6.65138 F600.000
G1 F2880
G1 X1.593 Y-1.000 E2.85138
G1 E2.65138 F4800.00000
G92 E0
G1 Z1.700 F3600.000
G1 X-4.307 Y-0.193 F3600.000
G1 Z0.900 F3600.000
G1 E4.00000 F4800.00000
G1 X-4.307 Y-1.807 E4.08435 F600.000
G1 X4.307 Y-1.807 E4.53442
G1 X4.307 Y-0.193 E4.61878
G1 X-4.247 Y-0.193 E5.06571
G1 X-4.800 Y0.300 F3600.000
G1 X-4.800 Y-2.300 E5.14291 F600.000
G1 X4.800 Y-2.300 E5.42795
G1 X4.800 Y0.300 E5.50514
G1 X-4.740 Y0.300 E5.78840
G1 X-4.600 Y-0.046 F3600.000
G1 X-3.993 Y-1.000 F3600.000
G1 X3.993 Y-1.000 E6.65138 F600.000
G1 F2880
G1 X1.593 Y-1.000 E2.85138
G1 E2.65138 F4800.00000
G92 E0
G1 Z1.900 F3600.000
G1 X-4.307 Y-0.193 F3600.000
G1 Z1.100 F3600.000
G1 E4.00000 F4800.00000
G1 X-4.307 Y-1.807 E4.08435 F600.000
G1 X4.307 Y-1.807 E4.53442
G1 X4.307 Y-0.193 E4.61878
G1 X-4.247 Y-0.193 E5.06571
G1 X-4.800 Y0.300 F3600.000
G1 X-4.800 Y-2.300 E5.14291 F600.000
G1 X4.800 Y-2.300 E5.42795
G1 X4.800 Y0.300 E5.50514
G1 X-4.740 Y0.300 E5.78840
G1 X-4.600 Y-0.046 F3600.000
G1 X-3.993 Y-1.000 F3600.000
G1 X3.993 Y-1.000 E6.65138 F600.000
G1 F2880
G1 X1.593 Y-1.000 E2.85138
G1 E2.65138 F4800.00000
G92 E0
G1 Z2.100 F3600.000
G1 X-4.307 Y-0.193 F3600.000
G1 Z1.300 F3600.000
G1 E4.00000 F4800.00000
G1 X-4.307 Y-1.807 E4.08435 F600.000
G1 X4.307 Y-1.807 E4.53442
G1 X4.307 Y-0.193 E4.61878
G1 X-4.247 Y-0.193 E5.06571
G1 X-4.800 Y0.300 F3600.000
G1 X-4.800 Y-2.300 E5.14291 F600.000
G1 X4.800 Y-2.300 E5.42795
G1 X4.800 Y0.300 E5.50514
G1 X-4.740 Y0.300 E5.78840
G1 X-4.600 Y-0.046 F3600.000
G1 X-3.993 Y-1.000 F3600.000
G1 X3.993 Y-1.000 E6.65138 F600.000
G1 F2880
G1 X1.593 Y-1.000 E2.85138
G1 E2.65138 F4800.00000
G92 E0
G1 Z2.300 F3600.000
G1 X-4.307 Y-0.193 F3600.000
G1 Z1.500 F3600.000
G1 E4.00000 F4800.00000
G1 X-4.307 Y-1.807 E4.08435 F600.000
G1 X4.307 Y-1.807 E4.53442
G1 X4.307 Y-0.193 E4.61878
G1 X-4.247 Y-0.193 E5.06571
G1 X-4.800 Y0.300 F3600.000
G1 X-4.800 Y-2.300 E5.14291 F600.000
G1 X4.800 Y-2.300 E5.42795
G1 X4.800 Y0.300 E5.50514
G1 X-4.740 Y0.300 E5.78840
G1 X-4.600 Y-0.046 F3600.000
G1 X-3.993 Y-1.000 F3600.000
G1 X3.993 Y-1.000 E6.65138 F600.000
G1 F2880
G1 X1.593 Y-1.000 E2.85138
G1 E2.65138 F4800.00000
G92 E0
G1 Z2.500 F3600.000
G1 X-4.307 Y-0.193 F3600.000
G1 Z1.700 F3600.000
G1 E4.00000 F4800.00000
G1 X-4.307 Y-1.807 E4.08435 F600.000
G1 X4.307 Y-1.807 E4.53442
G1 X4.307 Y-0.193 E4.61878
G1 X-4.247 Y-0.193 E5.06571
G1 X-4.800 Y0.300 F3600.000
G1 X-4.800 Y-2.300 E5.14291 F600.000
G1 X4.800 Y-2.300 E5.42795
G1 X4.800 Y0.300 E5.50514
G1 X-4.740 Y0.300 E5.78840
G1 X-4.600 Y-0.046 F3600.000
G1 X-3.993 Y-1.000 F3600.000
G1 X3.993 Y-1.000 E6.65138 F600.000
G1 F2880
G1 X1.593 Y-1.000 E2.85138
G1 E2.65138 F4800.00000
G92 E0
G1 Z2.700 F3600.000
G1 X-4.307 Y-0.193 F3600.000
G1 Z1.900 F3600.000
G1 E4.00000 F4800.00000
G1 X-4.307 Y-1.807 E4.08435 F600.000
G1 X4.307 Y-1.807 E4.53442
G1 X4.307 Y-0.193 E4.61878
G1 X-4.247 Y-0.193 E5.06571
G1 X-4.800 Y0.300 F3600.000
G1 X-4.800 Y-2.300 E5.14291 F600.000
G1 X4.800 Y-2.300 E5.42795
G1 X4.800 Y0.300 E5.50514
G1 X-4.740 Y0.300 E5.78840
G1 X-4.600 Y-0.046 F3600.000
G1 X-3.993 Y-1.000 F3600.000
G1 X3.993 Y-1.000 E6.65138 F600.000
G1 F2880
G1 X1.593 Y-1.000 E2.85138
G1 E2.65138 F4800.00000
G92 E0
G1 Z2.900 F3600.000
G1 X-4.307 Y-0.193 F3600.000
G1 Z2.100 F3600.000
G1 E4.00000 F4800.00000
G1 X-4.307 Y-1.807 E4.08435 F600.000
G1 X4.307 Y-1.807 E4.53442
G1 X4.307 Y-0.193 E4.61878
G1 X-4.247 Y-0.193 E5.06571
G1 X-4.800 Y0.300 F3600.000
G1 X-4.800 Y-2.300 E5.14291 F600.000
G1 X4.800 Y-2.300 E5.42795
G1 X4.800 Y0.300 E5.50514
G1 X-4.740 Y0.300 E5.78840
G1 X-4.600 Y-0.046 F3600.000
G1 X-3.993 Y-1.000 F3600.000
G1 X3.993 Y-1.000 E6.65138 F600.000
G1 F2880
G1 X1.593 Y-1.000 E2.85138
G1 E2.65138 F4800.00000
G92 E0
G1 Z3.100 F3600.000
G1 X-4.307 Y-0.193 F3600.000
G1 Z2.300 F3600.000
G1 E4.00000 F4800.00000
G1 X-4.307 Y-1.807 E4.08435 F600.000
G1 X4.307 Y-1.807 E4.53442
G1 X4.307 Y-0.193 E4.61878
G1 X-4.247 Y-0.193 E5.06571
G1 X-4.800 Y0.300 F3600.000
G1 X-4.800 Y-2.300 E5.14291 F600.000
G1 X4.800 Y-2.300 E5.42795
G1 X4.800 Y0.300 E5.50514
G1 X-4.740 Y0.300 E5.78840
G1 X-4.600 Y-0.046 F3600.000
G1 X-3.993 Y-1.000 F3600.000
G1 X3.993 Y-1.000 E6.65138 F600.000
G1 F2880
G1 X1.593 Y-1.000 E2.85138
G1 E2.65138 F4800.00000
G92 E0
G1 Z3.300 F3600.000
G1 X-4.307 Y-0.193 F3600.000
G1 Z2.500 F3600.000
G1 E4.00000 F4800.00000
G1 X-4.307 Y-1.807 E4.08435 F600.000
G1 X4.307 Y-1.807 E4.53442
G1 X4.307 Y-0.193 E4.61878
G1 X-4.247 Y-0.193 E5.06571
G1 X-4.800 Y0.300 F3600.000
G1 X-4.800 Y-2.300 E5.14291 F600.000
G1 X4.800 Y-2.300 E5.42795
G1 X4.800 Y0.300 E5.50514
G1 X-4.740 Y0.300 E5.78840
G1 X-4.600 Y-0.046 F3600.000
G1 X-3.993 Y-1.000 F3600.000
G1 X3.993 Y-1.000 E6.65138 F600.000
G1 F2880
G1 X1.593 Y-1.000 E2.85138
G1 E2.65138 F4800.00000
G92 E0
G1 Z3.500 F3600.000
G1 X-4.307 Y-0.193 F3600.000
G1 Z2.700 F3600.000
G1 E4.00000 F4800.00000
G1 X-4.307 Y-1.807 E4.08435 F600.000
G1 X4.307 Y-1.807 E4.53442
G1 X4.307 Y-0.193 E4.61878
G1 X-4.247 Y-0.193 E5.06571
G1 X-4.800 Y0.300 F3600.000
G1 X-4.800 Y-2.300 E5.14291 F600.000
G1 X4.800 Y-2.300 E5.42795
G1 X4.800 Y0.300 E5.50514
G1 X-4.740 Y0.300 E5.78840
G1 X-4.600 Y-0.046 F3600.000
G1 X-3.993 Y-1.000 F3600.000
G1 X3.993 Y-1.000 E6.65138 F600.000
G1 F2880
G1 X1.593 Y-1.000 E2.85138
G1 E2.65138 F4800.00000
G92 E0
G1 Z3.700 F3600.000
G1 X-4.307 Y-0.193 F3600.000
G1 Z2.900 F3600.000
G1 E4.00000 F4800.00000
G1 X-4.307 Y-1.807 E4.08435 F600.000
G1 X4.307 Y-1.807 E4.53442
G1 X4.307 Y-0.193 E4.61878
G1 X-4.247 Y-0.193 E5.06571
G1 X-4.800 Y0.300 F3600.000
G1 X-4.800 Y-2.300 E5.14291 F600.000
G1 X4.800 Y-2.300 E5.42795
G1 X4.800 Y0.300 E5.50514
G1 X-4.740 Y0.300 E5.78840
G1 X-4.600 Y-0.046 F3600.000
G1 X-3.993 Y-1.000 F3600.000
G1 X3.993 Y-1.000 E6.65138 F600.000
G1 F2880
G1 X1.593 Y-1.000 E2.85138
G1 E2.65138 F4800.00000
G92 E0
G1 Z3.900 F3600.000
G1 X-3.679 Y-1.179 F3600.000
G1 Z3.100 F3600.000
G1 E4.00000 F4800.00000
G1 X3.679 Y-1.179 E4.38442 F600.000
G1 X3.679 Y0.700 E4.48258
M106 S255
G1 X3.679 Y1.179 E4.50761 F300.000
G1 X-3.679 Y1.179 E4.89202
G1 X-3.679 Y0.700 E4.91705
M106 S255
G1 X-3.679 Y-1.119 E5.01208 F600.000
G1 X-4.307 Y-1.807 F3600.000
G1 X4.307 Y-1.807 E5.46215 F600.000
G1 X4.307 Y0.700 E5.59314
M106 S255
G1 X4.307 Y1.807 E5.65099 F300.000
G1 X-4.307 Y1.807 E6.10106
G1 X-4.307 Y0.700 E6.15891
M106 S255
G1 X-4.307 Y-1.747 E6.28677 F600.000
G1 X-4.800 Y-2.300 F3600.000
G1 X4.800 Y-2.300 E6.57181 F600.000
G1 X4.800 Y0.700 E6.66088
M106 S255
G1 X4.800 Y2.300 E6.74448 F300.000
G1 X-4.800 Y2.300 E7.24603
G1 X-4.800 Y0.700 E7.32962
M106 S255
G1 X-4.800 Y-2.240 E7.41691 F600.000
G1 X-4.454 Y-2.100 F3600.000
G1 F2880
G1 X-2.400 Y-2.255 E3.61691
G1 E3.41691 F4800.00000
G92 E0
G1 Z4.100 F3600.000
G1 X-2.871 Y0.766 F3600.000
G1 Z3.100 F3600.000
G1 E4.00000 F4800.00000
M106 S255
G1 X-3.389 Y0.721 E4.03537 F1570.246
G1 X-3.389 Y0.212 E4.06998
G1 X2.941 Y0.766 E4.50252
G1 X3.389 Y0.296 E4.54665
G1 X-3.389 Y-0.296 E5.00974
G1 X-2.941 Y-0.766 E5.05387
G1 X3.389 Y-0.212 E5.48641
G1 X2.871 Y-0.766 E5.53801
G1 X3.389 Y-0.721 E5.57337
M106 S255
G1 F2880
G1 X2.871 Y-0.766 E4.75073
G1 F2880
G1 X3.389 Y-0.212 E3.55054
G1 F2880
G1 X2.270 Y-0.310 E1.77337
G1 E1.57337 F4800.00000
G92 E0
G1 Z4.100 F3600.000
G1 X-3.679 Y-1.179 F3600.000
G1 Z3.300 F3600.000
G1 E4.00000 F4800.00000
G1 X3.679 Y-1.179 E4.38442 F600.000
G1 X3.679 Y1.179 E4.50761
G1 X-3.679 Y1.179 E4.89202
G1 X-3.679 Y-1.119 E5.01208
G1 X-4.307 Y-1.807 F3600.000
G1 X4.307 Y-1.807 E5.46215 F600.000
G1 X4.307 Y1.807 E5.65099
G1 X-4.307 Y1.807 E6.10106
G1 X-4.307 Y-1.747 E6.28677
G1 X-4.800 Y-2.300 F3600.000
G1 X4.800 Y-2.300 E6.57181 F600.000
G1 X4.800 Y2.300 E6.70839
G1 X-4.800 Y2.300 E6.99343
G1 X-4.800 Y-2.240 E7.12822
G1 X-4.454 Y-2.100 F3600.000
G1 F2880
G1 X-2.400 Y-2.255 E3.32822
G1 E3.12822 F4800.00000
G92 E0
G1 Z4.300 F3600.000
G1 X-2.992 Y-0.798 F3600.000
G1 Z3.300 F3600.000
G1 E4.00000 F4800.00000
G1 X-3.298 Y-0.492 E4.02415 F968.976
G1 X-3.298 Y0.456 E4.07693
G1 X-2.044 Y-0.798 E4.17573
G1 X-1.097 Y-0.798 E4.22851
G1 X-2.693 Y0.798 E4.35428
G1 X-1.746 Y0.798 E4.40706
G1 X-0.149 Y-0.798 E4.53283
G1 X0.798 Y-0.798 E4.58561
G1 X-0.798 Y0.798 E4.71138
G1 X0.149 Y0.798 E4.76416
G1 X1.746 Y-0.798 E4.88993
G1 X2.693 Y-0.798 E4.94272
G1 X1.097 Y0.798 E5.06849
G1 X2.044 Y0.798 E5.12127
G1 X3.298 Y-0.456 E5.22006
G1 X3.298 Y0.492 E5.27284
G1 X2.992 Y0.798 E5.29700
G1 F2880
G1 X3.298 Y0.492 E4.61053
G1 F2880
G1 X3.298 Y-0.456 E3.11037
G1 F2880
G1 X2.578 Y0.265 E1.49700
G1 E1.29700 F4800.00000
G92 E0
G1 Z4.300 F3600.000
G1 X-3.679 Y-1.179 F3600.000
G1 Z3.500 F3600.000
G1 E4.00000 F4800.00000
G1 X3.679 Y-1.179 E4.38442 F600.000
G1 X3.679 Y1.179 E4.50761
G1 X-3.679 Y1.179 E4.89202
G1 X-3.679 Y-1.119 E5.01208
G1 X-4.307 Y-1.807 F3600.000
G1 X4.307 Y-1.807 E5.46215 F600.000
G1 X4.307 Y1.807 E5.65099
G1 X-4.307 Y1.807 E6.10106
G1 X-4.307 Y-1.747 E6.28677
G1 X-4.800 Y-2.300 F3600.000
G1 X4.800 Y-2.300 E6.57181 F600.000
G1 X4.800 Y2.300 E6.70839
G1 X-4.800 Y2.300 E6.99343
G1 X-4.800 Y-2.240 E7.12822
G1 X-4.454 Y-2.100 F3600.000
G1 F2880
G1 X-2.400 Y-2.255 E3.32822
G1 E3.12822 F4800.00000
G92 E0
G1 Z4.500 F3600.000
G1 X-3.298 Y0.492 F3600.000
G1 Z3.500 F3600.000
G1 E4.00000 F4800.00000
G1 X-2.992 Y0.798 E4.02415 F967.966
G1 X-2.044 Y0.798 E4.07693
G1 X-3.298 Y-0.456 E4.17573
G1 X-2.693 Y-0.798 E4.21446
G1 X-1.097 Y0.798 E4.34023
G1 X-0.149 Y0.798 E4.39301
G1 X-1.746 Y-0.798 E4.51878
G1 X-0.798 Y-0.798 E4.57156
G1 X0.798 Y0.798 E4.69733
G1 X1.746 Y0.798 E4.75011
G1 X0.149 Y-0.798 E4.87588
G1 X1.097 Y-0.798 E4.92866
G1 X2.693 Y0.798 E5.05443
G1 X3.298 Y0.456 E5.09316
G1 X2.044 Y-0.798 E5.19196
