; generated by Slic3r 1.2.9 on 2016-02-12 at 12:18:26

; external perimeters extrusion width = 0.40mm
; perimeters extrusion width = 0.67mm
; infill extrusion width = 0.67mm
; solid infill extrusion width = 0.67mm
; top infill extrusion width = 0.67mm

M107
M104 S210 ; set temperature
G28 ; home all axes
G1 X70Y70Z10 F5000 
M109 S210 ; wait for temperature to be reached
G21 ; set units to millimeters
G90 ; use absolute coordinates
M82 ; use absolute distances for extrusion
G92 E0
G1 E-3.50000 F1800.00000
G92 E0
G1 Z0.300 F6000.000
G1 X1.952 Y30.356 F6000.000
G1 E3.50000 F1800.00000
G1 X-24.048 Y30.156 E4.85841 F2045.916
G1 X-26.238 Y29.743 E4.97482
G1 X-28.143 Y28.588 E5.09124
G1 X-29.524 Y26.839 E5.20766
G1 X-30.257 Y23.900 E5.36589
G1 X-30.257 Y-24.100 E7.87365
G1 X-29.860 Y-26.293 E7.99006
G1 X-28.720 Y-28.207 E8.10648
G1 X-26.981 Y-29.601 E8.22290
G1 X-24.000 Y-30.357 E8.38357
G1 X-1.952 Y-30.356 E9.53547
G1 X24.048 Y-30.156 E10.89388
G1 X26.238 Y-29.743 E11.01030
G1 X28.143 Y-28.588 E11.12671
G1 X29.524 Y-26.839 E11.24313
G1 X30.257 Y-23.900 E11.40136
G1 X30.257 Y24.100 E13.90912
G1 X29.860 Y26.293 E14.02553
G1 X28.720 Y28.207 E14.14195
G1 X26.981 Y29.601 E14.25837
G1 X24.000 Y30.357 E14.41904
G1 X2.012 Y30.357 E15.56781
G1 X1.955 Y29.938 F6000.000
G1 X-24.045 Y29.738 E16.92621 F2045.916
G1 X-26.157 Y29.325 E17.03863
G1 X-27.976 Y28.175 E17.15105
G1 X-29.254 Y26.444 E17.26348
G1 X-29.838 Y23.900 E17.39985
G1 X-29.838 Y-24.100 E19.90760
G1 X-29.441 Y-26.215 E20.02002
G1 X-28.305 Y-28.043 E20.13244
G1 X-26.585 Y-29.334 E20.24486
G1 X-24.000 Y-29.938 E20.38352
G1 X-1.955 Y-29.938 E21.53526
G1 X24.045 Y-29.738 E22.89367
G1 X26.157 Y-29.325 E23.00609
G1 X27.976 Y-28.175 E23.11851
G1 X29.254 Y-26.444 E23.23093
G1 X29.838 Y-23.900 E23.36730
G1 X29.838 Y24.100 E25.87506
G1 X29.441 Y26.215 E25.98748
G1 X28.305 Y28.043 E26.09990
G1 X26.585 Y29.334 E26.21232
G1 X24.000 Y29.938 E26.35098
G1 X2.015 Y29.938 E27.49958
G1 X1.958 Y29.519 F6000.000
G1 X-24.042 Y29.319 E28.85798 F2045.916
G1 X-26.073 Y28.907 E28.96626
G1 X-27.801 Y27.762 E29.07453
G1 X-28.973 Y26.053 E29.18281
G1 X-29.419 Y23.900 E29.29770
G1 X-29.419 Y-24.100 E31.80545
G1 X-29.023 Y-26.134 E31.91373
G1 X-27.892 Y-27.871 E32.02200
G1 X-26.191 Y-29.056 E32.13028
G1 X-24.000 Y-29.519 E32.24729
G1 X-1.958 Y-29.519 E33.39886
G1 X24.042 Y-29.319 E34.75727
G1 X26.073 Y-28.907 E34.86554
G1 X27.801 Y-27.762 E34.97382
G1 X28.973 Y-26.053 E35.08209
G1 X29.419 Y-23.900 E35.19698
G1 X29.419 Y24.100 E37.70474
G1 X29.023 Y26.134 E37.81301
G1 X27.892 Y27.871 E37.92129
G1 X26.191 Y29.056 E38.02956
G1 X24.000 Y29.519 E38.14658
G1 X2.018 Y29.519 E39.29501
G1 E35.79501 F1800.00000
G92 E0
G1 X18.504 Y19.596 F6000.000
G1 E3.50000 F1800.00000
G1 X18.504 Y-19.396 E5.53715 F2045.916
G1 X21.996 Y-19.396 E5.71960
G1 X21.996 Y19.596 E7.75675
G1 X18.564 Y19.596 E7.93606
G1 X18.923 Y19.177 F6000.000
G1 X18.923 Y-18.977 E9.92944 F2045.916
G1 X21.577 Y-18.977 E10.06813
G1 X21.577 Y19.177 E12.06150
G1 X18.983 Y19.177 E12.19705
G1 X19.300 Y18.800 F6000.000
G1 X19.300 Y-18.600 E13.76263 F600.000
G1 X21.200 Y-18.600 E13.84216
G1 X21.200 Y18.800 E15.40774
G1 X19.360 Y18.800 E15.48476
G1 X18.900 Y18.800 F6000.000
G1 E11.98476 F1800.00000
G92 E0
G1 X7.496 Y19.596 F6000.000
G1 E3.50000 F1800.00000
G1 X4.004 Y19.596 E3.68245 F2045.916
G1 X4.004 Y13.196 E4.01682
G1 X3.254 Y13.196 E4.05600
G1 X3.254 Y2.574 E4.61096
G1 X4.004 Y2.574 E4.65015
G1 X4.004 Y-19.396 E5.79797
G1 X7.496 Y-19.396 E5.98042
G1 X7.496 Y2.574 E7.12824
G1 X8.396 Y2.574 E7.17526
G1 X8.396 Y13.196 E7.73022
G1 X7.496 Y13.196 E7.77724
G1 X7.496 Y19.536 E8.10847
G1 X7.077 Y19.177 F6000.000
G1 X4.423 Y19.177 E8.24716 F2045.916
G1 X4.423 Y12.777 E8.58152
G1 X3.673 Y12.777 E8.62071
G1 X3.673 Y2.993 E9.13190
G1 X4.423 Y2.993 E9.17108
G1 X4.423 Y-18.977 E10.31890
G1 X7.077 Y-18.977 E10.45759
G1 X7.077 Y2.993 E11.60541
G1 X7.977 Y2.993 E11.65243
G1 X7.977 Y12.777 E12.16362
G1 X7.077 Y12.777 E12.21064
G1 X7.077 Y19.117 E12.54187
G1 X6.700 Y18.800 F6000.000
G1 X4.800 Y18.800 E12.62140 F600.000
G1 X4.800 Y12.400 E12.88931
G1 X4.050 Y12.400 E12.92071
G1 X4.050 Y3.370 E13.29870
G1 X4.800 Y3.370 E13.33010
G1 X4.800 Y-18.600 E14.24977
G1 X6.700 Y-18.600 E14.32931
G1 X6.700 Y3.370 E15.24898
G1 X7.600 Y3.370 E15.28665
G1 X7.600 Y12.400 E15.66465
G1 X6.700 Y12.400 E15.70232
G1 X6.700 Y18.740 E15.96772
G1 X6.700 Y19.200 F6000.000
G1 E12.46772 F1800.00000
G92 E0
G1 X2.996 Y23.104 F6000.000
G1 E3.50000 F1800.00000
G1 X2.996 Y-22.904 E5.90367 F2045.916
G1 X23.004 Y-22.904 E6.94897
G1 X23.004 Y23.104 E9.35264
G1 X3.056 Y23.104 E10.39481
G1 X2.577 Y23.523 F6000.000
G1 X2.577 Y-23.323 E12.84225 F2045.916
G1 X23.423 Y-23.323 E13.93132
G1 X23.423 Y23.523 E16.37876
G1 X2.637 Y23.523 E17.46470
G1 X2.200 Y23.900 F6000.000
G1 X2.200 Y-23.700 E19.45725 F600.000
G1 X23.800 Y-23.700 E20.36143
G1 X23.800 Y23.900 E22.35398
G1 X2.260 Y23.900 E23.25565
G1 X2.400 Y23.554 F6000.000
G1 E19.75565 F1800.00000
G92 E0
G1 X3.500 Y19.806 F6000.000
G1 E3.50000 F1800.00000
G1 X3.500 Y13.406 E4.22012 F450.000
G1 E0.72012 F1800.00000
G92 E0
G1 X3.500 Y2.364 F6000.000
G1 E3.50000 F1800.00000
G1 X3.500 Y-19.606 E5.97205 F450.000
G1 E2.47205 F1800.00000
G92 E0
G1 X22.500 Y-19.606 F6000.000
G1 E3.50000 F1800.00000
G1 X22.500 Y19.806 E7.93452 F450.000
G1 X21.990 Y20.053 F6000.000
G1 X22.757 Y20.819 E7.99119 F2045.235
G1 X22.757 Y21.412 E8.02216
G1 X21.188 Y19.843 E8.13811
G1 X20.595 Y19.843 E8.16908
G1 X22.757 Y22.005 E8.32882
G1 X22.757 Y22.597 E8.35979
G1 X20.003 Y19.843 E8.56333
G1 X19.410 Y19.843 E8.59430
G1 X22.424 Y22.857 E8.81702
G1 X21.831 Y22.857 E8.84799
G1 X18.818 Y19.843 E9.07071
G1 E5.57071 F1800.00000
G92 E0
G1 X7.743 Y19.435 F6000.000
G1 E3.50000 F1800.00000
G1 X11.165 Y22.857 E3.75287 F2045.235
G1 X11.757 Y22.857 E3.78384
G1 X7.743 Y18.843 E4.08050
G1 X7.743 Y18.250 E4.11147
G1 X12.350 Y22.857 E4.45193
G1 X12.942 Y22.857 E4.48290
G1 X7.743 Y17.658 E4.86716
G1 X7.743 Y17.065 E4.89813
G1 X13.535 Y22.857 E5.32619
G1 X14.127 Y22.857 E5.35716
G1 X7.743 Y16.473 E5.82901
G1 X7.743 Y15.880 E5.85998
G1 X14.720 Y22.857 E6.37563
G1 X15.313 Y22.857 E6.40660
G1 X7.743 Y15.287 E6.96605
G1 X7.743 Y14.695 E6.99702
G1 X15.905 Y22.857 E7.60027
G1 X16.498 Y22.857 E7.63124
G1 X7.743 Y14.102 E8.27829
G1 X7.743 Y13.510 E8.30926
G1 X17.090 Y22.857 E9.00010
G1 X17.683 Y22.857 E9.03107
G1 X8.270 Y13.443 E9.72681
G1 X8.643 Y13.224 F6000.000
G1 X18.276 Y22.857 E10.43873 F2045.235
G1 X18.868 Y22.857 E10.46970
G1 X8.643 Y12.632 E11.22542
G1 X8.643 Y12.039 E11.25639
G1 X19.461 Y22.857 E12.05591
G1 X20.053 Y22.857 E12.08688
G1 X8.643 Y11.447 E12.93019
G1 X8.643 Y10.854 E12.96116
G1 X20.646 Y22.857 E13.84827
G1 X21.238 Y22.857 E13.87924
G1 X8.643 Y10.262 E14.81015
G1 X8.643 Y9.669 E14.84112
G1 X18.257 Y19.282 E15.55164
G1 X18.257 Y18.690 E15.58261
G1 X8.643 Y9.076 E16.29314
G1 X8.643 Y8.484 E16.32411
G1 X18.257 Y18.097 E17.03464
G1 X18.257 Y17.505 E17.06561
G1 X8.643 Y7.891 E17.77613
G1 X8.643 Y7.299 E17.80710
G1 X18.257 Y16.912 E18.51763
G1 X18.257 Y16.319 E18.54860
G1 X8.643 Y6.706 E19.25913
G1 X8.643 Y6.113 E19.29010
G1 X18.257 Y15.727 E20.00062
G1 X18.257 Y15.134 E20.03159
G1 X8.643 Y5.521 E20.74212
G1 X8.643 Y4.928 E20.77309
G1 X18.257 Y14.542 E21.48362
G1 X18.257 Y13.949 E21.51459
G1 X8.643 Y4.336 E22.22511
G1 X8.643 Y3.743 E22.25608
G1 X18.257 Y13.357 E22.96661
G1 X18.257 Y12.764 E22.99758
G1 X8.643 Y3.151 E23.70811
G1 X8.643 Y2.558 F6000.000
G1 X18.257 Y12.171 E24.41863 F2045.235
G1 X18.257 Y11.579 E24.44960
G1 X7.743 Y1.065 E25.22665
G1 X7.743 Y0.473 E25.25762
G1 X18.257 Y10.986 E26.03466
G1 X18.257 Y10.394 E26.06563
G1 X7.743 Y-0.120 E26.84268
G1 X7.743 Y-0.712 E26.87365
G1 X18.257 Y9.801 E27.65070
G1 X18.257 Y9.208 E27.68167
G1 X7.743 Y-1.305 E28.45871
G1 X7.743 Y-1.898 E28.48968
G1 X18.257 Y8.616 E29.26673
G1 X18.257 Y8.023 E29.29770
G1 X7.743 Y-2.490 E30.07474
G1 X7.743 Y-3.083 E30.10571
G1 X18.257 Y7.431 E30.88276
G1 X18.257 Y6.838 E30.91373
G1 X7.743 Y-3.675 E31.69077
G1 X7.743 Y-4.268 E31.72174
G1 X18.257 Y6.246 E32.49879
G1 X18.257 Y5.653 E32.52976
G1 X7.743 Y-4.860 E33.30681
G1 X7.743 Y-5.453 E33.33777
G1 X18.257 Y5.060 E34.11482
G1 X18.257 Y4.468 E34.14579
G1 X7.743 Y-6.046 E34.92284
G1 X7.743 Y-6.638 E34.95381
G1 X18.257 Y3.875 E35.73085
G1 X18.257 Y3.283 E35.76182
G1 X7.743 Y-7.231 E36.53887
G1 X7.743 Y-7.823 E36.56984
G1 X18.257 Y2.690 E37.34688
G1 X18.257 Y2.098 E37.37785
G1 X7.743 Y-8.416 E38.15490
G1 X7.743 Y-9.008 E38.18587
G1 X18.257 Y1.505 E38.96291
G1 X18.257 Y0.912 E38.99388
G1 X7.743 Y-9.601 E39.77093
G1 X7.743 Y-10.194 E39.80190
G1 X18.257 Y0.320 E40.57895
G1 X18.257 Y-0.273 E40.60992
G1 X7.743 Y-10.786 E41.38696
G1 X7.743 Y-11.379 E41.41793
G1 X18.257 Y-0.865 E42.19498
G1 X18.257 Y-1.458 E42.22595
G1 X7.743 Y-11.971 E43.00299
G1 X7.743 Y-12.564 E43.03396
G1 X18.257 Y-2.051 E43.81101
G1 X18.257 Y-2.643 E43.84198
G1 X7.743 Y-13.157 E44.61902
G1 X7.743 Y-13.749 E44.64999
G1 X18.257 Y-3.236 E45.42704
G1 X18.257 Y-3.828 E45.45801
G1 X7.743 Y-14.342 E46.23506
G1 X7.743 Y-14.934 E46.26603
G1 X18.257 Y-4.421 E47.04307
G1 X18.257 Y-5.013 E47.07404
G1 X7.743 Y-15.527 E47.85109
G1 X7.743 Y-16.119 E47.88206
G1 X18.257 Y-5.606 E48.65910
G1 X18.257 Y-6.199 E48.69007
G1 X7.743 Y-16.712 E49.46712
G1 X7.743 Y-17.305 E49.49809
G1 X18.257 Y-6.791 E50.27513
G1 X18.257 Y-7.384 E50.30610
G1 X7.743 Y-17.897 E51.08315
G1 X7.743 Y-18.490 E51.11412
G1 X18.257 Y-7.976 E51.89117
G1 X18.257 Y-8.569 E51.92214
G1 X7.743 Y-19.082 E52.69918
G1 E49.19918 F1800.00000
G92 E0
G1 X3.243 Y-20.619 F6000.000
G1 E3.50000 F1800.00000
G1 X4.010 Y-19.853 E3.55667 F2045.235
G1 X4.812 Y-19.643 E3.59999
G1 X3.243 Y-21.212 E3.71593
G1 X3.243 Y-21.805 E3.74690
G1 X5.405 Y-19.643 E3.90665
G1 X5.997 Y-19.643 E3.93762
G1 X3.243 Y-22.397 E4.14116
G1 X3.576 Y-22.657 E4.16323
G1 X6.590 Y-19.643 E4.38595
G1 X7.182 Y-19.643 E4.41692
G1 X4.169 Y-22.657 E4.63964
G1 X4.762 Y-22.657 E4.67061
G1 X18.257 Y-9.162 E5.66803
G1 X18.257 Y-9.754 E5.69900
G1 X5.354 Y-22.657 E6.65263
G1 X5.947 Y-22.657 E6.68360
G1 X18.257 Y-10.347 E7.59344
G1 X18.257 Y-10.939 E7.62441
G1 X6.539 Y-22.657 E8.49044
G1 X7.132 Y-22.657 E8.52141
G1 X18.257 Y-11.532 E9.34365
G1 X18.257 Y-12.124 E9.37462
G1 X7.724 Y-22.657 E10.15306
G1 X8.317 Y-22.657 E10.18403
G1 X18.257 Y-12.717 E10.91867
G1 X18.257 Y-13.310 E10.94964
G1 X8.910 Y-22.657 E11.64048
G1 X9.502 Y-22.657 E11.67145
G1 X18.257 Y-13.902 E12.31850
G1 X18.257 Y-14.495 E12.34947
G1 X10.095 Y-22.657 E12.95271
G1 X10.687 Y-22.657 E12.98368
G1 X18.257 Y-15.087 E13.54314
G1 X18.257 Y-15.680 E13.57410
G1 X11.280 Y-22.657 E14.08976
G1 X11.873 Y-22.657 E14.12073
G1 X18.257 Y-16.273 E14.59258
G1 X18.257 Y-16.865 E14.62355
G1 X12.465 Y-22.657 E15.05161
G1 X13.058 Y-22.657 E15.08258
G1 X18.257 Y-17.458 E15.46684
G1 X18.257 Y-18.050 E15.49781
G1 X13.650 Y-22.657 E15.83827
G1 X14.243 Y-22.657 E15.86924
G1 X18.257 Y-18.643 E16.16591
G1 X18.257 Y-19.235 E16.19687
G1 X14.835 Y-22.657 E16.44974
G1 X15.428 Y-22.657 E16.48071
G1 X18.441 Y-19.643 E16.70343
G1 X19.034 Y-19.643 E16.73440
G1 X16.021 Y-22.657 E16.95712
G1 X16.613 Y-22.657 E16.98809
G1 X19.627 Y-19.643 E17.21081
G1 X20.219 Y-19.643 E17.24178
G1 X17.206 Y-22.657 E17.46450
G1 X17.798 Y-22.657 E17.49547
G1 X20.812 Y-19.643 E17.71819
G1 X21.404 Y-19.643 E17.74916
G1 X18.391 Y-22.657 E17.97188
G1 X18.983 Y-22.657 E18.00285
G1 X21.787 Y-19.853 E18.21010
G1 X22.380 Y-19.853 E18.24107
G1 X19.576 Y-22.657 E18.44831
G1 X20.169 Y-22.657 E18.47928
G1 X22.757 Y-20.069 E18.67056
G1 X22.757 Y-20.661 E18.70153
G1 X20.761 Y-22.657 E18.84901
G1 X21.354 Y-22.657 E18.87998
G1 X22.757 Y-21.254 E18.98367
G1 X22.757 Y-21.846 E19.01464
G1 X21.946 Y-22.657 E19.07453
G1 X22.539 Y-22.657 E19.10550
G1 X22.757 Y-22.439 E19.12159
G1 E15.62159 F1800.00000
G92 E0
G1 X18.500 Y-21.150 F6000.000
G1 X13.000 Y-17.400 F6000.000
G1 X13.000 Y-0.445 F6000.000
G1 X8.400 Y1.670 F6000.000
G1 X7.743 Y1.658 F6000.000
G1 E3.50000 F1800.00000
G1 X8.412 Y2.327 E3.54942 F2045.235
G1 E0.04942 F1800.00000
G92 E0
G1 X7.559 Y19.843 F6000.000
G1 E3.50000 F1800.00000
G1 X10.572 Y22.857 E3.72272 F2045.235
G1 X9.979 Y22.857 E3.75369
G1 X6.966 Y19.843 E3.97641
G1 X6.373 Y19.843 E4.00738
G1 X9.387 Y22.857 E4.23010
G1 X8.794 Y22.857 E4.26107
G1 X5.781 Y19.843 E4.48379
G1 X5.188 Y19.843 E4.51476
G1 X8.202 Y22.857 E4.73748
G1 X7.609 Y22.857 E4.76845
G1 X4.596 Y19.843 E4.99117
G1 X4.213 Y20.053 E5.01399
G1 X7.016 Y22.857 E5.22124
G1 X6.424 Y22.857 E5.25221
G1 X3.620 Y20.053 E5.45945
G1 X3.243 Y20.269 E5.48214
G1 X5.831 Y22.857 E5.67342
G1 X5.239 Y22.857 E5.70439
G1 X3.243 Y20.861 E5.85187
G1 X3.243 Y21.454 E5.88284
G1 X4.646 Y22.857 E5.98653
G1 X4.054 Y22.857 E6.01750
G1 X3.243 Y22.046 E6.07739
G1 X3.243 Y22.639 E6.10836
G1 X3.461 Y22.857 E6.12445
G1 E2.62445 F1800.00000
G92 E0
G1 X2.000 Y24.100 F6000.000
G1 X-0.000 Y24.100 F6000.000
G1 X0.000 Y23.900 F6000.000
G1 X-2.000 Y23.900 F6000.000
G1 X-7.923 Y22.477 F6000.000
G1 E3.50000 F1800.00000
G1 X-18.077 Y22.477 E4.03052 F2045.916
G1 X-18.077 Y16.123 E4.36251
G1 X-7.923 Y16.123 E4.89303
G1 X-7.923 Y22.417 E5.22189
G1 X-8.300 Y22.100 F6000.000
G1 X-17.700 Y22.100 E5.61537 F2553.461
G1 X-17.700 Y16.500 E5.84979
G1 X-8.300 Y16.500 E6.24328
G1 X-8.300 Y22.040 E6.47519
G1 X-8.300 Y22.500 F6000.000
G1 E2.97519 F1800.00000
G92 E0
G1 X-7.500 Y15.700 F6000.000
G1 X-7.500 Y14.350 F6000.000
G1 X-13.066 Y14.350 F6000.000
G1 X-13.066 Y13.000 F6000.000
G1 X-13.996 Y9.364 F6000.000
G1 E3.50000 F1800.00000
G1 X-14.293 Y9.325 E3.51564 F2045.916
G1 X-15.498 Y8.826 E3.58377
G1 X-16.532 Y8.032 E3.65189
G1 X-17.326 Y6.998 E3.72002
G1 X-17.825 Y5.793 E3.78815
G1 X-17.864 Y5.496 E3.80379
G1 X-15.275 Y5.496 E3.93904
G1 X-15.169 Y5.752 E3.95353
G1 X-14.771 Y6.271 E3.98769
G1 X-14.252 Y6.669 E4.02186
G1 X-13.996 Y6.775 E4.03635
G1 X-13.996 Y9.304 E4.16846
G1 X-13.539 Y6.511 F6000.000
G1 X-14.041 Y6.303 E4.19686 F2045.916
G1 X-14.472 Y5.972 E4.22526
G1 X-14.803 Y5.541 E4.25366
G1 X-15.011 Y5.039 E4.28206
G1 X-15.082 Y4.500 E4.31046
G1 X-15.011 Y3.961 E4.33886
G1 X-14.803 Y3.459 E4.36726
G1 X-14.472 Y3.028 E4.39566
G1 X-14.041 Y2.697 E4.42405
G1 X-13.539 Y2.489 E4.45245
G1 X-13.034 Y2.422 E4.47904
G1 X-12.466 Y2.487 E4.50893
G1 X-11.959 Y2.697 E4.53760
G1 X-11.528 Y3.028 E4.56600
G1 X-11.197 Y3.459 E4.59440
G1 X-10.989 Y3.961 E4.62280
G1 X-10.918 Y4.500 E4.65120
G1 X-10.989 Y5.039 E4.67960
G1 X-11.197 Y5.541 E4.70799
G1 X-11.528 Y5.972 E4.73639
G1 X-11.959 Y6.303 E4.76479
G1 X-12.461 Y6.511 E4.79319
G1 X-13.000 Y6.582 E4.82159
G1 X-13.479 Y6.519 E4.84685
G1 E1.34685 F1800.00000
G92 E0
G1 X-7.623 Y5.500 F6000.000
G1 X-7.623 Y5.500 F6000.000
G1 X-8.136 Y3.504 F6000.000
G1 E3.50000 F1800.00000
G1 X-10.725 Y3.504 E3.63525 F2045.916
G1 X-10.831 Y3.248 E3.64974
G1 X-11.229 Y2.729 E3.68390
G1 X-11.748 Y2.331 E3.71807
G1 X-12.004 Y2.225 E3.73256
G1 X-12.004 Y-0.364 E3.86781
G1 X-11.707 Y-0.325 E3.88345
G1 X-10.502 Y0.174 E3.95158
G1 X-9.468 Y0.968 E4.01970
G1 X-8.674 Y2.002 E4.08783
G1 X-8.175 Y3.207 E4.15596
G1 X-8.144 Y3.444 E4.16846
G1 E0.66846 F1800.00000
G92 E0
G1 X-13.996 Y-0.874 F6000.000
G1 E3.50000 F1800.00000
G1 X-14.425 Y-0.817 E3.52259 F2045.916
G1 X-15.752 Y-0.267 E3.59766
G1 X-16.892 Y0.608 E3.67274
G1 X-17.767 Y1.748 E3.74782
G1 X-18.317 Y3.075 E3.82289
G1 X-18.374 Y3.504 E3.84548
G1 X-20.864 Y3.504 E3.97560
G1 X-20.723 Y2.431 E4.03215
G1 X-19.924 Y0.502 E4.14120
G1 X-18.654 Y-1.154 E4.25024
G1 X-16.998 Y-2.424 E4.35929
G1 X-15.069 Y-3.223 E4.46833
G1 X-13.996 Y-3.364 E4.52488
G1 X-13.996 Y-0.934 E4.65187
G1 E1.15187 F1800.00000
G92 E0
G1 X-12.000 Y-3.877 F6000.000
G1 X-12.000 Y-3.877 F6000.000
G1 X-12.423 Y-3.994 F6000.000
G1 E3.50000 F1800.00000
G1 X-13.437 Y-3.860 E3.55346 F2045.916
G1 X-13.437 Y-3.640 E3.56498
G1 X-10.908 Y-3.307 E3.69825
G1 X-8.959 Y-2.499 E3.80848
G1 X-7.285 Y-1.215 E3.91871
G1 X-6.001 Y0.459 E4.02894
G1 X-5.193 Y2.408 E4.13917
G1 X-4.842 Y5.077 E4.27982
G1 X-7.506 Y5.077 E4.41902
G1 X-7.640 Y4.063 E4.47249
G1 X-7.860 Y4.063 E4.48400
G1 X-8.091 Y5.815 E4.57636
G1 X-8.599 Y7.041 E4.64567
G1 X-9.406 Y8.094 E4.71499
G1 X-10.459 Y8.901 E4.78430
