; generated by Slic3r 1.2.9 on 2016-02-15 at 13:13:25

; external perimeters extrusion width = 0.40mm
; perimeters extrusion width = 0.42mm
; infill extrusion width = 0.42mm
; solid infill extrusion width = 0.42mm
; top infill extrusion width = 0.42mm

M107
M104 S210 ; set temperature
G28 ; home all axes
G1 X70Y70Z10 F5000 
M109 S210 ; wait for temperature to be reached
G21 ; set units to millimeters
G90 ; use absolute coordinates
M82 ; use absolute distances for extrusion
G92 E0
G1 E-3.50000 F1800.00000
G92 E0
G1 Z0.400 F6000.000
G1 X1.954 Y30.102 F6000.000
G1 E3.50000 F1800.00000
G1 X-24.046 Y29.902 E4.94489 F3384.534
G1 X-26.189 Y29.489 E5.06615
G1 X-28.042 Y28.337 E5.18742
G1 X-29.361 Y26.599 E5.30869
G1 X-30.002 Y23.900 E5.46284
G1 X-30.002 Y-24.100 E8.13024
G1 X-29.606 Y-26.246 E8.25151
G1 X-28.468 Y-28.108 E8.37278
G1 X-26.740 Y-29.441 E8.49404
G1 X-24.000 Y-30.102 E8.65069
G1 X-1.954 Y-30.102 E9.87582
G1 X24.046 Y-29.902 E11.32071
G1 X26.189 Y-29.489 E11.44197
G1 X28.042 Y-28.337 E11.56324
G1 X29.361 Y-26.599 E11.68451
G1 X30.002 Y-23.900 E11.83866
G1 X30.002 Y24.100 E14.50607
G1 X29.606 Y26.246 E14.62733
G1 X28.468 Y28.108 E14.74860
G1 X26.740 Y29.441 E14.86987
G1 X24.000 Y30.102 E15.02651
G1 X2.014 Y30.102 E16.24831
G1 X1.956 Y29.768 F6000.000
G1 X-24.044 Y29.568 E17.69319 F3384.534
G1 X-26.123 Y29.156 E17.81101
G1 X-27.906 Y28.008 E17.92882
G1 X-29.142 Y26.286 E18.04663
G1 X-29.668 Y23.900 E18.18239
G1 X-29.668 Y-24.100 E20.84980
G1 X-29.272 Y-26.183 E20.96761
G1 X-28.138 Y-27.974 E21.08543
G1 X-26.425 Y-29.223 E21.20324
G1 X-24.000 Y-29.768 E21.34136
G1 X-1.956 Y-29.768 E22.56635
G1 X24.044 Y-29.568 E24.01123
G1 X26.123 Y-29.156 E24.12905
G1 X27.906 Y-28.008 E24.24686
G1 X29.142 Y-26.286 E24.36468
G1 X29.668 Y-23.900 E24.50044
G1 X29.668 Y24.100 E27.16784
G1 X29.272 Y26.183 E27.28565
G1 X28.138 Y27.974 E27.40347
G1 X26.425 Y29.223 E27.52128
G1 X24.000 Y29.768 E27.65941
G1 X2.016 Y29.768 E28.88105
G1 X1.959 Y29.434 F6000.000
G1 X-24.041 Y29.234 E30.32594 F3384.534
G1 X-26.055 Y28.822 E30.44020
G1 X-27.764 Y27.679 E30.55445
G1 X-28.914 Y25.975 E30.66871
G1 X-29.334 Y23.900 E30.78634
G1 X-29.334 Y-24.100 E33.45374
G1 X-28.938 Y-26.118 E33.56800
G1 X-27.808 Y-27.835 E33.68226
G1 X-26.112 Y-28.998 E33.79651
G1 X-24.000 Y-29.434 E33.91637
G1 X-1.959 Y-29.434 E35.14122
G1 X24.041 Y-29.234 E36.58610
G1 X26.055 Y-28.822 E36.70036
G1 X27.764 Y-27.679 E36.81461
G1 X28.914 Y-25.975 E36.92887
G1 X29.334 Y-23.900 E37.04650
G1 X29.334 Y24.100 E39.71390
G1 X28.938 Y26.118 E39.82816
G1 X27.808 Y27.835 E39.94242
G1 X26.112 Y28.998 E40.05667
G1 X24.000 Y29.434 E40.17654
G1 X2.019 Y29.434 E41.39804
G1 E37.89804 F1800.00000
G92 E0
G1 X18.642 Y19.458 F6000.000
G1 E3.50000 F1800.00000
G1 X18.642 Y-19.258 E5.65152 F3384.534
G1 X21.858 Y-19.258 E5.83027
G1 X21.858 Y19.458 E7.98179
G1 X18.702 Y19.458 E8.15721
G1 X18.976 Y19.124 F6000.000
G1 X18.976 Y-18.924 E10.27159 F3384.534
G1 X21.524 Y-18.924 E10.41320
G1 X21.524 Y19.124 E12.52758
G1 X19.036 Y19.124 E12.66586
G1 X19.300 Y18.800 F6000.000
G1 X19.300 Y-18.600 E14.61982 F600.000
G1 X21.200 Y-18.600 E14.71908
G1 X21.200 Y18.800 E16.67304
G1 X19.360 Y18.800 E16.76917
G1 X18.900 Y18.800 F6000.000
G1 E13.26917 F1800.00000
G92 E0
G1 X7.358 Y19.458 F6000.000
G1 E3.50000 F1800.00000
G1 X4.142 Y19.458 E3.67875 F3384.534
G1 X4.142 Y13.058 E4.03441
G1 X3.392 Y13.058 E4.07608
G1 X3.392 Y2.712 E4.65106
G1 X4.142 Y2.712 E4.69273
G1 X4.142 Y-19.258 E5.91363
G1 X7.358 Y-19.258 E6.09238
G1 X7.358 Y2.712 E7.31327
G1 X8.258 Y2.712 E7.36329
G1 X8.258 Y13.058 E7.93826
G1 X7.358 Y13.058 E7.98827
G1 X7.358 Y19.398 E8.34059
G1 X7.024 Y19.124 F6000.000
G1 X4.476 Y19.124 E8.48220 F3384.534
G1 X4.476 Y12.724 E8.83786
G1 X3.726 Y12.724 E8.87953
G1 X3.726 Y3.046 E9.41737
G1 X4.476 Y3.046 E9.45905
G1 X4.476 Y-18.924 E10.67994
G1 X7.024 Y-18.924 E10.82155
G1 X7.024 Y3.046 E12.04244
G1 X7.924 Y3.046 E12.09246
G1 X7.924 Y12.724 E12.63029
G1 X7.024 Y12.724 E12.68031
G1 X7.024 Y19.064 E13.03263
G1 X6.700 Y18.800 F6000.000
G1 X4.800 Y18.800 E13.13189 F600.000
G1 X4.800 Y12.400 E13.46626
G1 X4.050 Y12.400 E13.50544
G1 X4.050 Y3.370 E13.97721
G1 X4.800 Y3.370 E14.01640
G1 X4.800 Y-18.600 E15.16422
G1 X6.700 Y-18.600 E15.26348
G1 X6.700 Y3.370 E16.41130
G1 X7.600 Y3.370 E16.45832
G1 X7.600 Y12.400 E16.93009
G1 X6.700 Y12.400 E16.97712
G1 X6.700 Y18.740 E17.30835
G1 X6.700 Y19.200 F6000.000
G1 E13.80835 F1800.00000
G92 E0
G1 X2.858 Y23.242 F6000.000
G1 E3.50000 F1800.00000
G1 X2.858 Y-23.042 E6.07201 F3384.534
G1 X23.142 Y-23.042 E7.19917
G1 X23.142 Y23.242 E9.77118
G1 X2.918 Y23.242 E10.89501
G1 X2.524 Y23.576 F6000.000
G1 X2.524 Y-23.376 E13.50416 F3384.534
G1 X23.476 Y-23.376 E14.66847
G1 X23.476 Y23.576 E17.27761
G1 X2.584 Y23.576 E18.43858
G1 X2.200 Y23.900 F6000.000
G1 X2.200 Y-23.700 E20.92544 F600.000
G1 X23.800 Y-23.700 E22.05393
G1 X23.800 Y23.900 E24.54079
G1 X2.260 Y23.900 E25.66614
G1 X2.400 Y23.554 F6000.000
G1 X3.051 Y22.867 F6000.000
G1 X3.233 Y23.049 E25.68047 F3373.376
G1 X3.707 Y23.049 E25.70691
G1 X3.051 Y22.393 E25.75862
G1 X3.051 Y21.919 E25.78506
G1 X4.181 Y23.049 E25.87415
G1 X4.656 Y23.049 E25.90059
G1 X3.051 Y21.444 E26.02707
G1 X3.051 Y20.970 E26.05351
G1 X5.130 Y23.049 E26.21738
G1 X5.604 Y23.049 E26.24381
G1 X3.051 Y20.496 E26.44507
G1 X3.051 Y20.022 E26.47150
G1 X6.078 Y23.049 E26.71014
G1 X6.552 Y23.049 E26.73658
G1 X3.051 Y19.548 E27.01260
G1 X3.051 Y19.074 E27.03904
G1 X7.026 Y23.049 E27.35244
G1 X7.500 Y23.049 E27.37888
G1 X4.103 Y19.651 E27.64674
G1 X4.577 Y19.651 E27.67317
G1 X7.975 Y23.049 E27.94103
G1 X8.449 Y23.049 E27.96747
G1 X5.052 Y19.651 E28.23533
G1 X5.526 Y19.651 E28.26176
G1 X8.923 Y23.049 E28.52962
G1 X9.397 Y23.049 E28.55606
G1 X6.000 Y19.651 E28.82391
G1 X6.474 Y19.651 E28.85035
G1 X9.871 Y23.049 E29.11821
G1 X10.345 Y23.049 E29.14464
G1 X6.948 Y19.651 E29.41250
G1 X7.422 Y19.651 E29.43894
G1 X10.819 Y23.049 E29.70680
G1 X11.293 Y23.049 E29.73323
G1 X7.551 Y19.307 E30.02829
G1 X7.551 Y18.832 E30.05472
G1 X11.768 Y23.049 E30.38716
G1 X12.242 Y23.049 E30.41360
G1 X7.551 Y18.358 E30.78342
G1 X7.551 Y17.884 E30.80986
G1 X12.716 Y23.049 E31.21707
G1 X13.190 Y23.049 E31.24350
G1 X7.551 Y17.410 E31.68810
G1 X7.551 Y16.936 E31.71453
G1 X13.664 Y23.049 E32.19652
G1 X14.138 Y23.049 E32.22295
G1 X7.551 Y16.462 E32.74232
G1 X7.551 Y15.988 E32.76875
G1 X14.612 Y23.049 E33.32550
G1 X15.087 Y23.049 E33.35194
G1 X7.551 Y15.513 E33.94608
G1 X7.551 Y15.039 E33.97251
G1 X15.561 Y23.049 E34.60403
G1 X16.035 Y23.049 E34.63047
G1 X7.551 Y14.565 E35.29937
G1 X7.551 Y14.091 E35.32581
G1 X16.509 Y23.049 E36.03210
G1 X16.983 Y23.049 E36.05854
G1 X7.551 Y13.617 E36.80221
G1 X7.660 Y13.251 E36.82347
G1 X17.457 Y23.049 E37.59596
G1 X17.931 Y23.049 E37.62240
G1 X8.134 Y13.251 E38.39489
G1 X8.451 Y13.094 F6000.000
G1 X18.406 Y23.049 E39.17976 F3373.376
G1 X18.880 Y23.049 E39.20620
G1 X8.451 Y12.620 E40.02845
G1 X8.451 Y12.146 E40.05488
G1 X19.354 Y23.049 E40.91452
G1 X19.828 Y23.049 E40.94096
G1 X8.451 Y11.672 E41.83798
G1 X8.451 Y11.198 E41.86442
G1 X20.302 Y23.049 E42.79883
G1 X20.776 Y23.049 E42.82526
G1 X8.451 Y10.724 E43.79706
G1 E40.29706 F1800.00000
G92 E0
G1 X11.000 Y19.600 F6000.000
G1 X4.000 Y20.600 F6000.000
G1 X3.500 Y13.700 F6000.000
G1 X3.250 Y13.450 F6000.000
G1 X3.528 Y13.387 F6000.000
G1 E3.50000 F1800.00000
G1 X3.949 Y13.807 E3.53315 F3373.376
G1 X3.949 Y14.281 E3.55959
G1 X3.086 Y13.419 E3.62761
G1 X3.051 Y13.858 E3.65220
G1 X3.949 Y14.755 E3.72294
G1 X3.949 Y15.229 E3.74937
G1 X3.051 Y14.332 E3.82011
G1 X3.051 Y14.807 E3.84654
G1 X3.949 Y15.704 E3.91728
G1 X3.949 Y16.178 E3.94372
G1 X3.051 Y15.281 E4.01445
G1 X3.051 Y15.755 E4.04089
G1 X3.949 Y16.652 E4.11162
G1 X3.949 Y17.126 E4.13806
G1 X3.051 Y16.229 E4.20879
G1 X3.051 Y16.703 E4.23523
G1 X3.949 Y17.600 E4.30597
G1 X3.949 Y18.074 E4.33240
G1 X3.051 Y17.177 E4.40314
G1 X3.051 Y17.651 E4.42957
G1 X3.949 Y18.548 E4.50031
G1 X3.949 Y19.023 E4.52674
G1 X3.051 Y18.125 E4.59748
G1 X3.051 Y18.600 E4.62391
G1 X3.949 Y19.497 E4.69465
G1 E1.19465 F1800.00000
G92 E0
G1 X3.398 Y2.351 F6000.000
G1 E3.50000 F1800.00000
G1 X3.051 Y2.005 E3.52733 F3373.376
G1 X3.051 Y1.531 E3.55377
G1 X3.949 Y2.428 E3.62450
G1 X3.949 Y1.954 E3.65094
G1 X3.051 Y1.057 E3.72167
G1 X3.051 Y0.582 E3.74811
G1 X3.949 Y1.480 E3.81884
G1 X3.949 Y1.005 E3.84528
G1 X3.051 Y0.108 E3.91601
G1 X3.051 Y-0.366 E3.94245
G1 X3.949 Y0.531 E4.01319
G1 X3.949 Y0.057 E4.03962
G1 X3.051 Y-0.840 E4.11036
G1 X3.051 Y-1.314 E4.13679
G1 X3.949 Y-0.417 E4.20753
G1 X3.949 Y-0.891 E4.23396
G1 X3.051 Y-1.788 E4.30470
G1 X3.051 Y-2.262 E4.33113
G1 X3.949 Y-1.365 E4.40187
G1 X3.949 Y-1.839 E4.42831
G1 X3.051 Y-2.736 E4.49904
G1 X3.051 Y-3.211 E4.52548
G1 X3.949 Y-2.314 E4.59621
G1 X3.949 Y-2.788 E4.62265
G1 X3.051 Y-3.685 E4.69338
G1 X3.051 Y-4.159 E4.71982
G1 X3.949 Y-3.262 E4.79056
G1 X3.949 Y-3.736 E4.81699
G1 X3.051 Y-4.633 E4.88773
G1 X3.051 Y-5.107 E4.91416
G1 X3.949 Y-4.210 E4.98490
G1 X3.949 Y-4.684 E5.01133
G1 X3.051 Y-5.581 E5.08207
G1 X3.051 Y-6.055 E5.10850
G1 X3.949 Y-5.158 E5.17924
G1 X3.949 Y-5.632 E5.20567
G1 X3.051 Y-6.530 E5.27641
G1 X3.051 Y-7.004 E5.30285
G1 X3.949 Y-6.107 E5.37358
G1 X3.949 Y-6.581 E5.40002
G1 X3.051 Y-7.478 E5.47075
G1 X3.051 Y-7.952 E5.49719
G1 X3.949 Y-7.055 E5.56792
G1 X3.949 Y-7.529 E5.59436
G1 X3.051 Y-8.426 E5.66510
G1 X3.051 Y-8.900 E5.69153
G1 X3.949 Y-8.003 E5.76227
G1 X3.949 Y-8.477 E5.78870
G1 X3.051 Y-9.374 E5.85944
G1 X3.051 Y-9.849 E5.88587
G1 X3.949 Y-8.951 E5.95661
G1 X3.949 Y-9.426 E5.98304
G1 X3.051 Y-10.323 E6.05378
G1 X3.051 Y-10.797 E6.08022
G1 X3.949 Y-9.900 E6.15095
G1 X3.949 Y-10.374 E6.17739
G1 X3.051 Y-11.271 E6.24812
G1 X3.051 Y-11.745 E6.27456
G1 X3.949 Y-10.848 E6.34529
G1 X3.949 Y-11.322 E6.37173
G1 X3.051 Y-12.219 E6.44246
G1 X3.051 Y-12.693 E6.46890
G1 X3.949 Y-11.796 E6.53964
G1 X3.949 Y-12.270 E6.56607
G1 X3.051 Y-13.167 E6.63681
G1 X3.051 Y-13.642 E6.66324
G1 X3.949 Y-12.745 E6.73398
G1 X3.949 Y-13.219 E6.76041
G1 X3.051 Y-14.116 E6.83115
G1 X3.051 Y-14.590 E6.85758
G1 X3.949 Y-13.693 E6.92832
G1 X3.949 Y-14.167 E6.95476
G1 X3.051 Y-15.064 E7.02549
G1 X3.051 Y-15.538 E7.05193
G1 X3.949 Y-14.641 E7.12266
G1 X3.949 Y-15.115 E7.14910
G1 X3.051 Y-16.012 E7.21983
G1 X3.051 Y-16.486 E7.24627
G1 X3.949 Y-15.589 E7.31701
G1 X3.949 Y-16.063 E7.34344
G1 X3.051 Y-16.961 E7.41418
G1 X3.051 Y-17.435 E7.44061
G1 X3.949 Y-16.538 E7.51135
G1 X3.949 Y-17.012 E7.53778
G1 X3.051 Y-17.909 E7.60852
G1 X3.051 Y-18.383 E7.63495
G1 X3.949 Y-17.486 E7.70569
G1 X3.949 Y-17.960 E7.73213
G1 X3.051 Y-18.857 E7.80286
G1 X3.051 Y-19.331 E7.82930
G1 X3.949 Y-18.434 E7.90003
G1 X3.949 Y-18.908 E7.92647
G1 X3.051 Y-19.805 E7.99720
G1 X3.051 Y-20.280 E8.02364
G1 X3.949 Y-19.382 E8.09438
G1 X4.354 Y-19.451 E8.11729
G1 X3.051 Y-20.754 E8.21996
G1 X3.051 Y-21.228 E8.24640
G1 X4.828 Y-19.451 E8.38646
G1 X5.302 Y-19.451 E8.41290
G1 X3.051 Y-21.702 E8.59034
G1 X3.051 Y-22.176 E8.61678
G1 X5.776 Y-19.451 E8.83161
G1 X6.250 Y-19.451 E8.85805
G1 X3.051 Y-22.650 E9.11027
G1 X3.327 Y-22.849 E9.12921
G1 X6.724 Y-19.451 E9.39706
G1 E5.89706 F1800.00000
G92 E0
G1 X18.449 Y-19.106 F6000.000
G1 E3.50000 F1800.00000
G1 X14.706 Y-22.849 E3.79506 F3373.376
G1 X14.232 Y-22.849 E3.82149
G1 X18.449 Y-18.632 E4.15394
G1 X18.449 Y-18.158 E4.18037
G1 X13.758 Y-22.849 E4.55020
G1 X13.284 Y-22.849 E4.57664
G1 X18.449 Y-17.684 E4.98385
G1 X18.449 Y-17.210 E5.01029
G1 X12.810 Y-22.849 E5.45489
G1 X12.336 Y-22.849 E5.48133
G1 X18.449 Y-16.736 E5.96331
G1 X18.449 Y-16.262 E5.98975
G1 X11.862 Y-22.849 E6.50912
G1 X11.388 Y-22.849 E6.53555
G1 X18.449 Y-15.788 E7.09231
G1 X18.449 Y-15.313 E7.11874
G1 X10.913 Y-22.849 E7.71288
G1 X10.439 Y-22.849 E7.73932
G1 X18.449 Y-14.839 E8.37085
G1 X18.449 Y-14.365 E8.39728
G1 X9.965 Y-22.849 E9.06619
G1 X9.491 Y-22.849 E9.09263
G1 X18.449 Y-13.891 E9.79892
G1 X18.449 Y-13.417 E9.82536
G1 X9.017 Y-22.849 E10.56904
G1 X8.543 Y-22.849 E10.59548
G1 X18.449 Y-12.943 E11.37654
G1 X18.449 Y-12.469 E11.40298
G1 X8.069 Y-22.849 E12.22143
G1 X7.594 Y-22.849 E12.24786
G1 X18.449 Y-11.994 E13.10370
G1 X18.449 Y-11.520 E13.13014
G1 X7.120 Y-22.849 E14.02336
G1 X6.646 Y-22.849 E14.04979
G1 X18.449 Y-11.046 E14.98040
G1 X18.449 Y-10.572 E15.00684
G1 X6.172 Y-22.849 E15.97483
G1 X5.698 Y-22.849 E16.00126
G1 X18.449 Y-10.098 E17.00664
G1 X18.449 Y-9.624 E17.03308
G1 X5.224 Y-22.849 E18.07584
G1 X4.750 Y-22.849 E18.10228
G1 X18.449 Y-9.150 E19.18242
G1 X18.449 Y-8.675 E19.20886
G1 X7.551 Y-19.573 E20.06809
G1 X7.198 Y-19.451 E20.08889
G1 X3.801 Y-22.849 E20.35675
G1 X4.275 Y-22.849 E20.38319
G1 X7.673 Y-19.451 E20.65105
G1 X7.551 Y-19.098 E20.67185
G1 X18.449 Y-8.201 E21.53108
G1 X18.449 Y-7.727 E21.55752
G1 X7.551 Y-18.624 E22.41674
G1 X7.551 Y-18.150 E22.44318
G1 X18.449 Y-7.253 E23.30240
G1 X18.449 Y-6.779 E23.32884
G1 X7.551 Y-17.676 E24.18807
G1 X7.551 Y-17.202 E24.21450
G1 X18.449 Y-6.305 E25.07373
G1 X18.449 Y-5.831 E25.10016
G1 X7.551 Y-16.728 E25.95939
G1 X7.551 Y-16.254 E25.98583
G1 X18.449 Y-5.357 E26.84505
G1 X18.449 Y-4.882 E26.87149
G1 X7.551 Y-15.780 E27.73071
G1 X7.551 Y-15.305 E27.75715
G1 X18.449 Y-4.408 E28.61638
G1 X18.449 Y-3.934 E28.64281
G1 X7.551 Y-14.831 E29.50204
G1 X7.551 Y-14.357 E29.52847
G1 X18.449 Y-3.460 E30.38770
G1 X18.449 Y-2.986 E30.41414
G1 X7.551 Y-13.883 E31.27336
G1 X7.551 Y-13.409 E31.29980
G1 X18.449 Y-2.512 E32.15903
G1 X18.449 Y-2.038 E32.18546
G1 X7.551 Y-12.935 E33.04469
G1 X7.551 Y-12.461 E33.07112
G1 X18.449 Y-1.563 E33.93035
G1 X18.449 Y-1.089 E33.95678
G1 X7.551 Y-11.986 E34.81601
G1 X7.551 Y-11.512 E34.84245
G1 X18.449 Y-0.615 E35.70167
G1 X18.449 Y-0.141 E35.72811
G1 X7.551 Y-11.038 E36.58734
G1 X7.551 Y-10.564 E36.61377
G1 X18.449 Y0.333 E37.47300
G1 X18.449 Y0.807 E37.49943
G1 X7.551 Y-10.090 E38.35866
G1 X7.551 Y-9.616 E38.38510
G1 X18.449 Y1.281 E39.24432
G1 X18.449 Y1.755 E39.27076
G1 X7.551 Y-9.142 E40.12998
G1 X7.551 Y-8.667 E40.15642
G1 X18.449 Y2.230 E41.01565
G1 X18.449 Y2.704 E41.04208
G1 X7.551 Y-8.193 E41.90131
G1 X7.551 Y-7.719 E41.92774
G1 X18.449 Y3.178 E42.78697
G1 X18.449 Y3.652 E42.81341
G1 X7.551 Y-7.245 E43.67263
G1 X7.551 Y-6.771 E43.69907
G1 X18.449 Y4.126 E44.55829
G1 X18.449 Y4.600 E44.58473
G1 X7.551 Y-6.297 E45.44396
G1 X7.551 Y-5.823 E45.47039
G1 X18.449 Y5.074 E46.32962
G1 X18.449 Y5.549 E46.35605
G1 X7.551 Y-5.349 E47.21528
G1 X7.551 Y-4.874 E47.24172
G1 X18.449 Y6.023 E48.10094
G1 X18.449 Y6.497 E48.12738
G1 X7.551 Y-4.400 E48.98661
G1 X7.551 Y-3.926 E49.01304
G1 X18.449 Y6.971 E49.87227
G1 X18.449 Y7.445 E49.89870
G1 X7.551 Y-3.452 E50.75793
G1 X7.551 Y-2.978 E50.78436
G1 X18.449 Y7.919 E51.64359
G1 X18.449 Y8.393 E51.67003
G1 X7.551 Y-2.504 E52.52925
G1 X7.551 Y-2.030 E52.55569
G1 X18.449 Y8.868 E53.41492
G1 X18.449 Y9.342 E53.44135
G1 X7.551 Y-1.555 E54.30058
G1 X7.551 Y-1.081 E54.32701
G1 X18.449 Y9.816 E55.18624
G1 X18.449 Y10.290 E55.21268
G1 X7.551 Y-0.607 E56.07190
G1 X7.551 Y-0.133 E56.09834
G1 X18.449 Y10.764 E56.95756
G1 X18.449 Y11.238 E56.98400
G1 X7.551 Y0.341 E57.84323
G1 X7.551 Y0.815 E57.86966
G1 X18.449 Y11.712 E58.72889
G1 X18.449 Y12.186 E58.75532
G1 X7.551 Y1.289 E59.61455
G1 X7.551 Y1.764 E59.64099
G1 X18.449 Y12.661 E60.50021
G1 X18.449 Y13.135 E60.52665
G1 X8.451 Y3.138 E61.31491
G1 X8.451 Y3.612 E61.34135
G1 X18.449 Y13.609 E62.12961
G1 X18.449 Y14.083 E62.15604
G1 X8.451 Y4.086 E62.94431
G1 X8.451 Y4.560 E62.97074
G1 X18.449 Y14.557 E63.75900
G1 X18.449 Y15.031 E63.78544
G1 X8.451 Y5.034 E64.57370
G1 X8.451 Y5.508 E64.60014
G1 X18.449 Y15.505 E65.38840
G1 X18.449 Y15.980 E65.41484
G1 X8.451 Y5.982 E66.20310
G1 X8.451 Y6.457 E66.22953
G1 X18.449 Y16.454 E67.01780
G1 X18.449 Y16.928 E67.04423
G1 X8.451 Y6.931 E67.83249
G1 X8.451 Y7.405 E67.85893
G1 X18.449 Y17.402 E68.64719
G1 X18.449 Y17.876 E68.67363
G1 X8.451 Y7.879 E69.46189
G1 X8.451 Y8.353 E69.48832
G1 X18.449 Y18.350 E70.27659
G1 X18.449 Y18.824 E70.30302
G1 X8.451 Y8.827 E71.09129
G1 X8.451 Y9.301 E71.11772
G1 X18.449 Y19.299 E71.90598
G1 X18.327 Y19.651 E71.92679
G1 X21.724 Y23.049 E72.19465
G1 X21.250 Y23.049 E72.22108
G1 X8.451 Y10.250 E73.23026
G1 X8.451 Y9.776 E73.25670
