; generated by Slic3r 1.2.9 on 2016-05-30 at 13:41:55

; external perimeters extrusion width = 0.40mm
; perimeters extrusion width = 0.67mm
; infill extrusion width = 0.67mm
; solid infill extrusion width = 0.67mm
; top infill extrusion width = 0.67mm
; support material extrusion width = 0.40mm

M107
M190 S60 ; set bed temperature
M104 S200 ; set temperature
G28 ; home all axes

M109 S200 ; wait for temperature to be reached
G21 ; set units to millimeters
G90 ; use absolute coordinates
M82 ; use absolute distances for extrusion
G92 E0
G1 E-4.00000 F4800.00000
G92 E0
G1 Z1.000 F3600.000
G1 X37.757 Y0.000 F3600.000
G1 Z0.300 F3600.000
G1 E4.00000 F4800.00000
G1 X37.757 Y44.000 E6.29878 F1200.000
G1 X37.360 Y46.193 E6.41519
G1 X35.924 Y48.424 E6.55382
G1 X29.924 Y54.424 E6.99713
G1 X28.093 Y55.694 E7.11355
G1 X25.500 Y56.257 E7.25218
G1 X-25.500 Y56.257 E9.91667
G1 X-27.693 Y55.860 E10.03308
G1 X-29.924 Y54.424 E10.17171
G1 X-35.924 Y48.424 E10.61502
G1 X-37.194 Y46.593 E10.73144
G1 X-37.757 Y44.000 E10.87007
G1 X-37.757 Y-45.000 E15.51986
G1 X-37.360 Y-47.193 E15.63628
G1 X-35.924 Y-49.424 E15.77491
G1 X-30.924 Y-54.424 E16.14434
G1 X-29.093 Y-55.694 E16.26076
G1 X-26.500 Y-56.257 E16.39938
G1 X26.500 Y-56.257 E19.16836
G1 X28.693 Y-55.860 E19.28478
G1 X30.924 Y-54.424 E19.42340 F1200.000
G1 X35.924 Y-49.424 E19.79283
G1 X37.194 Y-47.593 E19.90925
G1 X37.757 Y-45.000 E20.04788
G1 X37.757 Y-0.060 E22.39576
G1 X37.338 Y0.000 F3600.000
G1 X37.338 Y44.000 E24.69454 F1200.000
G1 X36.941 Y46.115 E24.80696
G1 X35.628 Y48.128 E24.93253
G1 X29.628 Y54.128 E25.37584
G1 X27.852 Y55.343 E25.48826
G1 X25.500 Y55.838 E25.61383
G1 X-25.500 Y55.838 E28.27832
G1 X-27.615 Y55.441 E28.39074
G1 X-29.628 Y54.128 E28.51631
G1 X-35.628 Y48.128 E28.95962
G1 X-36.843 Y46.352 E29.07204
G1 X-37.338 Y44.000 E29.19761
G1 X-37.338 Y-45.000 E33.84741
G1 X-36.941 Y-47.115 E33.95983
G1 X-35.628 Y-49.128 E34.08540
G1 X-30.628 Y-54.128 E34.45483
G1 X-28.852 Y-55.343 E34.56725
G1 X-26.500 Y-55.838 E34.69282
G1 X26.500 Y-55.838 E37.46180
G1 X28.615 Y-55.441 E37.57422
G1 X30.628 Y-54.128 E37.69979 F1200.000
G1 X35.628 Y-49.128 E38.06922
G1 X36.843 Y-47.352 E38.18164
G1 X37.338 Y-45.000 E38.30721
G1 X37.338 Y-0.060 E40.65509
G1 X36.919 Y0.000 F3600.000
G1 X36.919 Y44.000 E42.95387 F1200.000
G1 X36.523 Y46.034 E43.06214
G1 X35.332 Y47.832 E43.17479
G1 X29.332 Y53.832 E43.61811
G1 X27.613 Y54.990 E43.72638
G1 X25.500 Y55.419 E43.83903
G1 X-25.500 Y55.419 E46.50352
G1 X-27.534 Y55.023 E46.61180
G1 X-29.332 Y53.832 E46.72445
G1 X-35.332 Y47.832 E47.16776
G1 X-36.490 Y46.113 E47.27604
G1 X-36.919 Y44.000 E47.38869
G1 X-36.919 Y-45.000 E52.03848
G1 X-36.523 Y-47.034 E52.14676
G1 X-35.332 Y-48.832 E52.25941
G1 X-30.332 Y-53.832 E52.62884
G1 X-28.613 Y-54.990 E52.73711
G1 X-26.500 Y-55.419 E52.84976
G1 X26.500 Y-55.419 E55.61874
G1 X28.534 Y-55.023 E55.72702
G1 X30.332 Y-53.832 E55.83966 F1200.000
G1 X35.332 Y-48.832 E56.20909
G1 X36.490 Y-47.113 E56.31737
G1 X36.919 Y-45.000 E56.43002
G1 X36.919 Y-0.060 E58.77790
G1 F2880
G1 X36.919 Y2.340 E54.97790
G1 E54.77790 F4800.00000
G92 E0
G1 Z1.300 F3600.000
G1 X-26.876 Y-36.070 F3600.000
G1 Z0.300 F3600.000
G1 E4.00000 F4800.00000
G1 X-11.504 Y-5.235 E5.80008 F1200.000
G1 X-11.504 Y5.204 E6.34546
G1 X-26.825 Y40.953 E8.37744
G1 X-28.496 Y40.610 E8.46658
G1 X-28.496 Y29.887 E9.02679
G1 X-28.459 Y29.609 E9.04146
G1 X-28.459 Y-34.668 E12.39961
G1 X-28.551 Y-35.587 E12.44783
G1 X-26.934 Y-36.053 E12.53576
G1 X-27.095 Y-35.571 F3600.000
G1 X-11.923 Y-5.136 E14.31245 F1200.000
G1 X-11.923 Y5.118 E14.84819
G1 X-27.075 Y40.474 E16.85783
G1 X-28.077 Y40.268 E16.91127
G1 X-28.077 Y29.915 E17.45218
G1 X-28.040 Y29.637 E17.46686
G1 X-28.040 Y-34.689 E20.82754
G1 X-28.099 Y-35.281 E20.85862
G1 X-27.153 Y-35.554 E20.91008
G1 X-27.293 Y-35.121 F3600.000
G1 X-12.300 Y-5.047 E22.31675 F1200.000
G1 X-12.300 Y5.041 E22.73904
G1 X-27.301 Y40.043 E24.33311
G1 X-27.700 Y39.961 E24.35017
G1 X-27.700 Y29.940 E24.76964
G1 X-27.663 Y29.662 E24.78140
G1 X-27.663 Y-34.708 E27.47592
G1 X-27.693 Y-35.006 E27.48844
G1 X-27.350 Y-35.104 E27.50336
G1 X-26.925 Y-35.277 F3600.000
G1 F2880
G1 X-26.276 Y-32.958 E23.70336
G1 E23.50336 F4800.00000
G92 E0
G1 Z1.300 F3600.000
G1 X26.876 Y-36.070 F3600.000
G1 Z0.300 F3600.000
G1 E4.00000 F4800.00000
G1 X28.551 Y-35.587 E4.09106 F1200.000
G1 X28.459 Y-34.668 E4.13928
G1 X28.459 Y29.609 E7.49743
G1 X28.496 Y29.887 E7.51210
G1 X28.496 Y40.610 E8.07231
G1 X26.825 Y40.953 E8.16145
G1 X11.504 Y5.204 E10.19343
G1 X11.504 Y-5.235 E10.73882
G1 X26.849 Y-36.016 E12.53576
G1 X27.095 Y-35.571 F3600.000
G1 X28.099 Y-35.281 E12.59035 F1200.000
G1 X28.040 Y-34.689 E12.62143
G1 X28.040 Y29.637 E15.98211
G1 X28.077 Y29.915 E15.99679
G1 X28.077 Y40.268 E16.53770
G1 X27.075 Y40.474 E16.59114
G1 X11.923 Y5.118 E18.60078
G1 X11.923 Y-5.136 E19.13652
G1 X27.068 Y-35.517 E20.91008
G1 X27.293 Y-35.121 F3600.000
G1 X27.693 Y-35.006 E20.92751 F1200.000
G1 X27.663 Y-34.708 E20.94004
G1 X27.663 Y29.662 E23.63456
G1 X27.700 Y29.940 E23.64631
G1 X27.700 Y39.961 E24.06578
G1 X27.301 Y40.043 E24.08285
G1 X12.300 Y5.041 E25.67691
G1 X12.300 Y-5.047 E26.09921
G1 X27.266 Y-35.067 E27.50336
G1 X27.427 Y-35.498 F3600.000
G1 F2880
G1 X27.693 Y-35.006 E26.82050
G1 F2880
G1 X27.663 Y-34.708 E26.34667
G1 F2880
G1 X27.663 Y-33.038 E23.70336
G1 E23.50336 F4800.00000
G92 E0
G1 Z1.300 F3600.000
G1 X0.000 Y6.048 F3600.000
G1 Z0.300 F3600.000
G1 E4.00000 F4800.00000
G1 X13.736 Y38.098 E5.82174 F1200.000
G1 X-13.736 Y38.098 E7.25698
G1 X-0.024 Y6.103 E9.07558
G1 X0.000 Y7.111 F3600.000
G1 X13.100 Y37.679 E10.81307 F1200.000
G1 X-13.100 Y37.679 E12.18193
G1 X-0.024 Y7.166 E13.91628
G1 X0.000 Y8.069 F3600.000
G1 X12.528 Y37.302 E15.24762 F1200.000
G1 X-12.528 Y37.302 E16.29649
G1 X-0.024 Y8.124 E17.62532
G1 X0.316 Y7.824 F3600.000
G1 F2880
G1 X0.925 Y10.329 E13.82532
G1 E13.62532 F4800.00000
G92 E0
G1 Z1.300 F3600.000
G1 X0.000 Y6.038 F3600.000
G1 X18.750 Y35.955 F3600.000
G1 X23.055 Y44.096 F3600.000
G1 X28.438 Y42.731 F3600.000
G1 X30.500 Y43.586 F3600.000
G1 X30.504 Y8.069 F3600.000
G1 Z0.300 F3600.000
G1 E4.00000 F4800.00000
G1 X30.504 Y43.587 E5.85565 F1200.000
G1 X25.087 Y49.004 E6.25585
G1 X-25.087 Y49.004 E8.87723
G1 X-30.504 Y43.587 E9.27743
G1 X-30.504 Y-44.587 E13.88411
G1 X-26.087 Y-49.004 E14.21042
G1 X-22.879 Y-49.004 E14.37806
G1 X-22.318 Y-48.505 E14.41725
G1 X-8.816 Y-36.504 E15.36105 F1200.000
G1 X8.816 Y-36.504 E16.28225
G1 X22.879 Y-49.004 E17.26524
G1 X26.087 Y-49.004 E17.43288
G1 X30.504 Y-44.587 E17.75919
G1 X30.504 Y8.009 E20.50709
G1 X30.923 Y8.069 F3600.000
G1 X30.923 Y43.761 E22.37180 F1200.000
G1 X25.261 Y49.423 E22.79013
G1 X-25.261 Y49.423 E25.42964
G1 X-30.923 Y43.761 E25.84797
G1 X-30.923 Y-44.761 E30.47278
G1 X-26.261 Y-49.423 E30.81722
G1 X-22.719 Y-49.423 E31.00224
G1 X-22.040 Y-48.819 E31.04976
G1 X-8.657 Y-36.923 E31.98523 F1200.000
G1 X8.657 Y-36.923 E32.88980
G1 X22.719 Y-49.423 E33.87278
G1 X26.261 Y-49.423 E34.05781
G1 X30.923 Y-44.761 E34.40225
G1 X30.923 Y8.009 E37.15921
G1 X31.300 Y8.069 F3600.000
G1 X31.300 Y43.917 E38.65982 F1200.000
G1 X25.417 Y49.800 E39.00808
G1 X-25.417 Y49.800 E41.13602
G1 X-31.300 Y43.917 E41.48428
G1 X-31.300 Y-44.917 E45.20292
G1 X-26.417 Y-49.800 E45.49198
G1 X-22.576 Y-49.800 E45.65277
G1 X-21.789 Y-49.101 E45.69684
G1 X-8.514 Y-37.300 E46.44037 F1200.000
G1 X8.514 Y-37.300 E47.15313
G1 X22.576 Y-49.800 E47.94073
G1 X26.417 Y-49.800 E48.10152
G1 X31.300 Y-44.917 E48.39058
G1 X31.300 Y8.009 E50.60609
G1 X30.954 Y8.269 F3600.000
G1 F2880
G1 X31.300 Y10.409 E46.80609
G1 E46.60609 F4800.00000
G92 E0
G1 Z1.300 F3600.000
G1 X30.500 Y43.586 F3600.000
G1 X21.519 Y43.230 F3600.000
G1 X18.750 Y35.955 F3600.000
G1 X6.491 Y7.352 F3600.000
G1 X11.500 Y5.205 F3600.000
G1 X15.303 Y14.803 F3600.000
G1 Z0.300 F3600.000
G1 E4.00000 F4800.00000
G1 X-17.574 Y-18.074 E6.43037 F1200.000
G1 X-16.984 Y-16.892 F3600.000
G1 X15.747 Y15.840 E8.85003 F1200.000
G1 X16.192 Y16.877 F3600.000
G1 X-16.395 Y-15.710 E11.25901 F1200.000
G1 X-15.806 Y-14.528 F3600.000
G1 X16.636 Y17.914 E13.65728 F1200.000
G1 X17.081 Y18.951 F3600.000
G1 X-15.217 Y-13.346 E16.04486 F1200.000
G1 X-14.627 Y-12.164 F3600.000
G1 X17.525 Y19.989 E18.42175 F1200.000
G1 X17.970 Y21.026 F3600.000
G1 X-14.038 Y-10.982 E20.78793 F1200.000
G1 X-13.449 Y-9.800 F3600.000
G1 X18.414 Y22.063 E23.14342 F1200.000
G1 X18.859 Y23.100 F3600.000
G1 X-12.860 Y-8.618 E25.48822 F1200.000
G1 X-12.271 Y-7.436 F3600.000
G1 X19.303 Y24.138 E27.82231 F1200.000
G1 X19.748 Y25.175 F3600.000
G1 X-11.681 Y-6.254 E30.14572 F1200.000
G1 X-11.257 Y-5.237 F3600.000
G1 X-0.159 Y5.861 E30.96615 F1200.000
G1 X-0.336 Y6.276 E30.98974
G1 X-11.257 Y-4.644 E31.79703
G1 X-11.257 Y-4.052 E31.82801
G1 X-0.514 Y6.691 E32.62215
G1 X-0.692 Y7.106 E32.64574
G1 X-11.257 Y-3.459 E33.42674
G1 X-11.257 Y-2.866 E33.45772
G1 X-0.870 Y7.521 E34.22557
G1 X-1.048 Y7.936 E34.24917
G1 X-11.257 Y-2.273 E35.00388
G1 X-11.257 Y-1.681 E35.03486
G1 X-1.225 Y8.351 E35.77642
G1 X-1.403 Y8.765 E35.80002
G1 X-11.257 Y-1.088 E36.52843
G1 X-11.257 Y-0.495 E36.55942
G1 X-1.581 Y9.180 E37.27469
G1 X-1.759 Y9.595 E37.29828
G1 X-11.257 Y0.097 E38.00041
G1 X-11.257 Y0.690 E38.03139
G1 X-1.937 Y10.010 E38.72038
G1 X-2.114 Y10.425 E38.74397
G1 X-11.257 Y1.283 E39.41981
G1 X-11.257 Y1.875 E39.45079
G1 X-2.292 Y10.840 E40.11349
G1 X-2.470 Y11.255 E40.13708
G1 X-11.257 Y2.468 E40.78663
G1 X-11.257 Y3.061 E40.81761
G1 X-2.648 Y11.670 E41.45402
G1 X-2.826 Y12.085 E41.47761
G1 X-11.257 Y3.654 E42.10087
G1 X-11.257 Y4.246 E42.13186
G1 X-3.004 Y12.499 E42.74197
G1 X-3.181 Y12.914 E42.76557
G1 X-11.257 Y4.839 E43.36254
G1 X-11.331 Y5.358 E43.38992
G1 X-3.359 Y13.329 E43.97923
G1 X-3.537 Y13.744 E44.00282
G1 X-11.509 Y5.772 E44.59213
G1 X-11.686 Y6.187 E44.61572
G1 X-3.715 Y14.159 E45.20503
G1 X-3.893 Y14.574 E45.22862
G1 X-11.864 Y6.602 E45.81793
G1 X-12.042 Y7.017 E45.84153
G1 X-4.070 Y14.989 E46.43083
G1 X-4.248 Y15.404 E46.45443
G1 X-12.220 Y7.432 E47.04373
G1 X-12.398 Y7.847 E47.06733
G1 X-4.426 Y15.819 E47.65663
G1 X-4.604 Y16.233 E47.68023
G1 X-12.576 Y8.262 E48.26953
G1 X-12.753 Y8.677 E48.29313
G1 X-4.782 Y16.648 E48.88244
G1 X-4.959 Y17.063 E48.90603
G1 X-12.931 Y9.092 E49.49534
G1 X-13.109 Y9.506 E49.51893
G1 X-5.137 Y17.478 E50.10824
G1 X-5.315 Y17.893 E50.13183
G1 X-13.287 Y9.921 E50.72114
G1 X-13.465 Y10.336 E50.74473
G1 X-5.493 Y18.308 E51.33404
G1 X-5.671 Y18.723 E51.35764
G1 X-13.642 Y10.751 E51.94694
G1 X-13.820 Y11.166 E51.97054
G1 X-5.849 Y19.138 E52.55984
G1 X-6.026 Y19.553 E52.58344
G1 X-13.998 Y11.581 E53.17274
G1 X-14.176 Y11.996 E53.19634
G1 X-6.204 Y19.967 E53.78564
G1 X-6.382 Y20.382 E53.80924
G1 X-14.354 Y12.411 E54.39855
G1 X-14.531 Y12.826 E54.42214
G1 X-6.560 Y20.797 E55.01145
G1 X-6.738 Y21.212 E55.03504
G1 X-14.709 Y13.240 E55.62435
G1 X-14.887 Y13.655 E55.64794
G1 X-6.915 Y21.627 E56.23725
G1 X-7.093 Y22.042 E56.26084
G1 X-15.065 Y14.070 E56.85015
G1 X-15.243 Y14.485 E56.87375
G1 X-7.271 Y22.457 E57.46305
G1 X-7.449 Y22.872 E57.48665
G1 X-15.420 Y14.900 E58.07595
G1 X-15.598 Y15.315 E58.09955
G1 X-7.627 Y23.287 E58.68885
G1 X-7.804 Y23.701 E58.71245
G1 X-15.776 Y15.730 E59.30176
G1 X-15.954 Y16.145 E59.32535
G1 X-7.982 Y24.116 E59.91466
G1 X-8.160 Y24.531 E59.93825
G1 X-16.132 Y16.560 E60.52756
G1 X-16.310 Y16.975 E60.55115
G1 X-8.338 Y24.946 E61.14046
G1 X-8.516 Y25.361 E61.16405
G1 X-16.487 Y17.389 E61.75336
G1 X-16.665 Y17.804 E61.77696
G1 X-8.693 Y25.776 E62.36626
G1 X-8.871 Y26.191 E62.38986
G1 X-16.843 Y18.219 E62.97916
G1 X-17.021 Y18.634 E63.00276
G1 X-9.049 Y26.606 E63.59206
G1 X-9.227 Y27.021 E63.61566
G1 X-17.199 Y19.049 E64.20496
G1 X-17.376 Y19.464 E64.22856
G1 X-9.405 Y27.436 E64.81787
G1 X-9.583 Y27.850 E64.84146
G1 X-17.554 Y19.879 E65.43077
G1 X-17.732 Y20.294 E65.45436
G1 X-9.760 Y28.265 E66.04367
G1 X-9.938 Y28.680 E66.06726
G1 X-17.910 Y20.709 E66.65657
G1 X-18.088 Y21.123 E66.68016
G1 X-10.116 Y29.095 E67.26947
G1 X-10.294 Y29.510 E67.29307
G1 X-18.265 Y21.538 E67.88237
G1 X-18.443 Y21.953 E67.90597
G1 X-10.472 Y29.925 E68.49527
G1 X-10.649 Y30.340 E68.51887
G1 X-18.621 Y22.368 E69.10817
G1 X-18.799 Y22.783 E69.13177
G1 X-10.827 Y30.755 E69.72108
G1 X-11.005 Y31.170 E69.74467
G1 X-18.977 Y23.198 E70.33398
G1 X-19.154 Y23.613 E70.35757
G1 X-11.183 Y31.584 E70.94688
G1 X-11.361 Y31.999 E70.97047
G1 X-19.332 Y24.028 E71.55978
G1 X-19.510 Y24.443 E71.58337
G1 X-11.538 Y32.414 E72.17268
G1 X-11.716 Y32.829 E72.19628
G1 X-19.688 Y24.857 E72.78558
G1 X-19.866 Y25.272 E72.80918
G1 X-11.894 Y33.244 E73.39848
G1 X-12.072 Y33.659 E73.42208
G1 X-20.044 Y25.687 E74.01138
G1 X-20.221 Y26.102 E74.03498
G1 X-12.250 Y34.074 E74.62428
G1 X-12.428 Y34.489 E74.64788
G1 X-20.399 Y26.517 E75.23719
G1 X-20.577 Y26.932 E75.26078
G1 X-12.605 Y34.904 E75.85009
G1 X-12.783 Y35.318 E75.87368
G1 X-20.755 Y27.347 E76.46299
G1 X-20.933 Y27.762 E76.48658
G1 X-12.961 Y35.733 E77.07589
G1 X-13.139 Y36.148 E77.09948
G1 X-21.110 Y28.177 E77.68879
G1 X-21.288 Y28.591 E77.71239
G1 X-13.317 Y36.563 E78.30169
G1 X-13.494 Y36.978 E78.32529
G1 X-21.466 Y29.006 E78.91459
G1 X-21.644 Y29.421 E78.93819
G1 X-13.672 Y37.393 E79.52749
G1 X-13.850 Y37.808 E79.55109
G1 X-21.822 Y29.836 E80.14039
G1 X-21.999 Y30.251 E80.16399
G1 X-3.494 Y48.757 E81.53202
G1 X-2.901 Y48.757 E81.56301
G1 X-13.313 Y38.345 E82.33269
G1 X-12.720 Y38.345 E82.36367
G1 X-2.308 Y48.757 E83.13335
G1 X-1.716 Y48.757 E83.16434
G1 X-12.127 Y38.345 E83.93402
G1 X-11.535 Y38.345 E83.96500
G1 X-1.123 Y48.757 E84.73469
G1 X-0.530 Y48.757 E84.76567
G1 X-10.942 Y38.345 E85.53535
G1 X-10.349 Y38.345 E85.56633
G1 X0.062 Y48.757 E86.33602
G1 X0.655 Y48.757 E86.36700
G1 X-9.757 Y38.345 E87.13668
G1 X-9.164 Y38.345 E87.16767
G1 X1.248 Y48.757 E87.93735
G1 X1.841 Y48.757 E87.96833
G1 X-8.571 Y38.345 E88.73801
G1 X-7.978 Y38.345 E88.76900
G1 X2.433 Y48.757 E89.53868
G1 X3.026 Y48.757 E89.56966
G1 X-7.386 Y38.345 E90.33935
G1 X-6.793 Y38.345 E90.37033
G1 X3.619 Y48.757 E91.14001
G1 X4.211 Y48.757 E91.17099
G1 X-6.200 Y38.345 E91.94068
G1 X-5.608 Y38.345 E91.97166
G1 X4.804 Y48.757 E92.74134
G1 X5.397 Y48.757 E92.77232
G1 X-5.015 Y38.345 E93.54201
G1 X-4.422 Y38.345 E93.57299
G1 X5.989 Y48.757 E94.34267
G1 X6.582 Y48.757 E94.37366
G1 X-3.830 Y38.345 E95.14334
G1 X-3.237 Y38.345 E95.17432
G1 X7.175 Y48.757 E95.94401
G1 X7.768 Y48.757 E95.97499
G1 X-2.644 Y38.345 E96.74467
G1 X-2.051 Y38.345 E96.77565
G1 X8.360 Y48.757 E97.54534
G1 X8.953 Y48.757 E97.57632
G1 X-1.459 Y38.345 E98.34600
G1 X-0.866 Y38.345 E98.37698
G1 X9.546 Y48.757 E99.14667
G1 X10.138 Y48.757 E99.17765
G1 X-0.273 Y38.345 E99.94733
G1 X0.319 Y38.345 E99.97832
G1 X10.731 Y48.757 E100.74800
G1 X11.324 Y48.757 E100.77898
G1 X0.912 Y38.345 E101.54866
G1 X1.505 Y38.345 E101.57965
G1 X11.916 Y48.757 E102.34933
G1 X12.509 Y48.757 E102.38031
G1 X2.097 Y38.345 E103.15000
G1 X2.690 Y38.345 E103.18098
G1 X13.102 Y48.757 E103.95066
G1 X13.695 Y48.757 E103.98164
G1 X3.283 Y38.345 E104.75133
G1 X3.876 Y38.345 E104.78231
G1 X14.287 Y48.757 E105.55199
G1 X14.880 Y48.757 E105.58298
G1 X4.468 Y38.345 E106.35266
G1 X5.061 Y38.345 E106.38364
G1 X15.473 Y48.757 E107.15332
G1 X16.065 Y48.757 E107.18431
G1 X5.654 Y38.345 E107.95399
G1 X6.246 Y38.345 E107.98497
G1 X16.658 Y48.757 E108.75466
G1 X17.251 Y48.757 E108.78564
G1 X6.839 Y38.345 E109.55532
G1 X7.432 Y38.345 E109.58630
G1 X17.843 Y48.757 E110.35599
G1 X18.436 Y48.757 E110.38697
G1 X8.025 Y38.345 E111.15665
G1 X8.617 Y38.345 E111.18764
G1 X19.029 Y48.757 E111.95732
G1 X19.622 Y48.757 E111.98830
G1 X9.210 Y38.345 E112.75798
G1 X9.803 Y38.345 E112.78897
G1 X20.214 Y48.757 E113.55865
G1 X20.807 Y48.757 E113.58963
G1 X10.395 Y38.345 E114.35932
G1 X10.988 Y38.345 E114.39030
G1 X21.400 Y48.757 E115.15998
G1 X21.992 Y48.757 E115.19096
G1 X11.581 Y38.345 E115.96065
G1 X12.173 Y38.345 E115.99163
G1 X22.585 Y48.757 E116.76131
G1 X23.178 Y48.757 E116.79229
G1 X12.766 Y38.345 E117.56198
G1 X13.359 Y38.345 E117.59296
G1 X23.770 Y48.757 E118.36264
G1 X24.363 Y48.757 E118.39363
G1 X13.952 Y38.345 E119.16331
G1 X13.866 Y37.666 F3600.000
