; generated by Slic3r 1.2.9 on 2016-02-18 at 13:06:44

; external perimeters extrusion width = 0.40mm
; perimeters extrusion width = 0.67mm
; infill extrusion width = 0.67mm
; solid infill extrusion width = 0.67mm
; top infill extrusion width = 0.67mm

M107
M104 S210 ; set temperature
G28 ; home all axes
G1 X70Y70Z10 F5000 
M109 S210 ; wait for temperature to be reached
G21 ; set units to millimeters
G90 ; use absolute coordinates
M82 ; use absolute distances for extrusion
G92 E0
G1 E-3.50000 F1800.00000
G92 E0
G1 Z0.300 F6000.000
G1 X23.121 Y-20.046 F6000.000
G1 E3.50000 F1800.00000
G1 X36.799 Y-0.591 E4.74247 F1200.000
G1 X37.353 Y0.288 E4.79679
G1 X37.692 Y0.919 E4.83421
G1 X37.997 Y1.583 E4.87235
G1 X38.252 Y2.232 E4.90882
G1 X38.597 Y3.355 E4.97019
G1 X45.129 Y27.597 E6.28186
G1 X45.344 Y29.187 E6.36570
G1 X45.348 Y29.822 E6.39889
G1 X45.325 Y30.396 E6.42889
G1 X45.296 Y30.737 E6.44678
G1 X45.124 Y31.748 E6.50033
G1 X45.041 Y32.073 E6.51786
G1 X44.707 Y33.042 E6.57142
G1 X44.573 Y33.349 E6.58896
G1 X44.085 Y34.251 E6.64251
G1 X43.901 Y34.533 E6.66010
G1 X43.273 Y35.342 E6.71359
G1 X43.046 Y35.589 E6.73112
G1 X42.294 Y36.286 E6.78467
G1 X42.030 Y36.493 E6.80221
G1 X41.174 Y37.057 E6.85576
G1 X40.879 Y37.218 E6.87334
G1 X39.943 Y37.635 E6.92686
G1 X39.627 Y37.746 E6.94440
G1 X38.635 Y38.004 E6.99793
G1 X37.812 Y38.129 E7.04143
G1 X2.610 Y41.469 E8.88882
G1 X1.457 Y41.512 E8.94906
G1 X0.591 Y41.472 E8.99440
G1 X-0.105 Y41.391 E9.03097
G1 X-0.957 Y41.232 E9.07629
G1 X-1.635 Y41.056 E9.11286
G1 X-2.458 Y40.780 E9.15820
G1 X-3.105 Y40.512 E9.19477
G1 X-3.881 Y40.125 E9.24009
G1 X-4.484 Y39.770 E9.27667
G1 X-5.200 Y39.279 E9.32200
G1 X-5.748 Y38.845 E9.35857
G1 X-6.389 Y38.260 E9.40390
G1 X-6.872 Y37.753 E9.44048
G1 X-7.426 Y37.085 E9.48581
G1 X-7.834 Y36.516 E9.52238
G1 X-44.106 Y-19.024 E12.98803
G1 X-44.478 Y-19.667 E13.02686
G1 X-44.862 Y-20.535 E13.07645
G1 X-45.076 Y-21.197 E13.11278
G1 X-45.257 Y-22.039 E13.15778
G1 X-45.351 Y-23.037 E13.21014
G1 X-45.354 Y-23.285 E13.22311
G1 X-45.282 Y-24.285 E13.27549
G1 X-45.244 Y-24.530 E13.28846
G1 X-45.007 Y-25.504 E13.34082
G1 X-44.948 Y-25.685 E13.35080
G1 X-44.536 Y-26.661 E13.40615
G1 X-44.420 Y-26.881 E13.41912
G1 X-43.880 Y-27.726 E13.47149
G1 X-43.729 Y-27.923 E13.48446
G1 X-43.057 Y-28.667 E13.53684
G1 X-42.876 Y-28.836 E13.54979
G1 X-42.091 Y-29.459 E13.60217
G1 X-41.884 Y-29.597 E13.61514
G1 X-41.007 Y-30.081 E13.66751
G1 X-40.780 Y-30.183 E13.68049
G1 X-40.331 Y-30.363 E13.70577
G1 X-11.734 Y-40.521 E15.29125
G1 X-11.214 Y-40.680 E15.31969
G1 X-9.308 Y-41.105 E15.42171
G1 X-7.830 Y-41.328 E15.49980
G1 X-6.062 Y-41.483 E15.59252
G1 X-5.610 Y-41.499 E15.61613
G1 X-3.744 Y-41.491 E15.71365
G1 X-3.130 Y-41.452 E15.74577
G1 X-1.585 Y-41.294 E15.82689
G1 X-0.092 Y-41.049 E15.90596
G1 X1.603 Y-40.659 E15.99683
G1 X2.038 Y-40.536 E16.02043
G1 X3.790 Y-39.963 E16.11674
G1 X4.336 Y-39.748 E16.14743
G1 X5.756 Y-39.128 E16.22837
G1 X7.108 Y-38.435 E16.30776
G1 X7.901 Y-37.978 E16.35552
G1 X8.974 Y-37.300 E16.42187
G1 X10.588 Y-36.122 E16.52624
G1 X11.778 Y-35.104 E16.60809
G1 X12.560 Y-34.372 E16.66404
G1 X13.581 Y-33.296 E16.74151
G1 X14.296 Y-32.469 E16.79866
G1 X15.399 Y-31.017 E16.89389
G1 X23.086 Y-20.095 E17.59168
G1 X22.778 Y-19.805 F6000.000
G1 X36.456 Y-0.350 E18.83416 F1200.000
G1 X36.996 Y0.507 E18.88711
G1 X37.313 Y1.096 E18.92203
G1 X37.616 Y1.757 E18.96003
G1 X37.854 Y2.363 E18.99405
G1 X38.192 Y3.464 E19.05422
G1 X44.724 Y27.706 E20.36589
G1 X44.925 Y29.190 E20.44413
G1 X44.929 Y29.825 E20.47731
G1 X44.908 Y30.360 E20.50530
G1 X44.878 Y30.701 E20.52320
G1 X44.719 Y31.644 E20.57316
G1 X44.636 Y31.969 E20.59069
G1 X44.324 Y32.874 E20.64067
G1 X44.189 Y33.181 E20.65820
G1 X43.734 Y34.022 E20.70817
G1 X43.550 Y34.304 E20.72576
G1 X42.964 Y35.059 E20.77566
G1 X42.738 Y35.306 E20.79320
G1 X42.036 Y35.956 E20.84315
G1 X41.772 Y36.163 E20.86070
G1 X40.973 Y36.690 E20.91067
G1 X40.678 Y36.851 E20.92824
G1 X39.805 Y37.240 E20.97818
G1 X39.488 Y37.351 E20.99571
G1 X38.563 Y37.592 E21.04566
G1 X37.772 Y37.712 E21.08745
G1 X2.570 Y41.052 E22.93483
G1 X1.448 Y41.093 E22.99352
G1 X0.639 Y41.056 E23.03582
G1 X-0.057 Y40.975 E23.07240
G1 X-0.852 Y40.826 E23.11468
G1 X-1.530 Y40.650 E23.15126
G1 X-2.297 Y40.393 E23.19356
G1 X-2.944 Y40.125 E23.23013
G1 X-3.669 Y39.764 E23.27242
G1 X-4.272 Y39.409 E23.30900
G1 X-4.940 Y38.951 E23.35129
G1 X-5.488 Y38.516 E23.38786
G1 X-6.086 Y37.971 E23.43015
G1 X-6.569 Y37.464 E23.46673
G1 X-7.086 Y36.841 E23.50903
G1 X-7.494 Y36.272 E23.54560
G1 X-43.755 Y-19.253 E27.01028
G1 X-44.109 Y-19.865 E27.04722
G1 X-44.467 Y-20.675 E27.09349
G1 X-44.671 Y-21.305 E27.12810
G1 X-44.845 Y-22.111 E27.17118
G1 X-44.932 Y-23.042 E27.22003
G1 X-44.935 Y-23.288 E27.23288
G1 X-44.868 Y-24.221 E27.28175
G1 X-44.830 Y-24.464 E27.29461
G1 X-44.610 Y-25.373 E27.34347
G1 X-44.550 Y-25.554 E27.35345
G1 X-44.165 Y-26.467 E27.40517
G1 X-44.050 Y-26.684 E27.41803
G1 X-43.546 Y-27.472 E27.46690
G1 X-43.397 Y-27.668 E27.47974
G1 X-42.770 Y-28.362 E27.52861
G1 X-42.591 Y-28.530 E27.54145
G1 X-41.858 Y-29.111 E27.59032
G1 X-41.653 Y-29.248 E27.60318
G1 X-40.834 Y-29.700 E27.65205
G1 X-40.610 Y-29.801 E27.66490
G1 X-40.190 Y-29.968 E27.68849
G1 X-11.594 Y-40.126 E29.27397
G1 X-11.108 Y-40.275 E29.30051
G1 X-9.219 Y-40.695 E29.40162
G1 X-8.820 Y-40.767 E29.42281
G1 X-8.015 Y-40.883 E29.46532
G1 X-7.047 Y-40.988 E29.51618
G1 X-5.610 Y-41.081 E29.59140
G1 X-4.031 Y-41.079 E29.67389
G1 X-3.484 Y-41.059 E29.70247
G1 X-1.243 Y-40.825 E29.82023
G1 X-0.422 Y-40.686 E29.86372
G1 X0.527 Y-40.488 E29.91435
G1 X1.909 Y-40.137 E29.98886
G1 X3.391 Y-39.659 E30.07020
G1 X3.885 Y-39.479 E30.09769
G1 X5.588 Y-38.744 E30.19461
G1 X5.947 Y-38.573 E30.21535
G1 X6.700 Y-38.181 E30.25972
G1 X7.517 Y-37.719 E30.30877
G1 X8.730 Y-36.959 E30.38355
G1 X10.320 Y-35.800 E30.48633
G1 X11.505 Y-34.786 E30.56783
G1 X12.272 Y-34.068 E30.62269
G1 X13.274 Y-33.012 E30.69876
G1 X13.966 Y-32.211 E30.75406
G1 X15.058 Y-30.774 E30.84834
G1 X22.744 Y-19.854 E31.54599
G1 X22.436 Y-19.564 F6000.000
G1 X36.113 Y-0.110 E32.78846 F1200.000
G1 X36.639 Y0.727 E32.84006
G1 X36.933 Y1.273 E32.87248
G1 X37.235 Y1.931 E32.91033
G1 X37.456 Y2.494 E32.94191
G1 X37.788 Y3.573 E33.00088
G1 X44.320 Y27.815 E34.31255
G1 X44.506 Y29.192 E34.38517
G1 X44.510 Y29.827 E34.41836
G1 X44.490 Y30.324 E34.44434
G1 X44.461 Y30.665 E34.46224
G1 X44.313 Y31.541 E34.50861
G1 X44.230 Y31.866 E34.52614
G1 X43.940 Y32.705 E34.57254
G1 X43.805 Y33.012 E34.59007
G1 X43.383 Y33.793 E34.63645
G1 X43.199 Y34.075 E34.65404
G1 X42.656 Y34.776 E34.70036
G1 X42.429 Y35.023 E34.71789
G1 X41.778 Y35.626 E34.76427
G1 X41.513 Y35.833 E34.78181
G1 X40.772 Y36.322 E34.82819
G1 X40.477 Y36.484 E34.84576
G1 X39.666 Y36.844 E34.89212
G1 X39.350 Y36.955 E34.90965
G1 X38.491 Y37.179 E34.95601
G1 X37.733 Y37.295 E34.99609
G1 X2.531 Y40.635 E36.84348
G1 X1.438 Y40.674 E36.90061
G1 X0.687 Y40.640 E36.93988
G1 X-0.008 Y40.559 E36.97645
G1 X-0.747 Y40.421 E37.01570
G1 X-1.424 Y40.245 E37.05228
G1 X-2.137 Y40.006 E37.09154
G1 X-2.784 Y39.738 E37.12811
G1 X-3.456 Y39.403 E37.16737
G1 X-4.060 Y39.048 E37.20395
G1 X-4.679 Y38.623 E37.24321
G1 X-5.228 Y38.188 E37.27977
G1 X-5.783 Y37.681 E37.31903
G1 X-6.266 Y37.175 E37.35561
G1 X-6.746 Y36.596 E37.39487
G1 X-7.154 Y36.028 E37.43145
G1 X-43.404 Y-19.482 E40.89515
G1 X-43.740 Y-20.063 E40.93021
G1 X-44.072 Y-20.815 E40.97316
G1 X-44.266 Y-21.413 E41.00605
G1 X-44.432 Y-22.183 E41.04720
G1 X-44.513 Y-23.048 E41.09255
G1 X-44.516 Y-23.291 E41.10528
G1 X-44.454 Y-24.157 E41.15065
G1 X-44.416 Y-24.398 E41.16338
G1 X-44.212 Y-25.242 E41.20874
G1 X-44.152 Y-25.423 E41.21872
G1 X-43.794 Y-26.272 E41.26682
G1 X-43.681 Y-26.488 E41.27956
G1 X-43.213 Y-27.219 E41.32492
G1 X-43.065 Y-27.413 E41.33765
G1 X-42.483 Y-28.057 E41.38302
G1 X-42.305 Y-28.224 E41.39574
G1 X-41.625 Y-28.763 E41.44110
G1 X-41.422 Y-28.898 E41.45384
G1 X-40.662 Y-29.318 E41.49920
G1 X-40.439 Y-29.418 E41.51194
G1 X-40.050 Y-29.573 E41.53384
G1 X-11.454 Y-39.731 E43.11932
G1 X-11.003 Y-39.869 E43.14395
G1 X-9.131 Y-40.286 E43.24415
G1 X-8.760 Y-40.352 E43.26382
G1 X-7.955 Y-40.469 E43.30633
G1 X-7.003 Y-40.572 E43.35633
G1 X-5.610 Y-40.662 E43.42928
G1 X-4.032 Y-40.660 E43.51172
G1 X-3.505 Y-40.641 E43.53929
G1 X-1.313 Y-40.412 E43.65443
G1 X-0.492 Y-40.273 E43.69791
G1 X0.439 Y-40.079 E43.74762
G1 X1.781 Y-39.739 E43.81992
G1 X3.261 Y-39.260 E43.90121
G1 X3.738 Y-39.087 E43.92771
G1 X5.753 Y-38.201 E44.04272
G1 X6.506 Y-37.809 E44.08708
G1 X7.309 Y-37.355 E44.13528
G1 X8.487 Y-36.618 E44.20784
G1 X10.052 Y-35.478 E44.30902
G1 X11.232 Y-34.468 E44.39018
G1 X11.983 Y-33.764 E44.44393
G1 X12.966 Y-32.727 E44.51860
G1 X13.636 Y-31.954 E44.57205
G1 X14.717 Y-30.531 E44.66540
G1 X22.401 Y-19.613 E45.36290
G1 X21.258 Y-18.737 F6000.000
G1 X34.977 Y0.777 E46.60914 F1200.000
G1 X35.467 Y1.568 E46.65773
G1 X35.673 Y1.978 E46.68174
G1 X36.052 Y2.833 E46.73056
G1 X36.418 Y4.016 E46.79525
G1 X36.600 Y4.977 E46.84635
G1 X36.700 Y6.101 E46.90534
G1 X36.697 Y6.858 E46.94489
G1 X36.674 Y7.312 E46.96862
G1 X36.632 Y7.621 E46.98492
G1 X36.439 Y8.533 E47.03363
G1 X36.350 Y8.843 E47.05048
G1 X35.954 Y9.899 E47.10938
G1 X35.817 Y10.189 E47.12616
G1 X35.255 Y11.169 E47.18516
G1 X35.073 Y11.434 E47.20198
G1 X34.362 Y12.309 E47.26091
G1 X34.140 Y12.542 E47.27771
G1 X33.296 Y13.292 E47.33669
G1 X33.038 Y13.487 E47.35356
G1 X32.087 Y14.090 E47.41244
G1 X31.801 Y14.240 E47.42928
G1 X30.765 Y14.683 E47.48816
G1 X30.460 Y14.785 E47.50493
G1 X29.364 Y15.056 E47.56393
G1 X29.046 Y15.108 E47.58076
G1 X27.842 Y15.199 E47.64387
G1 X5.674 Y15.199 E48.80203
G1 X5.428 Y15.444 E48.82016
G1 X5.428 Y25.886 E49.36569
G1 X5.682 Y26.133 E49.38416
G1 X38.959 Y25.245 E51.12333
G1 X40.557 Y25.145 E51.20698
G1 X43.067 Y27.503 E51.38689
G1 X43.074 Y29.988 E51.51675
G1 X43.013 Y30.705 E51.55433
G1 X42.958 Y31.027 E51.57140
G1 X42.794 Y31.668 E51.60597
G1 X42.688 Y31.977 E51.62304
G1 X42.422 Y32.583 E51.65761
G1 X42.267 Y32.870 E51.67468
G1 X41.904 Y33.425 E51.70931
G1 X41.705 Y33.683 E51.72635
G1 X41.257 Y34.171 E51.76092
G1 X41.018 Y34.393 E51.77798
G1 X40.497 Y34.801 E51.81258
G1 X40.224 Y34.981 E51.82964
G1 X39.643 Y35.299 E51.86425
G1 X39.345 Y35.432 E51.88130
G1 X38.720 Y35.651 E51.91587
G1 X38.404 Y35.733 E51.93293
G1 X37.828 Y35.833 E51.96348
G1 X2.324 Y39.208 E53.82675
G1 X1.266 Y39.238 E53.88206
G1 X0.990 Y39.225 E53.89650
G1 X0.020 Y39.113 E53.94750
G1 X-0.251 Y39.062 E53.96193
G1 X-1.196 Y38.817 E54.01293
G1 X-1.458 Y38.729 E54.02737
G1 X-2.360 Y38.355 E54.07836
G1 X-2.607 Y38.232 E54.09280
G1 X-3.449 Y37.737 E54.14382
G1 X-3.677 Y37.581 E54.15826
G1 X-4.442 Y36.974 E54.20924
G1 X-4.646 Y36.788 E54.22368
G1 X-5.319 Y36.082 E54.27468
G1 X-5.496 Y35.869 E54.28912
G1 X-6.065 Y35.076 E54.34013
G1 X-6.210 Y34.841 E54.35456
G1 X-6.665 Y33.977 E54.40557
G1 X-6.776 Y33.724 E54.41999
G1 X-7.106 Y32.805 E54.47100
G1 X-7.181 Y32.539 E54.48544
G1 X-7.381 Y31.584 E54.53644
G1 X-7.419 Y31.310 E54.55087
G1 X-7.579 Y28.884 E54.67791
G1 X-7.579 Y11.148 E55.60453
G1 X-7.507 Y10.069 E55.66099
G1 X-7.466 Y9.791 E55.67566
G1 X-7.252 Y8.807 E55.72832
G1 X-7.172 Y8.537 E55.74299
G1 X-6.820 Y7.593 E55.79567
G1 X-6.703 Y7.337 E55.81033
G1 X-6.219 Y6.453 E55.86301
G1 X-6.067 Y6.217 E55.87767
G1 X-5.463 Y5.410 E55.93033
G1 X-5.279 Y5.198 E55.94500
G1 X-4.713 Y4.632 E55.98684
G1 X-4.354 Y4.302 E56.01232
G1 X-3.546 Y3.698 E56.06499
G1 X-3.310 Y3.546 E56.07966
G1 X-2.425 Y3.064 E56.13232
G1 X-2.170 Y2.947 E56.14699
G1 X-1.419 Y2.667 E56.18882
G1 X-0.956 Y2.516 E56.21431
G1 X0.030 Y2.302 E56.26698
G1 X0.308 Y2.263 E56.28164
G1 X1.381 Y2.191 E56.33783
G1 X8.565 Y2.192 E56.71320
G1 X8.879 Y2.166 E56.72962
G1 X9.067 Y2.118 E56.73976
G1 X9.211 Y2.051 E56.74808
G1 X9.343 Y1.961 E56.75640
G1 X9.533 Y1.752 E56.77120
G1 X9.610 Y1.612 E56.77952
G1 X9.663 Y1.462 E56.78784
G1 X9.691 Y1.305 E56.79617
G1 X9.692 Y1.146 E56.80449
G1 X9.631 Y0.800 E56.82284
G1 X4.307 Y-19.073 E57.89773
G1 X3.963 Y-20.127 E57.95562
G1 X3.560 Y-21.029 E58.00723
G1 X3.065 Y-21.884 E58.05885
G1 X2.484 Y-22.682 E58.11046
G1 X1.837 Y-23.400 E58.16093
G1 X1.104 Y-24.062 E58.21255
G1 X0.305 Y-24.644 E58.26416
G1 X-0.569 Y-25.149 E58.31692
G1 X-1.452 Y-25.542 E58.36739
G1 X-2.391 Y-25.848 E58.41901
G1 X-3.357 Y-26.055 E58.47062
G1 X-4.339 Y-26.159 E58.52223
G1 X-5.349 Y-26.159 E58.57499
G1 X-6.332 Y-26.055 E58.62661
G1 X-7.394 Y-25.828 E58.68335
G1 X-36.487 Y-18.032 E60.25692
G1 X-37.086 Y-17.916 E60.28884
G1 X-37.387 Y-17.885 E60.30463
G1 X-37.914 Y-17.872 E60.33217
G1 X-38.550 Y-17.933 E60.36556
G1 X-39.033 Y-18.022 E60.39123
G1 X-39.538 Y-18.173 E60.41876
G1 X-40.125 Y-18.427 E60.45216
G1 X-40.557 Y-18.662 E60.47783
G1 X-40.990 Y-18.961 E60.50536
G1 X-41.470 Y-19.384 E60.53875
G1 X-41.808 Y-19.740 E60.56442
G1 X-42.128 Y-20.159 E60.59196
G1 X-42.292 Y-20.413 E60.60775
G1 X-42.542 Y-20.876 E60.63527
G1 X-42.665 Y-21.153 E60.65107
G1 X-42.814 Y-21.576 E60.67451
G1 X-42.922 Y-21.957 E60.69523
G1 X-43.042 Y-22.589 E60.72883
G1 X-43.072 Y-22.907 E60.74551
G1 X-43.076 Y-23.263 E60.76410
G1 X-43.055 Y-23.781 E60.79119
G1 X-42.970 Y-24.330 E60.82020
G1 X-42.894 Y-24.640 E60.83688
G1 X-42.720 Y-25.167 E60.86590
G1 X-42.594 Y-25.461 E60.88258
G1 X-42.335 Y-25.952 E60.91160
G1 X-42.163 Y-26.221 E60.92828
G1 X-41.826 Y-26.663 E60.95730
G1 X-41.612 Y-26.899 E60.97398
G1 X-41.353 Y-27.143 E60.99257
G1 X-40.957 Y-27.478 E61.01965
G1 X-40.494 Y-27.786 E61.04867
G1 X-40.215 Y-27.940 E61.06535
G1 X-39.641 Y-28.191 E61.09809
G1 X-10.725 Y-38.454 E62.70115
G1 X-10.351 Y-38.550 E62.72129
G1 X-8.624 Y-38.918 E62.81356
G1 X-7.711 Y-39.049 E62.86176
G1 X-6.824 Y-39.143 E62.90836
G1 X-5.681 Y-39.222 E62.96819
G1 X-3.990 Y-39.221 E63.05655
G1 X-3.515 Y-39.200 E63.08140
G1 X-1.624 Y-39.005 E63.18068
G1 X-0.692 Y-38.847 E63.23009
G1 X0.166 Y-38.665 E63.27592
G1 X1.271 Y-38.391 E63.33539
G1 X2.860 Y-37.877 E63.42265
G1 X3.285 Y-37.719 E63.44635
G1 X4.894 Y-37.020 E63.53798
G1 X5.945 Y-36.477 E63.59978
G1 X6.679 Y-36.056 E63.64401
G1 X7.478 Y-35.564 E63.69302
G1 X9.078 Y-34.416 E63.79591
G1 X10.297 Y-33.374 E63.87967
G1 X11.021 Y-32.693 E63.93162
G1 X11.927 Y-31.731 E64.00064
G1 X12.513 Y-31.053 E64.04748
G1 X13.548 Y-29.690 E64.13689
G1 X21.223 Y-18.786 E64.83355
G1 X20.915 Y-18.496 F6000.000
G1 X34.630 Y1.012 E66.07940 F1200.000
G1 X35.104 Y1.778 E66.12645
G1 X35.292 Y2.152 E66.14834
G1 X35.658 Y2.975 E66.19540
G1 X36.011 Y4.117 E66.25786
G1 X36.184 Y5.033 E66.30654
G1 X36.281 Y6.112 E66.36312
G1 X36.278 Y6.851 E66.40176
G1 X36.257 Y7.272 E66.42376
G1 X36.220 Y7.548 E66.43835
G1 X36.032 Y8.434 E66.48565
G1 X35.952 Y8.712 E66.50073
G1 X35.568 Y9.736 E66.55787
G1 X35.446 Y9.995 E66.57288
G1 X34.900 Y10.946 E66.63011
G1 X34.737 Y11.183 E66.64516
G1 X34.048 Y12.032 E66.70232
G1 X33.849 Y12.240 E66.71735
G1 X33.030 Y12.968 E66.77456
G1 X32.800 Y13.142 E66.78966
G1 X31.877 Y13.727 E66.84677
G1 X31.621 Y13.862 E66.86185
G1 X30.616 Y14.291 E66.91896
G1 X30.343 Y14.383 E66.93397
G1 X29.280 Y14.645 E66.99120
G1 X28.996 Y14.692 E67.00625
G1 X27.833 Y14.780 E67.06715
G1 X5.255 Y14.780 E68.24676
G1 X5.010 Y15.025 E68.26489
G1 X5.010 Y26.316 E68.85478
G1 X5.263 Y26.563 E68.87325
G1 X38.978 Y25.664 E70.63529
G1 X40.402 Y25.574 E70.70986
G1 X42.648 Y27.684 E70.87084
G1 X42.655 Y29.975 E70.99052
G1 X42.597 Y30.652 E71.02603
G1 X42.548 Y30.940 E71.04130
G1 X42.393 Y31.548 E71.07408
G1 X42.298 Y31.824 E71.08935
G1 X42.045 Y32.399 E71.12213
G1 X41.906 Y32.656 E71.13740
G1 X41.563 Y33.182 E71.17023
G1 X41.384 Y33.413 E71.18547
G1 X40.960 Y33.875 E71.21826
G1 X40.746 Y34.074 E71.23352
G1 X40.252 Y34.461 E71.26632
G1 X40.008 Y34.622 E71.28158
G1 X39.457 Y34.923 E71.31440
G1 X39.190 Y35.042 E71.32965
G1 X38.598 Y35.250 E71.36243
G1 X38.315 Y35.323 E71.37769
G1 X37.764 Y35.419 E71.40692
G1 X2.292 Y38.791 E73.26851
G1 X1.271 Y38.819 E73.32189
G1 X1.024 Y38.808 E73.33481
G1 X0.083 Y38.699 E73.38430
G1 X-0.160 Y38.653 E73.39721
G1 X-1.077 Y38.415 E73.44669
G1 X-1.311 Y38.337 E73.45961
G1 X-2.186 Y37.974 E73.50908
G1 X-2.407 Y37.864 E73.52200
G1 X-3.224 Y37.383 E73.57150
