; generated by Slic3r 1.2.9 on 2016-01-26 at 13:10:18

; external perimeters extrusion width = 0.40mm
; perimeters extrusion width = 0.67mm
; infill extrusion width = 0.67mm
; solid infill extrusion width = 0.67mm
; top infill extrusion width = 0.67mm
; support material extrusion width = 0.40mm

M107
M104 S210 ; set temperature
G28 ; home all axes
G1 X70Y70Z5 F5000 
M109 S210 ; wait for temperature to be reached
G21 ; set units to millimeters
G90 ; use absolute coordinates
M82 ; use absolute distances for extrusion
G92 E0
G1 E-3.50000 F1800.00000
G92 E0
G1 Z0.300 F6000.000
G1 X-0.000 Y20.636 F6000.000
G1 E3.50000 F1800.00000
G1 X-2.071 Y20.634 E3.60818 F722.958
G1 X-2.827 Y20.611 E3.64773
G1 X-4.160 Y20.506 E3.71755
G1 X-5.054 Y20.386 E3.76471
G1 X-6.043 Y20.204 E3.81725
G1 X-7.106 Y19.947 E3.87436
G1 X-7.626 Y19.798 E3.90265
G1 X-8.719 Y19.427 E3.96291
G1 X-9.767 Y18.999 E4.02210
G1 X-10.693 Y18.557 E4.07567
G1 X-11.350 Y18.201 E4.11473
G1 X-12.188 Y17.696 E4.16587
G1 X-12.934 Y17.195 E4.21279
G1 X-13.730 Y16.593 E4.26494
G1 X-14.544 Y15.905 E4.32060
G1 X-15.287 Y15.196 E4.37427
G1 X-15.905 Y14.543 E4.42123
G1 X-16.593 Y13.730 E4.47686
G1 X-17.189 Y12.941 E4.52854
G1 X-17.696 Y12.188 E4.57595
G1 X-18.246 Y11.270 E4.63187
G1 X-18.575 Y10.657 E4.66821
G1 X-19.051 Y9.649 E4.72648
G1 X-19.474 Y8.593 E4.78587
G1 X-19.802 Y7.615 E4.83980
G1 X-19.947 Y7.106 E4.86742
G1 X-20.175 Y6.178 E4.91734
G1 X-20.363 Y5.194 E4.96969
G1 X-20.489 Y4.305 E5.01659
G1 X-20.579 Y3.365 E5.06592
G1 X-20.617 Y2.670 E5.10230
G1 X-20.636 Y1.784 E5.14862
G1 X-20.636 Y-1.784 E5.33502
G1 X-20.617 Y-2.670 E5.38134
G1 X-20.579 Y-3.365 E5.41769
G1 X-20.506 Y-4.160 E5.45938
G1 X-20.386 Y-5.054 E5.50654
G1 X-20.204 Y-6.043 E5.55906
G1 X-19.947 Y-7.107 E5.61623
G1 X-19.801 Y-7.618 E5.64402
G1 X-19.427 Y-8.719 E5.70473
G1 X-19.051 Y-9.648 E5.75711
G1 X-18.575 Y-10.657 E5.81541
G1 X-18.201 Y-11.350 E5.85656
G1 X-17.628 Y-12.294 E5.91422
G1 X-17.190 Y-12.941 E5.95505
G1 X-16.504 Y-13.840 E6.01415
G1 X-15.889 Y-14.561 E6.06365
G1 X-15.196 Y-15.287 E6.11610
G1 X-14.544 Y-15.905 E6.16303
G1 X-13.730 Y-16.593 E6.21869
G1 X-12.941 Y-17.189 E6.27036
G1 X-12.294 Y-17.628 E6.31124
G1 X-11.350 Y-18.201 E6.36889
G1 X-10.657 Y-18.575 E6.41005
G1 X-9.649 Y-19.051 E6.46830
G1 X-8.718 Y-19.428 E6.52077
G1 X-7.615 Y-19.802 E6.58163
G1 X-7.107 Y-19.947 E6.60922
G1 X-6.178 Y-20.175 E6.65917
G1 X-5.194 Y-20.363 E6.71152
G1 X-4.305 Y-20.489 E6.75841
G1 X-3.517 Y-20.567 E6.79980
G1 X-2.071 Y-20.634 E6.87545
G1 X1.784 Y-20.636 E7.07683
G1 X2.827 Y-20.611 E7.13137 F722.958
G1 X4.160 Y-20.506 E7.20118
G1 X5.054 Y-20.386 E7.24835
G1 X6.043 Y-20.204 E7.30087
G1 X7.106 Y-19.947 E7.35800
G1 X7.618 Y-19.801 E7.38582
G1 X8.719 Y-19.427 E7.44654
G1 X9.767 Y-18.999 E7.50573
G1 X10.657 Y-18.575 E7.55723
G1 X11.270 Y-18.246 E7.59356
G1 X12.188 Y-17.696 E7.64950
G1 X12.941 Y-17.190 E7.69688
G1 X13.730 Y-16.593 E7.74857
G1 X14.543 Y-15.906 E7.80418
G1 X15.196 Y-15.287 E7.85117
G1 X15.889 Y-14.561 E7.90360
G1 X16.504 Y-13.840 E7.95311
G1 X17.189 Y-12.941 E8.01217
G1 X17.628 Y-12.294 E8.05305
G1 X18.201 Y-11.350 E8.11070
G1 X18.575 Y-10.657 E8.15186
G1 X19.051 Y-9.649 E8.21010
G1 X19.428 Y-8.718 E8.26258
G1 X19.798 Y-7.626 E8.32279
G1 X19.947 Y-7.107 E8.35103
G1 X20.175 Y-6.178 E8.40098
G1 X20.363 Y-5.194 E8.45332
G1 X20.489 Y-4.305 E8.50022
G1 X20.579 Y-3.365 E8.54956
G1 X20.617 Y-2.670 E8.58593
G1 X20.636 Y-1.784 E8.63225
G1 X20.636 Y1.784 E8.81865
G1 X20.617 Y2.670 E8.86497
G1 X20.567 Y3.517 E8.90927
G1 X20.489 Y4.305 E8.95068
G1 X20.363 Y5.195 E8.99759
G1 X20.175 Y6.178 E9.04990
G1 X19.947 Y7.106 E9.09982
G1 X19.798 Y7.626 E9.12810
G1 X19.427 Y8.719 E9.18836
G1 X18.999 Y9.767 E9.24756
G1 X18.575 Y10.657 E9.29905
G1 X18.201 Y11.350 E9.34018
G1 X17.696 Y12.189 E9.39133
G1 X17.190 Y12.941 E9.43870
G1 X16.593 Y13.730 E9.49039
G1 X15.905 Y14.544 E9.54606
G1 X15.196 Y15.287 E9.59973
G1 X14.543 Y15.905 E9.64669
G1 X13.730 Y16.593 E9.70232
G1 X12.941 Y17.189 E9.75400
G1 X12.188 Y17.696 E9.80141
G1 X11.270 Y18.246 E9.85734
G1 X10.657 Y18.575 E9.89368
G1 X9.649 Y19.051 E9.95194
G1 X8.593 Y19.474 E10.01133
G1 X7.626 Y19.798 E10.06462
G1 X7.107 Y19.947 E10.09285
G1 X6.044 Y20.203 E10.15000
G1 X5.054 Y20.386 E10.20258
G1 X4.160 Y20.506 E10.24971
G1 X3.365 Y20.579 E10.29138
G1 X2.670 Y20.617 E10.32775
G1 X0.060 Y20.636 E10.46413
G1 X-0.000 Y20.217 F6000.000
G1 X-2.652 Y20.199 E10.60270 F722.958
G1 X-3.485 Y20.149 E10.64628
G1 X-4.258 Y20.073 E10.68685
G1 X-5.128 Y19.949 E10.73277
G1 X-6.090 Y19.765 E10.78395
G1 X-7.472 Y19.407 E10.85854
G1 X-8.573 Y19.034 E10.91927
G1 X-9.599 Y18.615 E10.97715
G1 X-10.502 Y18.184 E11.02943
G1 X-11.145 Y17.836 E11.06763
G1 X-11.962 Y17.344 E11.11748
G1 X-12.691 Y16.853 E11.16339
G1 X-13.467 Y16.266 E11.21424
G1 X-14.263 Y15.594 E11.26868
G1 X-14.991 Y14.900 E11.32121
G1 X-15.594 Y14.263 E11.36702
G1 X-16.266 Y13.467 E11.42144
G1 X-16.848 Y12.699 E11.47182
G1 X-17.344 Y11.962 E11.51821
G1 X-17.881 Y11.065 E11.57285
G1 X-18.202 Y10.466 E11.60833
G1 X-18.667 Y9.480 E11.66531
G1 X-19.081 Y8.448 E11.72338
G1 X-19.401 Y7.494 E11.77596
G1 X-19.543 Y6.995 E11.80306
G1 X-19.765 Y6.090 E11.85172
G1 X-19.950 Y5.128 E11.90294
G1 X-20.073 Y4.258 E11.94885
G1 X-20.161 Y3.334 E11.99733
G1 X-20.199 Y2.652 E12.03300
G1 X-20.217 Y1.784 E12.07837
G1 X-20.217 Y-1.784 E12.26477
G1 X-20.192 Y-2.809 E12.31835
G1 X-20.090 Y-4.112 E12.38661
G1 X-19.972 Y-4.988 E12.43279
G1 X-19.794 Y-5.955 E12.48417
G1 X-19.543 Y-6.995 E12.54008
G1 X-19.400 Y-7.497 E12.56735
G1 X-19.034 Y-8.573 E12.62671
G1 X-18.668 Y-9.479 E12.67778
G1 X-18.202 Y-10.466 E12.73479
G1 X-17.836 Y-11.145 E12.77507
G1 X-17.276 Y-12.067 E12.83145
G1 X-16.849 Y-12.698 E12.87126
G1 X-16.178 Y-13.578 E12.92907
G1 X-15.578 Y-14.281 E12.97735
G1 X-14.900 Y-14.991 E13.02866
G1 X-14.263 Y-15.594 E13.07444
G1 X-13.467 Y-16.266 E13.12889
G1 X-12.699 Y-16.848 E13.17926
G1 X-12.067 Y-17.276 E13.21912
G1 X-11.145 Y-17.836 E13.27549
G1 X-10.466 Y-18.202 E13.31579
G1 X-9.480 Y-18.667 E13.37275
G1 X-8.572 Y-19.035 E13.42390
G1 X-7.494 Y-19.401 E13.48340
G1 X-6.996 Y-19.543 E13.51048
G1 X-6.090 Y-19.765 E13.55917
G1 X-5.127 Y-19.950 E13.61039
G1 X-4.258 Y-20.073 E13.65629
G1 X-3.485 Y-20.149 E13.69683
G1 X-2.064 Y-20.215 E13.77119
G1 X1.784 Y-20.217 E13.97220
G1 X2.809 Y-20.192 E14.02579 F722.958
G1 X4.112 Y-20.090 E14.09404
G1 X4.988 Y-19.972 E14.14022
G1 X5.955 Y-19.794 E14.19161
G1 X6.995 Y-19.543 E14.24748
G1 X7.497 Y-19.400 E14.27479
G1 X8.573 Y-19.034 E14.33415
G1 X9.599 Y-18.615 E14.39203
G1 X10.466 Y-18.202 E14.44223
G1 X11.064 Y-17.881 E14.47770
G1 X11.962 Y-17.344 E14.53236
G1 X12.698 Y-16.848 E14.57872
G1 X13.467 Y-16.266 E14.62912
G1 X14.263 Y-15.594 E14.68351
G1 X14.900 Y-14.991 E14.72935
G1 X15.578 Y-14.281 E14.78063
G1 X16.178 Y-13.578 E14.82894
G1 X16.848 Y-12.699 E14.88670
G1 X17.276 Y-12.067 E14.92656
G1 X17.836 Y-11.145 E14.98293
G1 X18.202 Y-10.466 E15.02323
G1 X18.667 Y-9.480 E15.08018
G1 X19.035 Y-8.572 E15.13134
G1 X19.397 Y-7.505 E15.19021
G1 X19.543 Y-6.996 E15.21791
G1 X19.765 Y-6.090 E15.26661
G1 X19.950 Y-5.128 E15.31782
G1 X20.073 Y-4.258 E15.36372
G1 X20.161 Y-3.334 E15.41221
G1 X20.199 Y-2.652 E15.44788
G1 X20.217 Y-1.784 E15.49325
G1 X20.217 Y1.784 E15.67965
G1 X20.199 Y2.652 E15.72502
G1 X20.149 Y3.485 E15.76861
G1 X20.073 Y4.258 E15.80917
G1 X19.949 Y5.128 E15.85509
G1 X19.765 Y6.090 E15.90627
G1 X19.543 Y6.995 E15.95494
G1 X19.397 Y7.505 E15.98269
G1 X19.034 Y8.573 E16.04160
G1 X18.615 Y9.599 E16.09948
G1 X18.202 Y10.466 E16.14969
G1 X17.836 Y11.145 E16.18996
G1 X17.344 Y11.962 E16.23982
G1 X16.848 Y12.698 E16.28618
G1 X16.266 Y13.467 E16.33657
G1 X15.594 Y14.263 E16.39102
G1 X14.900 Y14.991 E16.44355
G1 X14.263 Y15.594 E16.48936
G1 X13.467 Y16.266 E16.54378
G1 X12.699 Y16.848 E16.59415
G1 X11.962 Y17.344 E16.64055
G1 X11.065 Y17.881 E16.69519
G1 X10.466 Y18.202 E16.73067
G1 X9.480 Y18.667 E16.78764
G1 X8.448 Y19.081 E16.84572
G1 X7.505 Y19.397 E16.89766
G1 X6.996 Y19.543 E16.92537
G1 X5.956 Y19.794 E16.98126
G1 X4.987 Y19.972 E17.03270
G1 X4.112 Y20.090 E17.07885
G1 X3.334 Y20.161 E17.11967
G1 X2.652 Y20.199 E17.15533
G1 X0.060 Y20.217 E17.29076
G1 X-0.000 Y19.798 F6000.000
G1 X-2.634 Y19.781 E17.42837 F722.958
G1 X-3.453 Y19.732 E17.47125
G1 X-4.210 Y19.657 E17.51098
G1 X-5.061 Y19.536 E17.55590
G1 X-6.002 Y19.356 E17.60594
G1 X-7.352 Y19.006 E17.67878
G1 X-8.428 Y18.642 E17.73814
G1 X-9.430 Y18.232 E17.79470
G1 X-10.310 Y17.811 E17.84569
G1 X-10.939 Y17.471 E17.88303
G1 X-11.735 Y16.991 E17.93159
G1 X-12.448 Y16.512 E17.97649
G1 X-13.205 Y15.940 E18.02604
G1 X-13.983 Y15.282 E18.07927
G1 X-14.695 Y14.604 E18.13065
G1 X-15.283 Y13.983 E18.17532
G1 X-15.940 Y13.205 E18.22852
G1 X-16.507 Y12.456 E18.27760
G1 X-16.991 Y11.735 E18.32298
G1 X-17.516 Y10.859 E18.37634
G1 X-17.829 Y10.275 E18.41095
G1 X-18.284 Y9.311 E18.46664
G1 X-18.688 Y8.303 E18.52339
G1 X-19.000 Y7.373 E18.57461
G1 X-19.139 Y6.884 E18.60120
G1 X-19.355 Y6.002 E18.64861
G1 X-19.536 Y5.061 E18.69869
G1 X-19.657 Y4.210 E18.74361
G1 X-19.743 Y3.302 E18.79125
G1 X-19.781 Y2.634 E18.82621
G1 X-19.798 Y1.784 E18.87063
G1 X-19.798 Y-1.784 E19.05703
G1 X-19.774 Y-2.791 E19.10965
G1 X-19.673 Y-4.064 E19.17636
G1 X-19.559 Y-4.921 E19.22155
G1 X-19.385 Y-5.867 E19.27180
G1 X-19.139 Y-6.884 E19.32646
G1 X-18.999 Y-7.376 E19.35320
G1 X-18.642 Y-8.428 E19.41121
G1 X-18.284 Y-9.310 E19.46096
G1 X-17.830 Y-10.275 E19.51668
G1 X-17.471 Y-10.939 E19.55610
G1 X-16.924 Y-11.840 E19.61120
G1 X-16.507 Y-12.455 E19.64999
G1 X-15.851 Y-13.315 E19.70650
G1 X-15.267 Y-14.001 E19.75357
G1 X-14.603 Y-14.695 E19.80373
G1 X-13.983 Y-15.282 E19.84836
G1 X-13.205 Y-15.940 E19.90160
G1 X-12.456 Y-16.507 E19.95067
G1 X-11.840 Y-16.924 E19.98952
G1 X-10.939 Y-17.471 E20.04460
G1 X-10.275 Y-17.830 E20.08404
G1 X-9.311 Y-18.284 E20.13971
G1 X-8.427 Y-18.642 E20.18954
G1 X-7.373 Y-19.000 E20.24769
G1 X-6.884 Y-19.139 E20.27425
G1 X-6.002 Y-19.355 E20.32169
G1 X-5.061 Y-19.536 E20.37177
G1 X-4.210 Y-19.657 E20.41668
G1 X-3.454 Y-19.732 E20.45638
G1 X-2.056 Y-19.796 E20.52945
G1 X1.784 Y-19.798 E20.73009
G1 X2.791 Y-19.774 E20.78272 F722.958
G1 X4.064 Y-19.673 E20.84942
G1 X4.921 Y-19.559 E20.89461
G1 X5.867 Y-19.385 E20.94487
G1 X6.883 Y-19.140 E20.99948
G1 X7.376 Y-18.999 E21.02627
G1 X8.428 Y-18.642 E21.08428
G1 X9.430 Y-18.232 E21.14084
G1 X10.275 Y-17.829 E21.18975
G1 X10.859 Y-17.516 E21.22436
G1 X11.735 Y-16.991 E21.27773
G1 X12.455 Y-16.507 E21.32308
G1 X13.205 Y-15.940 E21.37218
G1 X13.983 Y-15.283 E21.42536
G1 X14.604 Y-14.695 E21.47005
G1 X15.282 Y-13.983 E21.52143
G1 X15.940 Y-13.205 E21.57466
G1 X16.507 Y-12.456 E21.62374
G1 X16.991 Y-11.735 E21.66912
G1 X17.516 Y-10.859 E21.72248
G1 X17.830 Y-10.275 E21.75711
G1 X18.231 Y-9.431 E21.80595
G1 X18.642 Y-8.427 E21.86261
G1 X18.996 Y-7.384 E21.92014
G1 X19.139 Y-6.884 E21.94731
G1 X19.355 Y-6.002 E21.99475
G1 X19.536 Y-5.061 E22.04483
G1 X19.657 Y-4.210 E22.08974
G1 X19.732 Y-3.454 E22.12945
G1 X19.774 Y-2.791 E22.16413
G1 X19.798 Y-1.784 E22.21676
G1 X19.798 Y1.784 E22.40316
G1 X19.774 Y2.791 E22.45579
G1 X19.732 Y3.453 E22.49046
G1 X19.657 Y4.210 E22.53018
G1 X19.536 Y5.061 E22.57511
G1 X19.356 Y6.002 E22.62515
G1 X19.140 Y6.883 E22.67257
G1 X18.996 Y7.384 E22.69978
G1 X18.642 Y8.428 E22.75736
G1 X18.232 Y9.430 E22.81392
G1 X17.829 Y10.275 E22.86283
G1 X17.471 Y10.939 E22.90224
G1 X16.991 Y11.735 E22.95082
G1 X16.507 Y12.455 E22.99616
G1 X15.940 Y13.205 E23.04525
G1 X15.282 Y13.983 E23.09849
G1 X14.603 Y14.695 E23.14987
G1 X13.983 Y15.283 E23.19454
G1 X13.205 Y15.940 E23.24774
G1 X12.456 Y16.507 E23.29682
G1 X11.735 Y16.991 E23.34220
G1 X10.859 Y17.516 E23.39556
G1 X10.275 Y17.830 E23.43018
G1 X9.311 Y18.284 E23.48586
G1 X8.303 Y18.688 E23.54262
G1 X7.384 Y18.996 E23.59322
G1 X6.884 Y19.139 E23.62039
G1 X5.868 Y19.384 E23.67503
G1 X4.920 Y19.559 E23.72534
G1 X4.064 Y19.673 E23.77049
G1 X3.302 Y19.743 E23.81047
G1 X2.634 Y19.781 E23.84542
G1 X0.060 Y19.798 E23.97990
G1 X-0.000 Y19.379 F6000.000
G1 X-2.616 Y19.362 E24.11656 F722.958
G1 X-3.422 Y19.314 E24.15874
G1 X-4.162 Y19.241 E24.19761
G1 X-4.995 Y19.122 E24.24155
G1 X-5.914 Y18.946 E24.29046
G1 X-7.231 Y18.605 E24.36153
G1 X-8.282 Y18.249 E24.41953
G1 X-9.261 Y17.848 E24.47477
G1 X-10.119 Y17.439 E24.52446
G1 X-10.733 Y17.106 E24.56094
G1 X-11.508 Y16.639 E24.60822
G1 X-12.206 Y16.171 E24.65211
G1 X-12.942 Y15.614 E24.70036
G1 X-13.703 Y14.971 E24.75238
G1 X-14.398 Y14.307 E24.80261
G1 X-14.971 Y13.703 E24.84613
G1 X-15.613 Y12.942 E24.89812
G1 X-16.165 Y12.213 E24.94590
G1 X-16.639 Y11.508 E24.99026
G1 X-17.151 Y10.653 E25.04234
G1 X-17.457 Y10.084 E25.07609
G1 X-17.901 Y9.142 E25.13049
G1 X-18.295 Y8.157 E25.18592
G1 X-18.599 Y7.252 E25.23579
G1 X-18.736 Y6.773 E25.26185
G1 X-18.946 Y5.914 E25.30801
G1 X-19.122 Y4.994 E25.35696
G1 X-19.241 Y4.162 E25.40089
G1 X-19.326 Y3.270 E25.44768
G1 X-19.362 Y2.616 E25.48193
G1 X-19.379 Y1.784 E25.52540
G1 X-19.379 Y-1.784 E25.71180
G1 X-19.355 Y-2.773 E25.76347
G1 X-19.257 Y-4.016 E25.82863
G1 X-19.145 Y-4.854 E25.87282
G1 X-18.975 Y-5.779 E25.92194
G1 X-18.736 Y-6.773 E25.97534
G1 X-18.598 Y-7.255 E26.00157
G1 X-18.249 Y-8.282 E26.05822
G1 X-17.901 Y-9.142 E26.10666
G1 X-17.457 Y-10.084 E26.16108
G1 X-17.106 Y-10.733 E26.19965
G1 X-16.571 Y-11.614 E26.25346
G1 X-16.166 Y-12.212 E26.29124
G1 X-15.525 Y-13.052 E26.34644
G1 X-14.955 Y-13.720 E26.39230
G1 X-14.307 Y-14.399 E26.44131
G1 X-13.703 Y-14.971 E26.48480
G1 X-12.942 Y-15.614 E26.53682
G1 X-12.213 Y-16.165 E26.58460
G1 X-11.614 Y-16.571 E26.62243
G1 X-10.733 Y-17.106 E26.67623
G1 X-10.084 Y-17.457 E26.71481
G1 X-9.142 Y-17.901 E26.76918
G1 X-8.281 Y-18.249 E26.81770
G1 X-7.252 Y-18.599 E26.87449
G1 X-6.773 Y-18.736 E26.90053
G1 X-5.914 Y-18.946 E26.94672
G1 X-4.994 Y-19.122 E26.99567
G1 X-4.162 Y-19.241 E27.03958
G1 X-3.270 Y-19.326 E27.08637
G1 X-2.049 Y-19.377 E27.15023
G1 X1.784 Y-19.379 E27.35049
G1 X2.773 Y-19.355 E27.40217 F722.958
G1 X4.016 Y-19.257 E27.46732
G1 X4.854 Y-19.145 E27.51152
G1 X5.779 Y-18.975 E27.56064
G1 X6.772 Y-18.736 E27.61400
G1 X7.255 Y-18.598 E27.64026
G1 X8.282 Y-18.249 E27.69692
G1 X9.261 Y-17.848 E27.75217
G1 X10.084 Y-17.457 E27.79978
G1 X10.653 Y-17.151 E27.83353
G1 X11.508 Y-16.639 E27.88562
G1 X12.213 Y-16.166 E27.92995
G1 X12.942 Y-15.613 E27.97776
G1 X13.702 Y-14.972 E28.02973
G1 X14.307 Y-14.398 E28.07327
G1 X14.971 Y-13.703 E28.12350
G1 X15.614 Y-12.942 E28.17552
G1 X16.165 Y-12.213 E28.22329
G1 X16.639 Y-11.508 E28.26766
G1 X17.151 Y-10.653 E28.31974
G1 X17.457 Y-10.084 E28.35351
G1 X17.848 Y-9.262 E28.40105
G1 X18.249 Y-8.281 E28.45640
G1 X18.595 Y-7.263 E28.51259
G1 X18.946 Y-5.914 E28.58540
G1 X19.122 Y-4.994 E28.63435
G1 X19.241 Y-4.162 E28.67826
G1 X19.355 Y-2.773 E28.75109
G1 X19.379 Y-1.784 E28.80277
G1 X19.379 Y1.784 E28.98917
G1 X19.355 Y2.773 E29.04084
G1 X19.241 Y4.162 E29.11367
G1 X19.122 Y4.995 E29.15761
G1 X18.946 Y5.914 E29.20651
G1 X18.595 Y7.263 E29.27934
G1 X18.249 Y8.282 E29.33558
G1 X17.848 Y9.261 E29.39083
G1 X17.457 Y10.084 E29.43845
G1 X17.106 Y10.733 E29.47700
G1 X16.639 Y11.509 E29.52429
G1 X16.166 Y12.213 E29.56862
G1 X15.614 Y12.942 E29.61641
G1 X14.971 Y13.703 E29.66844
G1 X14.307 Y14.399 E29.71867
G1 X13.703 Y14.971 E29.76219
G1 X12.942 Y15.613 E29.81418
G1 X12.213 Y16.165 E29.86196
G1 X11.508 Y16.639 E29.90632
G1 X10.653 Y17.151 E29.95840
G1 X10.084 Y17.457 E29.99216
G1 X9.142 Y17.901 E30.04654
G1 X8.157 Y18.295 E30.10198
G1 X7.263 Y18.595 E30.15125
G1 X6.773 Y18.736 E30.17789
G1 X5.780 Y18.975 E30.23127
G1 X4.854 Y19.145 E30.28045
G1 X4.016 Y19.257 E30.32461
G1 X2.616 Y19.362 E30.39797
G1 X0.060 Y19.379 E30.53150
G1 E27.03150 F1800.00000
G92 E0
G1 X-2.702 Y2.784 F6000.000
G1 E3.50000 F1800.00000
G1 X-2.840 Y2.607 E3.51173 F722.958
G1 X-2.918 Y2.365 E3.52501
G1 X-2.955 Y2.041 E3.54205
G1 X-2.960 Y1.458 E3.57254
G1 X-2.912 Y0.002 E3.64863
G1 X-2.964 Y-1.776 E3.74157
G1 X-2.947 Y-2.152 E3.76124
G1 X-2.903 Y-2.425 E3.77566
G1 X-2.832 Y-2.622 E3.78660
G1 X-2.729 Y-2.756 E3.79545
G1 X-2.658 Y-2.809 E3.80004
G1 X-2.479 Y-2.889 E3.81033
G1 X-2.035 Y-2.956 E3.83377
