; generated by Slic3r 1.2.9 on 2015-09-28 at 12:57:22

; external perimeters extrusion width = 0.50mm
; perimeters extrusion width = 0.85mm
; infill extrusion width = 1.02mm
; solid infill extrusion width = 0.85mm
; top infill extrusion width = 0.85mm

M104 S190 ; set temperature
G28 ; home all axes
G1 Z5 F5000 ; lift nozzle

M109 S190 ; wait for temperature to be reached
G21 ; set units to millimeters
G90 ; use absolute coordinates
M82 ; use absolute distances for extrusion
G92 E0
G1 E-3.50000 F1800.00000
G92 E0
G1 Z0.260 F9000.000
G1 X-0.000 Y11.394 F9000.000
G1 E3.50000 F1800.00000
G1 X-2.400 Y11.393 E3.62045 F1800.000
G1 X-3.185 Y11.367 E3.65986
G1 X-3.686 Y11.329 E3.68502
G1 X-4.225 Y11.266 E3.71227
G1 X-4.805 Y11.169 E3.74179
G1 X-5.425 Y11.028 E3.77369
G1 X-5.887 Y10.893 E3.79786
G1 X-6.285 Y10.752 E3.81902
G1 X-6.994 Y10.441 E3.85790
G1 X-7.541 Y10.146 E3.88909
G1 X-8.019 Y9.835 E3.91769
G1 X-8.554 Y9.421 E3.95164
G1 X-9.048 Y8.966 E3.98535
G1 X-9.483 Y8.479 E4.01808
G1 X-9.836 Y8.019 E4.04719
G1 X-10.218 Y7.419 E4.08286
G1 X-10.441 Y6.994 E4.10695
G1 X-10.752 Y6.285 E4.14581
G1 X-10.893 Y5.888 E4.16697
G1 X-11.028 Y5.425 E4.19115
G1 X-11.169 Y4.805 E4.22306
G1 X-11.266 Y4.225 E4.25258
G1 X-11.355 Y3.372 E4.29560
G1 X-11.394 Y2.297 E4.34958
G1 X-11.393 Y-2.400 E4.58529
G1 X-11.367 Y-3.185 E4.62470
G1 X-11.329 Y-3.685 E4.64987
G1 X-11.266 Y-4.225 E4.67711
G1 X-11.169 Y-4.805 E4.70663
G1 X-10.929 Y-5.775 E4.75678
G1 X-10.752 Y-6.285 E4.78385
G1 X-10.575 Y-6.710 E4.80697
G1 X-10.146 Y-7.542 E4.85391
G1 X-9.835 Y-8.019 E4.88251
G1 X-9.557 Y-8.390 E4.90575
G1 X-8.966 Y-9.048 E4.95017
G1 X-8.390 Y-9.557 E4.98871
G1 X-7.862 Y-9.943 E5.02153
G1 X-7.419 Y-10.218 E5.04770
G1 X-6.710 Y-10.575 E5.08753
G1 X-6.285 Y-10.752 E5.11063
G1 X-5.775 Y-10.929 E5.13770
G1 X-4.805 Y-11.169 E5.18787
G1 X-3.916 Y-11.305 E5.23297
G1 X-3.186 Y-11.367 E5.26978
G1 X-2.401 Y-11.393 E5.30919
G1 X2.297 Y-11.394 E5.54490
G1 X2.868 Y-11.382 E5.57356 F1800.000
G1 X3.685 Y-11.329 E5.61467
G1 X4.225 Y-11.266 E5.64191
G1 X4.805 Y-11.169 E5.67144
G1 X5.425 Y-11.028 E5.70334
G1 X5.887 Y-10.893 E5.72751
G1 X6.285 Y-10.752 E5.74867
G1 X6.994 Y-10.441 E5.78755
G1 X7.542 Y-10.146 E5.81874
G1 X8.019 Y-9.835 E5.84734
G1 X8.479 Y-9.483 E5.87641
G1 X8.926 Y-9.087 E5.90634
G1 X9.332 Y-8.658 E5.93602
G1 X9.557 Y-8.390 E5.95356
G1 X9.836 Y-8.019 E5.97686
G1 X10.147 Y-7.541 E6.00546
G1 X10.575 Y-6.710 E6.05237
G1 X10.893 Y-5.888 E6.09661
G1 X11.028 Y-5.425 E6.12079
G1 X11.169 Y-4.805 E6.15270
G1 X11.305 Y-3.916 E6.19781
G1 X11.367 Y-3.186 E6.23461
G1 X11.394 Y-2.297 E6.27922
G1 X11.393 Y2.400 E6.51493
G1 X11.367 Y3.185 E6.55434
G1 X11.329 Y3.685 E6.57950
G1 X11.266 Y4.225 E6.60675
G1 X11.169 Y4.805 E6.63627
G1 X10.929 Y5.775 E6.68642
G1 X10.752 Y6.285 E6.71348
G1 X10.575 Y6.710 E6.73661
G1 X10.218 Y7.420 E6.77647
G1 X9.835 Y8.019 E6.81215
G1 X9.483 Y8.479 E6.84123
G1 X9.087 Y8.926 E6.87115
G1 X8.480 Y9.483 E6.91252
G1 X7.862 Y9.943 E6.95117
G1 X7.419 Y10.218 E6.97734
G1 X6.994 Y10.441 E7.00141
G1 X6.285 Y10.752 E7.04028
G1 X5.888 Y10.893 E7.06143
G1 X5.425 Y11.028 E7.08561
G1 X4.805 Y11.169 E7.11753
G1 X3.916 Y11.305 E7.16263
G1 X3.186 Y11.367 E7.19943
G1 X2.297 Y11.394 E7.24405
G1 X0.075 Y11.394 E7.35554
G1 X0.075 Y10.930 F9000.000
G1 X-2.391 Y10.929 E7.47930 F1800.000
G1 X-3.334 Y10.893 E7.52664
G1 X-4.167 Y10.806 E7.56863
G1 X-4.723 Y10.712 E7.59693
G1 X-5.314 Y10.577 E7.62739
G1 X-5.746 Y10.451 E7.64996
G1 X-6.125 Y10.317 E7.67011
G1 X-6.797 Y10.021 E7.70697
G1 X-7.307 Y9.746 E7.73606
G1 X-7.757 Y9.452 E7.76299
G1 X-8.253 Y9.068 E7.79449
G1 X-8.716 Y8.641 E7.82610
G1 X-9.124 Y8.185 E7.85682
G1 X-9.453 Y7.756 E7.88390
G1 X-9.746 Y7.307 E7.91083
G1 X-10.021 Y6.797 E7.93989
G1 X-10.382 Y5.946 E7.98628
G1 X-10.487 Y5.634 E8.00279
G1 X-10.650 Y5.018 E8.03479
G1 X-10.767 Y4.420 E8.06537
G1 X-10.845 Y3.858 E8.09381
G1 X-10.904 Y3.164 E8.12878
G1 X-10.930 Y2.297 E8.17229
G1 X-10.929 Y-2.391 E8.40755
G1 X-10.904 Y-3.164 E8.44632
G1 X-10.867 Y-3.647 E8.47066
G1 X-10.806 Y-4.167 E8.49689
G1 X-10.712 Y-4.723 E8.52519
G1 X-10.487 Y-5.634 E8.57230
G1 X-10.317 Y-6.125 E8.59835
G1 X-10.155 Y-6.513 E8.61946
G1 X-9.746 Y-7.307 E8.66429
G1 X-9.452 Y-7.757 E8.69123
G1 X-9.198 Y-8.095 E8.71244
G1 X-8.641 Y-8.716 E8.75434
G1 X-8.095 Y-9.198 E8.79087
G1 X-7.600 Y-9.560 E8.82165
G1 X-7.185 Y-9.817 E8.84615
G1 X-6.513 Y-10.155 E8.88389
G1 X-6.125 Y-10.317 E8.90497
G1 X-5.634 Y-10.487 E8.93103
G1 X-4.723 Y-10.712 E8.97816
G1 X-3.858 Y-10.845 E9.02204
G1 X-3.164 Y-10.904 E9.05701
G1 X-2.391 Y-10.929 E9.09578
G1 X2.297 Y-10.930 E9.33104
G1 X2.846 Y-10.919 E9.35860 F1800.000
G1 X3.647 Y-10.867 E9.39889
G1 X4.167 Y-10.806 E9.42512
G1 X4.723 Y-10.712 E9.45341
G1 X5.314 Y-10.577 E9.48387
G1 X5.746 Y-10.451 E9.50645
G1 X6.125 Y-10.317 E9.52659
G1 X6.797 Y-10.021 E9.56346
G1 X7.307 Y-9.746 E9.59254
G1 X7.757 Y-9.452 E9.61948
G1 X8.185 Y-9.124 E9.64653
G1 X8.601 Y-8.756 E9.67444
G1 X8.979 Y-8.356 E9.70202
G1 X9.198 Y-8.095 E9.71914
G1 X9.453 Y-7.756 E9.74041
G1 X9.746 Y-7.307 E9.76734
G1 X10.155 Y-6.513 E9.81215
G1 X10.317 Y-6.125 E9.83324
G1 X10.487 Y-5.634 E9.85929
G1 X10.712 Y-4.723 E9.90642
G1 X10.806 Y-4.167 E9.93470
G1 X10.867 Y-3.647 E9.96094
G1 X10.919 Y-2.846 E10.00122
G1 X10.930 Y-2.297 E10.02879
G1 X10.929 Y2.391 E10.26405
G1 X10.904 Y3.164 E10.30281
G1 X10.867 Y3.647 E10.32716
G1 X10.806 Y4.167 E10.35339
G1 X10.712 Y4.723 E10.38168
G1 X10.487 Y5.634 E10.42880
G1 X10.317 Y6.125 E10.45485
G1 X10.155 Y6.513 E10.47596
G1 X9.817 Y7.185 E10.51372
G1 X9.452 Y7.757 E10.54773
G1 X9.124 Y8.185 E10.57478
G1 X8.756 Y8.601 E10.60269
G1 X8.185 Y9.124 E10.64154
G1 X7.600 Y9.560 E10.67815
G1 X7.185 Y9.817 E10.70266
G1 X6.797 Y10.021 E10.72463
G1 X6.125 Y10.317 E10.76148
G1 X5.634 Y10.487 E10.78753
G1 X4.723 Y10.712 E10.83466
G1 X3.858 Y10.845 E10.87854
G1 X3.164 Y10.904 E10.91351
G1 X2.297 Y10.930 E10.95702
G1 X0.150 Y10.930 E11.06476
G1 X0.150 Y10.466 F9000.000
G1 X-2.382 Y10.465 E11.19183 F1800.000
G1 X-3.296 Y10.430 E11.23770
G1 X-4.108 Y10.345 E11.27868
G1 X-4.640 Y10.256 E11.30575
G1 X-5.204 Y10.126 E11.33476
G1 X-5.605 Y10.009 E11.35575
G1 X-5.964 Y9.881 E11.37488
G1 X-6.600 Y9.601 E11.40973
G1 X-7.073 Y9.345 E11.43671
G1 X-7.494 Y9.069 E11.46198
G1 X-7.951 Y8.714 E11.49103
G1 X-8.385 Y8.316 E11.52054
G1 X-8.766 Y7.890 E11.54924
G1 X-9.070 Y7.494 E11.57429
G1 X-9.345 Y7.072 E11.59955
G1 X-9.601 Y6.600 E11.62652
G1 X-9.947 Y5.786 E11.67089
G1 X-10.044 Y5.493 E11.68638
G1 X-10.199 Y4.907 E11.71680
G1 X-10.310 Y4.337 E11.74593
G1 X-10.384 Y3.800 E11.77314
G1 X-10.440 Y3.142 E11.80628
G1 X-10.466 Y2.297 E11.84870
G1 X-10.465 Y-2.382 E12.08350
G1 X-10.440 Y-3.142 E12.12162
G1 X-10.404 Y-3.609 E12.14515
G1 X-10.345 Y-4.108 E12.17037
G1 X-10.256 Y-4.640 E12.19743
G1 X-10.045 Y-5.493 E12.24150
G1 X-9.881 Y-5.964 E12.26655
G1 X-9.734 Y-6.315 E12.28564
G1 X-9.345 Y-7.073 E12.32837
G1 X-9.069 Y-7.494 E12.35364
G1 X-8.840 Y-7.800 E12.37283
G1 X-8.316 Y-8.385 E12.41220
G1 X-7.800 Y-8.840 E12.44672
G1 X-7.337 Y-9.177 E12.47547
G1 X-6.950 Y-9.416 E12.49830
G1 X-6.315 Y-9.734 E12.53394
G1 X-5.965 Y-9.881 E12.55301
G1 X-5.493 Y-10.044 E12.57805
G1 X-4.640 Y-10.256 E12.62215
G1 X-3.800 Y-10.384 E12.66479
G1 X-3.142 Y-10.440 E12.69793
G1 X-2.382 Y-10.465 E12.73606
G1 X2.297 Y-10.466 E12.97087
G1 X3.142 Y-10.440 E13.01328 F1800.000
G1 X3.609 Y-10.404 E13.03681
G1 X4.108 Y-10.345 E13.06202
G1 X4.640 Y-10.256 E13.08909
G1 X5.204 Y-10.126 E13.11810
G1 X5.605 Y-10.009 E13.13908
G1 X5.964 Y-9.881 E13.15821
G1 X6.600 Y-9.601 E13.19306
G1 X7.073 Y-9.345 E13.22005
G1 X7.494 Y-9.069 E13.24531
G1 X7.890 Y-8.766 E13.27034
G1 X8.276 Y-8.424 E13.29624
G1 X8.840 Y-7.800 E13.33839
G1 X9.177 Y-7.337 E13.36714
G1 X9.416 Y-6.950 E13.38998
G1 X9.734 Y-6.315 E13.42561
G1 X9.881 Y-5.965 E13.44468
G1 X10.044 Y-5.493 E13.46972
G1 X10.256 Y-4.640 E13.51382
G1 X10.345 Y-4.108 E13.54087
G1 X10.404 Y-3.609 E13.56609
G1 X10.440 Y-3.142 E13.58961
G1 X10.466 Y-2.297 E13.63203
G1 X10.465 Y2.382 E13.86683
G1 X10.440 Y3.142 E13.90496
G1 X10.404 Y3.609 E13.92849
G1 X10.345 Y4.108 E13.95370
G1 X10.256 Y4.640 E13.98077
G1 X10.045 Y5.493 E14.02484
G1 X9.881 Y5.964 E14.04988
G1 X9.734 Y6.315 E14.06897
G1 X9.416 Y6.951 E14.10463
G1 X9.069 Y7.494 E14.13698
G1 X8.766 Y7.890 E14.16201
G1 X8.424 Y8.276 E14.18790
G1 X7.890 Y8.766 E14.22422
G1 X7.337 Y9.177 E14.25880
G1 X6.950 Y9.416 E14.28165
G1 X6.600 Y9.601 E14.30152
G1 X5.965 Y9.881 E14.33635
G1 X5.493 Y10.044 E14.36139
G1 X4.640 Y10.256 E14.40548
G1 X3.800 Y10.384 E14.44813
G1 X3.142 Y10.440 E14.48127
G1 X2.297 Y10.466 E14.52369
G1 X0.225 Y10.466 E14.62766
G1 X0.225 Y10.002 F9000.000
G1 X-2.373 Y10.001 E14.75804 F1800.000
G1 X-3.258 Y9.967 E14.80246
G1 X-4.255 Y9.853 E14.85280
G1 X-4.796 Y9.748 E14.88048
G1 X-5.352 Y9.602 E14.90930
G1 X-5.804 Y9.445 E14.93332
G1 X-6.402 Y9.181 E14.96616
G1 X-6.838 Y8.944 E14.99103
G1 X-7.232 Y8.687 E15.01464
G1 X-7.650 Y8.361 E15.04123
G1 X-8.053 Y7.992 E15.06865
G1 X-8.407 Y7.595 E15.09534
G1 X-8.687 Y7.231 E15.11836
G1 X-8.944 Y6.838 E15.14196
G1 X-9.181 Y6.402 E15.16682
G1 X-9.511 Y5.626 E15.20917
G1 X-9.602 Y5.352 E15.22366
G1 X-9.748 Y4.796 E15.25248
G1 X-9.853 Y4.255 E15.28016
G1 X-9.924 Y3.742 E15.30615
G1 X-9.976 Y3.120 E15.33745
G1 X-10.002 Y2.297 E15.37877
G1 X-10.001 Y-2.373 E15.61312
G1 X-9.942 Y-3.571 E15.67330
G1 X-9.799 Y-4.558 E15.72332
G1 X-9.602 Y-5.352 E15.76436
G1 X-9.314 Y-6.118 E15.80544
G1 X-8.944 Y-6.838 E15.84607
G1 X-8.687 Y-7.232 E15.86968
G1 X-8.481 Y-7.505 E15.88684
G1 X-7.952 Y-8.092 E15.92649
G1 X-7.595 Y-8.407 E15.95035
G1 X-7.231 Y-8.687 E15.97340
G1 X-6.838 Y-8.944 E15.99700
G1 X-6.402 Y-9.181 E16.02186
G1 X-5.804 Y-9.445 E16.05467
G1 X-5.093 Y-9.675 E16.09217
G1 X-4.255 Y-9.853 E16.13519
G1 X-3.571 Y-9.942 E16.16977
G1 X-2.373 Y-10.001 E16.22995
G1 X2.297 Y-10.002 E16.46430
G1 X3.120 Y-9.976 E16.50562 F1800.000
G1 X3.571 Y-9.942 E16.52832
G1 X4.558 Y-9.799 E16.57834
G1 X5.093 Y-9.675 E16.60591
G1 X5.464 Y-9.566 E16.62530
G1 X5.804 Y-9.445 E16.64342
G1 X6.402 Y-9.181 E16.67625
G1 X6.838 Y-8.944 E16.70113
G1 X7.232 Y-8.687 E16.72474
G1 X7.595 Y-8.407 E16.74773
G1 X7.952 Y-8.092 E16.77162
G1 X8.481 Y-7.506 E16.81125
G1 X8.794 Y-7.075 E16.83796
G1 X9.016 Y-6.716 E16.85914
G1 X9.314 Y-6.118 E16.89267
G1 X9.602 Y-5.352 E16.93374
G1 X9.799 Y-4.558 E16.97479
G1 X9.942 Y-3.571 E17.02481
G1 X9.976 Y-3.120 E17.04751
G1 X10.002 Y-2.297 E17.08884
G1 X10.001 Y2.373 E17.32318
G1 X9.942 Y3.571 E17.38337
G1 X9.799 Y4.558 E17.43339
G1 X9.602 Y5.352 E17.47442
G1 X9.314 Y6.118 E17.51550
G1 X9.016 Y6.716 E17.54906
G1 X8.687 Y7.232 E17.57975
G1 X8.407 Y7.595 E17.60274
G1 X8.092 Y7.952 E17.62662
G1 X7.595 Y8.407 E17.66043
G1 X7.075 Y8.794 E17.69297
G1 X6.716 Y9.016 E17.71415
G1 X6.402 Y9.181 E17.73192
G1 X5.804 Y9.445 E17.76474
G1 X5.093 Y9.675 E17.80224
G1 X4.255 Y9.853 E17.84525
G1 X3.571 Y9.942 E17.87984
G1 X2.803 Y9.991 E17.91848
G1 X0.300 Y10.002 E18.04406
G1 X0.300 Y9.538 F9000.000
G1 X-2.297 Y9.538 E18.17437 F1800.000
G1 X-3.220 Y9.505 E18.22071
G1 X-4.172 Y9.397 E18.26881
G1 X-4.686 Y9.297 E18.29504
G1 X-5.211 Y9.160 E18.32227
G1 X-5.644 Y9.010 E18.34528
G1 X-6.205 Y8.760 E18.37610
G1 X-6.604 Y8.544 E18.39888
G1 X-6.969 Y8.304 E18.42082
G1 X-7.349 Y8.008 E18.44496
G1 X-7.721 Y7.667 E18.47027
G1 X-8.049 Y7.300 E18.49495
G1 X-8.304 Y6.969 E18.51594
G1 X-8.544 Y6.604 E18.53787
G1 X-8.760 Y6.205 E18.56064
G1 X-9.075 Y5.465 E18.60097
G1 X-9.297 Y4.686 E18.64165
G1 X-9.397 Y4.172 E18.66789
G1 X-9.463 Y3.684 E18.69265
G1 X-9.513 Y3.098 E18.72211
G1 X-9.538 Y2.297 E18.76235
G1 X-9.537 Y-2.364 E18.99624
G1 X-9.513 Y-3.098 E19.03309
G1 X-9.463 Y-3.683 E19.06255
G1 X-9.342 Y-4.475 E19.10276
G1 X-9.124 Y-5.323 E19.14666
G1 X-9.010 Y-5.644 E19.16377
G1 X-8.760 Y-6.205 E19.19458
G1 X-8.411 Y-6.813 E19.22977
G1 X-8.123 Y-7.211 E19.25441
G1 X-7.919 Y-7.453 E19.27027
G1 X-7.453 Y-7.919 E19.30339
G1 X-7.211 Y-8.122 E19.31923
G1 X-6.813 Y-8.411 E19.34392
G1 X-6.205 Y-8.760 E19.37908
G1 X-5.644 Y-9.010 E19.40988
G1 X-4.983 Y-9.224 E19.44477
G1 X-4.172 Y-9.397 E19.48634
G1 X-3.533 Y-9.479 E19.51868
G1 X-2.364 Y-9.537 E19.57740
G1 X2.297 Y-9.538 E19.81130
G1 X3.098 Y-9.513 E19.85152 F1800.000
G1 X3.533 Y-9.479 E19.87341
G1 X4.475 Y-9.342 E19.92119
G1 X5.323 Y-9.124 E19.96509
G1 X5.644 Y-9.010 E19.98220
G1 X6.205 Y-8.760 E20.01301
G1 X6.604 Y-8.544 E20.03579
G1 X6.969 Y-8.304 E20.05773
G1 X7.300 Y-8.049 E20.07870
G1 X7.627 Y-7.760 E20.10057
G1 X8.122 Y-7.211 E20.13768
G1 X8.411 Y-6.813 E20.16236
G1 X8.615 Y-6.482 E20.18187
G1 X8.894 Y-5.921 E20.21330
G1 X9.160 Y-5.211 E20.25134
G1 X9.342 Y-4.475 E20.28936
G1 X9.479 Y-3.533 E20.33713
G1 X9.513 Y-3.098 E20.35902
G1 X9.538 Y-2.297 E20.39925
G1 X9.537 Y2.364 E20.63314
G1 X9.479 Y3.533 E20.69186
G1 X9.342 Y4.475 E20.73964
G1 X9.160 Y5.211 E20.77764
G1 X8.894 Y5.921 E20.81570
G1 X8.615 Y6.482 E20.84715
G1 X8.304 Y6.969 E20.87617
G1 X8.049 Y7.300 E20.89714
G1 X7.760 Y7.627 E20.91900
G1 X7.301 Y8.048 E20.95029
G1 X6.813 Y8.411 E20.98080
G1 X6.205 Y8.760 E21.01596
G1 X5.644 Y9.010 E21.04677
G1 X4.983 Y9.224 E21.08166
G1 X4.172 Y9.397 E21.12323
G1 X3.533 Y9.479 E21.15557
G1 X2.781 Y9.528 E21.19340
G1 X0.375 Y9.538 E21.31412
G1 E17.81412 F1800.00000
G92 E0
G1 X1.312 Y-4.868 F9000.000
G1 E3.50000 F1800.00000
G1 X2.287 Y-4.885 E3.54892 F600.000
G1 X2.854 Y-4.866 E3.57739
G1 X3.372 Y-4.812 E3.60350 F600.000
G1 X3.837 Y-4.713 E3.62735
G1 X4.157 Y-4.582 E3.64470
G1 X4.305 Y-4.487 E3.65356
G1 X4.508 Y-4.278 E3.66815
G1 X4.662 Y-3.983 E3.68488
G1 X4.713 Y-3.837 E3.69264
G1 X4.812 Y-3.372 E3.71649
G1 X4.866 Y-2.854 E3.74260
G1 X4.885 Y-2.287 E3.77107
G1 X4.847 Y0.002 E3.88593
G1 X4.884 Y1.971 E3.98479
G1 X4.865 Y2.861 E4.02944
G1 X4.810 Y3.390 E4.05613
G1 X4.719 Y3.819 E4.07814
G1 X4.582 Y4.157 E4.09641
G1 X4.496 Y4.292 E4.10447
G1 X4.390 Y4.411 E4.11248
G1 X4.219 Y4.543 E4.12332
G1 X3.983 Y4.662 E4.13658
G1 X3.837 Y4.713 E4.14434
G1 X3.372 Y4.812 E4.16819
G1 X2.854 Y4.866 E4.19430
G1 X2.287 Y4.885 E4.22277
G1 X-0.002 Y4.847 E4.33763
G1 X-1.971 Y4.884 E4.43650
G1 X-2.861 Y4.865 E4.48114
G1 X-3.613 Y4.770 E4.51918
G1 X-3.819 Y4.719 E4.52983
G1 X-4.157 Y4.582 E4.54810
G1 X-4.411 Y4.390 E4.56412
G1 X-4.543 Y4.219 E4.57496
G1 X-4.662 Y3.983 E4.58822
G1 X-4.766 Y3.628 E4.60675
G1 X-4.844 Y3.120 E4.63254
G1 X-4.879 Y2.574 E4.66000
G1 X-4.885 Y1.979 E4.68987
G1 X-4.847 Y-0.000 E4.78919
G1 X-4.885 Y-1.979 E4.88850
G1 X-4.879 Y-2.574 E4.91838
G1 X-4.843 Y-3.136 E4.94663
G1 X-4.772 Y-3.602 E4.97027
G1 X-4.698 Y-3.880 E4.98472
G1 X-4.572 Y-4.173 E5.00072
G1 X-4.373 Y-4.430 E5.01701
G1 X-4.157 Y-4.582 E5.03030
G1 X-3.837 Y-4.713 E5.04765
G1 X-3.372 Y-4.812 E5.07150
G1 X-2.860 Y-4.865 E5.09729
G1 X-2.036 Y-4.884 E5.13865
G1 X-0.001 Y-4.847 E5.24080
G1 X1.237 Y-4.867 E5.30295
G1 X1.230 Y-5.331 F9000.000
G1 X2.291 Y-5.349 E5.35621 F600.000
G1 X2.886 Y-5.329 E5.38609
G1 X3.444 Y-5.271 E5.41425 F600.000
G1 X3.962 Y-5.161 E5.44080
G1 X4.382 Y-4.990 E5.46355
G1 X4.581 Y-4.862 E5.47544
G1 X4.698 Y-4.763 E5.48311
G1 X4.874 Y-4.564 E5.49645
G1 X5.090 Y-4.164 E5.51926
G1 X5.161 Y-3.962 E5.53002
G1 X5.271 Y-3.444 E5.55658
G1 X5.329 Y-2.886 E5.58474
G1 X5.349 Y-2.291 E5.61462
G1 X5.311 Y0.001 E5.72963
G1 X5.349 Y1.972 E5.82856
G1 X5.329 Y2.890 E5.87464
G1 X5.270 Y3.455 E5.90316
G1 X5.165 Y3.951 E5.92859
G1 X4.990 Y4.382 E5.95191
G1 X4.867 Y4.573 E5.96330
G1 X4.708 Y4.752 E5.97532
G1 X4.467 Y4.938 E5.99059
G1 X4.164 Y5.090 E6.00759
G1 X3.962 Y5.161 E6.01836
G1 X3.444 Y5.271 E6.04492
G1 X2.886 Y5.329 E6.07308
G1 X2.291 Y5.349 E6.10295
G1 X-0.001 Y5.311 E6.21797
G1 X-1.972 Y5.349 E6.31690
G1 X-2.890 Y5.329 E6.36298
G1 X-3.455 Y5.270 E6.39149
G1 X-3.710 Y5.224 E6.40446
G1 X-3.951 Y5.165 E6.41694
G1 X-4.382 Y4.990 E6.44025
G1 X-4.573 Y4.867 E6.45165
G1 X-4.752 Y4.708 E6.46367
G1 X-4.938 Y4.467 E6.47894
G1 X-5.090 Y4.164 E6.49594
G1 X-5.222 Y3.719 E6.51925
G1 X-5.306 Y3.171 E6.54709
G1 X-5.343 Y2.591 E6.57621
G1 X-5.349 Y1.977 E6.60706
G1 X-5.311 Y-0.000 E6.70626
G1 X-5.349 Y-1.977 E6.80546
G1 X-5.343 Y-2.591 E6.83631
G1 X-5.305 Y-3.180 E6.86591
G1 X-5.225 Y-3.703 E6.89245
G1 X-5.138 Y-4.032 E6.90955
G1 X-4.983 Y-4.392 E6.92918
