; generated by Slic3r 1.2.9 on 2016-06-08 at 13:25:12

; external perimeters extrusion width = 0.40mm
; perimeters extrusion width = 0.67mm
; infill extrusion width = 0.67mm
; solid infill extrusion width = 0.67mm
; top infill extrusion width = 0.67mm
; support material extrusion width = 0.40mm

M107
M190 S60 ; set bed temperature
M104 S205 ; set temperature
G28 ; home all axes

M109 S205 ; wait for temperature to be reached
G21 ; set units to millimeters
G90 ; use absolute coordinates
M82 ; use absolute distances for extrusion
G92 E0
G1 E-4.00000 F4800.00000
G92 E0
G1 Z1.000 F6000.000
G1 X-26.897 Y1.367 F6000.000
G1 Z0.200 F6000.000
G1 E4.00000 F4800.00000
G1 X-28.929 Y-38.616 E6.09158 F1200.000
G1 X-28.649 Y-40.938 E6.21375
G1 X-28.208 Y-42.050 E6.27629
G1 X-26.397 Y-45.664 E6.48746
G1 X-25.009 Y-47.546 E6.60963
G1 X-23.085 Y-48.849 E6.73107
G1 X-22.051 Y-49.318 E6.79036
G1 X-21.335 Y-49.595 E6.83046
G1 X5.383 Y-58.276 E8.29818
G1 X7.256 Y-58.608 E8.39755
G1 X12.473 Y-58.801 E8.67031
G1 X13.459 Y-58.801 E8.72181
G1 X15.063 Y-58.599 E8.80626 F1200.000
G1 X15.474 Y-58.497 E8.82842
G1 X16.448 Y-58.177 E8.88197
G1 X16.791 Y-58.035 E8.90138
G1 X17.847 Y-57.488 E8.96351
G1 X18.178 Y-57.278 E8.98395
G1 X18.988 Y-56.677 E9.03669
G1 X19.201 Y-56.494 E9.05132
G1 X19.877 Y-55.823 E9.10111
G1 X20.395 Y-55.203 E9.14332
G1 X21.084 Y-54.196 E9.20707
G1 X22.159 Y-52.272 E9.32217
G1 X23.232 Y-50.100 E9.44876
G1 X24.045 Y-48.223 E9.55563
G1 X24.825 Y-46.167 E9.67052
G1 X25.564 Y-43.875 E9.79631
G1 X25.704 Y-43.365 E9.82395
G1 X26.590 Y-39.582 E10.02695
G1 X26.691 Y-39.062 E10.05466
G1 X27.050 Y-36.668 E10.18113
G1 X27.269 Y-34.405 E10.29987
G1 X27.389 Y-31.361 E10.45902
G1 X27.561 Y-7.983 E11.68047
G1 X27.474 Y-3.067 E11.93733
G1 X27.322 Y0.510 E12.12438
G1 X25.217 Y39.119 E14.14451
G1 X25.129 Y39.866 E14.18379
G1 X24.993 Y40.644 E14.22506
G1 X24.835 Y41.338 E14.26225
G1 X24.548 Y42.350 E14.31722
G1 X24.196 Y43.311 E14.37066
G1 X23.693 Y44.419 E14.43422
G1 X23.170 Y45.367 E14.49081
G1 X20.013 Y50.154 E14.79041
G1 X18.413 Y51.859 E14.91258
G1 X16.740 Y52.788 E15.01255
G1 X14.417 Y53.666 E15.14226
G1 X-2.759 Y59.247 E16.08582
G1 X-3.846 Y59.575 E16.14515
G1 X-5.186 Y59.899 E16.21718
G1 X-5.803 Y60.011 E16.24993
G1 X-6.660 Y60.128 E16.29513
G1 X-7.331 Y60.186 E16.33028
G1 X-8.145 Y60.216 E16.37284
G1 X-8.785 Y60.210 E16.40629
G1 X-9.562 Y60.167 E16.44695
G1 X-10.771 Y60.034 E16.51049
G1 X-11.619 Y59.875 E16.55556
G1 X-13.050 Y59.512 E16.63270
G1 X-13.699 Y59.311 E16.66822
G1 X-14.375 Y59.066 E16.70578
G1 X-15.489 Y58.587 E16.76914
G1 X-16.088 Y58.283 E16.80419
G1 X-17.112 Y57.680 E16.86632
G1 X-17.711 Y57.281 E16.90391
G1 X-18.650 Y56.583 E16.96503
G1 X-19.341 Y55.980 E17.01295
G1 X-20.405 Y54.916 E17.09158
G1 X-21.018 Y54.215 E17.14024
G1 X-22.094 Y52.755 E17.23496
G1 X-22.548 Y52.027 E17.27978
G1 X-22.962 Y51.260 E17.32532
G1 X-23.363 Y50.373 E17.37619
G1 X-24.083 Y48.346 E17.48858
G1 X-24.330 Y47.415 E17.53887
G1 X-24.550 Y46.262 E17.60024
G1 X-24.664 Y45.318 E17.64991
G1 X-26.894 Y1.427 E19.94595
G1 X-26.270 Y1.335 F6000.000
G1 X-28.301 Y-38.648 E22.03754 F1200.000
G1 X-27.646 Y-41.769 E22.20415
G1 X-25.835 Y-45.382 E22.41531
G1 X-24.498 Y-47.165 E22.53173
G1 X-22.825 Y-48.277 E22.63668
G1 X-21.791 Y-48.746 E22.69598
G1 X-21.141 Y-48.998 E22.73242
G1 X5.577 Y-57.678 E24.20013
G1 X7.279 Y-57.980 E24.29043
G1 X12.496 Y-58.173 E24.56320
G1 X13.454 Y-58.172 E24.61323
G1 X14.911 Y-57.989 E24.68998 F1200.000
G1 X15.323 Y-57.887 E24.71214
G1 X16.208 Y-57.596 E24.76080
G1 X16.551 Y-57.454 E24.78021
G1 X17.511 Y-56.957 E24.83667
G1 X17.841 Y-56.747 E24.85711
G1 X18.578 Y-56.201 E24.90504
G1 X18.790 Y-56.018 E24.91967
G1 X19.405 Y-55.408 E24.96491
G1 X19.910 Y-54.803 E25.00609
G1 X20.537 Y-53.888 E25.06403
G1 X21.443 Y-52.275 E25.16070
G1 X22.517 Y-50.149 E25.28512
G1 X23.469 Y-47.973 E25.40920
G1 X24.324 Y-45.698 E25.53620
G1 X24.965 Y-43.686 E25.64654
G1 X25.092 Y-43.222 E25.67166
G1 X25.978 Y-39.439 E25.87466
G1 X26.070 Y-38.966 E25.89983
G1 X26.425 Y-36.603 E26.02464
G1 X26.641 Y-34.380 E26.14135
G1 X26.761 Y-31.356 E26.29944
G1 X26.933 Y-7.978 E27.52086
G1 X26.846 Y-3.079 E27.77686
G1 X26.695 Y0.476 E27.96275
G1 X24.590 Y39.079 E29.98259
G1 X24.510 Y39.758 E30.01829
G1 X24.374 Y40.536 E30.05956
G1 X24.231 Y41.167 E30.09336
G1 X23.943 Y42.178 E30.14828
G1 X23.623 Y43.051 E30.19685
G1 X23.121 Y44.159 E30.26041
G1 X22.646 Y45.021 E30.31183
G1 X19.488 Y49.808 E30.61144
G1 X17.950 Y51.420 E30.72786
G1 X16.514 Y52.202 E30.81327
G1 X14.223 Y53.068 E30.94123
G1 X-2.953 Y58.649 E31.88479
G1 X-4.027 Y58.973 E31.94338
G1 X-5.327 Y59.286 E32.01326
G1 X-5.888 Y59.389 E32.04302
G1 X-6.745 Y59.505 E32.08822
G1 X-7.354 Y59.558 E32.12017
G1 X-8.168 Y59.588 E32.16273
G1 X-8.750 Y59.583 E32.19312
G1 X-9.527 Y59.540 E32.23378
G1 X-10.694 Y59.410 E32.29514
G1 X-11.465 Y59.266 E32.33609
G1 X-12.895 Y58.903 E32.41317
G1 X-13.485 Y58.721 E32.44544
G1 X-14.161 Y58.475 E32.48301
G1 X-15.233 Y58.013 E32.54399
G1 X-15.776 Y57.738 E32.57584
G1 X-16.764 Y57.157 E32.63571
G1 X-17.363 Y56.758 E32.67330
G1 X-18.269 Y56.084 E32.73231
G1 X-18.897 Y55.535 E32.77586
G1 X-19.961 Y54.472 E32.85448
G1 X-20.518 Y53.834 E32.89870
G1 X-21.583 Y52.390 E32.99242
G1 X-21.995 Y51.729 E33.03315
G1 X-22.409 Y50.962 E33.07870
G1 X-22.774 Y50.155 E33.12492
G1 X-23.488 Y48.143 E33.23649
G1 X-23.712 Y47.297 E33.28220
G1 X-23.933 Y46.144 E33.34356
G1 X-24.036 Y45.286 E33.38870
G1 X-26.267 Y1.395 E35.68475
G1 X-25.642 Y1.303 F6000.000
G1 X-27.674 Y-38.680 E37.77633 F1200.000
G1 X-27.084 Y-41.487 E37.92620
G1 X-25.273 Y-45.101 E38.13737
G1 X-23.989 Y-46.778 E38.24774
G1 X-22.566 Y-47.705 E38.33648
G1 X-21.532 Y-48.173 E38.39578
G1 X-20.947 Y-48.400 E38.42856
G1 X5.771 Y-57.081 E39.89627
G1 X7.302 Y-57.352 E39.97751
G1 X12.520 Y-57.545 E40.25027
G1 X13.449 Y-57.544 E40.29885
G1 X14.760 Y-57.379 E40.36788 F1200.000
G1 X15.172 Y-57.277 E40.39004
G1 X15.968 Y-57.015 E40.43382
G1 X16.311 Y-56.874 E40.45322
G1 X17.174 Y-56.426 E40.50401
G1 X17.505 Y-56.217 E40.52446
G1 X18.168 Y-55.725 E40.56757
G1 X18.380 Y-55.542 E40.58220
G1 X18.933 Y-54.994 E40.62291
G1 X19.425 Y-54.403 E40.66305
G1 X19.989 Y-53.580 E40.71517
G1 X21.051 Y-51.678 E40.82898
G1 X21.954 Y-49.869 E40.93462
G1 X22.998 Y-47.461 E41.07175
G1 X23.791 Y-45.309 E41.19159
G1 X24.366 Y-43.496 E41.29095
G1 X24.480 Y-43.079 E41.31355
G1 X25.367 Y-39.296 E41.51655
G1 X25.449 Y-38.870 E41.53920
G1 X25.769 Y-36.784 E41.64944
G1 X25.989 Y-34.701 E41.75887
G1 X26.128 Y-31.534 E41.92449
G1 X26.305 Y-7.974 E43.15545
G1 X26.218 Y-3.091 E43.41058
G1 X26.067 Y0.442 E43.59531
G1 X23.963 Y39.040 E45.61487
G1 X23.891 Y39.650 E45.64698
G1 X23.755 Y40.429 E45.68826
G1 X23.626 Y40.996 E45.71866
G1 X23.339 Y42.007 E45.77355
G1 X23.051 Y42.792 E45.81723
G1 X22.549 Y43.900 E45.88080
G1 X22.121 Y44.675 E45.92705
G1 X18.964 Y49.462 E46.22666
G1 X17.490 Y50.976 E46.33703
G1 X16.288 Y51.616 E46.40817
G1 X14.029 Y52.471 E46.53438
G1 X-3.147 Y58.052 E47.47794
G1 X-4.208 Y58.372 E47.53580
G1 X-5.468 Y58.674 E47.60351
G1 X-5.972 Y58.766 E47.63029
G1 X-6.829 Y58.883 E47.67549
G1 X-7.377 Y58.930 E47.70423
G1 X-8.192 Y58.960 E47.74679
G1 X-8.715 Y58.956 E47.77412
G1 X-9.492 Y58.912 E47.81479
G1 X-10.618 Y58.786 E47.87396
G1 X-11.311 Y58.657 E47.91080
G1 X-12.739 Y58.294 E47.98781
G1 X-13.270 Y58.130 E48.01684
G1 X-14.323 Y57.732 E48.07567
G1 X-14.976 Y57.440 E48.11302
G1 X-15.465 Y57.192 E48.14167
G1 X-16.086 Y56.837 E48.17903
G1 X-16.416 Y56.634 E48.19928
G1 X-17.310 Y56.025 E48.25580
G1 X-17.888 Y55.584 E48.29377
G1 X-18.453 Y55.091 E48.33295
G1 X-19.517 Y54.027 E48.41157
G1 X-20.018 Y53.454 E48.45135
G1 X-21.071 Y52.025 E48.54407
G1 X-21.442 Y51.430 E48.58070
G1 X-21.857 Y50.663 E48.62625
G1 X-22.184 Y49.938 E48.66784
G1 X-22.894 Y47.940 E48.77859
G1 X-23.095 Y47.179 E48.81971
G1 X-23.316 Y46.026 E48.88107
G1 X-23.409 Y45.254 E48.92167
G1 X-25.639 Y1.363 E51.21772
G1 F4800
G1 X-25.842 Y-2.632 E47.41772
G1 E47.21772 F4800.00000
G92 E0
G1 Z1.200 F6000.000
G1 X-4.168 Y33.220 F6000.000
G1 Z0.200 F6000.000
G1 E4.00000 F4800.00000
G1 X-3.820 Y34.245 E4.03213 F1200.000
G1 X-6.533 Y34.249 E4.11268
G1 X-6.736 Y34.272 E4.11876
G1 X-7.068 Y34.373 E4.12907
G1 X-7.294 Y34.521 E4.13709
G1 X-7.394 Y34.626 E4.14139
G1 X-7.493 Y34.759 E4.14630
G1 X-7.591 Y34.978 E4.15343
G1 X-7.636 Y35.233 E4.16111
G1 X-7.633 Y35.401 E4.16611
G1 X-7.556 Y35.777 E4.17750
G1 X-7.430 Y36.064 E4.18681
G1 X-7.331 Y36.226 E4.19245
G1 X-7.014 Y36.601 E4.20701
G1 X-6.765 Y36.808 E4.21663
G1 X-6.510 Y36.961 E4.22546
G1 X-6.212 Y37.089 E4.23509
G1 X-5.846 Y37.175 E4.24626
G1 X-5.512 Y37.196 E4.25621
G1 X-2.817 Y37.196 E4.33623
G1 X-2.466 Y38.228 E4.36859
G1 X-5.014 Y38.228 E4.44425
G1 X-5.344 Y38.213 E4.45404
G1 X-5.597 Y38.187 E4.46161
G1 X-5.896 Y38.125 E4.47068
G1 X-6.167 Y38.050 E4.47900
G1 X-6.550 Y37.897 E4.49125
G1 X-6.919 Y37.698 E4.50372
G1 X-7.377 Y37.374 E4.52035
G1 X-7.729 Y37.059 E4.53441
G1 X-8.045 Y36.704 E4.54850
G1 X-8.304 Y36.332 E4.56196
G1 X-8.441 Y36.084 E4.57037
G1 X-8.620 Y35.660 E4.58403
G1 X-8.737 Y35.204 E4.59803
G1 X-8.765 Y34.730 E4.61212
G1 X-8.745 Y34.557 E4.61729
G1 X-8.677 Y34.267 E4.62614
G1 X-8.560 Y34.002 E4.63472
G1 X-8.371 Y33.751 E4.64405
G1 X-8.122 Y33.541 E4.65373
G1 X-7.952 Y33.437 E4.65964
G1 X-7.668 Y33.330 E4.66865
G1 X-7.412 Y33.263 E4.67651
G1 X-6.849 Y33.220 E4.69327
G1 X-4.228 Y33.220 E4.77110
G1 X-4.288 Y33.602 F6000.000
G1 X-4.254 Y33.733 F6000.000
G1 X-6.547 Y33.735 E5.01890 F1200.000
G1 X-6.829 Y33.750 E5.04938
G1 X-7.315 Y33.841 E5.10284
G1 X-7.665 Y34.007 E5.14471
G1 X-7.738 Y34.058 E5.15433
G1 X-7.893 Y34.203 E5.17732
G1 X-8.067 Y34.471 E5.21179
G1 X-8.156 Y34.759 E5.24437
G1 X-8.183 Y35.117 E5.28312
G1 X-8.138 Y35.481 E5.32275
G1 X-8.017 Y35.878 E5.36763
G1 X-7.776 Y36.341 E5.42404
G1 X-7.788 Y36.348 F6000.000
G1 X-7.431 Y36.761 E5.45256 F1200.000
G1 X-7.119 Y37.051 E5.47481
G1 X-6.697 Y37.339 E5.50151
G1 X-6.371 Y37.497 E5.52042
G1 X-6.372 Y37.498 F6000.000
G1 X-5.922 Y37.635 E5.57125 F1200.000
G1 X-5.521 Y37.694 E5.61503
G1 X-5.002 Y37.712 E5.67108
G1 X-2.902 Y37.712 E5.89809
G1 F4800
G1 X-5.002 Y37.712 E3.90228
G1 F4800
G1 X-5.521 Y37.694 E3.40954
G1 F4800
G1 X-5.922 Y37.635 E3.02463
G1 F4800
G1 X-6.372 Y37.498 E2.57781
G1 E1.89809 F4800.00000
G92 E0
G1 Z1.200 F6000.000
G1 X2.141 Y36.956 F6000.000
G1 Z0.200 F6000.000
G1 E4.00000 F4800.00000
G1 X2.968 Y37.467 E4.05079 F1200.000
G1 X2.886 Y37.733 E4.06533
G1 X2.280 Y37.733 E4.09700
G1 X2.152 Y37.015 E4.13511
G1 F4800
G1 X2.968 Y37.467 E3.24866
G1 F4800
G1 X2.886 Y37.733 E2.98414
G1 F4800
G1 X2.280 Y37.733 E2.40832
G1 F4800
G1 X2.152 Y37.015 E1.71539
G1 E0.13511 F4800.00000
G92 E0
G1 Z1.200 F6000.000
G1 X-1.317 Y34.552 F6000.000
G1 Z0.200 F6000.000
G1 E4.00000 F4800.00000
G1 X-2.268 Y33.990 E4.05774 F1200.000
G1 X-2.190 Y33.716 E4.07259
G1 X-1.340 Y33.716 E4.11702
G1 X-1.318 Y34.492 E4.15758
G1 X-0.833 Y34.227 F6000.000
G1 X-0.824 Y34.562 E4.16754 F1200.000
G1 X-0.677 Y34.708 E4.17367
G1 X3.012 Y36.901 E4.30111
G1 X3.318 Y37.109 E4.31208
G1 X3.531 Y37.356 E4.32178
G1 X3.622 Y37.522 E4.32739
G1 X3.675 Y37.673 E4.33216
G1 X3.689 Y37.847 E4.33732
G1 X3.673 Y37.938 E4.34008
G1 X3.631 Y38.034 E4.34319
G1 X3.573 Y38.104 E4.34588
G1 X3.473 Y38.169 E4.34944
G1 X3.217 Y38.226 E4.35722
G1 X-1.412 Y38.228 E4.49465
G1 X-1.762 Y37.196 E4.52701
G1 X1.683 Y37.196 E4.62931
G1 X1.621 Y36.850 E4.63977
G1 X1.534 Y36.735 E4.64406
G1 X-2.114 Y34.666 E4.76858
G1 X-2.558 Y34.389 E4.78411
G1 X-2.797 Y34.131 E4.79455
G1 X-2.917 Y33.907 E4.80211
G1 X-2.953 Y33.779 E4.80604
G1 X-2.967 Y33.665 E4.80946
G1 X-2.954 Y33.551 E4.81288
G1 X-2.929 Y33.458 E4.81572
G1 X-2.845 Y33.338 E4.82006
G1 X-2.716 Y33.267 E4.82443
G1 X-2.496 Y33.224 E4.83111
G1 X2.232 Y33.220 E4.97148
G1 X2.566 Y34.204 E5.00234
G1 X-0.563 Y34.204 E5.09525
G1 X-0.773 Y34.222 E5.10151
G1 X-1.168 Y34.242 F6000.000
G1 X-1.093 Y33.735 F6000.000
G1 X-0.573 Y33.713 E5.15773 F1200.000
G1 X2.139 Y33.712 E5.45080
G1 F4800
G1 X-0.573 Y33.713 E2.87433
G1 F4800
G1 X-1.093 Y33.735 E2.38006
G1 E1.45080 F4800.00000
G92 E0
G1 Z1.200 F6000.000
G1 X1.827 Y36.687 F6000.000
G1 Z0.200 F6000.000
G1 E4.00000 F4800.00000
G1 X1.729 Y36.494 E4.01135 F1200.000
G1 X-0.875 Y34.981 E4.16865
G1 X-1.062 Y34.841 E4.18087
G1 F4800
G1 X-0.875 Y34.981 E3.95859
G1 F4800
G1 X1.729 Y36.494 E1.09831
G1 F4800
G1 X1.827 Y36.687 E0.89199
G1 E0.18087 F4800.00000
G92 E0
G1 Z1.200 F6000.000
G1 X-1.327 Y37.712 F6000.000
G1 Z0.200 F6000.000
G1 E4.00000 F4800.00000
G1 X2.026 Y37.711 E4.36230 F1200.000
G1 F4800
G1 X-1.327 Y37.712 E1.17712
G1 E0.36230 F4800.00000
G92 E0
G1 Z1.200 F6000.000
G1 X11.499 Y-1.038 F6000.000
G1 Z0.200 F6000.000
G1 E4.00000 F4800.00000
G1 X10.847 Y-1.325 E4.02114 F1200.000
G1 X10.358 Y-1.779 E4.04098
G1 X10.094 Y-2.246 E4.05690
G1 X9.949 Y-2.743 E4.07227
G1 X9.934 Y-3.116 E4.08335
G1 X10.060 Y-3.757 E4.10275
G1 X10.230 Y-4.103 E4.11421
G1 X10.654 Y-4.602 E4.13363
G1 X10.959 Y-4.818 E4.14475
G1 X11.612 Y-5.056 E4.16538
G1 X11.961 Y-5.091 E4.17579 F1200.000
G1 X12.478 Y-5.026 E4.19127
G1 X13.093 Y-4.760 E4.21117
G1 X13.513 Y-4.412 E4.22735
G1 X13.918 Y-3.740 E4.25067
G1 X14.000 Y-2.661 E4.28279
G1 X13.837 Y-2.143 E4.29891
G1 X13.542 Y-1.704 E4.31461
G1 X13.159 Y-1.350 E4.33010
G1 X12.693 Y-1.115 E4.34558
G1 X12.190 Y-0.990 E4.36097
G1 X11.559 Y-1.033 E4.37977
G1 X11.206 Y-0.766 F6000.000
G1 X10.471 Y-0.266 F6000.000
G1 X11.227 Y0.067 E4.42292 F1200.000
G1 X12.289 Y0.140 E4.47858
G1 X13.086 Y-0.057 E4.52146
G1 X13.805 Y-0.420 E4.56352
G1 X14.399 Y-0.971 E4.60586
G1 X14.857 Y-1.652 E4.64874
G1 X15.134 Y-2.530 E4.69685
G1 X15.016 Y-4.090 E4.77860
G1 X14.375 Y-5.154 E4.84349
G1 X13.686 Y-5.725 E4.89026
G1 X12.776 Y-6.119 E4.94204
G1 X11.975 Y-6.218 E4.98421
G1 X11.361 Y-6.158 E5.01643
G1 X10.501 Y-5.845 E5.06427
G1 X10.688 Y-40.564 E6.87819
G1 X10.716 Y-40.573 E6.87969
G1 X10.768 Y-49.929 E7.36854
G1 X12.689 Y-50.554 E7.47410
G1 X12.892 Y-50.598 E7.48493
G1 X13.241 Y-50.596 E7.50319
G1 X13.552 Y-50.495 E7.52025
G1 X13.703 Y-50.399 E7.52964
G1 X13.987 Y-50.074 E7.55217
G1 X14.923 Y-48.401 E7.65231
G1 X15.716 Y-46.805 E7.74542
G1 X16.503 Y-44.991 E7.84873
G1 X17.130 Y-43.318 E7.94207
G1 X17.726 Y-41.444 E8.04483
G1 X18.589 Y-37.761 E8.24246
G1 X18.890 Y-35.796 E8.34633
G1 X19.072 Y-34.031 E8.43899
G1 X19.184 Y-31.274 E8.58316
G1 X19.355 Y-7.940 E9.80229
G1 X19.270 Y-3.238 E10.04797
G1 X19.129 Y0.046 E10.21969
G1 X18.602 Y5.622 E10.51231
G1 X17.777 Y11.186 E10.80621
G1 X16.792 Y16.026 E11.06424
G1 X16.071 Y19.117 E11.23006
G1 X15.185 Y22.603 E11.41797
G1 X14.978 Y23.933 E11.48829
G1 X14.878 Y25.356 E11.56282
G1 X14.887 Y26.583 E11.62692
G1 X15.014 Y28.104 E11.70666
G1 X15.548 Y30.645 E11.84234
G1 X16.534 Y34.064 E12.02823
G1 X16.737 Y35.225 E12.08983
G1 X10.279 Y35.190 E12.42725
G1 X10.470 Y-0.206 E14.27650
G1 X9.849 Y-1.579 F6000.000
G1 X10.573 Y-0.907 E14.32807 F1200.000
G1 X11.379 Y-0.552 E14.37410
G1 X12.234 Y-0.493 E14.41886
G1 X12.866 Y-0.650 E14.45288
G1 X13.443 Y-0.941 E14.48663
G1 X13.919 Y-1.382 E14.52052
G1 X14.285 Y-1.927 E14.55485
G1 X14.499 Y-2.603 E14.59190
G1 X14.401 Y-3.894 E14.65951
G1 X13.892 Y-4.738 E14.71103
G1 X13.354 Y-5.184 E14.74753
G1 X12.609 Y-5.506 E14.78992
G1 X11.967 Y-5.586 E14.82372
G1 X11.502 Y-5.540 E14.84814
G1 X10.728 Y-5.259 E14.89117
G1 X10.318 Y-4.968 E14.91742
G1 X9.865 Y-4.434 E14.95401
G1 X10.063 Y-41.017 E16.86533
G1 X10.090 Y-41.027 E16.86683
G1 X10.142 Y-50.387 E17.35587
G1 X12.524 Y-51.161 E17.48672
G1 X12.825 Y-51.227 E17.50285
G1 X13.320 Y-51.224 E17.52870
G1 X13.602 Y-51.154 E17.54387
G1 X13.842 Y-51.055 E17.55744
G1 X14.079 Y-50.905 E17.57209
G1 X14.208 Y-50.793 E17.58101
G1 X14.508 Y-50.431 E17.60559
G1 X15.479 Y-48.695 E17.70950
G1 X16.286 Y-47.070 E17.80427
G1 X17.086 Y-45.226 E17.90928
G1 X17.724 Y-43.524 E18.00427
G1 X18.332 Y-41.611 E18.10914
G1 X19.206 Y-37.880 E18.30932
G1 X19.514 Y-35.875 E18.41529
G1 X19.699 Y-34.076 E18.50978
G1 X19.812 Y-31.289 E18.65552
G1 X19.984 Y-7.936 E19.87562
G1 X19.898 Y-3.219 E20.12212
G1 X19.756 Y0.089 E20.29508
G1 X19.226 Y5.697 E20.58942
G1 X18.396 Y11.295 E20.88506
