; generated by Slic3r 1.2.9 on 2016-06-02 at 13:33:43

; external perimeters extrusion width = 0.40mm
; perimeters extrusion width = 0.42mm
; infill extrusion width = 0.42mm
; solid infill extrusion width = 0.42mm
; top infill extrusion width = 0.42mm
; support material extrusion width = 0.40mm

M107
M190 S60 ; set bed temperature
M104 S205 ; set temperature
G28 ; home all axes

M109 S205 ; wait for temperature to be reached
G21 ; set units to millimeters
G90 ; use absolute coordinates
M82 ; use absolute distances for extrusion
G92 E0
G1 E-4.00000 F4800.00000
G92 E0
G1 Z1.000 F6000.000
G1 X49.931 Y2.513 F6000.000
G1 Z0.400 F6000.000
G1 E4.00000 F4800.00000
G1 X47.800 Y44.851 E6.35572 F1200.000
G1 X47.613 Y46.065 E6.42400
G1 X46.849 Y48.992 E6.59208
G1 X46.408 Y50.165 E6.66175
G1 X45.887 Y51.203 E6.72628
G1 X45.195 Y52.280 E6.79741
G1 X43.336 Y54.587 E6.96208
G1 X42.424 Y55.498 E7.03372
G1 X41.246 Y56.445 E7.11769
G1 X40.465 Y56.978 E7.17023
G1 X39.480 Y57.542 E7.23331
G1 X38.909 Y57.829 E7.26884
G1 X38.008 Y58.224 E7.32349
G1 X37.192 Y58.513 E7.37161
G1 X36.267 Y58.767 E7.42494
G1 X35.461 Y58.973 E7.47116
G1 X34.758 Y59.108 E7.51090
G1 X33.123 Y59.303 E7.60245
G1 X32.480 Y59.337 E7.63819
G1 X-32.169 Y59.317 E11.23080
G1 X-33.318 Y59.275 E11.29473
G1 X-33.995 Y59.223 E11.33245
G1 X-34.564 Y59.152 E11.36428
G1 X-35.210 Y59.040 E11.40075
G1 X-35.664 Y58.942 E11.42657
G1 X-36.911 Y58.624 E11.49805
G1 X-37.577 Y58.412 E11.53689
G1 X-38.451 Y58.069 E11.58910
G1 X-39.026 Y57.814 E11.62405
G1 X-39.566 Y57.541 E11.65765
G1 X-40.112 Y57.229 E11.69261
G1 X-40.755 Y56.847 E11.73419
G1 X-41.220 Y56.539 E11.76515
G1 X-41.734 Y56.163 E11.80056
G1 X-42.167 Y55.815 E11.83142
G1 X-42.923 Y55.133 E11.88803
G1 X-43.923 Y54.117 E11.96724
G1 X-44.425 Y53.527 E12.01027
G1 X-45.304 Y52.333 E12.09268
G1 X-45.730 Y51.657 E12.13707
G1 X-46.094 Y50.982 E12.17970
G1 X-46.349 Y50.449 E12.21254
G1 X-46.814 Y49.304 E12.28119
G1 X-47.099 Y48.470 E12.33017
G1 X-47.452 Y47.240 E12.40131
G1 X-47.620 Y46.415 E12.44808
G1 X-47.766 Y45.305 E12.51030
G1 X-47.810 Y44.821 E12.53730
G1 X-52.037 Y-39.295 E17.21763
G1 X-51.408 Y-42.286 E17.38746
G1 X-50.113 Y-44.871 E17.54812
G1 X-47.977 Y-47.240 E17.72540
G1 X-46.943 Y-47.900 E17.79355
G1 X-45.755 Y-48.486 E17.86716
G1 X-44.709 Y-48.861 E17.92889
G1 X-17.845 Y-57.589 E19.49861
G1 X-16.042 Y-57.882 E19.60011
G1 X-11.268 Y-57.923 E19.86543
G1 X11.405 Y-57.922 E21.12535
G1 X16.440 Y-57.807 E21.40523 F1200.000
G1 X18.157 Y-57.515 E21.50204
G1 X45.355 Y-48.678 E23.09124
G1 X46.174 Y-48.344 E23.14039
G1 X46.996 Y-47.926 E23.19162
G1 X47.545 Y-47.619 E23.22658
G1 X48.776 Y-46.705 E23.31178
G1 X49.250 Y-46.249 E23.34835
G1 X49.862 Y-45.562 E23.39944
G1 X50.285 Y-45.005 E23.43832
G1 X50.838 Y-44.134 E23.49565
G1 X51.195 Y-43.445 E23.53878
G1 X51.789 Y-41.661 E23.64326
G1 X51.964 Y-40.607 E23.70263
G1 X52.037 Y-39.324 E23.77403
G1 X49.934 Y2.453 E26.09858
G1 X49.597 Y2.496 F6000.000
G1 X47.467 Y44.834 E28.45430 F1200.000
G1 X47.290 Y45.981 E28.51878
G1 X46.526 Y48.907 E28.68686
G1 X46.109 Y50.015 E28.75265
G1 X45.589 Y51.053 E28.81718
G1 X44.935 Y52.070 E28.88435
G1 X43.076 Y54.377 E29.04902
G1 X42.214 Y55.238 E29.11668
G1 X41.037 Y56.185 E29.20064
G1 X40.299 Y56.688 E29.25026
G1 X39.314 Y57.252 E29.31334
G1 X38.775 Y57.523 E29.34689
G1 X37.874 Y57.918 E29.40154
G1 X37.103 Y58.191 E29.44698
G1 X36.184 Y58.443 E29.49996
G1 X35.378 Y58.649 E29.54618
G1 X34.715 Y58.776 E29.58370
G1 X33.087 Y58.971 E29.67482
G1 X32.480 Y59.003 E29.70857
G1 X-32.169 Y58.983 E33.30118
G1 X-33.293 Y58.942 E33.36369
G1 X-33.969 Y58.890 E33.40140
G1 X-34.506 Y58.823 E33.43147
G1 X-35.153 Y58.710 E33.46793
G1 X-35.582 Y58.618 E33.49232
G1 X-36.828 Y58.301 E33.56380
G1 X-37.457 Y58.100 E33.60047
G1 X-38.316 Y57.763 E33.65173
G1 X-38.891 Y57.508 E33.68668
G1 X-39.400 Y57.251 E33.71841
G1 X-39.947 Y56.939 E33.75337
G1 X-40.584 Y56.560 E33.79458
G1 X-41.023 Y56.269 E33.82383
G1 X-41.537 Y55.894 E33.85923
G1 X-41.946 Y55.565 E33.88838
G1 X-42.687 Y54.896 E33.94385
G1 X-43.683 Y53.885 E34.02275
G1 X-44.157 Y53.328 E34.06339
G1 X-45.034 Y52.137 E34.14557
G1 X-45.436 Y51.498 E34.18749
G1 X-45.800 Y50.823 E34.23012
G1 X-46.041 Y50.320 E34.26113
G1 X-46.498 Y49.196 E34.32852
G1 X-46.782 Y48.362 E34.37750
G1 X-47.130 Y47.150 E34.44758
G1 X-47.289 Y46.371 E34.49174
G1 X-47.435 Y45.261 E34.55396
G1 X-47.477 Y44.804 E34.57946
G1 X-51.703 Y-39.312 E39.25979
G1 X-51.110 Y-42.136 E39.42016
G1 X-49.814 Y-44.721 E39.58083
G1 X-47.797 Y-46.959 E39.74824
G1 X-46.764 Y-47.619 E39.81638
G1 X-45.641 Y-48.172 E39.88590
G1 X-44.606 Y-48.543 E39.94702
G1 X-17.741 Y-57.271 E41.51674
G1 X-16.039 Y-57.548 E41.61259
G1 X-11.268 Y-57.589 E41.87775
G1 X11.397 Y-57.588 E43.13724
G1 X16.432 Y-57.473 E43.41712 F1200.000
G1 X18.054 Y-57.197 E43.50854
G1 X45.252 Y-48.360 E45.09774
G1 X46.025 Y-48.044 E45.14416
G1 X46.833 Y-47.635 E45.19448
G1 X47.382 Y-47.328 E45.22943
G1 X48.544 Y-46.465 E45.30989
G1 X49.018 Y-46.008 E45.34646
G1 X49.596 Y-45.360 E45.39471
G1 X50.020 Y-44.803 E45.43359
G1 X50.541 Y-43.980 E45.48773
G1 X50.899 Y-43.291 E45.53086
G1 X51.459 Y-41.607 E45.62952
G1 X51.634 Y-40.553 E45.68889
G1 X51.703 Y-39.341 E45.75631
G1 X49.600 Y2.436 E48.08087
G1 X49.264 Y2.479 F6000.000
G1 X47.133 Y44.817 E50.43658 F1200.000
G1 X46.967 Y45.896 E50.49726
G1 X46.203 Y48.823 E50.66534
G1 X45.810 Y49.865 E50.72726
G1 X45.290 Y50.904 E50.79178
G1 X44.675 Y51.860 E50.85500
G1 X42.815 Y54.168 E51.01967
G1 X42.005 Y54.977 E51.08333
G1 X40.828 Y55.924 E51.16730
G1 X40.133 Y56.398 E51.21399
G1 X39.148 Y56.961 E51.27708
G1 X38.641 Y57.217 E51.30865
G1 X37.740 Y57.612 E51.36330
G1 X37.015 Y57.869 E51.40605
G1 X36.101 Y58.120 E51.45868
G1 X35.296 Y58.325 E51.50490
G1 X34.671 Y58.445 E51.54022
G1 X33.051 Y58.639 E51.63089
G1 X32.481 Y58.669 E51.66265
G1 X-32.169 Y58.648 E55.25526
G1 X-33.267 Y58.609 E55.31635
G1 X-33.944 Y58.557 E55.35407
G1 X-34.449 Y58.494 E55.38236
G1 X-35.095 Y58.381 E55.41882
G1 X-36.746 Y57.977 E55.51324
G1 X-37.337 Y57.788 E55.54775
G1 X-38.180 Y57.458 E55.59805
G1 X-38.755 Y57.203 E55.63301
G1 X-39.234 Y56.960 E55.66286
G1 X-39.781 Y56.649 E55.69783
G1 X-40.413 Y56.273 E55.73867
G1 X-40.826 Y56.000 E55.76619
G1 X-41.340 Y55.624 E55.80159
G1 X-41.725 Y55.315 E55.82902
G1 X-42.451 Y54.660 E55.88335
G1 X-43.443 Y53.652 E55.96195
G1 X-43.889 Y53.128 E56.00019
G1 X-44.764 Y51.940 E56.08215
G1 X-45.142 Y51.339 E56.12161
G1 X-45.506 Y50.664 E56.16423
G1 X-45.733 Y50.191 E56.19341
G1 X-46.181 Y49.088 E56.25954
G1 X-46.466 Y48.254 E56.30853
G1 X-46.808 Y47.060 E56.37754
G1 X-46.957 Y46.328 E56.41910
G1 X-47.104 Y45.217 E56.48132
G1 X-47.143 Y44.787 E56.50532
G1 X-51.370 Y-39.329 E61.18564
G1 X-50.811 Y-41.987 E61.33656
G1 X-49.515 Y-44.571 E61.49722
G1 X-47.617 Y-46.677 E61.65476
G1 X-46.584 Y-47.337 E61.72291
G1 X-45.528 Y-47.857 E61.78833
G1 X-44.503 Y-48.225 E61.84883
G1 X-17.638 Y-56.953 E63.41856
G1 X-16.036 Y-57.214 E63.50876
G1 X-11.268 Y-57.255 E63.77375
G1 X11.389 Y-57.254 E65.03283
G1 X16.425 Y-57.139 E65.31270 F1200.000
G1 X17.951 Y-56.879 E65.39873
G1 X45.149 Y-48.042 E66.98793
G1 X45.877 Y-47.745 E67.03161
G1 X46.670 Y-47.343 E67.08103
G1 X47.219 Y-47.036 E67.11598
G1 X48.313 Y-46.224 E67.19170
G1 X48.787 Y-45.767 E67.22827
G1 X49.330 Y-45.157 E67.27367
G1 X49.754 Y-44.600 E67.31255
G1 X50.244 Y-43.826 E67.36349
G1 X50.602 Y-43.137 E67.40663
G1 X51.130 Y-41.552 E67.49947
G1 X51.304 Y-40.498 E67.55884
G1 X51.369 Y-39.358 E67.62229
G1 X49.267 Y2.419 E69.94684
G1 F4800
G1 X49.066 Y6.414 E66.14684
G1 E65.94684 F4800.00000
G92 E0
G1 Z1.400 F6000.000
G1 X-11.514 Y-5.025 F6000.000
G1 Z0.400 F6000.000
G1 E4.00000 F4800.00000
G1 X-10.909 Y-4.763 E4.03442 F1200.000
G1 X-10.481 Y-4.408 E4.06348
G1 X-10.078 Y-3.734 E4.10450
G1 X-9.997 Y-2.667 E4.16042
G1 X-10.161 Y-2.143 E4.18910
G1 X-10.460 Y-1.700 E4.21704
G1 X-10.845 Y-1.347 E4.24431
G1 X-11.311 Y-1.113 E4.27154
G1 X-11.808 Y-0.990 E4.29831
G1 X-12.500 Y-1.038 E4.33454
G1 X-13.164 Y-1.336 E4.37261
G1 X-13.637 Y-1.775 E4.40626
G1 X-13.907 Y-2.251 E4.43489
G1 X-14.049 Y-2.750 E4.46198
G1 X-14.061 Y-3.134 E4.48206
G1 X-13.940 Y-3.752 E4.51496
G1 X-13.758 Y-4.115 E4.53615
G1 X-13.351 Y-4.595 E4.56907
G1 X-13.039 Y-4.819 E4.58910
G1 X-12.368 Y-5.057 E4.62630
G1 X-12.031 Y-5.090 E4.64399 F1200.000
G1 X-11.573 Y-5.032 E4.66809
G1 X-11.217 Y-5.292 F6000.000
G1 F4800
G1 X-10.909 Y-4.763 E3.98728
G1 F4800
G1 X-10.481 Y-4.408 E3.45883
G1 F4800
G1 X-10.078 Y-3.734 E2.71294
G1 F4800
G1 X-9.997 Y-2.667 E1.69609
G1 F4800
G1 X-10.161 Y-2.143 E1.17458
G1 F4800
G1 X-10.342 Y-1.876 E0.86809
G1 E0.66809 F4800.00000
G92 E0
G1 Z1.400 F6000.000
G1 X-13.965 Y-4.964 F6000.000
G1 Z0.400 F6000.000
G1 E4.00000 F4800.00000
G1 X-13.771 Y-40.898 E5.99689 F1200.000
G1 X-13.749 Y-40.905 E5.99815
G1 X-13.696 Y-50.265 E6.51828
G1 X-11.436 Y-50.999 E6.65033
G1 X-11.134 Y-51.061 E6.66749
G1 X-10.707 Y-51.058 E6.69123
G1 X-10.425 Y-50.985 E6.70743
G1 X-10.226 Y-50.903 E6.71938
G1 X-10.012 Y-50.766 E6.73350
G1 X-9.913 Y-50.681 E6.74073
G1 X-9.630 Y-50.341 E6.76533
G1 X-8.624 Y-48.532 E6.88034
G1 X-7.872 Y-47.021 E6.97416
G1 X-7.047 Y-45.114 E7.08959
G1 X-6.453 Y-43.530 E7.18362
G1 X-5.820 Y-41.546 E7.29935
G1 X-4.961 Y-37.877 E7.50873
G1 X-4.640 Y-35.779 E7.62666
G1 X-4.468 Y-34.106 E7.72014
G1 X-4.352 Y-31.285 E7.87706
G1 X-4.179 Y-7.943 E9.17422
G1 X-4.266 Y-3.167 E9.43967
G1 X-4.401 Y-0.048 E9.61315
G1 X-4.920 Y5.525 E9.92421
G1 X-5.742 Y11.125 E10.23871
G1 X-6.759 Y16.141 E10.52316
G1 X-7.488 Y19.268 E10.70159
G1 X-8.379 Y22.804 E10.90420
G1 X-8.557 Y23.966 E10.96952
G1 X-8.658 Y25.406 E11.04976
G1 X-8.650 Y26.525 E11.11196
G1 X-8.521 Y28.061 E11.19759
G1 X-8.002 Y30.530 E11.33782
G1 X-7.013 Y33.959 E11.53614
G1 X-6.711 Y35.691 E11.63384
G1 X-14.185 Y35.650 E12.04917
G1 X-13.985 Y-1.200 E14.09698
G1 X-13.533 Y-0.780 E14.13127
G1 X-12.663 Y-0.389 E14.18431
G1 X-11.750 Y-0.326 E14.23513
G1 X-11.081 Y-0.491 E14.27343
G1 X-10.467 Y-0.799 E14.31159
G1 X-9.958 Y-1.267 E14.35002
G1 X-9.562 Y-1.854 E14.38938
G1 X-9.331 Y-2.590 E14.43225
G1 X-9.434 Y-3.939 E14.50740
G1 X-9.974 Y-4.842 E14.56591
G1 X-10.561 Y-5.330 E14.60831
G1 X-11.338 Y-5.666 E14.65537
G1 X-12.022 Y-5.753 E14.69368
G1 X-12.513 Y-5.704 E14.72106
G1 X-13.347 Y-5.408 E14.77028
G1 X-13.916 Y-4.999 E14.80920
G1 X-14.304 Y-4.095 F6000.000
G1 X-14.103 Y-41.139 E16.86778 F1200.000
G1 X-14.082 Y-41.146 E16.86904
G1 X-14.029 Y-50.508 E17.38928
G1 X-11.522 Y-51.322 E17.53577
G1 X-11.167 Y-51.396 E17.55592
G1 X-10.663 Y-51.392 E17.58394
G1 X-10.318 Y-51.303 E17.60372
G1 X-10.071 Y-51.200 E17.61859
G1 X-9.812 Y-51.035 E17.63569
G1 X-9.674 Y-50.916 E17.64579
G1 X-9.353 Y-50.530 E17.67366
G1 X-8.328 Y-48.688 E17.79083
G1 X-7.569 Y-47.162 E17.88557
G1 X-6.737 Y-45.240 E18.00195
G1 X-6.137 Y-43.639 E18.09691
G1 X-5.497 Y-41.635 E18.21384
G1 X-4.633 Y-37.941 E18.42468
G1 X-4.309 Y-35.822 E18.54380
G1 X-4.135 Y-34.130 E18.63830
G1 X-4.018 Y-31.293 E18.79610
G1 X-3.845 Y-7.941 E20.09381
G1 X-3.932 Y-3.157 E20.35973
G1 X-4.067 Y-0.025 E20.53391
G1 X-4.588 Y5.565 E20.84592
G1 X-5.412 Y11.179 E21.16121
G1 X-5.512 Y11.735 E21.19262
G1 X-6.432 Y16.213 E21.44667
G1 X-7.163 Y19.347 E21.62551
G1 X-8.051 Y22.870 E21.82740
G1 X-8.225 Y24.003 E21.89108
G1 X-8.324 Y25.416 E21.96984
G1 X-8.316 Y26.510 E22.03061
G1 X-8.190 Y28.012 E22.11439
G1 X-7.677 Y30.449 E22.25279
G1 X-6.687 Y33.884 E22.45142
G1 X-6.313 Y36.027 E22.57234
G1 X-14.520 Y35.982 E23.02846
G1 X-14.315 Y-2.013 E25.13988
G1 X-14.166 Y-2.051 E25.14844
G1 X-13.894 Y-1.571 E25.17911
G1 X-13.346 Y-1.063 E25.22066
G1 X-12.580 Y-0.718 E25.26733
G1 X-11.780 Y-0.663 E25.31191
G1 X-11.198 Y-0.807 E25.34522
G1 X-10.659 Y-1.077 E25.37872
G1 X-10.213 Y-1.487 E25.41236
G1 X-9.866 Y-2.001 E25.44683
G1 X-9.669 Y-2.629 E25.48342
G1 X-9.761 Y-3.835 E25.55062
G1 X-10.232 Y-4.622 E25.60158
G1 X-10.738 Y-5.042 E25.63815
G1 X-11.428 Y-5.341 E25.67990
G1 X-12.027 Y-5.416 E25.71347
G1 X-12.439 Y-5.376 E25.73650
G1 X-13.191 Y-5.109 E25.78082
G1 X-13.572 Y-4.835 E25.80690
G1 X-14.031 Y-4.295 E25.84629
G1 X-14.149 Y-4.058 E25.86097
G1 X-14.245 Y-4.082 E25.86648
G1 F4800
G1 X-14.230 Y-8.081 E22.06648
G1 E21.86648 F4800.00000
G92 E0
G1 Z1.400 F6000.000
G1 X-6.530 Y36.350 F6000.000
G1 Z0.400 F6000.000
G1 E4.00000 F4800.00000
G1 X-14.846 Y36.304 E4.43448 F1200.000
G1 X-14.426 Y-41.373 E8.49281
G1 X-14.405 Y-41.380 E8.49400
G1 X-14.352 Y-50.744 E8.98320
G1 X-11.605 Y-51.636 E9.13408
G1 X-11.199 Y-51.720 E9.15575
G1 X-10.620 Y-51.716 E9.18599
G1 X-10.215 Y-51.611 E9.20786
G1 X-9.921 Y-51.489 E9.22451
G1 X-9.618 Y-51.295 E9.24330
G1 X-9.442 Y-51.144 E9.25542
G1 X-9.085 Y-50.714 E9.28460
G1 X-8.041 Y-48.839 E9.39672
G1 X-7.275 Y-47.298 E9.48663
G1 X-6.436 Y-45.361 E9.59692
G1 X-5.831 Y-43.746 E9.68704
G1 X-5.185 Y-41.721 E9.79806
G1 X-4.314 Y-38.002 E9.99761
G1 X-3.987 Y-35.863 E10.11068
G1 X-3.811 Y-34.153 E10.20046
G1 X-3.693 Y-31.301 E10.34963
G1 X-3.521 Y-7.939 E11.57017
G1 X-3.608 Y-3.147 E11.82060
G1 X-3.744 Y-0.003 E11.98499
G1 X-4.266 Y5.604 E12.27920
G1 X-5.092 Y11.231 E12.57633
G1 X-5.193 Y11.796 E12.60635
G1 X-6.116 Y16.282 E12.84562
G1 X-6.848 Y19.423 E13.01414
G1 X-7.733 Y22.934 E13.20329
G1 X-7.902 Y24.038 E13.26166
G1 X-7.999 Y25.426 E13.33435
G1 X-7.991 Y26.495 E13.39019
G1 X-7.869 Y27.965 E13.46726
G1 X-7.363 Y30.371 E13.59570
G1 X-6.371 Y33.811 E13.78274
G1 X-5.892 Y36.550 E13.92802
G1 X-5.805 Y37.736 E13.99011
G1 X-5.849 Y38.622 E14.03650
G1 X-5.983 Y39.416 E14.07853
G1 X-6.261 Y40.396 E14.13179
G1 X-6.400 Y40.702 E14.14933
G1 X-6.554 Y40.669 E14.15756
G1 X-6.531 Y36.410 E14.38003
G1 X-6.528 Y35.950 F6000.000
G1 X-6.245 Y36.190 F6000.000
G1 X-6.211 Y36.590 E14.43035 F1200.000
G1 X-6.172 Y37.740 E14.57471
G1 X-6.195 Y38.585 E14.68069
G1 X-6.269 Y39.442 E14.78858
G1 X-6.274 Y39.441 F6000.000
G1 X-6.378 Y40.174 E14.82967 F1200.000
G1 F4800
G1 X-6.274 Y39.441 E14.12715
G1 E10.82967 F4800.00000
G92 E0
G1 Z1.400 F6000.000
G1 X-7.625 Y19.233 F6000.000
G1 X-9.855 Y10.251 F6000.000
G1 X-10.453 Y3.015 F6000.000
G1 X-11.873 Y1.800 F6000.000
G1 X-12.497 Y1.128 F6000.000
G1 X-13.857 Y1.120 F6000.000
G1 X-14.271 Y-2.191 F6000.000
G1 Z0.400 F6000.000
G1 E4.00000 F4800.00000
G1 X-14.339 Y-2.688 E4.06286 F1200.000
G1 X-14.349 Y-3.132 E4.11853
G1 X-14.271 Y-3.921 E4.21799
G1 X-13.505 Y-5.498 F6000.000
G1 X-13.768 Y-5.760 E4.23870 F1200.000
G1 X-13.765 Y-6.232 E4.26500
G1 X-13.183 Y-5.650 E4.31089
G1 X-12.833 Y-5.774 E4.33160
G1 X-13.763 Y-6.704 E4.40489
G1 X-13.760 Y-7.175 E4.43119
G1 X-12.480 Y-5.895 E4.53219
G1 X-12.048 Y-5.937 E4.55637
G1 X-13.758 Y-7.647 E4.69119
G1 X-13.755 Y-8.119 E4.71750
G1 X-11.531 Y-5.895 E4.89290
G1 X-10.875 Y-5.713 E4.93084
G1 X-13.753 Y-8.590 E5.15776
G1 F4800
G1 X-10.924 Y-5.762 E1.35776
G1 E1.15776 F4800.00000
G92 E0
G1 Z1.400 F6000.000
G1 X-7.884 Y-7.920 F6000.000
G1 X-7.518 Y0.568 F6000.000
G1 X-10.440 Y3.025 F6000.000
G1 X-12.993 Y0.551 F6000.000
G1 X-13.620 Y-0.400 F6000.000
G1 X-13.651 Y-0.454 F6000.000
G1 X-13.757 Y-0.672 F6000.000
G1 X-13.796 Y-0.572 F6000.000
G1 Z0.400 F6000.000
G1 E4.00000 F4800.00000
G1 X-5.437 Y7.787 E4.65920 F1200.000
G1 X-5.498 Y8.200 E4.68251
G1 X-13.798 Y-0.100 E5.33713
G1 X-13.801 Y0.372 F6000.000
G1 X-5.559 Y8.614 E5.98716 F1200.000
G1 X-5.619 Y9.027 E6.01047
G1 X-13.804 Y0.843 E6.65592
G1 X-13.806 Y1.315 E6.68223
G1 X-5.680 Y9.441 E7.32310
G1 X-5.741 Y9.855 E7.34641
G1 X-13.809 Y1.787 E7.98269
G1 X-13.811 Y2.258 E8.00899
G1 X-5.801 Y10.268 E8.64069
G1 X-5.862 Y10.682 E8.66400
G1 X-13.814 Y2.730 E9.29111
G1 X-13.816 Y3.202 E9.31742
G1 X-5.923 Y11.095 E9.93995
G1 X-6.000 Y11.492 E9.96250
G1 X-13.819 Y3.674 E10.57912
G1 X-13.821 Y4.145 E10.60543
G1 X-6.080 Y11.886 E11.21595
G1 X-6.160 Y12.281 E11.23839
G1 X-13.824 Y4.617 E11.84281
G1 X-13.826 Y5.089 E11.86911
G1 X-6.240 Y12.675 E12.46743
G1 X-6.320 Y13.069 E12.48987
G1 X-13.829 Y5.560 E13.08208
G1 X-13.832 Y6.032 E13.10839
G1 X-6.400 Y13.464 E13.69450
G1 X-6.480 Y13.858 E13.71693
G1 X-13.834 Y6.504 E14.29694
G1 X-13.837 Y6.975 E14.32324
G1 X-6.560 Y14.252 E14.89715
G1 X-6.640 Y14.647 E14.91958
G1 X-13.839 Y7.447 E15.48738
G1 X-13.842 Y7.919 E15.51369
