; generated by Slic3r 1.2.9 on 2016-06-08 at 13:56:31

; external perimeters extrusion width = 0.40mm
; perimeters extrusion width = 0.67mm
; infill extrusion width = 0.67mm
; solid infill extrusion width = 0.67mm
; top infill extrusion width = 0.67mm
; support material extrusion width = 0.40mm

M107
M190 S60 ; set bed temperature
M104 S205 ; set temperature
G28 ; home all axes

M109 S205 ; wait for temperature to be reached
G21 ; set units to millimeters
G90 ; use absolute coordinates
M82 ; use absolute distances for extrusion
G92 E0
G1 E-4.00000 F4800.00000
G92 E0
G1 Z1.000 F6000.000
G1 X27.623 Y1.401 F6000.000
G1 Z0.100 F6000.000
G1 E4.00000 F4800.00000
G1 X25.483 Y43.597 E5.15675 F1200.000
G1 X25.343 Y45.678 E5.21386
G1 X24.551 Y48.584 E5.29632
G1 X21.936 Y53.802 E5.45612
G1 X20.133 Y56.131 E5.53675
G1 X18.627 Y57.446 E5.59151
G1 X17.438 Y58.299 E5.63158
G1 X16.243 Y58.993 E5.66939
G1 X15.280 Y59.465 E5.69876
G1 X14.217 Y59.896 E5.73017
G1 X13.234 Y60.219 E5.75849
G1 X12.263 Y60.467 E5.78593
G1 X10.994 Y60.739 E5.82147
G1 X10.085 Y60.873 E5.84661
G1 X9.200 Y60.949 E5.87094
G1 X8.322 Y60.974 E5.89499
G1 X7.488 Y60.950 E5.91785
G1 X6.921 Y60.912 E5.93340
G1 X6.116 Y60.829 E5.95556
G1 X5.515 Y60.742 E5.97219
G1 X4.740 Y60.598 E5.99376
G1 X4.202 Y60.478 E6.00884
G1 X3.035 Y60.161 E6.04197
G1 X-14.456 Y54.479 E6.54548
G1 X-15.561 Y54.089 E6.57755
G1 X-16.980 Y53.543 E6.61920
G1 X-19.106 Y52.298 E6.68664
G1 X-20.614 Y50.615 E6.74851
G1 X-23.800 Y45.773 E6.90721
G1 X-24.375 Y44.731 E6.93978
G1 X-24.877 Y43.624 E6.97305
G1 X-25.268 Y42.557 E7.00419
G1 X-25.556 Y41.544 E7.03300
G1 X-25.728 Y40.794 E7.05407
G1 X-25.862 Y40.034 E7.07519
G1 X-25.963 Y39.187 E7.09856
G1 X-28.067 Y0.613 E8.15623
G1 X-28.223 Y-3.082 E8.25750
G1 X-28.310 Y-7.985 E8.39177
G1 X-28.138 Y-31.368 E9.03196
G1 X-28.020 Y-34.412 E9.11539
G1 X-27.791 Y-36.782 E9.18057
G1 X-27.434 Y-39.162 E9.24645
G1 X-27.322 Y-39.739 E9.26256
G1 X-26.430 Y-43.547 E9.36963
G1 X-26.275 Y-44.112 E9.38568
G1 X-25.538 Y-46.400 E9.45148
G1 X-24.722 Y-48.548 E9.51439
G1 X-23.924 Y-50.390 E9.56935
G1 X-22.797 Y-52.669 E9.63898
G1 X-21.739 Y-54.561 E9.69831
G1 X-20.974 Y-55.677 E9.73536
G1 X-20.443 Y-56.315 E9.75810
G1 X-19.692 Y-57.059 E9.78703
G1 X-19.474 Y-57.247 E9.79493
G1 X-18.563 Y-57.922 E9.82597
G1 X-18.232 Y-58.131 E9.83667
G1 X-17.073 Y-58.730 E9.87239
G1 X-16.720 Y-58.876 E9.88285
G1 X-15.593 Y-59.242 E9.91530
G1 X-15.196 Y-59.337 E9.92646
G1 X-13.465 Y-59.550 E9.97423
G1 X-12.448 Y-59.550 E10.00207
G1 X-7.110 Y-59.355 E10.14831 F1200.000
G1 X-5.029 Y-58.987 E10.20616
G1 X21.948 Y-50.218 E10.98283
G1 X22.976 Y-49.793 E11.01327
G1 X23.653 Y-49.454 E11.03400
G1 X24.693 Y-48.825 E11.06728
G1 X25.315 Y-48.377 E11.08827
G1 X26.469 Y-47.354 E11.13048
G1 X27.017 Y-46.759 E11.15264
G1 X28.141 Y-45.176 E11.20580
G1 X28.577 Y-44.357 E11.23121
G1 X29.365 Y-42.052 E11.29788
G1 X29.580 Y-40.792 E11.33288
G1 X29.679 Y-39.120 E11.37874
G1 X27.626 Y1.342 E12.48796
G1 X26.966 Y1.368 F6000.000
G1 X24.825 Y43.564 E13.64471 F1200.000
G1 X24.686 Y45.634 E13.70151
G1 X23.962 Y48.289 E13.77686
G1 X21.347 Y53.507 E13.93666
G1 X19.700 Y55.635 E14.01033
G1 X18.194 Y56.950 E14.06509
G1 X17.107 Y57.730 E14.10171
G1 X15.913 Y58.423 E14.13952
G1 X15.032 Y58.854 E14.16636
G1 X13.969 Y59.286 E14.19776
G1 X13.071 Y59.581 E14.22365
G1 X12.100 Y59.828 E14.25108
G1 X10.859 Y60.095 E14.28584
G1 X10.029 Y60.217 E14.30881
G1 X9.144 Y60.293 E14.33314
G1 X8.341 Y60.316 E14.35511
G1 X6.989 Y60.257 E14.39218
G1 X6.184 Y60.174 E14.41434
G1 X5.635 Y60.094 E14.42953
G1 X4.860 Y59.951 E14.45111
G1 X4.369 Y59.841 E14.46488
G1 X3.237 Y59.534 E14.49698
G1 X-14.252 Y53.853 E15.00046
G1 X-15.324 Y53.475 E15.03156
G1 X-16.743 Y52.928 E15.07322
G1 X-18.766 Y51.724 E15.13766
G1 X-20.064 Y50.253 E15.19136
G1 X-23.250 Y45.411 E15.35006
G1 X-23.775 Y44.459 E15.37983
G1 X-24.277 Y43.352 E15.41310
G1 X-24.635 Y42.377 E15.44155
G1 X-24.922 Y41.365 E15.47034
G1 X-25.079 Y40.679 E15.48959
G1 X-25.213 Y39.920 E15.51072
G1 X-25.306 Y39.146 E15.53207
G1 X-27.409 Y0.578 E16.58958
G1 X-27.565 Y-3.094 E16.69021
G1 X-27.651 Y-7.981 E16.82401
G1 X-27.480 Y-31.362 E17.46419
G1 X-27.362 Y-34.386 E17.54703
G1 X-27.136 Y-36.715 E17.61109
G1 X-26.784 Y-39.061 E17.67606
G1 X-26.681 Y-39.589 E17.69078
G1 X-25.789 Y-43.397 E17.79785
G1 X-25.647 Y-43.913 E17.81252
G1 X-24.921 Y-46.169 E17.87739
G1 X-24.118 Y-48.286 E17.93938
G1 X-23.320 Y-50.128 E17.99435
G1 X-22.217 Y-52.358 E18.06247
G1 X-21.165 Y-54.238 E18.12146
G1 X-20.466 Y-55.258 E18.15531
G1 X-19.948 Y-55.881 E18.17748
G1 X-19.262 Y-56.560 E18.20391
G1 X-19.044 Y-56.749 E18.21181
G1 X-18.211 Y-57.365 E18.24018
G1 X-17.880 Y-57.574 E18.25088
G1 X-16.822 Y-58.121 E18.28351
G1 X-16.469 Y-58.267 E18.29398
G1 X-15.439 Y-58.602 E18.32363
G1 X-15.042 Y-58.697 E18.33479
G1 X-13.460 Y-58.891 E18.37843
G1 X-12.472 Y-58.892 E18.40549
G1 X-7.134 Y-58.697 E18.55172 F1200.000
G1 X-5.233 Y-58.360 E18.60459
G1 X21.742 Y-49.593 E19.38117
G1 X22.681 Y-49.205 E19.40899
G1 X23.358 Y-48.865 E19.42972
G1 X24.308 Y-48.290 E19.46012
G1 X24.930 Y-47.842 E19.48112
G1 X25.985 Y-46.908 E19.51968
G1 X26.533 Y-46.313 E19.54185
G1 X27.560 Y-44.866 E19.59042
G1 X27.996 Y-44.047 E19.61583
G1 X28.716 Y-41.941 E19.67675
G1 X28.931 Y-40.681 E19.71175
G1 X29.022 Y-39.153 E19.75365
G1 X26.969 Y1.308 E20.86287
G1 X26.308 Y1.335 F6000.000
G1 X24.167 Y43.530 E22.01962 F1200.000
G1 X24.029 Y45.589 E22.07612
G1 X23.374 Y47.994 E22.14435
G1 X20.758 Y53.212 E22.30415
G1 X19.267 Y55.139 E22.37087
G1 X17.760 Y56.454 E22.42563
G1 X16.776 Y57.160 E22.45879
G1 X15.582 Y57.854 E22.49660
G1 X14.785 Y58.244 E22.52091
G1 X13.722 Y58.675 E22.55231
G1 X12.908 Y58.943 E22.57575
G1 X11.938 Y59.190 E22.60319
G1 X10.724 Y59.450 E22.63716
G1 X9.972 Y59.561 E22.65797
G1 X9.087 Y59.637 E22.68229
G1 X8.361 Y59.658 E22.70219
G1 X7.526 Y59.633 E22.72505
G1 X6.252 Y59.519 E22.76007
G1 X4.980 Y59.303 E22.79541
G1 X4.535 Y59.204 E22.80788
G1 X3.440 Y58.907 E22.83895
G1 X-14.191 Y53.178 E23.34651
G1 X-15.087 Y52.860 E23.37254
G1 X-16.507 Y52.313 E23.41419
G1 X-18.421 Y51.151 E23.47550
G1 X-19.513 Y49.891 E23.52117
G1 X-22.700 Y45.049 E23.67987
G1 X-23.175 Y44.187 E23.70682
G1 X-23.677 Y43.080 E23.74009
G1 X-24.001 Y42.197 E23.76586
G1 X-24.288 Y41.186 E23.79463
G1 X-24.431 Y40.565 E23.81206
G1 X-24.565 Y39.805 E23.83318
G1 X-24.649 Y39.104 E23.85252
G1 X-26.752 Y0.542 E24.90987
G1 X-26.906 Y-3.107 E25.00986
G1 X-26.993 Y-7.976 E25.14319
G1 X-26.821 Y-31.357 E25.78336
G1 X-26.704 Y-34.359 E25.86562
G1 X-26.481 Y-36.647 E25.92856
G1 X-26.133 Y-38.961 E25.99262
G1 X-26.040 Y-39.439 E26.00595
G1 X-25.148 Y-43.246 E26.11302
G1 X-25.019 Y-43.714 E26.12630
G1 X-24.305 Y-45.937 E26.19024
G1 X-23.514 Y-48.024 E26.25133
G1 X-22.715 Y-49.866 E26.30629
G1 X-21.637 Y-52.047 E26.37291
G1 X-20.591 Y-53.916 E26.43155
G1 X-19.958 Y-54.839 E26.46221
G1 X-19.453 Y-55.446 E26.48381
G1 X-18.832 Y-56.061 E26.50775
G1 X-18.614 Y-56.250 E26.51565
G1 X-17.860 Y-56.808 E26.54133
G1 X-17.529 Y-57.017 E26.55204
G1 X-16.570 Y-57.513 E26.58159
G1 X-16.217 Y-57.658 E26.59205
G1 X-15.284 Y-57.962 E26.61891
G1 X-14.888 Y-58.057 E26.63007
G1 X-13.455 Y-58.233 E26.66959
G1 X-12.496 Y-58.234 E26.69585
G1 X-7.158 Y-58.039 E26.84209 F1200.000
G1 X-5.436 Y-57.734 E26.88996
G1 X21.536 Y-48.967 E27.66646
G1 X22.386 Y-48.616 E27.69165
G1 X23.063 Y-48.277 E27.71238
G1 X23.923 Y-47.756 E27.73992
G1 X24.546 Y-47.308 E27.76091
G1 X25.500 Y-46.462 E27.79584
G1 X26.049 Y-45.867 E27.81800
G1 X26.978 Y-44.556 E27.86199
G1 X27.415 Y-43.737 E27.88739
G1 X28.066 Y-41.831 E27.94256
G1 X28.282 Y-40.570 E27.97756
G1 X28.364 Y-39.187 E28.01551
G1 X26.311 Y1.275 E29.12473
G1 X25.650 Y1.301 F6000.000
G1 X23.509 Y43.497 E30.28148 F1200.000
G1 X23.372 Y45.545 E30.33768
G1 X22.785 Y47.699 E30.39880
G1 X20.170 Y52.917 E30.55860
G1 X18.834 Y54.643 E30.61836
G1 X17.327 Y55.959 E30.67312
G1 X16.446 Y56.591 E30.70282
G1 X15.251 Y57.284 E30.74064
G1 X14.537 Y57.634 E30.76241
G1 X13.474 Y58.065 E30.79381
G1 X12.746 Y58.305 E30.81481
G1 X11.775 Y58.552 E30.84224
G1 X10.589 Y58.806 E30.87543
G1 X9.916 Y58.905 E30.89407
G1 X9.031 Y58.981 E30.91839
G1 X8.380 Y59.000 E30.93622
G1 X7.545 Y58.975 E30.95908
G1 X6.320 Y58.864 E30.99276
G1 X5.100 Y58.656 E31.02666
G1 X4.701 Y58.567 E31.03783
G1 X3.642 Y58.281 E31.06787
G1 X-13.973 Y52.557 E31.57498
G1 X-14.850 Y52.246 E31.60047
G1 X-16.270 Y51.699 E31.64212
G1 X-18.069 Y50.581 E31.70011
G1 X-18.963 Y49.529 E31.73792
G1 X-22.150 Y44.687 E31.89662
G1 X-22.575 Y43.914 E31.92076
G1 X-23.078 Y42.808 E31.95403
G1 X-23.368 Y42.016 E31.97711
G1 X-23.655 Y41.006 E32.00586
G1 X-23.782 Y40.450 E32.02148
G1 X-23.916 Y39.691 E32.04260
G1 X-23.991 Y39.063 E32.05992
G1 X-26.094 Y0.506 E33.11712
G1 X-26.248 Y-3.119 E33.21647
G1 X-26.334 Y-7.971 E33.34933
G1 X-26.163 Y-31.352 E33.98948
G1 X-26.046 Y-34.333 E34.07116
G1 X-25.826 Y-36.580 E34.13298
G1 X-25.482 Y-38.860 E34.19612
G1 X-25.399 Y-39.289 E34.20806
G1 X-24.507 Y-43.096 E34.31513
G1 X-24.392 Y-43.515 E34.32703
G1 X-23.688 Y-45.706 E34.39004
G1 X-22.910 Y-47.762 E34.45021
G1 X-22.111 Y-49.604 E34.50518
G1 X-21.056 Y-51.736 E34.57030
G1 X-20.017 Y-53.593 E34.62859
G1 X-19.450 Y-54.421 E34.65605
G1 X-18.959 Y-55.011 E34.67708
G1 X-18.402 Y-55.563 E34.69853
G1 X-18.184 Y-55.751 E34.70643
G1 X-17.508 Y-56.251 E34.72943
G1 X-17.177 Y-56.460 E34.74014
G1 X-16.319 Y-56.904 E34.76661
G1 X-15.966 Y-57.050 E34.77707
G1 X-15.130 Y-57.321 E34.80113
G1 X-14.734 Y-57.417 E34.81229
G1 X-13.450 Y-57.574 E34.84769
G1 X-12.520 Y-57.576 E34.87316
G1 X-7.182 Y-57.381 E35.01940 F1200.000
G1 X-5.640 Y-57.108 E35.06229
G1 X21.329 Y-48.342 E35.83870
G1 X22.091 Y-48.027 E35.86126
G1 X22.768 Y-47.688 E35.88199
G1 X23.539 Y-47.221 E35.90666
G1 X24.161 Y-46.773 E35.92765
G1 X25.016 Y-46.016 E35.95894
G1 X25.565 Y-45.420 E35.98110
G1 X26.397 Y-44.247 E36.02050
G1 X26.834 Y-43.428 E36.04591
G1 X27.417 Y-41.720 E36.09532
G1 X27.633 Y-40.459 E36.13033
G1 X27.706 Y-39.220 E36.16432
G1 X25.653 Y1.241 E37.27354
G1 F4800
G1 X25.451 Y5.236 E33.47354
G1 E33.27354 F4800.00000
G92 E0
G1 Z1.100 F6000.000
G1 X-11.591 Y-5.054 F6000.000
G1 Z0.100 F6000.000
G1 E4.00000 F4800.00000
G1 X-10.958 Y-4.818 E4.01063 F1200.000
G1 X-10.657 Y-4.605 E4.01644
G1 X-10.225 Y-4.097 E4.02693
G1 X-10.061 Y-3.759 E4.03285
G1 X-9.931 Y-3.095 E4.04350
G1 X-9.950 Y-2.739 E4.04912
G1 X-10.095 Y-2.243 E4.05724
G1 X-10.356 Y-1.781 E4.06559
G1 X-10.854 Y-1.319 E4.07629
G1 X-11.499 Y-1.038 E4.08737
G1 X-12.190 Y-0.990 E4.09827
G1 X-12.696 Y-1.116 E4.10647
G1 X-13.162 Y-1.351 E4.11468
G1 X-13.544 Y-1.707 E4.12289
G1 X-13.837 Y-2.143 E4.13116
G1 X-14.000 Y-2.661 E4.13971
G1 X-13.917 Y-3.743 E4.15678
G1 X-13.511 Y-4.415 E4.16914
G1 X-13.099 Y-4.757 E4.17758
G1 X-12.467 Y-5.029 E4.18841
G1 X-11.958 Y-5.091 E4.19647 F1200.000
G1 X-11.651 Y-5.060 E4.20133
G1 X-11.306 Y-5.335 F6000.000
G1 X-10.557 Y-5.925 F6000.000
G1 X-11.323 Y-6.211 E4.22370 F1200.000
G1 X-11.971 Y-6.275 E4.24154
G1 X-12.776 Y-6.177 E4.26374
G1 X-13.720 Y-5.772 E4.29186
G1 X-14.416 Y-5.193 E4.31664
G1 X-15.069 Y-4.112 E4.35123
G1 X-15.191 Y-2.523 E4.39486
G1 X-14.908 Y-1.627 E4.42058
G1 X-14.445 Y-0.938 E4.44333
G1 X-13.841 Y-0.376 E4.46590
G1 X-13.109 Y-0.006 E4.48836
G1 X-12.295 Y0.197 E4.51134
G1 X-11.216 Y0.123 E4.54095
G1 X-10.526 Y-0.178 E4.56155
G1 X-10.335 Y35.134 E5.52835
G1 X-16.671 Y35.169 E5.70181
G1 X-16.479 Y34.077 E5.73217
G1 X-15.494 Y30.660 E5.82952
G1 X-14.956 Y28.100 E5.90115
G1 X-14.831 Y26.604 E5.94226
G1 X-14.822 Y25.336 E5.97696
G1 X-14.921 Y23.937 E6.01536
G1 X-15.129 Y22.591 E6.05264
G1 X-16.022 Y19.083 E6.15176
G1 X-16.740 Y16.005 E6.23830
G1 X-17.709 Y11.252 E6.37111
G1 X-18.538 Y5.691 E6.52505
G1 X-19.070 Y0.105 E6.67869
G1 X-19.214 Y-3.268 E6.77111
G1 X-19.299 Y-7.937 E6.89896
G1 X-19.128 Y-31.273 E7.53789
G1 X-19.018 Y-34.006 E7.61279
G1 X-18.830 Y-35.826 E7.66287
G1 X-18.537 Y-37.736 E7.71577
G1 X-17.669 Y-41.439 E7.81992
G1 X-17.088 Y-43.270 E7.87250
G1 X-16.441 Y-44.995 E7.92294
G1 X-15.671 Y-46.772 E7.97597
G1 X-14.852 Y-48.417 E8.02628
G1 X-13.942 Y-50.040 E8.07723
G1 X-13.667 Y-50.356 E8.08869
G1 X-13.523 Y-50.447 E8.09336
G1 X-13.240 Y-50.540 E8.10152
G1 X-12.882 Y-50.543 E8.11130
G1 X-12.723 Y-50.505 E8.11580
G1 X-10.826 Y-49.889 E8.17040
G1 X-10.774 Y-40.533 E8.42656
G1 X-10.744 Y-40.523 E8.42742
G1 X-10.557 Y-5.985 E9.37306
G1 X-9.891 Y-4.505 F6000.000
G1 X-10.304 Y-4.991 E9.39054 F1200.000
G1 X-10.714 Y-5.280 E9.40428
G1 X-11.473 Y-5.564 E9.42645
G1 X-11.964 Y-5.612 E9.43995
G1 X-12.603 Y-5.534 E9.45758
G1 X-13.372 Y-5.204 E9.48051
G1 X-13.910 Y-4.758 E9.49964
G1 X-14.425 Y-3.905 E9.52690
G1 X-14.525 Y-2.600 E9.56275
G1 X-14.309 Y-1.916 E9.58239
G1 X-13.941 Y-1.368 E9.60046
G1 X-13.461 Y-0.922 E9.61840
G1 X-12.878 Y-0.627 E9.63628
G1 X-12.236 Y-0.467 E9.65439
G1 X-11.374 Y-0.526 E9.67804
G1 X-10.566 Y-0.878 E9.70219
G1 X-9.875 Y-1.520 E9.72801
G1 X-9.673 Y35.789 E10.74949
G1 X-17.456 Y35.832 E10.96258
G1 X-17.122 Y33.928 E11.01549
G1 X-16.133 Y30.501 E11.11314
G1 X-15.609 Y28.004 E11.18299
G1 X-15.490 Y26.574 E11.22230
G1 X-15.481 Y25.357 E11.25561
G1 X-15.576 Y24.011 E11.29256
G1 X-15.775 Y22.723 E11.32823
G1 X-16.662 Y19.239 E11.42666
G1 X-17.383 Y16.146 E11.51363
G1 X-18.358 Y11.366 E11.64718
G1 X-19.192 Y5.771 E11.80208
G1 X-19.727 Y0.150 E11.95666
G1 X-19.872 Y-3.248 E12.04978
G1 X-19.957 Y-7.934 E12.17808
G1 X-19.786 Y-31.289 E12.81753
G1 X-19.675 Y-34.053 E12.89330
G1 X-19.484 Y-35.910 E12.94438
G1 X-19.184 Y-37.861 E12.99844
G1 X-18.304 Y-41.614 E13.10399
G1 X-17.710 Y-43.485 E13.15772
G1 X-17.052 Y-45.242 E13.20908
G1 X-16.268 Y-47.050 E13.26303
G1 X-15.434 Y-48.725 E13.31427
G1 X-14.488 Y-50.414 E13.36728
G1 X-14.192 Y-50.773 E13.38001
G1 X-14.060 Y-50.886 E13.38478
G1 X-13.826 Y-51.034 E13.39234
G1 X-13.582 Y-51.135 E13.39958
G1 X-13.320 Y-51.198 E13.40695
G1 X-12.808 Y-51.202 E13.42099
G1 X-12.545 Y-51.139 E13.42839
G1 X-10.170 Y-50.369 E13.49674
G1 X-10.118 Y-41.009 E13.75301
G1 X-10.088 Y-40.999 E13.75388
G1 X-9.891 Y-4.565 E14.75142
G1 F4800
G1 X-10.304 Y-4.991 E14.18755
G1 F4800
G1 X-10.714 Y-5.280 E13.71074
G1 F4800
G1 X-11.473 Y-5.564 E12.94142
G1 F4800
G1 X-11.964 Y-5.612 E12.47299
G1 F4800
G1 X-12.603 Y-5.534 E11.86117
G1 F4800
G1 X-13.372 Y-5.204 E11.06576
G1 F4800
G1 X-13.465 Y-5.127 E10.95142
G1 E10.75142 F4800.00000
G92 E0
G1 Z1.100 F6000.000
G1 X-12.262 Y-0.183 F6000.000
G1 X-14.116 Y10.606 F6000.000
G1 X-13.634 Y15.270 F6000.000
G1 X-13.272 Y18.343 F6000.000
G1 X-16.411 Y19.077 F6000.000
G1 X-17.605 Y36.351 F6000.000
G1 Z0.100 F6000.000
G1 E4.00000 F4800.00000
G1 X-17.586 Y39.947 E4.05659 F1200.000
G1 X-17.854 Y39.985 E4.06087
G1 X-18.015 Y39.421 E4.07009
G1 X-18.145 Y38.683 E4.08189
G1 X-18.197 Y37.814 E4.09559
G1 X-18.101 Y36.507 E4.11623
G1 X-17.627 Y33.811 E4.15929
G1 X-16.637 Y30.376 E4.21556
G1 X-16.123 Y27.929 E4.25490
G1 X-16.008 Y26.550 E4.27669
G1 X-15.999 Y25.374 E4.29520
G1 X-16.092 Y24.069 E4.31579
G1 X-16.283 Y22.827 E4.33556
G1 X-17.166 Y19.362 E4.39183
G1 X-17.890 Y16.256 E4.44202
G1 X-18.869 Y11.456 E4.51912
G1 X-19.706 Y5.833 E4.60859
G1 X-20.244 Y0.186 E4.69788
G1 X-20.391 Y-3.232 E4.75171
G1 X-20.476 Y-7.931 E4.82567
G1 X-20.305 Y-31.301 E5.19348
G1 X-20.192 Y-34.090 E5.23741
G1 X-19.998 Y-35.976 E5.26724
G1 X-19.693 Y-37.960 E5.29883
G1 X-18.805 Y-41.752 E5.36013
G1 X-18.200 Y-43.655 E5.39155
G1 X-17.533 Y-45.436 E5.42148
G1 X-16.738 Y-47.268 E5.45292
G1 X-15.893 Y-48.967 E5.48278
G1 X-14.918 Y-50.708 E5.51419
G1 X-14.564 Y-51.137 E5.52293
G1 X-14.369 Y-51.304 E5.52697
G1 X-14.066 Y-51.496 E5.53263
G1 X-13.743 Y-51.629 E5.53812
G1 X-13.384 Y-51.716 E5.54393
G1 X-12.749 Y-51.721 E5.55393
G1 X-12.405 Y-51.639 E5.55950
G1 X-9.653 Y-50.746 E5.60501
G1 X-9.602 Y-41.383 E5.75237
G1 X-9.572 Y-41.373 E5.75287
G1 X-9.152 Y36.304 E6.97537
G1 X-17.545 Y36.351 E7.10746
G1 X-18.005 Y36.353 F6000.000
G1 F4800
G1 X-17.586 Y39.947 E3.69075
G1 F4800
G1 X-17.854 Y39.985 E3.43280
G1 F4800
G1 X-17.890 Y39.858 E3.30746
G1 E3.10746 F4800.00000
G92 E0
G1 Z1.100 F6000.000
G1 X-17.708 Y40.166 F6000.000
G1 Z0.100 F6000.000
G1 E4.00000 F4800.00000
