; generated by Slic3r 1.2.9 on 2016-03-09 at 13:10:30

; external perimeters extrusion width = 0.40mm
; perimeters extrusion width = 0.67mm
; infill extrusion width = 0.67mm
; solid infill extrusion width = 0.67mm
; top infill extrusion width = 0.67mm
; support material extrusion width = 0.40mm

M107
M104 S210 ; set temperature
G28 ; home all axes
G1 X70Y70Z10 F5000 
M109 S210 ; wait for temperature to be reached
G21 ; set units to millimeters
G90 ; use absolute coordinates
M82 ; use absolute distances for extrusion
G92 E0
G1 E-3.50000 F1800.00000
G92 E0
G1 Z0.300 F3600.000
G1 X26.698 Y0.413 F3600.000
G1 E3.50000 F1800.00000
M204 S50000
G1 X24.646 Y38.193 E5.47675 F1200.000
G1 X24.591 Y39.059 E5.52205
G1 X24.514 Y39.722 E5.55693
G1 X24.377 Y40.519 E5.59918
G1 X24.231 Y41.165 E5.63381
G1 X23.943 Y42.177 E5.68875
G1 X23.625 Y43.047 E5.73717
G1 X23.122 Y44.157 E5.80081
G1 X22.589 Y45.106 E5.85768
G1 X19.113 Y50.059 E6.17381
G1 X17.529 Y51.625 E6.29023
G1 X16.241 Y52.303 E6.36624
G1 X15.222 Y52.694 E6.42325
G1 X14.075 Y53.112 E6.48706
G1 X-2.966 Y58.649 E7.42319
G1 X-4.322 Y59.048 E7.49701
G1 X-5.176 Y59.253 E7.54288
G1 X-5.720 Y59.359 E7.57188
G1 X-6.531 Y59.479 E7.61471
G1 X-7.182 Y59.541 E7.64887
G1 X-7.950 Y59.574 E7.68899
G1 X-9.165 Y59.551 E7.75249
G1 X-10.162 Y59.480 E7.80474
G1 X-11.064 Y59.343 E7.85240
G1 X-11.897 Y59.151 E7.89707
G1 X-13.334 Y58.771 E7.97470
G1 X-14.161 Y58.480 E8.02049
G1 X-15.108 Y58.059 E8.07464
G1 X-15.997 Y57.602 E8.12688
G1 X-16.581 Y57.268 E8.16200
G1 X-17.088 Y56.945 E8.19341
G1 X-17.974 Y56.302 E8.25063
G1 X-18.508 Y55.869 E8.28654
G1 X-18.987 Y55.437 E8.32027
G1 X-20.010 Y54.410 E8.39595
G1 X-20.555 Y53.781 E8.43942
G1 X-21.522 Y52.477 E8.52426
G1 X-21.965 Y51.772 E8.56775
G1 X-22.355 Y51.051 E8.61056
G1 X-22.667 Y50.382 E8.64918
G1 X-22.998 Y49.545 E8.69620
G1 X-23.407 Y48.371 E8.76114
G1 X-23.577 Y47.778 E8.79336
G1 X-23.816 Y46.757 E8.84812
G1 X-23.954 Y45.914 E8.89280
G1 X-24.092 Y44.385 E8.97298
G1 X-28.309 Y-38.582 E13.31316
G1 X-27.654 Y-41.703 E13.47977
G1 X-25.804 Y-45.394 E13.69550
G1 X-24.467 Y-47.177 E13.81191
G1 X-22.800 Y-48.286 E13.91652
G1 X-21.827 Y-48.728 E13.97233
G1 X-21.171 Y-48.983 E14.00911
G1 X5.735 Y-57.725 E15.48716
G1 X7.487 Y-58.028 E15.58007
G1 X12.548 Y-58.175 E15.84458
G1 X13.453 Y-58.172 E15.89188
G1 X14.946 Y-57.980 E15.97051
G1 X15.373 Y-57.871 E15.99353
G1 X16.222 Y-57.590 E16.04026
G1 X16.556 Y-57.452 E16.05911
G1 X17.525 Y-56.948 E16.11618
G1 X17.855 Y-56.738 E16.13663
G1 X18.582 Y-56.198 E16.18395
G1 X18.788 Y-56.020 E16.19813
G1 X19.403 Y-55.411 E16.24340
G1 X19.909 Y-54.805 E16.28461
G1 X20.535 Y-53.890 E16.34255
G1 X21.626 Y-51.933 E16.45963
G1 X22.512 Y-50.159 E16.56319
G1 X23.596 Y-47.657 E16.70568
G1 X24.313 Y-45.728 E16.81317
G1 X24.968 Y-43.675 E16.92574
G1 X25.095 Y-43.211 E16.95088
G1 X25.975 Y-39.453 E17.15257
G1 X26.067 Y-38.980 E17.17773
G1 X26.395 Y-36.838 E17.29092
G1 X26.639 Y-34.403 E17.41879
G1 X26.761 Y-31.356 E17.57809
G1 X26.934 Y-7.981 E18.79935
G1 X26.846 Y-3.051 E19.05699
G1 X26.701 Y0.353 E19.23496
G1 X26.280 Y0.390 F3600.000
G1 X24.227 Y38.170 E21.21171 F1200.000
G1 X24.173 Y39.032 E21.25683
G1 X24.101 Y39.651 E21.28937
G1 X23.964 Y40.448 E21.33162
G1 X23.828 Y41.051 E21.36393
G1 X23.540 Y42.062 E21.41884
G1 X23.243 Y42.874 E21.46403
G1 X22.741 Y43.984 E21.52767
G1 X22.242 Y44.871 E21.58082
G1 X18.770 Y49.818 E21.89658
G1 X17.231 Y51.321 E22.00900
G1 X16.090 Y51.912 E22.07609
G1 X15.078 Y52.301 E22.13276
G1 X13.945 Y52.713 E22.19573
G1 X-3.096 Y58.250 E23.13186
G1 X-4.420 Y58.641 E23.20397
G1 X-5.273 Y58.846 E23.24984
G1 X-5.782 Y58.945 E23.27690
G1 X-6.593 Y59.065 E23.31973
G1 X-7.200 Y59.123 E23.35161
G1 X-8.412 Y59.157 E23.41495
G1 X-9.151 Y59.132 E23.45355
G1 X-10.130 Y59.062 E23.50484
G1 X-10.971 Y58.934 E23.54932
G1 X-11.794 Y58.745 E23.59341
G1 X-13.223 Y58.367 E23.67063
G1 X-13.994 Y58.096 E23.71337
G1 X-14.919 Y57.685 E23.76624
G1 X-15.789 Y57.238 E23.81733
G1 X-16.373 Y56.904 E23.85245
G1 X-16.846 Y56.603 E23.88176
G1 X-17.710 Y55.977 E23.93752
G1 X-18.244 Y55.544 E23.97343
G1 X-18.691 Y55.140 E24.00490
G1 X-19.712 Y54.115 E24.08047
G1 X-20.220 Y53.529 E24.12103
G1 X-21.183 Y52.231 E24.20545
G1 X-21.596 Y51.573 E24.24603
G1 X-21.986 Y50.852 E24.28884
G1 X-22.277 Y50.227 E24.32487
G1 X-22.609 Y49.390 E24.37189
G1 X-23.010 Y48.235 E24.43578
G1 X-23.169 Y47.682 E24.46584
G1 X-23.408 Y46.662 E24.52061
G1 X-23.537 Y45.874 E24.56229
G1 X-23.673 Y44.364 E24.64154
G1 X-27.891 Y-38.603 E28.98171
G1 X-27.279 Y-41.515 E29.13717
G1 X-25.429 Y-45.206 E29.35290
G1 X-24.127 Y-46.919 E29.46532
G1 X-22.627 Y-47.905 E29.55911
G1 X-21.654 Y-48.347 E29.61492
G1 X-21.042 Y-48.585 E29.64924
G1 X5.864 Y-57.327 E31.12728
G1 X7.499 Y-57.610 E31.21397
G1 X12.560 Y-57.756 E31.47848
G1 X13.450 Y-57.753 E31.52498
G1 X14.843 Y-57.574 E31.59835
G1 X15.270 Y-57.465 E31.62137
G1 X16.062 Y-57.203 E31.66497
G1 X16.396 Y-57.065 E31.68382
G1 X17.300 Y-56.595 E31.73707
G1 X17.630 Y-56.385 E31.75752
G1 X18.308 Y-55.881 E31.80167
G1 X18.514 Y-55.703 E31.81586
G1 X19.088 Y-55.134 E31.85809
G1 X19.585 Y-54.539 E31.89862
G1 X20.170 Y-53.685 E31.95268
G1 X21.257 Y-51.735 E32.06933
G1 X22.137 Y-49.973 E32.17222
G1 X23.204 Y-47.510 E32.31245
G1 X23.915 Y-45.598 E32.41902
G1 X24.568 Y-43.549 E32.53139
G1 X24.687 Y-43.116 E32.55484
G1 X25.568 Y-39.357 E32.75653
G1 X25.653 Y-38.916 E32.78001
G1 X25.981 Y-36.777 E32.89305
G1 X26.221 Y-34.386 E33.01861
G1 X26.342 Y-31.353 E33.17719
G1 X26.515 Y-7.978 E34.39844
G1 X26.427 Y-3.059 E34.65551
G1 X26.283 Y0.330 E34.83270
G1 X25.862 Y0.367 F3600.000
G1 X23.809 Y38.148 E36.80946 F1200.000
G1 X23.755 Y39.006 E36.85438
G1 X23.688 Y39.580 E36.88459
G1 X23.551 Y40.377 E36.92683
G1 X23.425 Y40.937 E36.95683
G1 X23.138 Y41.948 E37.01172
G1 X22.862 Y42.702 E37.05366
G1 X22.359 Y43.811 E37.11730
G1 X21.895 Y44.636 E37.16674
G1 X18.427 Y49.577 E37.48212
G1 X16.934 Y51.015 E37.59040
G1 X15.940 Y51.521 E37.64870
G1 X14.933 Y51.908 E37.70505
G1 X13.816 Y52.315 E37.76718
G1 X-3.225 Y57.852 E38.70331
G1 X-4.518 Y58.233 E38.77371
G1 X-5.371 Y58.439 E38.81958
G1 X-5.843 Y58.530 E38.84469
G1 X-6.654 Y58.650 E38.88753
G1 X-7.218 Y58.704 E38.91711
G1 X-8.398 Y58.739 E38.97879
G1 X-9.137 Y58.714 E39.01739
G1 X-10.097 Y58.644 E39.06772
G1 X-10.879 Y58.526 E39.10900
G1 X-11.690 Y58.339 E39.15252
G1 X-13.112 Y57.963 E39.22935
G1 X-13.828 Y57.711 E39.26901
G1 X-14.445 Y57.444 E39.30414
G1 X-15.330 Y57.009 E39.35568
G1 X-16.165 Y56.541 E39.40567
G1 X-16.604 Y56.261 E39.43288
G1 X-17.446 Y55.651 E39.48718
G1 X-17.980 Y55.218 E39.52309
G1 X-18.395 Y54.844 E39.55231
G1 X-19.414 Y53.821 E39.62776
G1 X-19.886 Y53.276 E39.66541
G1 X-20.844 Y51.984 E39.74942
G1 X-21.228 Y51.374 E39.78708
G1 X-21.617 Y50.653 E39.82989
G1 X-21.888 Y50.073 E39.86334
G1 X-22.219 Y49.236 E39.91036
G1 X-22.614 Y48.100 E39.97319
G1 X-22.761 Y47.587 E40.00109
G1 X-23.000 Y46.566 E40.05586
G1 X-23.120 Y45.835 E40.09455
G1 X-23.255 Y44.342 E40.17287
G1 X-27.472 Y-38.624 E44.51304
G1 X-26.905 Y-41.327 E44.65735
G1 X-25.055 Y-45.019 E44.87307
G1 X-23.789 Y-46.660 E44.98135
G1 X-22.453 Y-47.524 E45.06446
G1 X-21.481 Y-47.966 E45.12027
G1 X-20.912 Y-48.186 E45.15213
G1 X5.994 Y-56.928 E46.63017
G1 X7.511 Y-57.191 E46.71064
G1 X12.572 Y-57.338 E46.97515
G1 X13.447 Y-57.334 E47.02085
G1 X14.740 Y-57.168 E47.08896
G1 X15.167 Y-57.059 E47.11198
G1 X15.902 Y-56.815 E47.15244
G1 X16.236 Y-56.678 E47.17130
G1 X17.075 Y-56.241 E47.22072
G1 X17.405 Y-56.031 E47.24118
G1 X18.035 Y-55.563 E47.28216
G1 X18.241 Y-55.386 E47.29634
G1 X18.774 Y-54.858 E47.33554
G1 X19.262 Y-54.272 E47.37539
G1 X19.805 Y-53.480 E47.42557
G1 X20.888 Y-51.537 E47.54180
G1 X21.762 Y-49.786 E47.64401
G1 X22.812 Y-47.363 E47.78199
G1 X23.517 Y-45.468 E47.88764
G1 X24.169 Y-43.422 E47.99980
G1 X24.279 Y-43.020 E48.02157
G1 X25.160 Y-39.262 E48.22326
G1 X25.239 Y-38.852 E48.24505
G1 X25.566 Y-36.716 E48.35795
G1 X25.802 Y-34.369 E48.48120
G1 X25.919 Y-31.528 E48.62976
G1 X25.938 Y-29.539 E48.73366
G1 X26.096 Y-7.975 E49.86030
G1 X26.008 Y-3.066 E50.11679
G1 X25.865 Y0.307 E50.29321
G1 X24.425 Y0.272 F3600.000
G1 X23.874 Y6.170 E50.60273 F1200.000
G1 X23.013 Y12.015 E50.91136
G1 X21.959 Y17.206 E51.18812
G1 X21.219 Y20.379 E51.35833
G1 X20.385 Y23.649 E51.53463
G1 X20.252 Y24.516 E51.58049
G1 X20.180 Y25.523 E51.63321
G1 X20.186 Y26.332 E51.67547
G1 X20.273 Y27.361 E51.72943
G1 X20.690 Y29.343 E51.83523
G1 X21.679 Y32.781 E52.02214
G1 X22.243 Y35.948 E52.19021
G1 X22.378 Y37.802 E52.28733
G1 X22.311 Y39.029 E52.35155
G1 X22.284 Y39.256 E52.36346
G1 X22.080 Y40.401 E52.42425
G1 X21.712 Y41.698 E52.49466
G1 X21.610 Y41.977 E52.51022
G1 X21.003 Y43.324 E52.58739
G1 X20.823 Y43.652 E52.60693
G1 X20.637 Y43.923 E52.62411
G1 X18.690 Y46.575 E52.79599
G1 X18.512 Y46.689 E52.80704
G1 X18.484 Y46.922 E52.81933
G1 X17.027 Y49.829 E52.98920
G1 X15.337 Y50.390 E53.08223
G1 X14.916 Y50.638 E53.10779
G1 X12.296 Y51.602 E53.25364
G1 X12.145 Y51.598 E53.26149
G1 X-3.246 Y56.608 E54.10712
G1 X-5.860 Y57.396 E54.24977
G1 X-6.073 Y57.353 E54.26112
G1 X-8.076 Y57.650 E54.36694
G1 X-8.372 Y57.541 E54.38340
G1 X-9.628 Y57.499 E54.44905
G1 X-9.881 Y57.524 E54.46232
G1 X-10.076 Y57.484 E54.47276
G1 X-10.245 Y57.478 E54.48158
G1 X-10.377 Y57.411 E54.48933
G1 X-12.296 Y56.975 E54.59211
G1 X-12.396 Y56.917 E54.59813
G1 X-13.767 Y56.541 E54.67242
G1 X-14.031 Y56.322 E54.69037
G1 X-14.861 Y55.904 E54.73892
G1 X-15.112 Y55.849 E54.75234
G1 X-15.449 Y55.611 E54.77388
G1 X-15.587 Y55.538 E54.78203
G1 X-15.665 Y55.458 E54.78786
G1 X-16.513 Y54.859 E54.84213
G1 X-16.783 Y54.761 E54.85713
G1 X-17.904 Y53.642 E54.93987
G1 X-18.228 Y53.483 E54.95872
G1 X-19.262 Y52.115 E55.04834
G1 X-19.324 Y52.060 E55.05266
G1 X-19.575 Y51.913 E55.06788
G1 X-20.595 Y50.026 E55.17993
G1 X-20.735 Y49.895 E55.18999
G1 X-21.546 Y47.519 E55.32112
G1 X-21.590 Y47.445 E55.32562
G1 X-21.786 Y47.231 E55.34079
G1 X-22.075 Y44.151 E55.50240
G1 X-22.049 Y43.595 E55.53145
G1 X-21.999 Y43.331 E55.54550
G1 X-22.007 Y43.225 E55.55107
G1 X-22.360 Y42.161 E55.60961
G1 X-22.093 Y41.628 E55.64076
G1 X-22.081 Y41.462 E55.64946
G1 X-22.352 Y40.647 E55.69435
G1 X-22.085 Y40.114 E55.72549
G1 X-22.073 Y39.948 E55.73420
G1 X-22.344 Y39.133 E55.77908
G1 X-21.121 Y36.693 E55.92167
G1 X-20.373 Y35.876 E55.97953
G1 X-20.034 Y35.666 E56.00037
G1 X-19.927 Y35.476 E56.01175
G1 X-19.927 Y-21.863 E59.00743
G1 X-19.993 Y-22.019 E59.01623
G1 X-21.911 Y-23.906 E59.15679
G1 X-22.390 Y-26.771 E59.30856
G1 X-22.783 Y-28.571 E59.40484
G1 X-23.240 Y-30.262 E59.49633
G1 X-23.788 Y-31.953 E59.58921
G1 X-24.438 Y-33.666 E59.68497
G1 X-24.673 Y-34.192 E59.71504
G1 X-24.743 Y-34.279 E59.72088
G1 X-24.871 Y-34.370 E59.72905
G1 X-25.862 Y-36.888 E59.87047
G1 X-25.964 Y-37.486 E59.90215
G1 X-26.573 Y-39.317 E60.00295
G1 X-23.814 Y-44.822 E60.32465
G1 X-23.412 Y-45.368 E60.36005
G1 X-22.864 Y-45.895 E60.39978
G1 X-22.304 Y-46.276 E60.43518
G1 X-19.678 Y-47.469 E60.58587
G1 X-19.457 Y-47.427 E60.59760
G1 X-19.352 Y-47.434 E60.60313
G1 X7.661 Y-56.210 E62.08704
G1 X9.979 Y-55.561 E62.21280
G1 X10.091 Y-55.430 E62.22180
G1 X10.335 Y-55.362 E62.23504
G1 X11.429 Y-55.705 E62.29491
G1 X12.048 Y-55.849 E62.32814
G1 X12.537 Y-55.903 E62.35382
G1 X13.760 Y-55.893 E62.41774
G1 X14.403 Y-55.782 E62.45178
G1 X15.203 Y-55.547 E62.49537
G1 X15.901 Y-55.258 E62.53483
G1 X16.307 Y-55.032 E62.55914
G1 X16.740 Y-54.749 E62.58616
G1 X16.981 Y-54.571 E62.60182
G1 X17.405 Y-54.206 E62.63104
G1 X17.790 Y-53.795 E62.66045
G1 X18.264 Y-53.220 E62.69935
G1 X18.463 Y-52.929 E62.71781
G1 X19.437 Y-51.196 E62.82165
G1 X20.498 Y-49.094 E62.94466
G1 X21.446 Y-46.905 E63.06932
G1 X22.136 Y-45.059 E63.17225
G1 X22.862 Y-42.761 E63.29819
G1 X23.775 Y-38.859 E63.50753
G1 X24.148 Y-36.463 E63.63423
G1 X24.362 Y-34.368 E63.74426
G1 X24.483 Y-31.379 E63.90053
G1 X24.498 Y-29.527 E63.99731
G1 X24.656 Y-7.940 E65.12514
G1 X24.568 Y-3.042 E65.38106
G1 X24.428 Y0.212 E65.55122
G1 X24.007 Y0.251 F3600.000
G1 X23.458 Y6.121 E65.85927 F1200.000
G1 X22.600 Y11.944 E66.16673
G1 X21.551 Y17.113 E66.44229
G1 X20.812 Y20.281 E66.61228
G1 X19.970 Y23.585 E66.79041
G1 X19.835 Y24.470 E66.83716
G1 X19.761 Y25.510 E66.89163
G1 X19.767 Y26.351 E66.93558
G1 X19.858 Y27.421 E66.99171
G1 X20.283 Y29.444 E67.09970
G1 X21.273 Y32.884 E67.28673
G1 X21.828 Y36.007 E67.45243
G1 X21.959 Y37.807 E67.54673
G1 X21.870 Y39.193 E67.61930
G1 X21.673 Y40.302 E67.67813
G1 X21.313 Y41.568 E67.74688
G1 X21.222 Y41.818 E67.76080
G1 X20.626 Y43.140 E67.83655
G1 X20.465 Y43.433 E67.85403
G1 X20.297 Y43.679 E67.86956
G1 X18.622 Y45.959 E68.01739
G1 X18.491 Y45.916 E68.02461
G1 X18.156 Y46.130 E68.04538
G1 X18.077 Y46.800 E68.08066
G1 X16.730 Y49.486 E68.23763
G1 X15.161 Y50.007 E68.32401
G1 X14.734 Y50.259 E68.34992
G1 X12.272 Y51.164 E68.48697
G1 X12.130 Y51.163 E68.49438
G1 X-3.407 Y56.219 E69.34804
G1 X-5.861 Y56.959 E69.48191
G1 X-6.042 Y56.925 E69.49156
G1 X-8.022 Y57.219 E69.59611
G1 X-8.281 Y57.125 E69.61049
G1 X-9.644 Y57.079 E69.68174
G1 X-9.856 Y57.100 E69.69291
G1 X-10.124 Y57.063 E69.70702
G1 X-10.221 Y57.017 E69.71261
G1 X-11.345 Y56.772 E69.77273
G1 X-12.109 Y56.588 E69.81378
G1 X-12.201 Y56.537 E69.81929
G1 X-13.565 Y56.162 E69.89320
G1 X-13.797 Y55.971 E69.90891
G1 X-14.726 Y55.503 E69.96324
G1 X-14.945 Y55.454 E69.97498
G1 X-15.324 Y55.202 E69.99877
G1 X-16.324 Y54.480 E70.06317
G1 X-16.558 Y54.394 E70.07624
G1 X-17.663 Y53.291 E70.15779
G1 X-17.959 Y53.144 E70.17505
G1 X-18.978 Y51.796 E70.26336
G1 X-19.262 Y51.611 E70.28107
G1 X-20.269 Y49.748 E70.39168
G1 X-20.380 Y49.640 E70.39980
G1 X-21.178 Y47.302 E70.52887
G1 X-21.222 Y47.227 E70.53338
G1 X-21.382 Y47.052 E70.54578
G1 X-21.655 Y44.141 E70.69853
G1 X-21.632 Y43.644 E70.72453
G1 X-21.568 Y43.302 E70.74271
G1 X-21.575 Y43.195 E70.74828
G1 X-21.908 Y42.194 E70.80342
G1 X-21.641 Y41.661 E70.83456
G1 X-21.629 Y41.495 E70.84327
G1 X-21.900 Y40.680 E70.88815
G1 X-21.632 Y40.147 E70.91929
G1 X-21.621 Y39.980 E70.92800
G1 X-21.891 Y39.165 E70.97288
G1 X-20.772 Y36.932 E71.10336
G1 X-20.103 Y36.201 E71.15513
G1 X-19.615 Y35.900 E71.18513
G1 X-19.509 Y35.709 E71.19651
G1 X-19.509 Y-22.228 E74.22344
G1 X-19.711 Y-22.463 E74.23968
G1 X-19.872 Y-22.488 E74.24816
G1 X-21.520 Y-24.109 E74.36894
G1 X-21.979 Y-26.850 E74.51414
G1 X-22.376 Y-28.670 E74.61149
G1 X-22.838 Y-30.381 E74.70406
G1 X-23.393 Y-32.092 E74.79802
G1 X-24.051 Y-33.826 E74.89494
G1 X-24.337 Y-34.467 E74.93159
G1 X-24.407 Y-34.553 E74.93743
G1 X-24.526 Y-34.638 E74.94507
G1 X-25.456 Y-37.001 E75.07771
G1 X-25.556 Y-37.587 E75.10879
G1 X-26.120 Y-39.284 E75.20223
G1 X-23.455 Y-44.602 E75.51300
G1 X-23.096 Y-45.091 E75.54468
G1 X-22.599 Y-45.569 E75.58068
G1 X-22.098 Y-45.909 E75.61236
G1 X-19.626 Y-47.033 E75.75422
G1 X-19.430 Y-46.996 E75.76462
G1 X-19.325 Y-47.002 E75.77015
G1 X7.670 Y-55.773 E77.25307
G1 X9.744 Y-55.192 E77.36559
G1 X9.956 Y-54.946 E77.38254
G1 X10.200 Y-54.878 E77.39578
G1 X11.335 Y-55.246 E77.45815
G1 X12.120 Y-55.436 E77.50033
G1 X12.557 Y-55.484 E77.52332
G1 X13.723 Y-55.474 E77.58423
G1 X14.298 Y-55.375 E77.61469
G1 X15.059 Y-55.153 E77.65611
G1 X15.718 Y-54.881 E77.69339
G1 X16.082 Y-54.678 E77.71515
G1 X16.504 Y-54.403 E77.74148
G1 X16.720 Y-54.243 E77.75548
G1 X17.121 Y-53.898 E77.78312
G1 X17.469 Y-53.526 E77.80975
G1 X17.928 Y-52.968 E77.84750
G1 X18.107 Y-52.707 E77.86402
G1 X19.070 Y-50.993 E77.96678
G1 X20.120 Y-48.913 E78.08849
G1 X21.056 Y-46.753 E78.21148
G1 X21.739 Y-44.925 E78.31344
G1 X22.456 Y-42.658 E78.43765
G1 X23.366 Y-38.772 E78.64618
G1 X23.733 Y-36.406 E78.77123
G1 X23.944 Y-34.345 E78.87951
G1 X24.065 Y-31.371 E79.03498
G1 X24.080 Y-29.523 E79.13152
G1 X24.238 Y-7.940 E80.25920
G1 X24.149 Y-3.056 E80.51440
G1 X24.009 Y0.191 E80.68417
G1 E77.18417 F1800.00000
G92 E0
G1 X23.691 Y54.925 F3600.000
G1 X18.764 Y48.843 F3600.000
G1 X19.271 Y47.763 F3600.000
G1 X19.395 Y47.491 F3600.000
G1 X19.416 Y47.442 F3600.000
G1 X16.509 Y44.308 F3600.000
G1 X17.800 Y45.571 F3600.000
G1 E3.50000 F1800.00000
G1 X17.669 Y46.678 E3.55826 F1200.000
G1 X16.434 Y49.143 E3.70233
G1 X14.985 Y49.625 E3.78207
