; GCode generated by CraftWare

G28 X0 Y0
G28 Z0

M190 S60 ;set bed temp (wait)
M109 S210 ;set head temp (wait)
; ------------------------------------
; Layer #0
; ------------------------------------
G21 ; mm
G90 ; abs
G92 E0 ; reset extr
M106 S0
;segType:Skirt
G0 F4800 E-1.0000
G0 F3000 Z0.200
G0 X-16.503 Y26.113 F10800
G0 F4800 E0.0000
G1 X-11.928 Y30.529 E0.2115 F2400
G1 X-11.732 Y30.718 E0.2205
G1 X-11.274 Y31.159 E0.2417
G1 X-10.947 Y31.348 E0.2542
G1 X-10.686 Y31.348 E0.2629
G1 X-10.555 Y31.474 E0.2690
G1 X-9.640 Y31.601 E0.2997
G1 X-9.510 Y31.727 E0.3057
G1 X-8.987 Y31.727 E0.3231
G1 X-8.856 Y31.853 E0.3292
G1 X-7.810 Y31.853 E0.3639
G1 X-7.680 Y31.979 E0.3700
G1 X-2.974 Y31.979 E0.5265
G1 X-2.843 Y31.853 E0.5325
G1 X-2.320 Y31.853 E0.5499
G1 X-1.536 Y31.601 E0.5773
G1 X-1.209 Y31.412 E0.5899
G1 X-0.948 Y31.159 E0.6020
G1 X-0.621 Y30.970 E0.6145
G1 X1.863 Y28.573 E0.7293
G1 X7.614 Y28.573 E0.9206
G1 X8.072 Y28.636 E0.9360
G1 X10.425 Y30.907 E1.0448
G1 X10.752 Y31.096 E1.0573
G1 X11.013 Y31.348 E1.0694
G1 X11.667 Y31.727 E1.0945
G1 X11.928 Y31.727 E1.1032
G1 X12.059 Y31.853 E1.1093
G1 X12.582 Y31.853 E1.1267
G1 X12.974 Y31.979 E1.1404
G1 X17.157 Y31.979 E1.2795
G1 X18.072 Y31.853 E1.3102
G1 X18.595 Y31.853 E1.3276
G1 X18.987 Y31.727 E1.3413
G1 X19.902 Y31.601 E1.3720
G1 X20.032 Y31.474 E1.3781
G1 X20.947 Y31.348 E1.4088
G1 X26.176 Y26.302 E1.6505
G1 X27.156 Y24.726 E1.7122
G1 X27.287 Y24.347 E1.7255
G1 X28.463 Y22.455 E1.7996
G1 X28.594 Y22.076 E1.8129
G1 X28.856 Y21.824 E1.8250
G1 X28.986 Y21.446 E1.8384
G1 X29.771 Y20.184 E1.8878
G1 X29.901 Y19.806 E1.9011
G1 X30.163 Y19.553 E1.9132
G1 X30.293 Y19.175 E1.9265
G1 X30.686 Y18.544 E1.9512
G1 X30.816 Y18.418 E1.9572
G1 X30.816 Y14.886 E2.0747
G1 X30.621 Y14.571 E2.0870
G1 X29.052 Y13.057 E2.1595
G1 X29.052 Y12.930 E2.1638
G1 X31.143 Y12.930 E2.2333
G1 X31.601 Y12.867 E2.2487
G1 X36.829 Y7.821 E2.4904
G1 X37.614 Y6.560 E2.5398
G1 X37.744 Y6.181 E2.5531
G1 X38.006 Y5.929 E2.5652
G1 X38.137 Y5.551 E2.5785
G1 X39.313 Y3.658 E2.6526
G1 X39.444 Y3.280 E2.6659
G1 X39.705 Y3.028 E2.6780
G1 X39.836 Y2.649 E2.6913
G1 X40.620 Y1.388 E2.7407
G1 X40.751 Y1.009 E2.7540
G1 X41.339 Y0.063 E2.7911
G1 X41.404 Y-0.378 E2.8059
G1 X41.404 Y-3.658 E2.9150
G1 X41.274 Y-3.785 E2.9211
G1 X41.209 Y-4.226 E2.9359
G1 X41.078 Y-4.604 E2.9492
G1 X41.012 Y-5.046 E2.9641
G1 X40.882 Y-5.172 E2.9701
G1 X40.882 Y-5.424 E2.9785
G1 X40.751 Y-5.551 E2.9846
G1 X40.751 Y-5.803 E2.9929
G1 X40.359 Y-6.434 E3.0176
G1 X40.359 Y-6.686 E3.0260
G1 X40.163 Y-7.001 E3.0384
G1 X40.032 Y-7.380 E3.0517
G1 X39.836 Y-7.695 E3.0641
G1 X39.574 Y-7.948 E3.0761
G1 X39.379 Y-8.263 E3.0885
G1 X33.627 Y-13.813 E3.3543
G1 X32.973 Y-14.192 E3.3795
G1 X32.712 Y-14.192 E3.3881
G1 X32.385 Y-14.381 E3.4007
G1 X31.993 Y-14.507 E3.4144
G1 X31.731 Y-14.760 E3.4265
G1 X31.601 Y-15.138 E3.4398
G1 X30.424 Y-17.030 E3.5139
G1 X30.293 Y-17.409 E3.5272
G1 X30.098 Y-17.724 E3.5396
G1 X30.098 Y-18.103 E3.5522
G1 X30.293 Y-18.418 E3.5645
G1 X30.293 Y-18.923 E3.5813
G1 X30.424 Y-19.301 E3.5946
G1 X30.424 Y-22.833 E3.7121
G1 X30.228 Y-24.158 E3.7566
G1 X30.032 Y-24.473 E3.7690
G1 X29.901 Y-24.852 E3.7823
G1 X29.509 Y-25.483 E3.8070
G1 X29.248 Y-25.735 E3.8191
G1 X28.856 Y-26.366 E3.8438
G1 X28.594 Y-26.618 E3.8559
G1 X28.398 Y-26.933 E3.8682
G1 X21.863 Y-33.241 E4.1703
G1 X9.314 Y-33.241 E4.5877
G1 X8.987 Y-33.052 E4.6003
G1 X5.066 Y-29.267 E4.7815
G1 X4.869 Y-29.204 E4.7884
G1 X0.686 Y-33.241 E4.9817
G1 X-11.863 Y-33.241 E5.3991
G1 X-12.189 Y-33.052 E5.4117
G1 X-18.725 Y-26.744 E5.7138
G1 X-19.117 Y-26.113 E5.7385
G1 X-19.378 Y-25.861 E5.7506
G1 X-20.163 Y-24.599 E5.8000
G1 X-20.293 Y-24.221 E5.8133
G1 X-20.424 Y-24.095 E5.8193
G1 X-20.424 Y-23.338 E5.8445
G1 X-20.555 Y-23.212 E5.8505
G1 X-20.555 Y-19.175 E5.9848
G1 X-20.424 Y-19.049 E5.9908
G1 X-20.424 Y-18.544 E6.0076
G1 X-20.293 Y-18.166 E6.0209
G1 X-20.163 Y-18.040 E6.0270
G1 X-20.163 Y-17.787 E6.0354
G1 X-20.947 Y-16.526 E6.0848
G1 X-21.078 Y-16.147 E6.0981
G1 X-21.862 Y-14.886 E6.1475
G1 X-22.189 Y-14.444 E6.1658
G1 X-22.451 Y-14.444 E6.1745
G1 X-22.777 Y-14.255 E6.1870
G1 X-23.169 Y-14.129 E6.2007
G1 X-23.823 Y-13.750 E6.2259
G1 X-29.574 Y-8.200 E6.4917
G1 X-29.967 Y-7.569 E6.5164
G1 X-30.228 Y-7.317 E6.5285
G1 X-30.228 Y-7.064 E6.5369
G1 X-30.424 Y-6.749 E6.5492
G1 X-30.555 Y-6.370 E6.5626
G1 X-30.751 Y-6.055 E6.5749
G1 X-31.143 Y-4.920 E6.6149
G1 X-31.143 Y-4.668 E6.6232
G1 X-31.274 Y-4.541 E6.6293
G1 X-31.274 Y-4.289 E6.6377
G1 X-31.404 Y-4.163 E6.6437
G1 X-31.535 Y-3.280 E6.6734
G1 X-31.535 Y0.000 E6.7825
G1 X-30.751 Y1.262 E6.8319
G1 X-30.620 Y1.640 E6.8452
G1 X-29.444 Y3.532 E6.9193
G1 X-29.313 Y3.911 E6.9327
G1 X-29.052 Y4.163 E6.9447
G1 X-28.921 Y4.541 E6.9581
G1 X-27.744 Y6.434 E7.0322
G1 X-27.614 Y6.812 E7.0455
G1 X-27.026 Y7.758 E7.0825
G1 X-21.666 Y12.930 E7.3303
G1 X-19.575 Y12.930 E7.3998
G1 X-19.117 Y12.994 E7.4152
G1 X-20.947 Y14.760 E7.4998
G1 X-20.947 Y18.292 E7.6173
G1 X-20.555 Y18.923 E7.6420
G1 X-20.424 Y19.301 E7.6553
G1 X-20.163 Y19.553 E7.6674
G1 X-20.032 Y19.932 E7.6807
G1 X-19.248 Y21.193 E7.7301
G1 X-19.117 Y21.572 E7.7434
G1 X-17.941 Y23.464 E7.8175
G1 X-17.810 Y23.843 E7.8308
G1 X-17.548 Y24.095 E7.8429
G1 X-17.418 Y24.473 E7.8562
G1 X-16.633 Y25.735 E7.9056
G1 X-16.503 Y26.113 E7.9190
G0 F4800 E6.9190
G0 X-7.680 Y32.358 F10800
G0 F4800 E7.9190
G1 X-2.974 Y32.358 E8.0755 F2400
G1 X-2.712 Y32.231 E8.0851
G1 X-2.189 Y32.231 E8.1025
G1 X-2.059 Y32.105 E8.1086
G1 X-1.797 Y32.105 E8.1173
G1 X-1.144 Y31.727 E8.1424
G1 X-0.882 Y31.474 E8.1545
G1 X-0.556 Y31.285 E8.1670
G1 X1.797 Y29.015 E8.2758
G1 X2.255 Y28.951 E8.2911
G1 X8.006 Y28.951 E8.4824
G1 X10.359 Y31.222 E8.5912
G1 X10.686 Y31.412 E8.6038
G1 X10.948 Y31.664 E8.6158
G1 X11.601 Y32.042 E8.6410
G1 X11.994 Y32.169 E8.6547
G1 X12.712 Y32.231 E8.6787
G1 X12.843 Y32.358 E8.6847
G1 X17.549 Y32.358 E8.8412
G1 X17.680 Y32.231 E8.8473
G1 X18.725 Y32.231 E8.8820
G1 X18.856 Y32.105 E8.8881
G1 X19.379 Y32.105 E8.9055
G1 X19.510 Y31.979 E8.9115
G1 X20.425 Y31.853 E8.9422
G1 X20.555 Y31.727 E8.9483
G1 X21.013 Y31.664 E8.9636
G1 X26.764 Y26.113 E9.2295
G1 X26.895 Y25.735 E9.2428
G1 X27.679 Y24.473 E9.2922
G1 X27.810 Y24.095 E9.3055
G1 X28.071 Y23.843 E9.3176
G1 X28.202 Y23.464 E9.3309
G1 X29.378 Y21.572 E9.4050
G1 X29.509 Y21.193 E9.4184
G1 X30.686 Y19.301 E9.4925
G1 X30.816 Y18.923 E9.5058
G1 X31.209 Y18.292 E9.5305
G1 X31.209 Y14.760 E9.6480
G1 X29.771 Y13.372 E9.7144
G1 X30.228 Y13.309 E9.7298
G1 X31.536 Y13.309 E9.7733
G1 X37.287 Y7.758 E10.0391
G1 X37.875 Y6.812 E10.0762
G1 X38.006 Y6.434 E10.0895
G1 X39.182 Y4.541 E10.1636
G1 X39.313 Y4.163 E10.1769
G1 X39.574 Y3.911 E10.1890
G1 X39.705 Y3.532 E10.2023
G1 X40.882 Y1.640 E10.2764
G1 X41.012 Y1.262 E10.2897
G1 X41.797 Y0.000 E10.3391
G1 X41.797 Y-3.532 E10.4566
G1 X41.666 Y-3.911 E10.4699
G1 X41.666 Y-4.163 E10.4783
G1 X41.535 Y-4.289 E10.4844
G1 X41.535 Y-4.541 E10.4928
G1 X41.404 Y-4.668 E10.4988
G1 X41.339 Y-5.109 E10.5136
G1 X41.078 Y-5.866 E10.5403
G1 X40.882 Y-6.181 E10.5526
G1 X40.620 Y-6.938 E10.5793
G1 X40.489 Y-7.064 E10.5853
G1 X40.489 Y-7.317 E10.5937
G1 X40.228 Y-7.569 E10.6058
G1 X39.836 Y-8.200 E10.6305
G1 X33.823 Y-14.003 E10.9084
G1 X33.496 Y-14.192 E10.9210
G1 X33.235 Y-14.444 E10.9331
G1 X32.451 Y-14.696 E10.9605
G1 X32.124 Y-14.886 E10.9730
G1 X31.339 Y-16.147 E11.0225
G1 X31.209 Y-16.526 E11.0358
G1 X30.947 Y-16.778 E11.0479
G1 X30.816 Y-17.157 E11.0612
G1 X30.424 Y-17.787 E11.0859
G1 X30.424 Y-18.040 E11.0943
G1 X30.621 Y-18.355 E11.1066
G1 X30.686 Y-19.049 E11.1298
G1 X30.816 Y-19.175 E11.1358
G1 X30.816 Y-23.212 E11.2701
G1 X30.686 Y-23.338 E11.2761
G1 X30.686 Y-24.095 E11.3013
G1 X30.293 Y-24.726 E11.3260
G1 X30.163 Y-25.104 E11.3393
G1 X29.967 Y-25.419 E11.3517
G1 X29.706 Y-25.672 E11.3638
G1 X29.313 Y-26.302 E11.3885
G1 X29.052 Y-26.555 E11.4006
G1 X28.856 Y-26.870 E11.4129
G1 X27.156 Y-28.510 E11.4915
G1 X27.026 Y-28.636 E11.4975
G1 X21.863 Y-33.619 E11.7362
G1 X9.314 Y-33.619 E12.1535
G1 X8.987 Y-33.430 E12.1661
G1 X5.066 Y-29.646 E12.3473
G1 X4.869 Y-29.582 E12.3542
G1 X0.686 Y-33.619 E12.5476
G1 X-11.863 Y-33.619 E12.9649
G1 X-12.189 Y-33.430 E12.9775
G1 X-18.986 Y-26.870 E13.2917
G1 X-19.378 Y-26.239 E13.3164
G1 X-19.640 Y-25.987 E13.3285
G1 X-19.836 Y-25.672 E13.3408
G1 X-20.098 Y-25.419 E13.3529
G1 X-20.293 Y-25.104 E13.3652
G1 X-20.424 Y-24.726 E13.3786
G1 X-20.816 Y-24.095 E13.4033
G1 X-20.816 Y-23.338 E13.4284
G1 X-20.947 Y-23.212 E13.4345
G1 X-20.947 Y-19.175 E13.5687
G1 X-20.816 Y-19.049 E13.5748
G1 X-20.816 Y-18.544 E13.5916
G1 X-20.686 Y-18.166 E13.6049
G1 X-20.555 Y-18.040 E13.6109
G1 X-20.555 Y-17.787 E13.6193
G1 X-21.339 Y-16.526 E13.6687
G1 X-21.470 Y-16.147 E13.6820
G1 X-22.254 Y-14.886 E13.7315
G1 X-22.581 Y-14.696 E13.7440
G1 X-23.366 Y-14.444 E13.7714
G1 X-23.627 Y-14.192 E13.7835
G1 X-23.954 Y-14.003 E13.7961
G1 X-29.967 Y-8.200 E14.0740
G1 X-30.359 Y-7.569 E14.0987
G1 X-30.620 Y-7.317 E14.1108
G1 X-30.620 Y-7.064 E14.1192
G1 X-30.816 Y-6.749 E14.1315
G1 X-30.947 Y-6.370 E14.1449
G1 X-31.143 Y-6.055 E14.1572
G1 X-31.535 Y-4.920 E14.1971
G1 X-31.535 Y-4.668 E14.2055
G1 X-31.666 Y-4.541 E14.2116
G1 X-31.666 Y-4.289 E14.2200
G1 X-31.797 Y-4.163 E14.2260
G1 X-31.927 Y-3.280 E14.2557
G1 X-31.927 Y0.000 E14.3648
G1 X-31.143 Y1.262 E14.4142
G1 X-31.012 Y1.640 E14.4275
G1 X-29.836 Y3.532 E14.5016
G1 X-29.705 Y3.911 E14.5149
G1 X-29.444 Y4.163 E14.5270
G1 X-29.313 Y4.541 E14.5403
G1 X-28.137 Y6.434 E14.6145
G1 X-28.006 Y6.812 E14.6278
G1 X-27.418 Y7.758 E14.6648
G1 X-21.666 Y13.309 E14.9307
G1 X-20.098 Y13.309 E14.9828
G1 X-19.901 Y13.372 E14.9897
G1 X-21.339 Y14.760 E15.0562
G1 X-21.339 Y18.292 E15.1736
G1 X-20.947 Y18.923 E15.1983
G1 X-20.816 Y19.301 E15.2117
G1 X-20.555 Y19.553 E15.2237
G1 X-20.424 Y19.932 E15.2371
G1 X-19.640 Y21.193 E15.2865
G1 X-19.509 Y21.572 E15.2998
G1 X-18.333 Y23.464 E15.3739
G1 X-18.202 Y23.843 E15.3872
G1 X-17.941 Y24.095 E15.3993
G1 X-17.810 Y24.473 E15.4126
G1 X-17.026 Y25.735 E15.4620
G1 X-16.895 Y26.113 E15.4753
G1 X-11.143 Y31.664 E15.7412
G1 X-10.686 Y31.727 E15.7565
G1 X-10.555 Y31.853 E15.7626
G1 X-9.640 Y31.979 E15.7933
G1 X-9.510 Y32.105 E15.7994
G1 X-8.987 Y32.105 E15.8167
G1 X-8.856 Y32.231 E15.8228
G1 X-7.810 Y32.231 E15.8576
G1 X-7.680 Y32.736 E15.8749
G1 X-3.104 Y32.736 E16.0271
G1 X-2.712 Y32.610 E16.0408
G1 X-2.189 Y32.610 E16.0582
G1 X-2.059 Y32.484 E16.0642
G1 X-1.797 Y32.484 E16.0729
G1 X-1.144 Y32.105 E16.0980
G1 X-0.882 Y31.853 E16.1101
G1 X-0.556 Y31.664 E16.1227
G1 X1.797 Y29.393 E16.2314
G1 X2.255 Y29.330 E16.2468
G1 X8.006 Y29.330 E16.4381
G1 X10.359 Y31.601 E16.5468
G1 X10.686 Y31.790 E16.5594
G1 X10.948 Y32.042 E16.5715
G1 X11.601 Y32.421 E16.5966
G1 X11.994 Y32.547 E16.6103
G1 X12.712 Y32.610 E16.6343
G1 X12.843 Y32.736 E16.6403
G1 X17.549 Y32.736 E16.7969
G1 X17.680 Y32.610 E16.8029
G1 X18.725 Y32.610 E16.8377
G1 X18.856 Y32.484 E16.8437
G1 X19.379 Y32.484 E16.8611
G1 X19.510 Y32.358 E16.8672
G1 X20.425 Y32.231 E16.8979
G1 X20.555 Y32.105 E16.9039
G1 X21.013 Y32.042 E16.9193
G1 X27.026 Y26.239 E17.1972
G1 X27.418 Y25.609 E17.2219
G1 X27.548 Y25.230 E17.2352
G1 X27.810 Y24.978 E17.2473
G1 X27.941 Y24.599 E17.2606
G1 X28.725 Y23.338 E17.3100
G1 X28.856 Y22.960 E17.3234
G1 X29.117 Y22.707 E17.3354
G1 X29.248 Y22.329 E17.3488
G1 X30.424 Y20.436 E17.4229
G1 X30.555 Y20.058 E17.4362
G1 X31.536 Y18.481 E17.4980
G1 X31.601 Y18.040 E17.5128
G1 X31.601 Y14.760 E17.6219
G1 X30.555 Y13.750 E17.6702
G1 X31.013 Y13.687 E17.6856
G1 X31.536 Y13.687 E17.7030
G1 X37.549 Y7.884 E17.9809
G1 X38.921 Y5.677 E18.0674
G1 X39.052 Y5.298 E18.0807
G1 X39.313 Y5.046 E18.0928
G1 X39.444 Y4.668 E18.1061
G1 X40.620 Y2.775 E18.1802
G1 X40.751 Y2.397 E18.1935
G1 X41.535 Y1.135 E18.2429
G1 X41.666 Y0.757 E18.2562
G1 X41.927 Y0.505 E18.2683
G1 X42.058 Y0.126 E18.2816
G1 X42.189 Y0.000 E18.2877
G1 X42.189 Y-3.532 E18.4052
G1 X42.058 Y-3.911 E18.4185
G1 X42.058 Y-4.163 E18.4269
G1 X41.927 Y-4.289 E18.4329
G1 X41.927 Y-4.541 E18.4413
G1 X41.797 Y-4.668 E18.4474
G1 X41.732 Y-5.109 E18.4622
G1 X41.470 Y-5.866 E18.4888
G1 X41.274 Y-6.181 E18.5012
G1 X41.012 Y-6.938 E18.5278
G1 X40.882 Y-7.064 E18.5339
G1 X40.882 Y-7.317 E18.5423
G1 X40.620 Y-7.569 E18.5543
G1 X40.228 Y-8.200 E18.5790
G1 X33.692 Y-14.507 E18.8811
G1 X33.039 Y-14.886 E18.9063
G1 X32.646 Y-15.012 E18.9200
G1 X32.320 Y-15.201 E18.9325
G1 X31.731 Y-16.147 E18.9696
G1 X31.601 Y-16.526 E18.9829
G1 X31.339 Y-16.778 E18.9950
G1 X31.209 Y-17.157 E19.0083
G1 X30.816 Y-17.787 E19.0330
G1 X30.816 Y-18.040 E19.0414
G1 X31.013 Y-18.355 E19.0538
G1 X31.078 Y-19.049 E19.0769
G1 X31.209 Y-19.175 E19.0830
G1 X31.209 Y-23.212 E19.2172
G1 X31.078 Y-23.338 E19.2233
G1 X31.078 Y-24.095 E19.2485
G1 X30.686 Y-24.726 E19.2732
G1 X30.555 Y-25.104 E19.2865
G1 X30.359 Y-25.419 E19.2988
G1 X30.098 Y-25.672 E19.3109
G1 X29.706 Y-26.302 E19.3356
G1 X29.444 Y-26.555 E19.3477
G1 X29.248 Y-26.870 E19.3601
G1 X21.928 Y-33.935 E19.6984
G1 X21.470 Y-33.997 E19.7138
G1 X9.183 Y-33.997 E20.1224
G1 X5.000 Y-29.961 E20.3158
G1 X4.673 Y-30.150 E20.3284
G1 X0.751 Y-33.935 E20.5096
G1 X0.294 Y-33.997 E20.5250
G1 X-11.993 Y-33.997 E20.9337
G1 X-19.313 Y-26.933 E21.2720
G1 X-19.509 Y-26.618 E21.2844
G1 X-19.771 Y-26.366 E21.2964
G1 X-20.163 Y-25.735 E21.3211
G1 X-20.424 Y-25.483 E21.3332
G1 X-20.816 Y-24.852 E21.3579
G1 X-20.947 Y-24.473 E21.3712
G1 X-21.143 Y-24.158 E21.3836
G1 X-21.339 Y-22.833 E21.4281
G1 X-21.339 Y-19.301 E21.5456
G1 X-21.209 Y-18.923 E21.5589
G1 X-21.209 Y-18.418 E21.5757
G1 X-21.013 Y-18.103 E21.5881
G1 X-21.013 Y-17.724 E21.6007
G1 X-21.209 Y-17.409 E21.6130
G1 X-21.339 Y-17.030 E21.6263
G1 X-21.601 Y-16.778 E21.6384
G1 X-21.731 Y-16.400 E21.6517
G1 X-22.516 Y-15.138 E21.7011
G1 X-22.843 Y-14.949 E21.7137
G1 X-23.104 Y-14.949 E21.7224
G1 X-23.758 Y-14.570 E21.7475
G1 X-30.294 Y-8.263 E22.0496
G1 X-30.489 Y-7.948 E22.0620
G1 X-30.751 Y-7.695 E22.0740
G1 X-30.947 Y-7.380 E22.0864
G1 X-31.078 Y-7.001 E22.0997
G1 X-31.274 Y-6.686 E22.1121
G1 X-31.274 Y-6.434 E22.1205
G1 X-31.666 Y-5.803 E22.1452
G1 X-31.666 Y-5.551 E22.1536
G1 X-31.797 Y-5.424 E22.1596
G1 X-31.797 Y-5.172 E22.1680
G1 X-31.927 Y-5.046 E22.1740
G1 X-31.993 Y-4.604 E22.1889
G1 X-32.124 Y-4.226 E22.2022
G1 X-32.189 Y-3.785 E22.2170
G1 X-32.319 Y-3.658 E22.2231
G1 X-32.319 Y-0.126 E22.3406
G1 X-32.189 Y0.252 E22.3539
G1 X-31.404 Y1.514 E22.4033
G1 X-31.274 Y1.892 E22.4166
G1 X-31.012 Y2.145 E22.4287
G1 X-30.882 Y2.523 E22.4420
G1 X-29.705 Y4.415 E22.5161
G1 X-29.574 Y4.794 E22.5294
G1 X-28.398 Y6.686 E22.6035
G1 X-28.267 Y7.064 E22.6169
G1 X-28.006 Y7.317 E22.6289
G1 X-27.875 Y7.695 E22.6423
G1 X-21.862 Y13.498 E22.9202
G1 X-21.536 Y13.687 E22.9328
G1 X-20.751 Y13.687 E22.9588
G1 X-20.882 Y13.940 E22.9683
G1 X-21.666 Y14.697 E23.0046
G1 X-21.731 Y15.138 E23.0194
G1 X-21.731 Y18.418 E23.1285
G1 X-21.470 Y18.670 E23.1406
G1 X-21.339 Y19.049 E23.1539
G1 X-20.555 Y20.310 E23.2033
G1 X-20.424 Y20.689 E23.2166
G1 X-20.163 Y20.941 E23.2287
G1 X-20.032 Y21.320 E23.2420
G1 X-18.856 Y23.212 E23.3161
G1 X-18.725 Y23.590 E23.3294
G1 X-17.548 Y25.483 E23.4035
G1 X-17.418 Y25.861 E23.4169
G1 X-17.222 Y26.176 E23.4292
G1 X-11.078 Y32.105 E23.7132
G1 X-10.163 Y32.231 E23.7439
G1 X-10.032 Y32.358 E23.7499
G1 X-9.117 Y32.484 E23.7807
G1 X-8.725 Y32.610 E23.7944
G1 X-7.941 Y32.610 E23.8205
G1 X-7.680 Y32.736 E23.8301
G0 F4800 E22.8301
G0 X31.797 Y18.607 F10800
G0 F4800 E23.8301
G1 X31.993 Y18.292 E23.8425 F2400
G1 X31.993 Y14.760 E23.9599
G1 X31.339 Y14.129 E23.9901
G1 X31.666 Y13.939 E24.0027
G1 X37.941 Y7.884 E24.2927
G1 X39.313 Y5.677 E24.3792
G1 X39.444 Y5.298 E24.3925
G1 X39.705 Y5.046 E24.4046
G1 X39.836 Y4.668 E24.4179
G1 X41.012 Y2.775 E24.4920
G1 X41.143 Y2.397 E24.5053
G1 X41.927 Y1.135 E24.5547
G1 X42.058 Y0.757 E24.5681
G1 X42.319 Y0.505 E24.5801
G1 X42.450 Y0.126 E24.5935
G1 X42.581 Y0.000 E24.5995
G1 X42.581 Y-3.532 E24.7170
G1 X42.450 Y-3.911 E24.7303
G1 X42.450 Y-4.163 E24.7387
G1 X42.319 Y-4.289 E24.7447
G1 X42.319 Y-4.541 E24.7531
G1 X42.189 Y-4.668 E24.7592
G1 X42.124 Y-5.109 E24.7740
G1 X41.862 Y-5.866 E24.8006
G1 X41.666 Y-6.181 E24.8130
G1 X41.404 Y-6.938 E24.8396
G1 X41.274 Y-7.064 E24.8457
G1 X41.274 Y-7.317 E24.8541
G1 X41.012 Y-7.569 E24.8662
G1 X40.620 Y-8.200 E24.8909
G1 X33.823 Y-14.760 E25.2050
G1 X33.496 Y-14.949 E25.2176
G1 X33.235 Y-15.201 E25.2297
G1 X32.843 Y-15.327 E25.2434
G1 X32.516 Y-15.517 E25.2560
G1 X32.124 Y-16.147 E25.2807
G1 X31.993 Y-16.526 E25.2940
G1 X31.731 Y-16.778 E25.3061
G1 X31.601 Y-17.157 E25.3194
G1 X31.209 Y-17.787 E25.3441
G1 X31.209 Y-18.040 E25.3525
G1 X31.405 Y-18.355 E25.3648
G1 X31.470 Y-19.049 E25.3880
G1 X31.601 Y-19.175 E25.3940
G1 X31.601 Y-23.212 E25.5283
G1 X31.470 Y-23.338 E25.5344
G1 X31.470 Y-24.095 E25.5595
G1 X31.078 Y-24.726 E25.5842
G1 X30.947 Y-25.104 E25.5976
G1 X30.751 Y-25.419 E25.6099
G1 X30.490 Y-25.672 E25.6220
G1 X30.098 Y-26.302 E25.6467
G1 X29.836 Y-26.555 E25.6588
G1 X29.640 Y-26.870 E25.6711
G1 X22.058 Y-34.187 E26.0216
G1 X21.732 Y-34.376 E26.0341
G1 X9.183 Y-34.376 E26.4515
G1 X5.000 Y-30.339 E26.6448
G1 X4.673 Y-30.529 E26.6574
G1 X0.751 Y-34.313 E26.8387
G1 X0.294 Y-34.376 E26.8540
G1 X-11.993 Y-34.376 E27.2627
G1 X-19.836 Y-26.807 E27.6252
G1 X-20.228 Y-26.176 E27.6499
G1 X-20.490 Y-25.924 E27.6620
G1 X-20.686 Y-25.609 E27.6744
G1 X-20.947 Y-25.356 E27.6865
G1 X-21.078 Y-24.978 E27.6998
G1 X-21.470 Y-24.347 E27.7245
G1 X-21.601 Y-23.969 E27.7378
G1 X-21.601 Y-23.464 E27.7546
G1 X-21.731 Y-23.086 E27.7679
G1 X-21.731 Y-19.553 E27.8854
G1 X-21.601 Y-18.670 E27.9151
G1 X-21.601 Y-18.418 E27.9235
G1 X-21.405 Y-18.103 E27.9358
G1 X-21.405 Y-17.724 E27.9484
G1 X-21.601 Y-17.409 E27.9607
G1 X-21.731 Y-17.030 E27.9741
G1 X-21.993 Y-16.778 E27.9861
G1 X-22.124 Y-16.400 E27.9995
G1 X-22.516 Y-15.769 E28.0242
G1 X-22.843 Y-15.327 E28.0424
G1 X-23.104 Y-15.327 E28.0511
G1 X-23.758 Y-14.949 E28.0763
G1 X-30.555 Y-8.389 E28.3904
G1 X-30.751 Y-8.074 E28.4028
G1 X-31.012 Y-7.821 E28.4149
G1 X-31.404 Y-7.191 E28.4396
G1 X-31.535 Y-6.812 E28.4529
G1 X-31.666 Y-6.686 E28.4589
G1 X-31.666 Y-6.434 E28.4673
G1 X-32.058 Y-5.803 E28.4920
G1 X-32.058 Y-5.551 E28.5004
G1 X-32.189 Y-5.424 E28.5065
G1 X-32.189 Y-5.172 E28.5149
G1 X-32.319 Y-5.046 E28.5209
G1 X-32.385 Y-4.604 E28.5358
G1 X-32.516 Y-4.226 E28.5491
G1 X-32.581 Y-3.785 E28.5639
G1 X-32.647 Y-3.721 E28.5669
G1 X-32.712 Y-3.280 E28.5818
G1 X-32.712 Y0.000 E28.6909
G1 X-31.927 Y1.262 E28.7403
G1 X-31.797 Y1.640 E28.7536
G1 X-30.620 Y3.532 E28.8277
G1 X-30.489 Y3.911 E28.8410
G1 X-30.228 Y4.163 E28.8531
G1 X-30.097 Y4.541 E28.8664
G1 X-28.921 Y6.434 E28.9405
G1 X-28.790 Y6.812 E28.9538
G1 X-28.202 Y7.758 E28.9909
G1 X-21.666 Y14.066 E29.2930
G1 X-21.470 Y14.129 E29.2999
G1 X-22.124 Y14.760 E29.3301
G1 X-22.124 Y18.292 E29.4475
G1 X-21.731 Y18.923 E29.4723
G1 X-21.601 Y19.301 E29.4856
G1 X-21.339 Y19.553 E29.4977
G1 X-21.209 Y19.932 E29.5110
G1 X-20.424 Y21.193 E29.5604
G1 X-20.293 Y21.572 E29.5737
G1 X-19.117 Y23.464 E29.6478
G1 X-18.986 Y23.843 E29.6611
G1 X-18.725 Y24.095 E29.6732
G1 X-18.594 Y24.473 E29.6865
G1 X-17.810 Y25.735 E29.7359
G1 X-17.679 Y26.113 E29.7492
G1 X-11.143 Y32.421 E30.0514
G1 X-10.686 Y32.484 E30.0667
G1 X-10.555 Y32.610 E30.0727
G1 X-9.771 Y32.736 E30.0992
G1 X-9.379 Y32.862 E30.1129
G1 X-8.464 Y32.988 E30.1436
G1 X-7.941 Y32.988 E30.1610
G1 X-7.549 Y33.114 E30.1747
G1 X-3.366 Y33.114 E30.3138
G1 X-2.451 Y32.988 E30.3445
G1 X-2.189 Y32.988 E30.3532
G1 X-2.059 Y32.862 E30.3593
G1 X-1.797 Y32.862 E30.3680
G1 X-1.144 Y32.484 E30.3931
G1 X-0.882 Y32.231 E30.4052
G1 X-0.556 Y32.042 E30.4177
G1 X1.797 Y29.772 E30.5265
G1 X2.255 Y29.708 E30.5418
G1 X8.006 Y29.708 E30.7331
G1 X10.359 Y31.979 E30.8419
G1 X10.686 Y32.169 E30.8545
G1 X10.948 Y32.421 E30.8666
G1 X11.601 Y32.799 E30.8917
G1 X11.994 Y32.925 E30.9054
G1 X12.712 Y32.988 E30.9294
G1 X12.843 Y33.114 E30.9354
G1 X17.549 Y33.114 E31.0919
G1 X17.680 Y32.988 E31.0980
G1 X18.725 Y32.988 E31.1327
G1 X18.856 Y32.862 E31.1388
G1 X19.379 Y32.862 E31.1562
G1 X19.510 Y32.736 E31.1622
G1 X20.425 Y32.610 E31.1929
G1 X20.555 Y32.484 E31.1990
G1 X21.013 Y32.421 E31.2143
G1 X27.548 Y26.113 E31.5164
G1 X27.679 Y25.735 E31.5298
G1 X28.463 Y24.473 E31.5792
G1 X28.594 Y24.095 E31.5925
G1 X28.856 Y23.843 E31.6046
G1 X28.986 Y23.464 E31.6179
G1 X30.163 Y21.572 E31.6920
G1 X30.293 Y21.193 E31.7053
G1 X31.470 Y19.301 E31.7794
G1 X31.731 Y18.670 E31.8021
G1 X31.862 Y19.175 E31.8195
G1 X31.862 Y19.175
G0 F4800 E30.8195
G0 X17.679 Y12.576 F10800
G0 X15.315 Y11.476
G0 F4800 E31.8195
;segType:Loop
G1 X14.791 Y11.943 E31.8428 F2400
G1 X22.988 Y16.676 E32.1576
G1 X21.223 Y19.787 E32.2766
G1 X18.848 Y23.901 E32.4346
G1 X17.247 Y24.308 E32.4896
G1 X15.359 Y24.532 E32.5528
G1 X14.215 Y24.436 E32.5910
G1 X13.423 Y24.134 E32.6192
G1 X12.763 Y23.597 E32.6475
G1 X12.101 Y22.646 E32.6860
G1 X11.441 Y21.108 E32.7417
G1 X-1.441 Y21.108 E33.1701
G1 X-2.101 Y22.646 E33.2258
G1 X-2.763 Y23.597 E33.2643
G1 X-3.423 Y24.134 E33.2926
G1 X-4.215 Y24.436 E33.3208
G1 X-5.359 Y24.532 E33.3590
G1 X-7.247 Y24.308 E33.4222
G1 X-8.848 Y23.901 E33.4772
G1 X-13.012 Y16.690 E33.7541
G1 X-12.363 Y16.315 E33.7790
G1 X-4.744 Y11.892 E34.0721
G1 X-5.995 Y10.867 E34.1259
G1 X-7.207 Y9.649 E34.1830
G1 X-8.285 Y8.311 E34.2402
G1 X-9.217 Y6.867 E34.2974
G1 X-9.994 Y5.333 E34.3546
G1 X-10.606 Y3.725 E34.4118
G1 X-11.047 Y2.073 E34.4686
G1 X-11.365 Y0.533 E34.5210
G1 X-19.596 Y5.285 E34.8371
G1 X-23.748 Y-1.905 E35.1132
G1 X-23.293 Y-3.516 E35.1689
G1 X-22.540 Y-5.271 E35.2324
G1 X-21.878 Y-6.222 E35.2710
G1 X-21.218 Y-6.759 E35.2993
G1 X-20.427 Y-7.061 E35.3274
G1 X-19.282 Y-7.158 E35.3656
G1 X-17.611 Y-6.959 E35.4216
G1 X-11.188 Y-18.084 E35.8488
G1 X-12.180 Y-19.411 E35.9039
G1 X-12.674 Y-20.462 E35.9426
G1 X-12.810 Y-21.313 E35.9712
G1 X-12.674 Y-22.164 E35.9999
G1 X-12.180 Y-23.215 E36.0385
G1 X-11.038 Y-24.743 E36.1020
G1 X-9.883 Y-25.928 E36.1570
G1 X-1.600 Y-25.928 E36.4325
G1 X-1.600 Y-16.341 E36.7514
G1 X-0.062 Y-16.931 E36.8062
G1 X1.595 Y-17.375 E36.8632
G1 X3.288 Y-17.643 E36.9203
G1 X5.000 Y-17.733 E36.9773
G1 X6.712 Y-17.643 E37.0343
G1 X8.405 Y-17.375 E37.0913
G1 X10.062 Y-16.931 E37.1483
G1 X11.600 Y-16.341 E37.2031
G1 X11.600 Y-25.928 E37.5220
G1 X19.883 Y-25.928 E37.7975
G1 X21.038 Y-24.743 E37.8526
G1 X22.180 Y-23.215 E37.9160
G1 X22.674 Y-22.164 E37.9546
G1 X22.810 Y-21.313 E37.9833
G1 X22.674 Y-20.462 E38.0120
G1 X22.180 Y-19.411 E38.0506
G1 X21.188 Y-18.084 E38.1057
G1 X27.611 Y-6.959 E38.5329
G1 X29.282 Y-7.158 E38.5889
G1 X30.427 Y-7.061 E38.6271
G1 X31.218 Y-6.759 E38.6553
G1 X31.878 Y-6.222 E38.6836
G1 X32.540 Y-5.271 E38.7221
G1 X33.293 Y-3.516 E38.7856
G1 X33.745 Y-1.901 E38.8414
G1 X29.596 Y5.285 E39.1174
G1 X21.366 Y0.534 E39.4335
G1 X21.032 Y2.134 E39.4879
G1 X20.579 Y3.807 E39.5455
G1 X19.959 Y5.411 E39.6027
G1 X19.174 Y6.941 E39.6599
G1 X18.234 Y8.380 E39.7171
G1 X17.149 Y9.713 E39.7742
G1 X15.940 Y10.919 E39.8310
G1 X15.459 Y11.347 E39.8524
;segType:Perimeter
G0 X15.214 Y11.284 F10800
G1 X15.505 Y11.906 E39.8753 F1439
G1 X23.524 Y16.535 E40.1832
G1 X21.573 Y19.974 E40.3147
G1 X19.115 Y24.233 E40.4783
G1 X17.323 Y24.688 E40.5398
G1 X15.366 Y24.921 E40.6053
G1 X14.122 Y24.816 E40.6468
G1 X13.216 Y24.470 E40.6791
G1 X12.462 Y23.857 E40.7114
G1 X11.747 Y22.829 E40.7530
G1 X11.174 Y21.494 E40.8014
G1 X-1.174 Y21.494 E41.2120
G1 X-1.747 Y22.829 E41.2603
G1 X-2.462 Y23.857 E41.3020
G1 X-3.216 Y24.470 E41.3343
G1 X-4.122 Y24.816 E41.3666
G1 X-5.366 Y24.921 E41.4081
G1 X-7.323 Y24.688 E41.4736
G1 X-9.115 Y24.233 E41.5351
G1 X-13.550 Y16.550 E41.8302
G1 X-12.569 Y15.984 E41.8678
G1 X-5.427 Y11.838 E42.1425
G1 X-6.269 Y11.149 E42.1787
G1 X-7.510 Y9.902 E42.2372
G1 X-8.613 Y8.532 E42.2957
G1 X-9.568 Y7.054 E42.3542
G1 X-10.362 Y5.484 E42.4127
G1 X-10.988 Y3.840 E42.4713
G1 X-11.437 Y2.159 E42.5291
G1 X-11.646 Y1.145 E42.5636
G1 X-19.745 Y5.821 E42.8746
G1 X-24.176 Y-1.854 E43.1694
G1 X-23.672 Y-3.641 E43.2311
G1 X-22.894 Y-5.455 E43.2967
G1 X-22.179 Y-6.482 E43.3384
G1 X-21.426 Y-7.095 E43.3707
G1 X-20.519 Y-7.441 E43.4030
G1 X-19.275 Y-7.546 E43.4445
G1 X-17.830 Y-7.374 E43.4929
G1 X-11.662 Y-18.057 E43.9032
G1 X-12.528 Y-19.216 E43.9513
G1 X-13.061 Y-20.350 E43.9930
G1 X-13.215 Y-21.313 E44.0254
G1 X-13.061 Y-22.275 E44.0578
G1 X-12.528 Y-23.409 E44.0995
G1 X-11.347 Y-24.989 E44.1651
G1 X-10.056 Y-26.314 E44.2266
G1 X-1.200 Y-26.314 E44.5212
G1 X-1.200 Y-16.910 E44.8340
G1 X-0.189 Y-17.297 E44.8700
G1 X1.509 Y-17.752 E44.9285
G1 X3.245 Y-18.027 E44.9869
G1 X5.000 Y-18.119 E45.0454
G1 X6.755 Y-18.027 E45.1038
G1 X8.491 Y-17.752 E45.1623
G1 X10.189 Y-17.297 E45.2208
G1 X11.200 Y-16.910 E45.2568
G1 X11.200 Y-26.314 E45.5696
G1 X20.056 Y-26.314 E45.8641
G1 X21.347 Y-24.989 E45.9257
G1 X22.528 Y-23.409 E45.9913
G1 X23.061 Y-22.275 E46.0330
G1 X23.215 Y-21.313 E46.0654
G1 X23.061 Y-20.350 E46.0978
G1 X22.528 Y-19.216 E46.1395
G1 X21.662 Y-18.057 E46.1876
G1 X27.830 Y-7.374 E46.5979
G1 X29.275 Y-7.546 E46.6463
G1 X30.519 Y-7.441 E46.6878
G1 X31.426 Y-7.095 E46.7201
G1 X32.179 Y-6.482 E46.7524
G1 X32.894 Y-5.455 E46.7940
G1 X33.672 Y-3.641 E46.8597
G1 X34.174 Y-1.850 E46.9215
G1 X29.745 Y5.821 E47.2161
G1 X21.647 Y1.145 E47.5271
G1 X21.422 Y2.221 E47.5637
G1 X20.961 Y3.924 E47.6224
G1 X20.326 Y5.565 E47.6809
G1 X19.524 Y7.130 E47.7394
G1 X18.562 Y8.603 E47.7979
G1 X17.451 Y9.967 E47.8564
G1 X16.220 Y11.195 E47.9143
G1 X15.498 Y11.838 E47.9464
G1 X15.345 Y12.504
;segType:HShell
G0 X6.257 Y13.377 F10800
G1 X-1.555 Y20.915 E48.3075 F2400
G1 X-1.589 Y20.949
G1 X-5.077 Y24.315 E48.4687
G1 X-5.623 Y24.306
G1 X5.489 Y13.583 E48.9823
;segType:Loop
G0 X3.853 Y13.206 F10800
G1 X3.819 Y13.197 E48.9835 F2400
G1 X2.965 Y12.343 E49.0237
G1 X2.655 Y11.187 E49.0635
G1 X2.958 Y10.058 E49.1024
G1 X3.797 Y9.197 E49.1423
G1 X4.970 Y8.867 E49.1829
G1 X6.152 Y9.168 E49.2234
G1 X7.016 Y10.010 E49.2635
G1 X7.339 Y11.159 E49.3032
G1 X7.038 Y12.340 E49.3438
G1 X6.181 Y13.197 E49.3841
G1 X5.000 Y13.513 E49.4247
G1 X4.042 Y13.256 E49.4577
;segType:Perimeter
G0 X5.506 Y13.510 F10800
G1 X4.943 Y13.097 E49.4809 F1439
G1 X4.032 Y12.853 E49.5123
G1 X3.326 Y12.147 E49.5455
G1 X3.068 Y11.187 E49.5786
G1 X3.320 Y10.250 E49.6108
G1 X4.013 Y9.539 E49.6439
G1 X4.975 Y9.268 E49.6771
G1 X5.945 Y9.515 E49.7104
G1 X6.657 Y10.210 E49.7435
G1 X6.926 Y11.163 E49.7765
G1 X6.675 Y12.146 E49.8102
G1 X5.968 Y12.853 E49.8434
G1 X5.057 Y13.097 E49.8748
G1 X4.494 Y13.510
G0 X2.872 Y11.187 F10800
G0 X5.885 Y1.429
;segType:Loop
G1 X5.846 Y1.442 E49.8762 F2400
G1 X5.240 Y1.510 E49.8965
G1 X4.648 Y1.451 E49.9163
G1 X4.329 Y1.355 E49.9274
G1 X3.868 Y1.154 E49.9441
G1 X3.535 Y0.943 E49.9572
G1 X3.180 Y0.622 E49.9731
G1 X2.807 Y0.190 E49.9921
G1 X2.578 Y-0.206 E50.0073
G1 X2.388 Y-0.761 E50.0268
G1 X2.339 Y-1.228 E50.0425
G1 X2.373 Y-1.743 E50.0596
G1 X2.552 Y-2.374 E50.0815
G1 X2.819 Y-2.836 E50.0992
G1 X3.131 Y-3.264 E50.1168
G1 X3.475 Y-3.576 E50.1323
G1 X3.905 Y-3.852 E50.1493
G1 X4.313 Y-4.025 E50.1640
G1 X4.836 Y-4.145 E50.1818
G1 X5.249 Y-4.181 E50.1956
G1 X5.861 Y-4.111 E50.2161
G1 X6.414 Y-3.924 E50.2355
G1 X7.050 Y-3.542 E50.2602
G1 X7.474 Y-3.146 E50.2795
G1 X7.859 Y-2.590 E50.3020
G1 X8.083 Y-1.969 E50.3239
G1 X8.153 Y-1.304 E50.3462
G1 X8.064 Y-0.651 E50.3681
G1 X7.827 Y-0.082 E50.3886
G1 X7.496 Y0.413 E50.4084
G1 X6.973 Y0.926 E50.4328
G1 X6.370 Y1.266 E50.4558
G1 X6.071 Y1.367 E50.4663
;segType:Perimeter
G0 X7.379 Y0.687 F10800
G1 X6.674 Y0.647 E50.4898 F1439
G1 X6.202 Y0.914 E50.5078
G1 X5.756 Y1.063 E50.5235
G1 X5.237 Y1.122 E50.5408
G1 X4.729 Y1.072 E50.5578
G1 X4.472 Y0.993 E50.5667
G1 X4.061 Y0.815 E50.5816
G1 X3.783 Y0.639 E50.5926
G1 X3.471 Y0.356 E50.6066
G1 X3.138 Y-0.029 E50.6235
G1 X2.946 Y-0.362 E50.6363
G1 X2.781 Y-0.842 E50.6532
G1 X2.740 Y-1.236 E50.6663
G1 X2.770 Y-1.679 E50.6811
G1 X2.925 Y-2.227 E50.7001
G1 X3.158 Y-2.630 E50.7156
G1 X3.434 Y-3.010 E50.7312
G1 X3.724 Y-3.273 E50.7442
G1 X4.098 Y-3.512 E50.7589
G1 X4.441 Y-3.657 E50.7713
G1 X4.901 Y-3.763 E50.7870
G1 X5.244 Y-3.793 E50.7985
G1 X5.771 Y-3.732 E50.8161
G1 X6.240 Y-3.574 E50.8326
G1 X6.803 Y-3.236 E50.8544
G1 X7.165 Y-2.897 E50.8709
G1 X7.498 Y-2.416 E50.8904
G1 X7.689 Y-1.885 E50.9092
G1 X7.750 Y-1.310 E50.9284
G1 X7.674 Y-0.750 E50.9472
G1 X7.470 Y-0.260 E50.9648
G1 X7.182 Y0.170 E50.9820
G1 X6.766 Y0.578 E51.0014
G1 X6.633 Y1.248
;segType:HShell
G0 X28.326 Y-6.850 F10800
G1 X17.729 Y3.377 E51.4912 F2400
G1 X17.453 Y3.107
G1 X27.693 Y-6.774 E51.9645
G1 X27.363 Y-6.992
G1 X17.177 Y2.838 E52.4354
G1 X16.794 Y2.672
G1 X27.165 Y-7.336 E52.9147
G1 X26.966 Y-7.680
G1 X16.355 Y2.560 E53.4052
G1 X15.916 Y2.448
G1 X26.767 Y-8.024 E53.9068
G1 X26.569 Y-8.368
G1 X15.228 Y2.576 E54.4309
;segType:Perimeter
G0 X15.290 Y2.627 F10800
G1 X15.858 Y3.032 E54.4542 F1439
G1 X16.770 Y3.264 E54.4855
G1 X17.483 Y3.959 E54.5186
G1 X17.751 Y4.913 E54.5515
G1 X17.501 Y5.896 E54.5853
G1 X16.794 Y6.603 E54.6185
G1 X15.825 Y6.863 E54.6519
G1 X14.857 Y6.603 E54.6852
G1 X14.151 Y5.897 E54.7184
G1 X13.894 Y4.937 E54.7515
G1 X14.145 Y4.000 E54.7837
G1 X14.839 Y3.289 E54.8168
G1 X15.744 Y3.034 E54.8481
G1 X16.301 Y2.614
;segType:Loop
G0 X16.947 Y2.910 F10800
G1 X16.977 Y2.918 E54.8491 F2400
G1 X17.841 Y3.760 E54.8893
G1 X18.164 Y4.909 E54.9289
G1 X17.863 Y6.090 E54.9695
G1 X17.006 Y6.947 E55.0098
G1 X15.825 Y7.263 E55.0505
G1 X14.645 Y6.947 E55.0911
G1 X13.790 Y6.092 E55.1313
G1 X13.481 Y4.937 E55.1711
G1 X13.783 Y3.808 E55.2100
G1 X14.622 Y2.948 E55.2499
G1 X15.796 Y2.617 E55.2905
G1 X16.757 Y2.862 E55.3235
G0 X13.980 Y-6.510 F10800
G0 X13.698 Y-7.563
G0 X13.973 Y-8.591
G0 X14.704 Y-9.777
;segType:HShell
G1 X21.801 Y-16.626 E55.6515 F2400
G1 X22.000 Y-16.282
G1 X15.488 Y-9.997 E55.9525
;segType:Loop
G0 X16.947 Y-9.590 F10800
G1 X16.977 Y-9.582 E55.9536 F2400
G1 X17.841 Y-8.740 E55.9937
G1 X18.164 Y-7.591 E56.0334
G1 X17.863 Y-6.410 E56.0739
G1 X17.006 Y-5.553 E56.1142
G1 X15.825 Y-5.237 E56.1549
G1 X14.645 Y-5.553 E56.1955
G1 X13.790 Y-6.408 E56.2357
G1 X13.481 Y-7.563 E56.2755
G1 X13.783 Y-8.692 E56.3144
G1 X14.622 Y-9.552 E56.3544
G1 X15.796 Y-9.883 E56.3949
G1 X16.757 Y-9.638 E56.4279
;segType:Perimeter
G0 X15.290 Y-9.873 F10800
G1 X15.858 Y-9.468 E56.4511 F1439
G1 X16.770 Y-9.236 E56.4824
G1 X17.483 Y-8.541 E56.5155
G1 X17.751 Y-7.587 E56.5485
G1 X17.501 Y-6.603 E56.5822
G1 X16.794 Y-5.897 E56.6155
G1 X15.825 Y-5.637 E56.6488
G1 X14.857 Y-5.897 E56.6822
G1 X14.151 Y-6.602 E56.7154
G1 X13.894 Y-7.563 E56.7484
G1 X14.145 Y-8.500 E56.7807
G1 X14.839 Y-9.211 E56.8138
G1 X15.744 Y-9.466 E56.8450
G1 X16.301 Y-9.886
G0 X6.084 Y-15.619 F10800
G0 X1.882 Y-17.225
;segType:HShell
G1 X-5.589 Y-10.015 E57.1904 F2400
G1 X-5.150 Y-9.903
G1 X2.546 Y-17.330 E57.5461
G1 X3.210 Y-17.435
G1 X-4.710 Y-9.791 E57.9122
G1 X-4.382 Y-9.573
G1 X3.809 Y-17.477 E58.2908
G1 X4.396 Y-17.508
G1 X-4.106 Y-9.303 E58.6837
G1 X-3.830 Y-9.034
G1 X4.983 Y-17.538 E59.0910
G1 X5.511 Y-17.512
G1 X4.009 Y-16.063 E59.1605
;segType:Loop
G0 X6.121 Y-15.840 F10800
G1 X6.152 Y-15.832 E59.1615 F2400
G1 X7.016 Y-14.990 E59.2016
G1 X7.339 Y-13.841 E59.2413
G1 X7.038 Y-12.660 E59.2819
G1 X6.181 Y-11.803 E59.3222
G1 X5.000 Y-11.487 E59.3628
G1 X3.819 Y-11.803 E59.4035
G1 X2.965 Y-12.658 E59.4437
G1 X2.655 Y-13.813 E59.4835
G1 X2.958 Y-14.942 E59.5224
G1 X3.797 Y-15.802 E59.5623
G1 X4.970 Y-16.133 E59.6029
G1 X5.932 Y-15.888 E59.6358
;segType:Perimeter
G0 X4.464 Y-16.123 F10800
G1 X5.032 Y-15.718 E59.6591 F1439
G1 X5.945 Y-15.486 E59.6904
G1 X6.657 Y-14.790 E59.7235
G1 X6.926 Y-13.837 E59.7564
G1 X6.675 Y-12.854 E59.7902
G1 X5.968 Y-12.147 E59.8234
G1 X5.000 Y-11.887 E59.8568
G1 X4.032 Y-12.147 E59.8901
G1 X3.326 Y-12.853 E59.9233
G1 X3.068 Y-13.813 E59.9564
G1 X3.320 Y-14.750 E59.9886
G1 X4.013 Y-15.461 E60.0217
G1 X4.919 Y-15.716 E60.0530
G1 X5.476 Y-16.136
;segType:HShell
G0 X1.152 Y-17.056 F10800
G1 X-6.162 Y-9.997 E60.3910 F2400
;segType:Loop
G0 X-4.704 Y-9.590 F10800
G1 X-4.673 Y-9.582 E60.3921 F2400
G1 X-3.810 Y-8.740 E60.4322
G1 X-3.486 Y-7.591 E60.4719
G1 X-3.787 Y-6.410 E60.5124
G1 X-4.645 Y-5.553 E60.5528
G1 X-5.825 Y-5.237 E60.5934
G1 X-7.006 Y-5.553 E60.6341
G1 X-7.861 Y-6.407 E60.6743
G1 X-8.170 Y-7.563 E60.7140
G1 X-7.867 Y-8.692 E60.7529
G1 X-7.028 Y-9.552 E60.7929
G1 X-5.855 Y-9.883 E60.8334
G1 X-4.894 Y-9.638 E60.8664
;segType:Perimeter
G0 X-6.361 Y-9.873 F10800
G1 X-5.793 Y-9.468 E60.8897 F1439
G1 X-4.880 Y-9.236 E60.9210
G1 X-4.168 Y-8.541 E60.9541
G1 X-3.899 Y-7.587 E60.9870
G1 X-4.150 Y-6.603 E61.0208
G1 X-4.857 Y-5.897 E61.0540
G1 X-5.825 Y-5.637 E61.0874
G1 X-6.794 Y-5.897 E61.1207
G1 X-7.500 Y-6.602 E61.1539
G1 X-7.757 Y-7.563 E61.1870
G1 X-7.506 Y-8.500 E61.2192
G1 X-6.812 Y-9.211 E61.2523
G1 X-5.906 Y-9.466 E61.2836
G1 X-5.349 Y-9.886
G0 X3.911 Y-15.623 F10800
G0 X4.973 Y-15.922
G0 X11.781 Y-16.063
;segType:HShell
G1 X-9.944 Y4.903 E62.2878 F2400
G1 X-9.792 Y5.292
G1 X21.017 Y-24.441 E63.7119
G1 X21.250 Y-24.129
G1 X-6.422 Y2.576 E64.9909
;segType:Perimeter
G0 X-6.361 Y2.627 F10800
G1 X-5.793 Y3.032 E65.0142 F1439
G1 X-4.880 Y3.264 E65.0455
G1 X-4.168 Y3.959 E65.0786
G1 X-3.899 Y4.913 E65.1115
G1 X-4.150 Y5.896 E65.1453
G1 X-4.857 Y6.603 E65.1785
G1 X-5.825 Y6.863 E65.2119
G1 X-6.794 Y6.603 E65.2452
G1 X-7.500 Y5.897 E65.2784
G1 X-7.757 Y4.937 E65.3115
G1 X-7.506 Y4.000 E65.3438
G1 X-6.812 Y3.289 E65.3768
G1 X-5.906 Y3.034 E65.4081
G1 X-5.349 Y2.614
;segType:Loop
G0 X-4.704 Y2.910 F10800
G1 X-4.673 Y2.918 E65.4092 F2400
G1 X-3.810 Y3.760 E65.4493
G1 X-3.486 Y4.909 E65.4890
G1 X-3.787 Y6.090 E65.5295
G1 X-4.645 Y6.947 E65.5698
G1 X-5.825 Y7.263 E65.6105
G1 X-7.006 Y6.947 E65.6511
G1 X-7.861 Y6.092 E65.6913
G1 X-8.170 Y4.937 E65.7311
G1 X-7.867 Y3.808 E65.7700
G1 X-7.028 Y2.948 E65.8099
G1 X-5.855 Y2.617 E65.8505
G1 X-4.894 Y2.862 E65.8835
;segType:HShell
G0 X-5.735 Y2.448 F10800
G1 X21.482 Y-23.818 E67.1415 F2400
G1 X21.715 Y-23.507
G1 X-5.295 Y2.560 E68.3900
G1 X-4.856 Y2.672
G1 X21.948 Y-23.196 E69.6290
G1 X22.136 Y-22.842
G1 X-4.473 Y2.838 E70.8589
G1 X-4.197 Y3.107
G1 X22.309 Y-22.473 E72.0841
G1 X22.481 Y-22.103
G1 X3.619 Y-3.900 E72.9560
G0 X2.713 Y-3.026 F10800
G1 X-3.921 Y3.377 E73.2626 F2400
G1 X-3.645 Y3.646
G1 X2.251 Y-2.045 E73.5352
G1 X2.151 Y-1.411
G1 X-3.518 Y4.059 E73.7972
G1 X-3.400 Y4.481
G1 X2.173 Y-0.897 E74.0548
G1 X2.279 Y-0.464
G1 X-3.281 Y4.902 E74.3118
G0 X6.387 Y1.465 F10800
G1 X-4.425 Y11.900 E74.8115 F2400
G1 X-4.726 Y11.654
G1 X5.629 Y1.661 E75.2902
G1 X5.048 Y1.685
G1 X-5.026 Y11.408 E75.7558
G1 X-5.326 Y11.162
G1 X4.555 Y1.626 E76.2126
G1 X4.144 Y1.486
G1 X-5.627 Y10.916 E76.6642
G1 X-5.920 Y10.664
G1 X3.763 Y1.318 E77.1118
G1 X3.428 Y1.106
G1 X-6.192 Y10.390 E77.5565
G1 X-6.464 Y10.117
G1 X3.139 Y0.849 E78.0003
G1 X2.874 Y0.569
G1 X-6.736 Y9.844 E78.4446
G1 X-7.008 Y9.570
G1 X2.626 Y0.273 E78.8899
G1 X2.427 Y-0.071
G1 X-3.459 Y5.610 E79.1619
G0 X-5.209 Y7.299 F10800
G1 X-7.256 Y9.274 E79.2565 F2400
G1 X-7.499 Y8.972
G1 X-5.912 Y7.440 E79.3299
G1 X-6.346 Y7.324
G1 X-7.742 Y8.671 E79.3944
G1 X-7.984 Y8.369
G1 X-6.781 Y7.208 E79.4501
G1 X-7.177 Y7.054
G1 X-8.214 Y8.055 E79.4980
G1 X-8.427 Y7.725
G1 X-7.449 Y6.782 E79.5432
G1 X-7.722 Y6.509
G1 X-8.640 Y7.395 E79.5857
G1 X-8.854 Y7.065
G1 X-7.995 Y6.236 E79.6254
G1 X-8.136 Y5.837
G1 X-9.063 Y6.732 E79.6682
G1 X-9.245 Y6.372
G1 X-8.250 Y5.411 E79.7142
G1 X-8.364 Y4.985
G1 X-9.427 Y6.012 E79.7634
G1 X-9.610 Y5.652
G1 X-8.205 Y4.296 E79.8283
G0 X-11.567 Y0.972 F10800
G0 X-12.557 Y0.996
G1 X-6.202 Y-5.137 E80.1221 F2400
G1 X-6.636 Y-5.254
G1 X-13.939 Y1.794 E80.4597
G0 X-15.321 Y2.592 F10800
G1 X-7.071 Y-5.370 E80.8410 F2400
G1 X-7.359 Y-5.628
G1 X-16.703 Y3.390 E81.2729
G0 X-18.085 Y4.188 F10800
G1 X-7.632 Y-5.901 E81.7561 F2400
G1 X-7.904 Y-6.173
G1 X-19.467 Y4.985 E82.2905
G1 X-19.713 Y4.687
G1 X-8.098 Y-6.522 E82.8274
G1 X-8.212 Y-6.948
G1 X-19.911 Y4.343 E83.3682
G1 X-20.110 Y3.999
G1 X-8.326 Y-7.373 E83.9129
G1 X-8.269 Y-7.964
G1 X-20.308 Y3.655 E84.4694
G1 X-20.507 Y3.311
G1 X-8.075 Y-8.687 E85.0440
G0 X-6.914 Y-9.373 F10800
G0 X-5.852 Y-9.672
G0 X-4.782 Y-9.400
G0 X-3.998 Y-8.635
G0 X-3.519 Y-6.655
G1 X2.746 Y-12.701 E85.3336 F2400
G1 X2.632 Y-13.127
G1 X-3.338 Y-7.365 E85.6096
G1 X-3.360 Y-7.880
G1 X2.518 Y-13.553 E85.8813
G1 X2.524 Y-14.094
G1 X-3.479 Y-8.301 E86.1588
G1 X-3.597 Y-8.722
G1 X2.718 Y-14.817 E86.4507
G0 X-0.463 Y-16.569 F10800
G1 X-20.706 Y2.967 E87.3864 F2400
G1 X-20.904 Y2.623
G1 X-1.384 Y-16.216 E88.2887
G1 X-1.800 Y-16.350
G1 X-21.103 Y2.279 E89.1809
G1 X-21.302 Y1.935
G1 X-1.800 Y-16.886 E90.0824
G1 X-1.800 Y-17.422
G1 X-21.500 Y1.591 E90.9930
G1 X-21.699 Y1.247
G1 X-1.800 Y-17.958 E91.9128
G1 X-1.800 Y-18.493
G1 X-21.898 Y0.903 E92.8417
G1 X-22.096 Y0.558
G1 X-1.800 Y-19.029 E93.7799
G1 X-1.800 Y-19.565
G1 X-22.295 Y0.214 E94.7273
G1 X-22.494 Y-0.130
G1 X-1.800 Y-20.101 E95.6838
G1 X-1.800 Y-20.636
G1 X-22.692 Y-0.474 E96.6495
G1 X-22.891 Y-0.818
G1 X-1.800 Y-21.172 E97.6244
G1 X-1.800 Y-21.708
G1 X-23.090 Y-1.162 E98.6084
G1 X-23.288 Y-1.506
G1 X-17.814 Y-6.789 E98.8615
G1 X-18.308 Y-6.848
G1 X-23.487 Y-1.850 E99.1009
G1 X-23.374 Y-2.495
G1 X-18.803 Y-6.906 E99.3121
G1 X-19.299 Y-6.963
G1 X-23.166 Y-3.231 E99.4909
G0 X-20.585 Y-6.793 F10800
G1 X-22.437 Y-5.006 E99.5765 F2400
G0 X-22.829 Y-4.092 F10800
G1 X-19.908 Y-6.911 E99.7115 F2400
G0 X-17.061 Y-7.515 F10800
G1 X-1.800 Y-22.244 E100.4170 F2400
G1 X-1.800 Y-22.779
G1 X-16.363 Y-8.725 E101.0901
G0 X-15.664 Y-9.935 F10800
G1 X-1.800 Y-23.315 E101.7309 F2400
G1 X-1.800 Y-23.851
G1 X-14.966 Y-11.145 E102.3395
G0 X-14.267 Y-12.355 F10800
G1 X-1.800 Y-24.387 E102.9158 F2400
G1 X-1.800 Y-24.922
G1 X-13.569 Y-13.565 E103.4598
G0 X-12.870 Y-14.775 F10800
G1 X-1.800 Y-25.458 E103.9714 F2400
G1 X-2.068 Y-25.735
G1 X-12.172 Y-15.984 E104.4385
G0 X-11.473 Y-17.194 F10800
G1 X-2.623 Y-25.735 E104.8476 F2400
G1 X-3.178 Y-25.735
G1 X-11.011 Y-18.176 E105.2096
G1 X-11.244 Y-18.487
G1 X-3.733 Y-25.735 E105.5568
G1 X-4.288 Y-25.735
G1 X-11.476 Y-18.799 E105.8890
G1 X-11.709 Y-19.110
G1 X-4.843 Y-25.735 E106.2064
G1 X-5.399 Y-25.735
G1 X-11.941 Y-19.421 E106.5088
G1 X-12.131 Y-19.774
G1 X-5.954 Y-25.735 E106.7943
G1 X-6.509 Y-25.735
G1 X-12.304 Y-20.142 E107.0622
G1 X-12.477 Y-20.511
G1 X-7.064 Y-25.735 E107.3124
G1 X-7.619 Y-25.735
G1 X-12.554 Y-20.973 E107.5405
G1 X-12.581 Y-21.483
G1 X-8.174 Y-25.735 E107.7442
G1 X-8.729 Y-25.735
G1 X-12.474 Y-22.122 E107.9173
G0 X-12.014 Y-23.101 F10800
G1 X-9.285 Y-25.735 E108.0434 F2400
G0 X-6.946 Y-9.776 F10800
G1 X0.383 Y-16.850 E108.3822 F2400
G0 X4.793 Y-16.284 F10800
G1 X6.037 Y-17.485 E108.4397 F2400
G1 X6.564 Y-17.457
G1 X5.309 Y-16.246 E108.4977
G1 X5.748 Y-16.134
G1 X7.053 Y-17.393 E108.5580
G1 X7.530 Y-17.318
G1 X6.188 Y-16.023 E108.6201
G1 X6.489 Y-15.778
G1 X8.007 Y-17.242 E108.6902
G1 X8.473 Y-17.156
G1 X6.765 Y-15.509 E108.7691
G1 X7.041 Y-15.239
G1 X8.907 Y-17.040 E108.8554
G1 X9.342 Y-16.923
G1 X7.247 Y-14.902 E108.9522
G1 X7.366 Y-14.481
G1 X9.776 Y-16.807 E109.0636
G1 X10.192 Y-16.673
G1 X7.485 Y-14.060 E109.1888
G1 X7.457 Y-13.497
G1 X10.590 Y-16.521 E109.3336
G1 X10.987 Y-16.368
G1 X7.276 Y-12.787 E109.5051
G0 X5.998 Y-11.554 F10800
G1 X-10.243 Y4.120 E110.2558 F2400
G1 X-10.093 Y4.511
G1 X11.384 Y-16.216 E111.2485
G1 X11.800 Y-16.081
G1 X20.769 Y-24.737 E111.6631
G1 X20.500 Y-25.013
G1 X11.800 Y-16.617 E112.0653
G1 X11.800 Y-17.153
G1 X20.231 Y-25.289 E112.4550
G1 X19.962 Y-25.566
G1 X11.800 Y-17.688 E112.8323
G1 X11.800 Y-18.224
G1 X19.583 Y-25.735 E113.1920
G1 X19.028 Y-25.735
G1 X11.800 Y-18.760 E113.5261
G1 X11.800 Y-19.296
G1 X18.473 Y-25.735 E113.8345
G1 X17.917 Y-25.735
G1 X11.800 Y-19.831 E114.1173
G1 X11.800 Y-20.367
G1 X17.362 Y-25.735 E114.3744
G1 X16.807 Y-25.735
G1 X11.800 Y-20.903 E114.6058
G1 X11.800 Y-21.439
G1 X16.252 Y-25.735 E114.8116
G1 X15.697 Y-25.735
G1 X11.800 Y-21.974 E114.9918
G1 X11.800 Y-22.510
G1 X15.142 Y-25.735 E115.1462
G1 X14.587 Y-25.735
G1 X11.800 Y-23.046 E115.2750
G1 X11.800 Y-23.582
G1 X14.031 Y-25.735 E115.3782
G1 X13.476 Y-25.735
G1 X11.800 Y-24.117 E115.4557
G1 X11.800 Y-24.653
G1 X12.921 Y-25.735 E115.5075
G1 X12.366 Y-25.735
G1 X11.800 Y-25.189 E115.5337
G0 X27.741 Y-7.205 F10800
G0 X28.959 Y-6.925
G1 X21.427 Y0.344 E115.8818 F2400
G1 X21.774 Y0.544
G1 X29.533 Y-6.943 E116.2404
G1 X30.043 Y-6.900
G1 X22.122 Y0.745 E116.6066
G1 X22.469 Y0.945
G1 X30.515 Y-6.820 E116.9785
G1 X30.913 Y-6.668
G1 X22.816 Y1.146 E117.3527
G1 X23.164 Y1.346
G1 X31.263 Y-6.470 E117.7271
G1 X31.564 Y-6.225
G1 X23.511 Y1.547 E118.0993
G1 X23.859 Y1.748
G1 X31.830 Y-5.945 E118.4678
G1 X32.053 Y-5.625
G1 X24.206 Y1.948 E118.8305
G1 X24.553 Y2.149
G1 X32.276 Y-5.304 E119.1875
G1 X32.462 Y-4.948
G1 X24.901 Y2.349 E119.5370
G1 X25.248 Y2.550
G1 X32.625 Y-4.569 E119.8780
G1 X32.787 Y-4.191
G1 X25.595 Y2.750 E120.2104
G1 X25.943 Y2.951
G1 X32.950 Y-3.812 E120.5343
G1 X33.110 Y-3.430
G1 X26.290 Y3.151 E120.8495
G1 X26.637 Y3.352
G1 X33.228 Y-3.009 E121.1542
G1 X33.346 Y-2.587
G1 X26.985 Y3.552 E121.4482
G1 X27.332 Y3.753
G1 X33.464 Y-2.165 E121.7316
G0 X32.529 Y-0.191 F10800
G1 X28.027 Y4.154 E121.9397 F2400
G1 X27.679 Y3.953
G1 X33.227 Y-1.401 E122.1962
G0 X31.830 Y1.019 F10800
G1 X28.374 Y4.354 E122.3559 F2400
G1 X28.721 Y4.555
G1 X31.132 Y2.229 E122.4673
G0 X29.735 Y4.648 F10800
G1 X29.416 Y4.956 E122.4821 F2400
G1 X29.069 Y4.756
G1 X30.434 Y3.438 E122.5452
G0 X21.145 Y0.616 F10800
G1 X18.005 Y3.646 E122.6903 F2400
G1 X18.132 Y4.059
G1 X21.005 Y1.287 E122.8231
G0 X20.680 Y2.672 F10800
G1 X18.369 Y4.902 E122.9299 F2400
G1 X18.251 Y4.480
G1 X20.865 Y1.958 E123.0507
G0 X20.483 Y3.398 F10800
G1 X18.192 Y5.609 E123.1566 F2400
G0 X19.416 Y6.035 F10800
G1 X3.997 Y20.915 E123.8693 F2400
G1 X3.442 Y20.915
G1 X19.887 Y5.045 E124.6295
G1 X20.218 Y4.190
G1 X2.887 Y20.915 E125.4306
G1 X2.331 Y20.915
G1 X16.441 Y7.299 E126.0827
G0 X18.777 Y7.187 F10800
G1 X4.552 Y20.915 E126.7403 F2400
G1 X5.107 Y20.915
G1 X17.554 Y8.903 E127.3156
G0 X15.739 Y7.440 F10800
G1 X1.776 Y20.915 E127.9610 F2400
G1 X1.221 Y20.915
G1 X15.304 Y7.324 E128.6120
G1 X14.870 Y7.208
G1 X0.666 Y20.915 E129.2685
G1 X0.111 Y20.915
G1 X14.474 Y7.054 E129.9324
G1 X14.201 Y6.781
G1 X-0.444 Y20.915 E130.6094
G1 X-0.999 Y20.915
G1 X13.929 Y6.509 E131.2994
G1 X13.656 Y6.236
G1 X6.871 Y12.784 E131.6130
G0 X4.842 Y13.671 F10800
G1 X-6.118 Y24.248 E132.1196 F2400
G1 X-6.612 Y24.189
G1 X4.407 Y13.555 E132.6289
G1 X3.973 Y13.438
G1 X-7.107 Y24.130 E133.1410
G1 X-7.557 Y24.030
G1 X3.603 Y13.259 E133.6569
G1 X3.331 Y12.986
G1 X-7.997 Y23.918 E134.1805
G1 X-8.436 Y23.806
G1 X3.058 Y12.714 E134.7118
G1 X2.785 Y12.441
G1 X-8.787 Y23.610 E135.2467
G1 X-8.986 Y23.266
G1 X2.671 Y12.016 E135.7855
G1 X2.557 Y11.590
G1 X-9.185 Y22.922 E136.3283
G1 X-9.383 Y22.578
G1 X2.459 Y11.149 E136.8756
G0 X-4.512 Y11.983 F10800
G1 X-11.568 Y18.793 E137.2018 F2400
G1 X-11.767 Y18.449
G1 X-5.905 Y12.792 E137.4728
G0 X-7.298 Y13.600 F10800
G1 X-11.966 Y18.105 E137.6885 F2400
G1 X-12.164 Y17.761
G1 X-8.691 Y14.409 E137.8491
G0 X-10.084 Y15.218 F10800
G1 X-12.363 Y17.417 E137.9544 F2400
G1 X-12.562 Y17.073
G1 X-11.477 Y16.026 E138.0045
G0 X-4.469 Y24.264 F10800
G1 X-1.982 Y21.863 E138.1195 F2400
G0 X-2.556 Y22.953 F10800
G1 X-3.656 Y24.015 E138.1703 F2400
G0 X-1.283 Y21.337 F10800
G0 X11.283 Y21.337
G0 X18.130 Y23.884
G1 X19.257 Y22.797 E138.2224 F2400
G0 X19.955 Y21.587 F10800
G1 X17.376 Y24.076 E138.3416 F2400
G1 X16.717 Y24.177
G1 X20.654 Y20.377 E138.5236
G0 X21.340 Y19.179 F10800
G1 X16.084 Y24.252 E138.7666 F2400
G1 X15.451 Y24.327
G1 X22.011 Y17.995 E139.0698
G0 X22.683 Y16.812 F10800
G1 X14.922 Y24.302 E139.4286 F2400
G1 X14.411 Y24.259
G1 X22.392 Y16.556 E139.7975
G1 X22.045 Y16.356
G1 X13.980 Y24.139 E140.1702
G1 X13.582 Y23.987
G1 X21.697 Y16.155 E140.5454
G1 X21.350 Y15.955
G1 X13.268 Y23.755 E140.9190
G1 X12.966 Y23.510
G1 X21.003 Y15.754 E141.2904
G1 X20.655 Y15.554
G1 X12.729 Y23.203 E141.6568
G1 X12.506 Y22.882
G1 X20.308 Y15.353 E142.0174
G1 X19.961 Y15.153
G1 X12.284 Y22.562 E142.3723
G1 X12.119 Y22.184
G1 X19.613 Y14.952 E142.7186
G1 X19.266 Y14.752
G1 X11.957 Y21.805 E143.0565
G1 X11.794 Y21.427
G1 X18.919 Y14.551 E143.3858
G1 X18.571 Y14.351
G1 X11.632 Y21.048 E143.7066
G1 X11.214 Y20.915
G1 X18.224 Y14.150 E144.0306
G1 X17.877 Y13.950
G1 X10.659 Y20.915 E144.3642
G1 X10.103 Y20.915
G1 X17.529 Y13.749 E144.7075
G1 X17.182 Y13.548
G1 X9.548 Y20.915 E145.0603
G1 X8.993 Y20.915
G1 X16.835 Y13.348 E145.4228
G1 X16.487 Y13.147
G1 X8.438 Y20.915 E145.7949
G1 X7.883 Y20.915
G1 X16.140 Y12.947 E146.1765
G1 X15.792 Y12.746
G1 X7.328 Y20.915 E146.5678
G1 X6.773 Y20.915
G1 X15.445 Y12.546 E146.9687
G1 X15.098 Y12.345
G1 X6.217 Y20.915 E147.3791
G1 X5.662 Y20.915
G1 X14.750 Y12.145 E147.7992
G0 X7.396 Y11.742 F10800
G1 X13.515 Y5.837 E148.0821 F2400
G1 X13.401 Y5.411
G1 X7.525 Y11.082 E148.3537
G1 X7.406 Y10.661
G1 X13.287 Y4.985 E148.6255
G1 X13.446 Y4.296
G1 X7.287 Y10.239 E148.9102
G1 X7.134 Y9.851
G1 X26.370 Y-8.712 E149.7993
G1 X26.171 Y-9.057
G1 X6.858 Y9.582 E150.6920
G1 X6.582 Y9.313
G1 X25.973 Y-9.401 E151.5883
G1 X25.774 Y-9.745
G1 X6.306 Y9.043 E152.4882
G1 X5.896 Y8.903
G1 X25.575 Y-10.089 E153.3978
G1 X25.377 Y-10.433
G1 X5.457 Y8.792 E154.3186
G1 X5.017 Y8.680
G1 X25.178 Y-10.777 E155.2505
G1 X24.980 Y-11.121
G1 X4.273 Y8.862 E156.2076
G0 X2.653 Y10.426 F10800
G1 X-9.582 Y22.234 E156.7731 F2400
G1 X-9.781 Y21.889
G1 X24.781 Y-11.465 E158.3706
G1 X24.582 Y-11.809
G1 X-9.979 Y21.545 E159.9682
G1 X-10.178 Y21.201
G1 X24.384 Y-12.153 E161.5657
G1 X24.185 Y-12.497
G1 X18.132 Y-6.655 E161.8455
G0 X17.653 Y-8.635 F10800
G0 X16.062 Y-10.015
G1 X22.199 Y-15.938 E162.1292 F2400
G1 X22.397 Y-15.594
G1 X16.501 Y-9.903 E162.4017
G1 X16.940 Y-9.791
G1 X22.596 Y-15.249 E162.6632
G1 X22.795 Y-14.905
G1 X17.269 Y-9.572 E162.9186
G1 X17.545 Y-9.303
G1 X22.993 Y-14.561 E163.1704
G1 X23.192 Y-14.217
G1 X17.821 Y-9.034 E163.4187
G1 X18.053 Y-8.722
G1 X23.390 Y-13.873 E163.6654
G1 X23.589 Y-13.529
G1 X18.172 Y-8.301 E163.9158
G1 X18.290 Y-7.880
G1 X23.788 Y-13.185 E164.1699
G1 X23.986 Y-12.841
G1 X18.312 Y-7.365 E164.4322
G0 X16.696 Y-5.270 F10800
G1 X-10.377 Y20.857 E165.6836 F2400
G1 X-10.575 Y20.513
G1 X15.928 Y-5.064 E166.9086
G1 X15.449 Y-5.137
G1 X-10.774 Y20.169 E168.1207
G1 X-10.973 Y19.825
G1 X15.014 Y-5.254 E169.3218
G1 X14.580 Y-5.370
G1 X-11.171 Y19.481 E170.5121
G1 X-11.370 Y19.137
G1 X14.292 Y-5.628 E171.6983
G1 X14.019 Y-5.901
G1 X8.078 Y-0.167 E171.9729
G1 X8.302 Y-0.919
G1 X13.746 Y-6.173 E172.2245
G1 X13.553 Y-6.522
G1 X8.335 Y-1.486 E172.4657
G1 X8.283 Y-1.972
G1 X13.439 Y-6.948 E172.7040
G1 X13.325 Y-7.374
G1 X8.147 Y-2.377 E172.9434
G1 X7.985 Y-2.756
G1 X13.382 Y-7.964 E173.1928
G1 X13.575 Y-8.687
G1 X7.762 Y-3.077 E173.4615
G1 X7.516 Y-3.375
G1 X21.603 Y-16.970 E174.1127
G1 X21.404 Y-17.314
G1 X7.234 Y-3.639 E174.7676
G1 X6.905 Y-3.857
G1 X21.205 Y-17.658 E175.4287
G1 X21.007 Y-18.002
G1 X6.563 Y-4.062 E176.0963
G1 X6.164 Y-4.213
G1 X21.991 Y-19.488 E176.8279
G0 X22.462 Y-20.477 F10800
G1 X5.721 Y-4.321 E177.6017 F2400
G1 X5.219 Y-4.372
G1 X22.578 Y-21.125 E178.4041
G1 X22.556 Y-21.639
G1 X4.570 Y-4.283 E179.2354
G0 X5.230 Y-11.348 F10800
G1 X-10.392 Y3.728 E179.9575 F2400
G1 X-10.511 Y3.307
G1 X4.695 Y-11.368 E180.6604
G1 X4.261 Y-11.484
G1 X-10.625 Y2.881 E181.3484
G1 X-10.738 Y2.455
G1 X3.826 Y-11.601 E182.0216
G1 X3.512 Y-11.833
G1 X-10.852 Y2.029 E182.6856
G1 X-10.944 Y1.582
G1 X3.239 Y-12.105 E183.3411
G1 X2.966 Y-12.378
G1 X-11.036 Y1.136 E183.9884
G1 X-11.129 Y0.689
G1 X-4.954 Y-5.270 E184.2738
G1 X-5.723 Y-5.064
G1 X-11.221 Y0.242 E184.5279
; ------------------------------------
; Layer #1
; ------------------------------------
G21 ; mm
G90 ; abs
G92 E0 ; reset extr
M106 S0
;segType:HShell
G0 F4800 E-1.0000
G0 F3000 Z0.400
G0 X13.457 Y5.620 F10800
G0 F4800 E0.0000
G1 X7.803 Y0.164 E0.2613 F3600
G1 X7.626 Y0.528
G1 X17.005 Y9.580 E0.6949
G1 X16.732 Y9.852
G1 X7.392 Y0.839 E1.1266
G1 X7.138 Y1.129
G1 X16.459 Y10.125 E1.5574
G1 X16.187 Y10.398
G1 X6.846 Y1.383 E1.9892
G1 X6.518 Y1.603
G1 X15.914 Y10.670 E2.4235
G1 X15.621 Y10.923
G1 X6.166 Y1.798 E2.8605
G1 X5.725 Y1.909
G1 X15.319 Y11.168 E3.3040
;segType:Perimeter
G0 X15.192 Y11.249 F10800
G1 X15.460 Y11.880 E3.3268 F2159
G1 X23.627 Y16.595 E3.6405
G1 X19.161 Y24.332 E3.9376
G1 X16.977 Y24.886 E4.0125
G1 X15.125 Y25.106 E4.0746
G1 X13.949 Y25.007 E4.1138
G1 X13.094 Y24.681 E4.1443
G1 X12.382 Y24.102 E4.1748
G1 X11.706 Y23.130 E4.2141
G1 X11.004 Y21.494 E4.2734
G1 X-1.004 Y21.494 E4.6728
G1 X-1.706 Y23.130 E4.7320
G1 X-2.382 Y24.102 E4.7713
G1 X-3.094 Y24.681 E4.8018
G1 X-3.949 Y25.007 E4.8323
G1 X-5.125 Y25.106 E4.8715
G1 X-6.977 Y24.886 E4.9336
G1 X-9.161 Y24.332 E5.0085
G1 X-13.627 Y16.595 E5.3056
G1 X-5.670 Y12.001 E5.6112
G1 X-5.532 Y11.754 E5.6206
G1 X-6.301 Y11.117 E5.6538
G1 X-7.482 Y9.936 E5.7094
G1 X-8.589 Y8.569 E5.7679
G1 X-9.548 Y7.093 E5.8264
G1 X-10.346 Y5.526 E5.8850
G1 X-10.977 Y3.883 E5.9435
G1 X-11.432 Y2.183 E6.0020
G1 X-11.601 Y1.119 E6.0378
G1 X-19.822 Y5.865 E6.3536
G1 X-24.285 Y-1.864 E6.6505
G1 X-23.671 Y-4.039 E6.7256
G1 X-22.935 Y-5.756 E6.7877
G1 X-22.259 Y-6.727 E6.8271
G1 X-21.547 Y-7.306 E6.8576
G1 X-20.692 Y-7.632 E6.8881
G1 X-19.516 Y-7.731 E6.9273
G1 X-17.745 Y-7.521 E6.9866
G1 X-11.747 Y-17.910 E7.3856
G1 X-12.809 Y-19.332 E7.4447
G1 X-13.313 Y-20.404 E7.4841
G1 X-13.459 Y-21.313 E7.5147
G1 X-13.313 Y-22.222 E7.5453
G1 X-12.809 Y-23.294 E7.5847
G1 X-11.691 Y-24.789 E7.6468
G1 X-10.119 Y-26.403 E7.7218
G1 X-1.200 Y-26.404 E8.0184
G1 X-1.200 Y-16.910 E8.3342
G1 X-0.189 Y-17.297 E8.3702
G1 X1.509 Y-17.752 E8.4286
G1 X3.245 Y-18.027 E8.4871
G1 X5.000 Y-18.119 E8.5456
G1 X6.755 Y-18.027 E8.6040
G1 X8.491 Y-17.752 E8.6625
G1 X10.189 Y-17.297 E8.7209
G1 X11.200 Y-16.910 E8.7569
G1 X11.200 Y-26.404 E9.0727
G1 X20.119 Y-26.403 E9.3694
G1 X21.691 Y-24.789 E9.4443
G1 X22.809 Y-23.294 E9.5064
G1 X23.313 Y-22.222 E9.5458
G1 X23.459 Y-21.313 E9.5764
G1 X23.313 Y-20.404 E9.6070
G1 X22.809 Y-19.332 E9.6464
G1 X21.747 Y-17.910 E9.7055
G1 X27.745 Y-7.521 E10.1045
G1 X29.516 Y-7.731 E10.1638
G1 X30.692 Y-7.632 E10.2030
G1 X31.547 Y-7.306 E10.2335
G1 X32.259 Y-6.727 E10.2640
G1 X32.935 Y-5.756 E10.3034
G1 X33.671 Y-4.039 E10.3655
G1 X34.279 Y-1.855 E10.4409
G1 X29.822 Y5.865 E10.7374
G1 X21.874 Y1.276 E11.0427
G1 X21.577 Y1.281 E11.0525
G1 X21.410 Y2.268 E11.0858
G1 X20.977 Y3.883 E11.1414
G1 X20.346 Y5.526 E11.1999
G1 X19.548 Y7.093 E11.2585
G1 X18.589 Y8.569 E11.3170
G1 X17.482 Y9.936 E11.3755
G1 X16.239 Y11.179 E11.4340
G1 X15.455 Y11.814 E11.4675
G1 X15.293 Y12.478
;segType:Loop
G0 X15.324 Y11.416 F10800
G1 X14.722 Y11.903 E11.4933 F3600
G1 X23.089 Y16.734 E11.8146
G1 X18.894 Y24.000 E12.0937
G1 X16.902 Y24.506 E12.1620
G1 X15.118 Y24.718 E12.2218
G1 X14.042 Y24.627 E12.2577
G1 X13.302 Y24.345 E12.2841
G1 X12.683 Y23.842 E12.3106
G1 X12.061 Y22.947 E12.3468
G1 X11.272 Y21.108 E12.4134
G1 X-1.272 Y21.108 E12.8306
G1 X-2.061 Y22.947 E12.8971
G1 X-2.683 Y23.842 E12.9334
G1 X-3.302 Y24.345 E12.9599
G1 X-4.042 Y24.627 E12.9862
G1 X-5.118 Y24.718 E13.0222
G1 X-6.902 Y24.506 E13.0819
G1 X-8.894 Y24.000 E13.1503
G1 X-13.089 Y16.734 E13.4293
G1 X-5.371 Y12.278 E13.7258
G1 X-5.027 Y11.663 E13.7492
G1 X-6.026 Y10.836 E13.7923
G1 X-7.180 Y9.682 E13.8466
G1 X-8.262 Y8.347 E13.9037
G1 X-9.198 Y6.905 E13.9609
G1 X-9.978 Y5.373 E14.0181
G1 X-10.595 Y3.767 E14.0753
G1 X-11.040 Y2.105 E14.1325
G1 X-11.295 Y0.492 E14.1869
G1 X-19.673 Y5.330 E14.5086
G1 X-23.856 Y-1.915 E14.7869
G1 X-23.292 Y-3.914 E14.8560
G1 X-22.581 Y-5.572 E14.9160
G1 X-21.958 Y-6.467 E14.9522
G1 X-21.339 Y-6.970 E14.9788
G1 X-20.599 Y-7.253 E15.0051
G1 X-19.523 Y-7.343 E15.0410
G1 X-17.526 Y-7.106 E15.1079
G1 X-11.273 Y-17.937 E15.5238
G1 X-12.461 Y-19.526 E15.5899
G1 X-12.926 Y-20.515 E15.6262
G1 X-13.054 Y-21.313 E15.6531
G1 X-12.926 Y-22.110 E15.6799
G1 X-12.461 Y-23.099 E15.7163
G1 X-11.382 Y-24.543 E15.7762
G1 X-9.946 Y-26.017 E15.8447
G1 X-1.600 Y-26.017 E16.1223
G1 X-1.600 Y-16.341 E16.4441
G1 X-0.062 Y-16.931 E16.4989
G1 X1.595 Y-17.375 E16.5560
G1 X3.288 Y-17.643 E16.6130
G1 X5.000 Y-17.733 E16.6700
G1 X6.712 Y-17.643 E16.7270
G1 X8.405 Y-17.375 E16.7840
G1 X10.062 Y-16.931 E16.8411
G1 X11.600 Y-16.341 E16.8959
G1 X11.600 Y-26.017 E17.2177
G1 X19.946 Y-26.017 E17.4953
G1 X21.382 Y-24.543 E17.5638
G1 X22.461 Y-23.099 E17.6237
G1 X22.926 Y-22.110 E17.6601
G1 X23.054 Y-21.313 E17.6869
G1 X22.926 Y-20.515 E17.7138
G1 X22.461 Y-19.526 E17.7501
G1 X21.273 Y-17.937 E17.8161
G1 X27.526 Y-7.106 E18.2321
G1 X29.523 Y-7.343 E18.2990
G1 X30.599 Y-7.253 E18.3349
G1 X31.339 Y-6.970 E18.3612
G1 X31.958 Y-6.467 E18.3878
G1 X32.581 Y-5.572 E18.4240
G1 X33.292 Y-3.915 E18.4840
G1 X33.851 Y-1.906 E18.5534
G1 X29.673 Y5.330 E18.8313
G1 X21.981 Y0.888 E19.1267
G1 X21.236 Y0.901 E19.1515
G1 X21.018 Y2.188 E19.1949
G1 X20.595 Y3.767 E19.2493
G1 X19.978 Y5.373 E19.3065
G1 X19.198 Y6.905 E19.3637
G1 X18.262 Y8.347 E19.4208
G1 X17.180 Y9.682 E19.4780
G1 X15.965 Y10.897 E19.5351
G1 X15.474 Y11.295 E19.5561
G0 X4.999 Y9.090 F10800
G0 X-4.208 Y6.788
;segType:HShell
G1 X10.431 Y20.915 E20.2328 F3600
G1 X10.986 Y20.915
G1 X-3.935 Y6.515 E20.9225
G1 X-3.662 Y6.243
G1 X3.488 Y13.143 E21.2530
G1 X3.725 Y13.372
G1 X15.262 Y24.507 E21.7863
G1 X15.757 Y24.448
G1 X4.493 Y13.578 E22.3069
G1 X5.148 Y13.674
G1 X16.251 Y24.389 E22.8202
G1 X16.745 Y24.330
G1 X5.582 Y13.557 E23.3361
;segType:Perimeter
G0 X5.506 Y13.510 F10800
G1 X4.943 Y13.097 E23.3593 F2159
G1 X4.032 Y12.853 E23.3907
G1 X3.326 Y12.147 E23.4239
G1 X3.068 Y11.187 E23.4570
G1 X3.313 Y10.273 E23.4885
G1 X3.995 Y9.556 E23.5214
G1 X4.951 Y9.274 E23.5545
G1 X5.921 Y9.507 E23.5877
G1 X6.640 Y10.191 E23.6207
G1 X6.920 Y11.139 E23.6536
G1 X6.676 Y12.146 E23.6880
G1 X5.968 Y12.853 E23.7213
G1 X5.057 Y13.097 E23.7527
G1 X4.494 Y13.510
;segType:Loop
G0 X3.853 Y13.206 F10800
G1 X3.819 Y13.197 E23.7539 F3600
G1 X2.965 Y12.343 E23.7941
G1 X2.655 Y11.187 E23.8338
G1 X2.951 Y10.083 E23.8719
G1 X3.774 Y9.217 E23.9116
G1 X4.941 Y8.873 E23.9520
G1 X6.124 Y9.159 E23.9925
G1 X6.996 Y9.988 E24.0326
G1 X7.333 Y11.130 E24.0722
G1 X7.040 Y12.337 E24.1135
G1 X6.181 Y13.197 E24.1539
G1 X5.000 Y13.513 E24.1946
G1 X4.042 Y13.256 E24.2276
G0 X2.872 Y11.187 F10800
G0 X6.131 Y1.595
G1 X6.071 Y1.628 E24.2298 F3600
G1 X5.339 Y1.801 E24.2549
G1 X4.645 Y1.801 E24.2779
G1 X4.010 Y1.616 E24.2999
G1 X3.465 Y1.321 E24.3206
G1 X3.002 Y0.934 E24.3406
G1 X2.630 Y0.470 E24.3604
G1 X2.307 Y-0.179 E24.3845
G1 X2.174 Y-0.776 E24.4049
G1 X2.170 Y-1.363 E24.4244
G1 X2.233 Y-1.694 E24.4356
G1 X2.347 Y-2.080 E24.4490
G1 X2.568 Y-2.532 E24.4657
G1 X2.847 Y-2.914 E24.4814
G1 X3.257 Y-3.314 E24.5005
G1 X3.731 Y-3.635 E24.5195
G1 X4.169 Y-3.831 E24.5355
G1 X4.718 Y-3.947 E24.5542
G1 X5.281 Y-3.947 E24.5729
G1 X5.831 Y-3.831 E24.5916
G1 X6.304 Y-3.620 E24.6088
G1 X6.771 Y-3.322 E24.6272
G1 X7.126 Y-3.004 E24.6431
G1 X7.519 Y-2.489 E24.6646
G1 X7.757 Y-1.947 E24.6843
G1 X7.876 Y-1.367 E24.7040
G1 X7.872 Y-0.838 E24.7216
G1 X7.740 Y-0.175 E24.7441
G1 X7.477 Y0.397 E24.7650
G1 X7.096 Y0.905 E24.7862
G1 X6.608 Y1.330 E24.8077
G1 X6.301 Y1.501 E24.8193
;segType:Perimeter
G0 X7.455 Y0.612 F10800
G1 X6.753 Y0.684 E24.8428 F2159
G1 X6.372 Y1.016 E24.8596
G1 X5.921 Y1.266 E24.8768
G1 X5.291 Y1.415 E24.8983
G1 X4.704 Y1.415 E24.9178
G1 X4.168 Y1.259 E24.9364
G1 X3.696 Y1.003 E24.9543
G1 X3.294 Y0.667 E24.9717
G1 X2.972 Y0.266 E24.9888
G1 X2.688 Y-0.305 E25.0100
G1 X2.574 Y-0.818 E25.0275
G1 X2.570 Y-1.329 E25.0445
G1 X2.623 Y-1.606 E25.0539
G1 X2.723 Y-1.944 E25.0656
G1 X2.915 Y-2.337 E25.0802
G1 X3.155 Y-2.665 E25.0937
G1 X3.516 Y-3.018 E25.1104
G1 X3.931 Y-3.300 E25.1271
G1 X4.297 Y-3.463 E25.1405
G1 X4.762 Y-3.561 E25.1563
G1 X5.238 Y-3.561 E25.1721
G1 X5.703 Y-3.463 E25.1879
G1 X6.109 Y-3.282 E25.2027
G1 X6.523 Y-3.018 E25.2190
G1 X6.826 Y-2.746 E25.2326
G1 X7.169 Y-2.296 E25.2514
G1 X7.373 Y-1.833 E25.2682
G1 X7.476 Y-1.330 E25.2853
G1 X7.472 Y-0.876 E25.3004
G1 X7.355 Y-0.291 E25.3202
G1 X7.128 Y0.204 E25.3383
G1 X6.831 Y0.600 E25.3548
G1 X6.832 Y1.282
G0 X4.091 Y1.433 F10800
G0 X3.151 Y0.797
G0 X-12.066 Y-23.298
;segType:HShell
G1 X14.860 Y2.689 E26.5994 F3600
G1 X15.285 Y2.563
G1 X-11.834 Y-23.609 E27.8530
G1 X-11.601 Y-23.920
G1 X15.711 Y2.438 E29.1154
;segType:Perimeter
G0 X15.260 Y2.639 F10800
G1 X15.834 Y3.037 E29.1386 F2159
G1 X16.746 Y3.258 E29.1698
G1 X17.466 Y3.941 E29.2028
G1 X17.745 Y4.890 E29.2357
G1 X17.502 Y5.896 E29.2701
G1 X16.794 Y6.603 E29.3034
G1 X15.825 Y6.863 E29.3368
G1 X14.857 Y6.603 E29.3701
G1 X14.151 Y5.897 E29.4033
G1 X13.894 Y4.937 E29.4364
G1 X14.139 Y4.023 E29.4679
G1 X14.821 Y3.306 E29.5008
G1 X15.720 Y3.040 E29.5320
G1 X16.272 Y2.614
;segType:Loop
G0 X16.921 Y2.902 F10800
G1 X16.949 Y2.909 E29.5329 F3600
G1 X17.822 Y3.738 E29.5730
G1 X18.158 Y4.880 E29.6126
G1 X17.866 Y6.087 E29.6539
G1 X17.006 Y6.947 E29.6943
G1 X15.825 Y7.263 E29.7350
G1 X14.645 Y6.947 E29.7756
G1 X13.790 Y6.092 E29.8158
G1 X13.481 Y4.937 E29.8556
G1 X13.777 Y3.833 E29.8936
G1 X14.600 Y2.967 E29.9334
G1 X15.766 Y2.623 E29.9738
G1 X16.731 Y2.856 E30.0068
;segType:HShell
G0 X8.102 Y-17.227 F10800
G1 X15.570 Y-10.021 E30.3520 F3600
;segType:Loop
G0 X6.096 Y-15.848 F10800
G1 X6.124 Y-15.841 E30.3529 F3600
G1 X6.996 Y-15.012 E30.3930
G1 X7.333 Y-13.870 E30.4326
G1 X7.040 Y-12.663 E30.4739
G1 X6.181 Y-11.803 E30.5143
G1 X5.000 Y-11.487 E30.5550
G1 X3.819 Y-11.803 E30.5956
G1 X2.965 Y-12.658 E30.6358
G1 X2.655 Y-13.813 E30.6756
G1 X2.951 Y-14.917 E30.7136
G1 X3.774 Y-15.782 E30.7533
G1 X4.941 Y-16.127 E30.7938
G1 X5.905 Y-15.894 E30.8268
;segType:Perimeter
G0 X4.435 Y-16.111 F10800
G1 X5.009 Y-15.713 E30.8500 F2159
G1 X5.921 Y-15.492 E30.8812
G1 X6.640 Y-14.808 E30.9143
G1 X6.920 Y-13.860 E30.9471
G1 X6.676 Y-12.854 E30.9816
G1 X5.968 Y-12.147 E31.0149
G1 X5.000 Y-11.887 E31.0482
G1 X4.032 Y-12.147 E31.0815
G1 X3.326 Y-12.853 E31.1148
G1 X3.068 Y-13.813 E31.1478
G1 X3.313 Y-14.727 E31.1793
G1 X3.995 Y-15.444 E31.2122
G1 X4.895 Y-15.710 E31.2434
G1 X5.447 Y-16.136
;segType:HShell
G0 X5.960 Y-16.080 F10800
G1 X4.476 Y-17.512 E31.3120 F3600
G1 X5.003 Y-17.539
G1 X13.836 Y-9.015 E31.7203
G1 X14.102 Y-9.294
G1 X5.590 Y-17.508 E32.1137
G1 X6.177 Y-17.478
G1 X14.367 Y-9.574 E32.4923
G1 X14.719 Y-9.770
G1 X6.774 Y-17.437 E32.8595
G1 X7.438 Y-17.332
G1 X15.144 Y-9.895 E33.2157
;segType:Loop
G0 X-4.730 Y-9.598 F10800
G1 X-4.702 Y-9.591 E33.2167 F3600
G1 X-3.829 Y-8.762 E33.2567
G1 X-3.492 Y-7.620 E33.2963
G1 X-3.785 Y-6.413 E33.3376
G1 X-4.645 Y-5.553 E33.3781
G1 X-5.825 Y-5.237 E33.4187
G1 X-7.006 Y-5.553 E33.4594
G1 X-7.861 Y-6.407 E33.4996
G1 X-8.170 Y-7.563 E33.5393
G1 X-7.874 Y-8.667 E33.5774
G1 X-7.051 Y-9.533 E33.6171
G1 X-5.884 Y-9.877 E33.6575
G1 X-4.920 Y-9.644 E33.6905
;segType:Perimeter
G0 X-6.390 Y-9.861 F10800
G1 X-5.817 Y-9.463 E33.7138 F2159
G1 X-4.905 Y-9.243 E33.7450
G1 X-4.185 Y-8.559 E33.7780
G1 X-3.905 Y-7.610 E33.8109
G1 X-4.149 Y-6.604 E33.8453
G1 X-4.857 Y-5.897 E33.8786
G1 X-5.825 Y-5.637 E33.9119
G1 X-6.794 Y-5.897 E33.9453
G1 X-7.500 Y-6.602 E33.9785
G1 X-7.757 Y-7.563 E34.0115
G1 X-7.512 Y-8.477 E34.0430
G1 X-6.830 Y-9.194 E34.0759
G1 X-5.930 Y-9.460 E34.1072
G1 X-5.379 Y-9.886
G0 X-3.709 Y-7.615 F10800
G0 X-5.237 Y2.581
;segType:HShell
G1 X-16.573 Y-8.360 E34.6312 F3600
G1 X-16.772 Y-8.016
G1 X-5.940 Y2.438 E35.1318
;segType:Loop
G0 X-4.730 Y2.902 F10800
G1 X-4.702 Y2.909 E35.1328 F3600
G1 X-3.829 Y3.738 E35.1728
G1 X-3.492 Y4.880 E35.2124
G1 X-3.785 Y6.087 E35.2538
G1 X-4.645 Y6.947 E35.2942
G1 X-5.825 Y7.263 E35.3348
G1 X-7.006 Y6.947 E35.3755
G1 X-7.861 Y6.092 E35.4157
G1 X-8.170 Y4.937 E35.4555
G1 X-7.874 Y3.833 E35.4935
G1 X-7.051 Y2.967 E35.5332
G1 X-5.884 Y2.623 E35.5737
G1 X-4.920 Y2.856 E35.6067
;segType:Perimeter
G0 X-6.390 Y2.639 F10800
G1 X-5.817 Y3.037 E35.6299 F2159
G1 X-4.905 Y3.258 E35.6611
G1 X-4.185 Y3.941 E35.6941
G1 X-3.905 Y4.890 E35.7270
G1 X-4.149 Y5.896 E35.7614
G1 X-4.857 Y6.603 E35.7947
G1 X-5.825 Y6.863 E35.8281
G1 X-6.794 Y6.603 E35.8614
G1 X-7.500 Y5.897 E35.8946
G1 X-7.757 Y4.937 E35.9277
G1 X-7.512 Y4.023 E35.9592
G1 X-6.830 Y3.306 E35.9921
G1 X-5.930 Y3.040 E36.0233
G1 X-5.379 Y2.614
G0 X4.235 Y-3.642 F10800
G0 X14.716 Y-9.354
G0 X15.772 Y-9.666
G0 X16.921 Y-9.598
;segType:Loop
G1 X16.949 Y-9.591 E36.0242 F3600
G1 X17.822 Y-8.762 E36.0643
G1 X18.158 Y-7.620 E36.1039
G1 X17.866 Y-6.413 E36.1452
G1 X17.006 Y-5.553 E36.1856
G1 X15.825 Y-5.237 E36.2263
G1 X14.645 Y-5.553 E36.2669
G1 X13.790 Y-6.408 E36.3071
G1 X13.481 Y-7.563 E36.3469
G1 X13.777 Y-8.667 E36.3849
G1 X14.600 Y-9.533 E36.4247
G1 X15.766 Y-9.877 E36.4651
G1 X16.731 Y-9.644 E36.4981
;segType:Perimeter
G0 X15.260 Y-9.861 F10800
G1 X15.834 Y-9.463 E36.5213 F2159
G1 X16.746 Y-9.243 E36.5525
G1 X17.466 Y-8.559 E36.5856
G1 X17.745 Y-7.610 E36.6184
G1 X17.502 Y-6.604 E36.6529
G1 X16.794 Y-5.897 E36.6862
G1 X15.825 Y-5.637 E36.7195
G1 X14.857 Y-5.897 E36.7528
G1 X14.151 Y-6.602 E36.7860
G1 X13.894 Y-7.563 E36.8191
G1 X14.139 Y-8.477 E36.8506
G1 X14.821 Y-9.194 E36.8835
G1 X15.720 Y-9.460 E36.9147
G1 X16.272 Y-9.886
;segType:HShell
G0 X16.168 Y-9.979 F10800
G1 X8.830 Y-17.061 E37.2539 F3600
G0 X21.325 Y-24.289 F10800
G1 X19.734 Y-25.824 E37.3275 F3600
G1 X19.179 Y-25.824
G1 X22.440 Y-22.677 E37.4782
G1 X22.770 Y-21.823
G1 X18.624 Y-25.824 E37.6698
G1 X18.069 Y-25.824
G1 X22.837 Y-21.223 E37.8902
G1 X22.763 Y-20.759
G1 X17.514 Y-25.824 E38.1328
G1 X16.958 Y-25.824
G1 X22.630 Y-20.351 E38.3950
G1 X22.456 Y-19.983
G1 X16.403 Y-25.824 E38.6748
G1 X15.848 Y-25.824
G1 X22.282 Y-19.616 E38.9721
G1 X22.049 Y-19.304
G1 X15.293 Y-25.824 E39.2844
G1 X14.738 Y-25.824
G1 X21.816 Y-18.993 E39.6116
G1 X21.584 Y-18.682
G1 X14.183 Y-25.824 E39.9537
G1 X13.627 Y-25.824
G1 X21.351 Y-18.371 E40.3107
G1 X21.118 Y-18.059
G1 X13.072 Y-25.824 E40.6826
G1 X12.517 Y-25.824
G1 X21.489 Y-17.166 E41.0974
G0 X22.188 Y-15.956 F10800
G1 X11.962 Y-25.825 E41.5700 F3600
G1 X11.800 Y-25.445
G1 X22.886 Y-14.746 E42.0825
G0 X23.585 Y-13.536 F10800
G1 X11.800 Y-24.909 E42.6272 F3600
G1 X11.800 Y-24.374
G1 X24.283 Y-12.326 E43.2042
G0 X24.982 Y-11.116 F10800
G1 X11.800 Y-23.838 E43.8135 F3600
G1 X11.800 Y-23.302
G1 X25.680 Y-9.907 E44.4551
G0 X26.379 Y-8.697 F10800
G1 X11.800 Y-22.766 E45.1290 F3600
G1 X11.800 Y-22.231
G1 X27.077 Y-7.487 E45.8352
G0 X31.040 Y-6.877 F10800
G1 X32.233 Y-5.726 E45.8903 F3600
G0 X32.737 Y-4.704 F10800
G1 X30.267 Y-7.087 E46.0044 F3600
G1 X29.659 Y-7.138
G1 X33.116 Y-3.802 E46.1642
G1 X33.320 Y-3.070
G1 X29.140 Y-7.103 E46.3574
G1 X28.646 Y-7.045
G1 X33.524 Y-2.337 E46.5828
G1 X33.548 Y-1.778
G1 X28.152 Y-6.986 E46.8323
G1 X27.657 Y-6.927
G1 X33.349 Y-1.434 E47.0954
G1 X33.151 Y-1.090
G1 X11.800 Y-21.695 E48.0823
G1 X11.800 Y-21.159
G1 X32.952 Y-0.746 E49.0600
G1 X32.754 Y-0.402
G1 X11.800 Y-20.623 E50.0285
G1 X11.800 Y-20.088
G1 X32.555 Y-0.058 E50.9879
G1 X32.356 Y0.286
G1 X11.800 Y-19.552 E51.9381
G1 X11.800 Y-19.016
G1 X32.158 Y0.630 E52.8791
G1 X31.959 Y0.975
G1 X11.800 Y-18.480 E53.8109
G1 X11.800 Y-17.945
G1 X31.760 Y1.319 E54.7335
G1 X31.562 Y1.663
G1 X11.800 Y-17.409 E55.6470
G1 X11.800 Y-16.873
G1 X31.363 Y2.007 E56.5512
G1 X31.164 Y2.351
G1 X11.800 Y-16.337 E57.4463
G1 X11.362 Y-16.224
G1 X30.966 Y2.695 E58.3525
G1 X30.767 Y3.039
G1 X10.441 Y-16.578 E59.2920
G1 X9.599 Y-16.855
G1 X16.908 Y-9.800 E59.6299
G0 X18.048 Y-8.701 F10800
G1 X30.569 Y3.383 E60.2086 F3600
G1 X30.370 Y3.727
G1 X18.268 Y-7.952 E60.7680
G1 X18.306 Y-7.380
G1 X30.171 Y4.071 E61.3165
G1 X29.973 Y4.415
G1 X18.200 Y-6.946 E61.8606
G1 X18.095 Y-6.512
G1 X29.774 Y4.759 E62.4004
G1 X29.433 Y4.966
G1 X17.898 Y-6.167 E62.9336
G1 X17.625 Y-5.894
G1 X28.052 Y4.168 E63.4156
G0 X26.670 Y3.371 F10800
G1 X17.352 Y-5.622 E63.8463 F3600
G1 X17.060 Y-5.367
G1 X25.288 Y2.573 E64.2266
G0 X23.907 Y1.775 F10800
G1 X16.626 Y-5.251 E64.5631 F3600
G1 X16.191 Y-5.135
G1 X22.525 Y0.978 E64.8559
G1 X21.682 Y0.700
G1 X15.704 Y-5.069 E65.1322
G1 X14.936 Y-5.275
G1 X21.137 Y0.709 E65.4188
G1 X20.998 Y1.111
G1 X7.027 Y-12.372 E66.0646
G1 X6.754 Y-12.099
G1 X20.920 Y1.572 E66.7193
G1 X20.842 Y2.032
G1 X6.482 Y-11.826 E67.3831
G1 X6.163 Y-11.598
G1 X20.737 Y2.466 E68.0567
G1 X20.623 Y2.892
G1 X5.729 Y-11.482 E68.7452
G1 X5.294 Y-11.365
G1 X20.509 Y3.318 E69.4484
G1 X20.392 Y3.741
G1 X4.752 Y-11.353 E70.1713
G1 X3.983 Y-11.559
G1 X20.242 Y4.132 E70.9228
G1 X20.092 Y4.523
G1 X-1.394 Y-16.212 E71.9160
G1 X-1.791 Y-16.060
G1 X19.941 Y4.913 E72.9205
G1 X19.791 Y5.304
G1 X-11.122 Y-24.529 E74.3493
G1 X-11.368 Y-24.231
G1 X16.414 Y2.581 E75.6335
G0 X18.195 Y4.300 F10800
G1 X19.608 Y5.663 E75.6988 F3600
G1 X19.425 Y6.022
G1 X18.340 Y4.976 E75.7489
G1 X18.235 Y5.410
G1 X19.242 Y6.381 E75.7954
G1 X19.059 Y6.740
G1 X18.130 Y5.844 E75.8384
G1 X17.988 Y6.243
G1 X18.851 Y7.076 E75.8783
G1 X18.637 Y7.405
G1 X17.715 Y6.515 E75.9209
G1 X17.443 Y6.788
G1 X18.423 Y7.734 E75.9662
G1 X18.210 Y8.064
G1 X17.170 Y7.061 E76.0142
G1 X16.770 Y7.210
G1 X17.982 Y8.379 E76.0702
G1 X17.738 Y8.680
G1 X16.336 Y7.327 E76.1351
G1 X15.901 Y7.443
G1 X17.494 Y8.981 E76.2087
G1 X17.251 Y9.282
G1 X15.191 Y7.294 E76.3039
G0 X13.280 Y4.914 F10800
G1 X7.954 Y-0.227 E76.5501 F3600
G1 X8.043 Y-0.676
G1 X13.395 Y4.488 E76.7975
G1 X13.509 Y4.063
G1 X8.075 Y-1.181 E77.0486
G1 X7.992 Y-1.797
G1 X13.659 Y3.672 E77.3106
G1 X13.924 Y3.392
G1 X7.590 Y-2.720 E77.6033
G0 X6.641 Y-3.636 F10800
G1 X-12.642 Y-22.246 E78.4947 F3600
G1 X-12.469 Y-22.615
G1 X14.190 Y3.113 E79.7269
G1 X14.455 Y2.833
G1 X-12.296 Y-22.984 E80.9634
G0 X-12.762 Y-20.754 F10800
G1 X4.497 Y-4.098 E81.7612 F3600
G1 X5.009 Y-4.140
G1 X-12.843 Y-21.368 E82.5863
G1 X-12.768 Y-21.832
G1 X5.637 Y-4.069 E83.4371
G0 X3.833 Y-3.464 F10800
G0 X2.746 Y-2.433
G0 X2.375 Y-1.346
G0 X2.259 Y0.171
G1 X-4.026 Y-5.894 E83.7276 F3600
G1 X-4.298 Y-5.622
G1 X21.431 Y19.209 E84.9169
G1 X21.233 Y19.553
G1 X-4.590 Y-5.367 E86.1105
G1 X-5.025 Y-5.251
G1 X21.034 Y19.897 E87.3150
G1 X20.835 Y20.241
G1 X-5.459 Y-5.135 E88.5303
G1 X-5.946 Y-5.069
G1 X20.637 Y20.585 E89.7591
G1 X20.438 Y20.929
G1 X-6.715 Y-5.275 E91.0141
G0 X-4.757 Y-5.734 F10800
G0 X-3.977 Y-6.514
G0 X-3.709 Y-7.615
G0 X-4.016 Y-8.655
G0 X-4.742 Y-9.800
G1 X-11.806 Y-16.617 E91.3406 F3600
G1 X-12.005 Y-16.273
G1 X-5.482 Y-9.979 E91.6421
G1 X-6.081 Y-10.021
G1 X-12.203 Y-15.929 E91.9251
G1 X-12.402 Y-15.585
G1 X-6.506 Y-9.895 E92.1976
G1 X-6.931 Y-9.770
G1 X-12.601 Y-15.241 E92.4597
G1 X-12.799 Y-14.897
G1 X-7.283 Y-9.574 E92.7146
G1 X-7.549 Y-9.294
G1 X-12.998 Y-14.553 E92.9665
G1 X-13.196 Y-14.209
G1 X-7.815 Y-9.015 E93.2153
G1 X-8.066 Y-8.722
G1 X-13.395 Y-13.865 E93.4616
G1 X-13.594 Y-13.521
G1 X-8.180 Y-8.296 E93.7118
G1 X-8.294 Y-7.871
G1 X-13.792 Y-13.177 E93.9660
G1 X-13.991 Y-12.833
G1 X-8.323 Y-7.363 E94.2280
G1 X-8.130 Y-6.641
G1 X-14.190 Y-12.489 E94.5081
G1 X-14.388 Y-12.145
G1 X20.239 Y21.273 E96.1086
G1 X20.041 Y21.617
G1 X-14.587 Y-11.801 E97.7092
G1 X-14.786 Y-11.456
G1 X19.842 Y21.962 E99.3098
G1 X19.643 Y22.306
G1 X7.333 Y10.425 E99.8788
G1 X7.533 Y11.154
G1 X19.445 Y22.650 E100.4294
G1 X19.246 Y22.994
G1 X7.427 Y11.588 E100.9757
G1 X7.322 Y12.022
G1 X19.048 Y23.338 E101.5177
G1 X18.849 Y23.682
G1 X7.208 Y12.448 E102.0558
G1 X6.935 Y12.720
G1 X18.516 Y23.897 E102.5911
G1 X18.077 Y24.008
G1 X6.663 Y12.993 E103.1186
G1 X6.390 Y13.265
G1 X17.637 Y24.120 E103.6385
G1 X17.198 Y24.231
G1 X6.017 Y13.441 E104.1553
G0 X3.931 Y13.016 F10800
G0 X2.599 Y11.750
G1 X-3.520 Y5.844 E104.4382 F3600
G1 X-3.415 Y5.410
G1 X2.474 Y11.093 E104.7104
G1 X2.588 Y10.668
G1 X-3.310 Y4.976 E104.9831
G1 X-3.456 Y4.299
G1 X2.702 Y10.242 E105.2677
G1 X2.877 Y9.875
G1 X-16.375 Y-8.704 E106.1576
G1 X-16.176 Y-9.048
G1 X3.143 Y9.596 E107.0505
G1 X3.408 Y9.316
G1 X-15.977 Y-9.392 E107.9466
G1 X-15.779 Y-9.736
G1 X3.680 Y9.043 E108.8460
G1 X4.105 Y8.918
G1 X-15.580 Y-10.080 E109.7560
G1 X-15.381 Y-10.424
G1 X4.531 Y8.792 E110.6764
G1 X4.971 Y8.682
G1 X-15.183 Y-10.768 E111.6079
G1 X-14.984 Y-11.112
G1 X5.711 Y8.860 E112.5645
G0 X3.946 Y1.799 F10800
G1 X14.414 Y11.901 E113.0484 F3600
G1 X14.716 Y11.657
G1 X4.703 Y1.994 E113.5112
G1 X5.258 Y1.994
G1 X15.017 Y11.412 E113.9623
G1 X14.540 Y12.023
G1 X21.630 Y18.865 E114.2900
G1 X21.828 Y18.521
G1 X15.922 Y12.821 E114.5630
G0 X17.304 Y13.619 F10800
G1 X22.027 Y18.177 E114.7813 F3600
G1 X22.226 Y17.833
G1 X18.686 Y14.417 E114.9449
G0 X20.068 Y15.214 F10800
G1 X22.424 Y17.489 E115.0538 F3600
G1 X22.623 Y17.145
G1 X21.449 Y16.012 E115.1081
G0 X12.094 Y22.520 F10800
G1 X14.076 Y24.433 E115.1997 F3600
G1 X14.688 Y24.488
G1 X11.702 Y21.606 E115.3377
G0 X11.113 Y21.337 F10800
G0 X-1.113 Y21.337
G0 X-6.546 Y24.354
G1 X-10.870 Y20.181 E115.5376 F3600
G0 X-10.171 Y21.391 F10800
G1 X-7.239 Y24.221 E115.6731 F3600
G1 X-7.993 Y24.030
G1 X-9.473 Y22.601 E115.7415
G0 X-11.568 Y18.972 F10800
G1 X-5.913 Y24.429 E116.0029 F3600
G1 X-5.280 Y24.504
G1 X-12.267 Y17.762 E116.3259
G0 X-12.748 Y16.762 F10800
G1 X-4.737 Y24.492 E116.6961 F3600
G1 X-4.227 Y24.449
G1 X-12.400 Y16.561 E117.0739
G1 X-12.053 Y16.361
G1 X-3.799 Y24.327 E117.4555
G1 X-3.402 Y24.174
G1 X-11.706 Y16.160 E117.8393
G1 X-11.358 Y15.960
G1 X-3.101 Y23.929 E118.2210
G1 X-2.808 Y23.676
G1 X-11.011 Y15.759 E118.6002
G1 X-10.664 Y15.559
G1 X-2.585 Y23.355 E118.9736
G1 X-2.362 Y23.034
G1 X-10.316 Y15.358 E119.3412
G1 X-9.969 Y15.157
G1 X-2.166 Y22.688 E119.7019
G1 X-2.003 Y22.309
G1 X-9.622 Y14.957 E120.0541
G1 X-9.274 Y14.756
G1 X-1.841 Y21.930 E120.3977
G1 X-1.678 Y21.551
G1 X-8.927 Y14.556 E120.7327
G1 X-8.580 Y14.355
G1 X-1.516 Y21.173 E121.0592
G1 X-1.227 Y20.915
G1 X-8.232 Y14.155 E121.3830
G1 X-7.885 Y13.954
G1 X-0.672 Y20.915 E121.7165
G1 X-0.117 Y20.915
G1 X-7.538 Y13.754 E122.0595
G1 X-7.190 Y13.553
G1 X0.438 Y20.915 E122.4121
G1 X0.994 Y20.915
G1 X-6.843 Y13.353 E122.7743
G1 X-6.496 Y13.152
G1 X1.549 Y20.915 E123.1462
G1 X2.104 Y20.915
G1 X-6.148 Y12.952 E123.5276
G1 X-5.801 Y12.751
G1 X2.659 Y20.915 E123.9186
G1 X3.214 Y20.915
G1 X-5.454 Y12.550 E124.3193
G1 X-5.157 Y12.301
G1 X3.769 Y20.915 E124.7319
G1 X4.324 Y20.915
G1 X-4.962 Y11.953 E125.1611
G0 X-4.480 Y7.061 F10800
G1 X9.876 Y20.915 E125.8247 F3600
G1 X9.321 Y20.915
G1 X-4.880 Y7.210 E126.4811
G1 X-5.315 Y7.327
G1 X8.766 Y20.915 E127.1320
G1 X8.210 Y20.915
G1 X-5.749 Y7.443 E127.7772
G0 X-7.521 Y8.948 F10800
G1 X4.880 Y20.915 E128.3504 F3600
G1 X5.435 Y20.915
G1 X-8.759 Y7.217 E129.0065
G0 X-6.460 Y7.294 F10800
G1 X7.655 Y20.915 E129.6589 F3600
G1 X7.100 Y20.915
G1 X-10.213 Y4.207 E130.4591
G1 X-9.886 Y5.059
G1 X6.545 Y20.915 E131.2186
G1 X5.990 Y20.915
G1 X-9.408 Y6.056 E131.9303
G0 X-8.194 Y5.620 F10800
G1 X-10.484 Y3.410 E132.0362 F3600
G1 X-10.678 Y2.687
G1 X-8.370 Y4.914 E132.1429
G1 X-8.256 Y4.488
G1 X-10.858 Y1.977 E132.2631
G1 X-10.958 Y1.345
G1 X-8.142 Y4.063 E132.3933
G1 X-7.992 Y3.672
G1 X-11.058 Y0.713 E132.5350
G0 X-19.950 Y4.453 F10800
G1 X-19.424 Y4.961 E132.5593 F3600
G1 X-19.077 Y4.760
G1 X-20.649 Y3.243 E132.6319
G0 X-21.348 Y2.033 F10800
G1 X-18.730 Y4.560 E132.7530 F3600
G1 X-18.382 Y4.359
G1 X-22.046 Y0.823 E132.9223
G0 X-22.745 Y-0.387 F10800
G1 X-18.035 Y4.159 E133.1400 F3600
G1 X-17.688 Y3.958
G1 X-23.444 Y-1.597 E133.4061
G1 X-23.557 Y-2.241
G1 X-17.340 Y3.758 E133.6934
G1 X-16.993 Y3.557
G1 X-23.438 Y-2.662 E133.9913
G1 X-23.319 Y-3.084
G1 X-16.646 Y3.357 E134.2998
G1 X-16.298 Y3.156
G1 X-23.200 Y-3.505 E134.6188
G1 X-23.074 Y-3.918
G1 X-15.951 Y2.956 E134.9480
G1 X-15.604 Y2.755
G1 X-22.911 Y-4.297 E135.2858
G1 X-22.748 Y-4.676
G1 X-15.256 Y2.554 E135.6321
G1 X-14.909 Y2.354
G1 X-22.586 Y-5.055 E135.9869
G1 X-22.423 Y-5.434
G1 X-14.562 Y2.153 E136.3503
G1 X-14.214 Y1.953
G1 X-22.208 Y-5.762 E136.7198
G1 X-21.985 Y-6.082
G1 X-13.867 Y1.752 E137.0951
G1 X-13.520 Y1.552
G1 X-21.746 Y-6.387 E137.4753
G1 X-21.445 Y-6.632
G1 X-13.172 Y1.351 E137.8577
G1 X-12.825 Y1.151
G1 X-21.114 Y-6.849 E138.2408
G1 X-20.716 Y-7.001
G1 X-12.478 Y0.950 E138.6216
G1 X-12.130 Y0.749
G1 X-20.252 Y-7.088 E138.9970
G1 X-19.741 Y-7.131
G1 X-11.783 Y0.549 E139.3649
G1 X-11.436 Y0.348
G1 X-19.159 Y-7.106 E139.7219
G1 X-18.526 Y-7.030
G1 X-7.727 Y3.392 E140.2211
G1 X-7.461 Y3.113
G1 X-17.893 Y-6.955 E140.7033
G1 X-17.368 Y-6.984
G1 X-7.195 Y2.833 E141.1735
G1 X-6.790 Y2.688
G1 X-17.169 Y-7.328 E141.6532
G1 X-16.970 Y-7.672
G1 X-6.365 Y2.563 E142.1434
G0 X2.007 Y-0.608 F10800
G1 X-3.753 Y-6.167 E142.4097 F3600
G1 X-3.555 Y-6.512
G1 X1.971 Y-1.178 E142.6651
G1 X2.024 Y-1.663
G1 X-3.450 Y-6.946 E142.9181
G1 X-3.345 Y-7.380
G1 X2.141 Y-2.086 E143.1717
G1 X2.311 Y-2.458
G1 X-3.382 Y-7.952 E143.4349
G1 X-3.603 Y-8.701
G1 X2.516 Y-2.796 E143.7177
G1 X2.756 Y-3.100
G1 X-11.607 Y-16.961 E144.3816
G1 X-11.409 Y-17.305
G1 X3.032 Y-3.369 E145.0491
G1 X3.341 Y-3.607
G1 X-11.210 Y-17.649 E145.7217
G1 X-11.219 Y-18.193
G1 X3.673 Y-3.822 E146.4100
G1 X4.053 Y-3.991
G1 X-12.406 Y-19.875 E147.1708
G0 X-1.917 Y-25.825 F10800
G1 X-1.800 Y-25.712 E147.1761 F3600
G1 X-1.800 Y-25.176
G1 X-2.472 Y-25.824 E147.2072
G1 X-3.027 Y-25.824
G1 X-1.800 Y-24.640 E147.2639
G1 X-1.800 Y-24.105
G1 X-3.582 Y-25.824 E147.3463
G1 X-4.137 Y-25.824
G1 X-1.800 Y-23.569 E147.4543
G1 X-1.800 Y-23.033
G1 X-4.692 Y-25.824 E147.5880
G1 X-5.247 Y-25.824
G1 X-1.800 Y-22.497 E147.7474
G1 X-1.800 Y-21.962
G1 X-5.802 Y-25.824 E147.9324
G1 X-6.358 Y-25.824
G1 X-1.800 Y-21.426 E148.1430
G1 X-1.800 Y-20.890
G1 X-6.913 Y-25.824 E148.3794
G1 X-7.468 Y-25.824
G1 X-1.800 Y-20.354 E148.6413
G1 X-1.800 Y-19.819
G1 X-8.023 Y-25.824 E148.9290
G1 X-8.578 Y-25.824
G1 X-1.800 Y-19.283 E149.2423
G1 X-1.800 Y-18.747
G1 X-9.133 Y-25.824 E149.5813
G1 X-9.688 Y-25.824
G1 X-1.800 Y-18.211 E149.9459
G1 X-1.800 Y-17.676
G1 X-10.045 Y-25.633 E150.3270
G1 X-10.314 Y-25.357
G1 X-1.800 Y-17.140 E150.7206
G1 X-1.800 Y-16.604
G1 X-10.583 Y-25.081 E151.1266
G1 X-10.853 Y-24.805
G1 X-1.800 Y-16.068 E151.5450
G0 X2.728 Y-12.770 F10800
G1 X-0.996 Y-16.365 E151.7172 F3600
G1 X-0.599 Y-16.517
G1 X2.534 Y-13.493 E151.8620
G1 X2.512 Y-14.050
G1 X-0.202 Y-16.669 E151.9875
G1 X0.213 Y-16.804
G1 X2.626 Y-14.476 E152.0990
G1 X2.740 Y-14.901
G1 X0.648 Y-16.921 E152.1957
G1 X1.082 Y-17.037
G1 X2.967 Y-15.219 E152.2828
G1 X3.232 Y-15.498
G1 X1.517 Y-17.154 E152.3621
G1 X1.982 Y-17.241
G1 X3.498 Y-15.777 E152.4322
G1 X3.824 Y-15.999
G1 X2.459 Y-17.316 E152.4953
G1 X2.936 Y-17.392
G1 X4.249 Y-16.125 E152.5560
G1 X4.674 Y-16.250
G1 X3.423 Y-17.457 E152.6138
G1 X3.950 Y-17.484
G1 X5.220 Y-16.259 E152.6725
G0 X7.259 Y-14.827 F10800
G1 X13.585 Y-8.722 E152.9649 F3600
G1 X13.471 Y-8.296
G1 X7.480 Y-14.078 E153.2418
G1 X7.463 Y-13.558
G1 X13.357 Y-7.870 E153.5142
G1 X13.328 Y-7.362
G1 X7.358 Y-13.124 E153.7902
G1 X7.252 Y-12.690
G1 X13.521 Y-6.640 E154.0799
; ------------------------------------
; Layer #2
; ------------------------------------
G21 ; mm
G90 ; abs
G92 E0 ; reset extr
M106 S0
G0 F4800 E-1.0000
G0 F3000 Z0.600
G0 X13.305 Y4.937 F10800
G0 X15.324 Y11.416
G0 F4800 E0.0000
;segType:Loop
G1 X14.722 Y11.903 E0.0257 F3600
G1 X23.166 Y16.779 E0.3500
G1 X18.941 Y24.097 E0.6311
G1 X16.556 Y24.704 E0.7129
G1 X14.878 Y24.904 E0.7692
G1 X13.870 Y24.819 E0.8028
G1 X13.180 Y24.555 E0.8274
G1 X12.603 Y24.087 E0.8521
G1 X12.020 Y23.248 E0.8861
G1 X11.350 Y21.687 E0.9426
G1 X11.187 Y21.108 E0.9626
G1 X-1.187 Y21.108 E1.3741
G1 X-1.350 Y21.687 E1.3941
G1 X-2.020 Y23.248 E1.4506
G1 X-2.603 Y24.087 E1.4846
G1 X-3.180 Y24.555 E1.5093
G1 X-3.870 Y24.819 E1.5339
G1 X-4.878 Y24.904 E1.5675
G1 X-6.556 Y24.704 E1.6237
G1 X-8.940 Y24.099 E1.7055
G1 X-13.166 Y16.779 E1.9867
G1 X-5.404 Y12.297 E2.2848
G1 X-5.040 Y11.646 E2.3096
G1 X-5.965 Y10.897 E2.3492
G1 X-7.180 Y9.682 E2.4063
G1 X-8.262 Y8.347 E2.4635
G1 X-9.198 Y6.905 E2.5207
G1 X-9.978 Y5.373 E2.5778
G1 X-10.595 Y3.767 E2.6351
G1 X-11.040 Y2.105 E2.6923
G1 X-11.295 Y0.492 E2.7466
G1 X-19.751 Y5.374 E3.0713
G1 X-23.965 Y-1.924 E3.3516
G1 X-23.291 Y-4.312 E3.4342
G1 X-22.621 Y-5.874 E3.4907
G1 X-22.038 Y-6.712 E3.5247
G1 X-21.461 Y-7.181 E3.5494
G1 X-20.771 Y-7.444 E3.5739
G1 X-19.765 Y-7.529 E3.6075
G1 X-18.034 Y-7.317 E3.6655
G1 X-17.485 Y-7.178 E3.6843
G1 X-11.317 Y-17.862 E4.0947
G1 X-11.727 Y-18.282 E4.1142
G1 X-12.743 Y-19.642 E4.1706
G1 X-13.178 Y-20.569 E4.2047
G1 X-13.298 Y-21.313 E4.2298
G1 X-13.178 Y-22.056 E4.2548
G1 X-12.743 Y-22.984 E4.2889
G1 X-11.727 Y-24.342 E4.3453
G1 X-9.994 Y-26.106 E4.4276
G1 X-1.600 Y-26.106 E4.7068
G1 X-1.600 Y-16.341 E5.0316
G1 X-0.062 Y-16.931 E5.0864
G1 X1.595 Y-17.375 E5.1434
G1 X3.288 Y-17.643 E5.2004
G1 X5.000 Y-17.733 E5.2574
G1 X6.712 Y-17.643 E5.3144
G1 X8.405 Y-17.375 E5.3715
G1 X10.062 Y-16.931 E5.4285
G1 X11.600 Y-16.341 E5.4833
G1 X11.600 Y-26.106 E5.8081
G1 X20.009 Y-26.106 E6.0878
G1 X21.726 Y-24.343 E6.1697
G1 X22.743 Y-22.984 E6.2261
G1 X23.178 Y-22.057 E6.2602
G1 X23.298 Y-21.313 E6.2852
G1 X23.178 Y-20.569 E6.3103
G1 X22.743 Y-19.642 E6.3444
G1 X21.727 Y-18.282 E6.4008
G1 X21.317 Y-17.862 E6.4204
G1 X27.485 Y-7.178 E6.8307
G1 X28.085 Y-7.330 E6.8513
G1 X29.763 Y-7.529 E6.9075
G1 X30.771 Y-7.444 E6.9411
G1 X31.461 Y-7.181 E6.9657
G1 X32.038 Y-6.712 E6.9904
G1 X32.621 Y-5.874 E7.0244
G1 X33.291 Y-4.313 E7.0809
G1 X33.961 Y-1.918 E7.1636
G1 X29.751 Y5.374 E7.4436
G1 X22.015 Y0.908 E7.7407
G1 X21.228 Y0.921 E7.7669
G1 X21.040 Y2.105 E7.8068
G1 X20.595 Y3.767 E7.8640
G1 X19.978 Y5.373 E7.9212
G1 X19.198 Y6.905 E7.9784
G1 X18.262 Y8.347 E8.0356
G1 X17.180 Y9.682 E8.0928
G1 X15.965 Y10.897 E8.1499
G1 X15.474 Y11.295 E8.1709
;segType:Perimeter
G0 X15.192 Y11.249 F10800
G1 X15.460 Y11.880 E8.1937 F2159
G1 X23.704 Y16.639 E8.5103
G1 X19.209 Y24.425 E8.8093
G1 X18.909 Y24.506 E8.8197
G1 X16.632 Y25.084 E8.8978
G1 X14.885 Y25.292 E8.9564
G1 X13.777 Y25.198 E8.9933
G1 X12.972 Y24.891 E9.0220
G1 X12.303 Y24.347 E9.0507
G1 X11.666 Y23.432 E9.0878
G1 X10.971 Y21.812 E9.1464
G1 X10.881 Y21.494 E9.1574
G1 X-0.881 Y21.494 E9.5486
G1 X-0.971 Y21.812 E9.5596
G1 X-1.666 Y23.432 E9.6182
G1 X-2.303 Y24.347 E9.6553
G1 X-2.972 Y24.891 E9.6840
G1 X-3.777 Y25.198 E9.7126
G1 X-4.885 Y25.292 E9.7496
G1 X-6.632 Y25.084 E9.8081
G1 X-9.206 Y24.431 E9.8965
G1 X-13.704 Y16.639 E10.1957
G1 X-5.704 Y12.020 E10.5029
G1 X-5.547 Y11.740 E10.5136
G1 X-6.239 Y11.179 E10.5433
G1 X-7.482 Y9.936 E10.6018
G1 X-8.589 Y8.569 E10.6603
G1 X-9.548 Y7.093 E10.7188
G1 X-10.346 Y5.526 E10.7773
G1 X-10.977 Y3.883 E10.8358
G1 X-11.432 Y2.183 E10.8943
G1 X-11.601 Y1.119 E10.9302
G1 X-19.899 Y5.910 E11.2489
G1 X-24.393 Y-1.874 E11.5478
G1 X-23.670 Y-4.437 E11.6364
G1 X-22.975 Y-6.057 E11.6950
G1 X-22.338 Y-6.973 E11.7321
G1 X-21.669 Y-7.517 E11.7608
G1 X-20.864 Y-7.824 E11.7895
G1 X-19.757 Y-7.917 E11.8264
G1 X-17.957 Y-7.696 E11.8867
G1 X-17.683 Y-7.627 E11.8961
G1 X-11.809 Y-17.803 E12.2869
G1 X-12.036 Y-18.036 E12.2978
G1 X-13.091 Y-19.447 E12.3564
G1 X-13.565 Y-20.457 E12.3935
G1 X-13.702 Y-21.313 E12.4223
G1 X-13.565 Y-22.168 E12.4511
G1 X-13.091 Y-23.178 E12.4882
G1 X-12.036 Y-24.589 E12.5468
G1 X-10.166 Y-26.492 E12.6356
G1 X-1.200 Y-26.492 E12.9338
G1 X-1.200 Y-16.910 E13.2525
G1 X-0.189 Y-17.297 E13.2885
G1 X1.509 Y-17.752 E13.3470
G1 X3.245 Y-18.027 E13.4054
G1 X5.000 Y-18.119 E13.4639
G1 X6.755 Y-18.027 E13.5223
G1 X8.491 Y-17.752 E13.5808
G1 X10.189 Y-17.297 E13.6393
G1 X11.200 Y-16.910 E13.6753
G1 X11.200 Y-26.492 E13.9940
G1 X20.182 Y-26.492 E14.2927
G1 X22.036 Y-24.589 E14.3811
G1 X23.091 Y-23.178 E14.4397
G1 X23.565 Y-22.168 E14.4768
G1 X23.702 Y-21.313 E14.5056
G1 X23.565 Y-20.457 E14.5344
G1 X23.091 Y-19.447 E14.5716
G1 X22.036 Y-18.036 E14.6302
G1 X21.809 Y-17.803 E14.6410
G1 X27.683 Y-7.627 E15.0318
G1 X28.009 Y-7.710 E15.0430
G1 X29.756 Y-7.917 E15.1015
G1 X30.864 Y-7.824 E15.1385
G1 X31.669 Y-7.517 E15.1671
G1 X32.338 Y-6.973 E15.1958
G1 X32.975 Y-6.057 E15.2329
G1 X33.670 Y-4.437 E15.2915
G1 X34.389 Y-1.867 E15.3803
G1 X29.899 Y5.910 E15.6790
G1 X21.907 Y1.296 E15.9859
G1 X21.572 Y1.301 E15.9970
G1 X21.432 Y2.183 E16.0267
G1 X20.977 Y3.883 E16.0853
G1 X20.346 Y5.526 E16.1438
G1 X19.548 Y7.093 E16.2023
G1 X18.589 Y8.569 E16.2608
G1 X17.482 Y9.936 E16.3193
G1 X16.239 Y11.179 E16.3778
G1 X15.455 Y11.814 E16.4114
G1 X15.294 Y12.478
;segType:HShell
G0 X-8.617 Y23.981 F10800
G1 X3.058 Y12.714 E16.9511 F3600
G1 X3.331 Y12.986
G1 X-8.178 Y24.093 E17.4830
G1 X-7.739 Y24.205
G1 X3.603 Y13.259 E18.0073
G1 X3.973 Y13.438
G1 X-7.299 Y24.316 E18.5283
G1 X-6.860 Y24.428
G1 X4.407 Y13.555 E19.0491
G1 X4.842 Y13.671
G1 X-6.408 Y24.528 E19.5691
G1 X-5.913 Y24.586
G1 X5.489 Y13.583 E20.0961
;segType:Perimeter
G0 X5.506 Y13.510 F10800
G1 X4.943 Y13.097 E20.1193 F2159
G1 X4.032 Y12.853 E20.1507
G1 X3.326 Y12.147 E20.1839
G1 X3.068 Y11.187 E20.2169
G1 X3.326 Y10.227 E20.2500
G1 X4.032 Y9.521 E20.2832
G1 X5.000 Y9.262 E20.3165
G1 X5.968 Y9.521 E20.3499
G1 X6.674 Y10.227 E20.3831
G1 X6.932 Y11.187 E20.4161
G1 X6.674 Y12.147 E20.4492
G1 X5.968 Y12.853 E20.4824
G1 X5.057 Y13.097 E20.5138
G1 X4.494 Y13.510
;segType:Loop
G0 X3.853 Y13.206 F10800
G1 X3.819 Y13.197 E20.5149 F3600
G1 X2.965 Y12.343 E20.5551
G1 X2.655 Y11.187 E20.5949
G1 X2.965 Y10.032 E20.6347
G1 X3.819 Y9.178 E20.6749
G1 X5.000 Y8.861 E20.7155
G1 X6.181 Y9.178 E20.7562
G1 X7.035 Y10.032 E20.7964
G1 X7.345 Y11.187 E20.8362
G1 X7.035 Y12.343 E20.8759
G1 X6.181 Y13.197 E20.9161
G1 X5.000 Y13.513 E20.9568
G1 X4.042 Y13.256 E20.9898
G0 X2.872 Y11.187 F10800
G0 X6.021 Y1.264
G1 X5.931 Y1.315 E20.9932 F3600
G1 X5.361 Y1.497 E21.0131
G1 X4.743 Y1.557 E21.0338
G1 X4.004 Y1.445 E21.0586
G1 X3.454 Y1.233 E21.0782
G1 X2.994 Y0.956 E21.0961
G1 X2.503 Y0.489 E21.1186
G1 X2.143 Y-0.031 E21.1397
G1 X1.952 Y-0.549 E21.1580
G1 X1.846 Y-1.312 E21.1836
G1 X1.937 Y-1.978 E21.2060
G1 X2.181 Y-2.560 E21.2270
G1 X2.521 Y-3.062 E21.2472
G1 X3.023 Y-3.546 E21.2704
G1 X3.455 Y-3.807 E21.2872
G1 X4.143 Y-4.066 E21.3116
G1 X4.760 Y-4.135 E21.3322
G1 X5.369 Y-4.075 E21.3526
G1 X6.029 Y-3.836 E21.3759
G1 X6.421 Y-3.607 E21.3910
G1 X6.820 Y-3.247 E21.4089
G1 X7.193 Y-2.815 E21.4279
G1 X7.442 Y-2.383 E21.4445
G1 X7.613 Y-1.859 E21.4628
G1 X7.670 Y-1.313 E21.4811
G1 X7.624 Y-0.873 E21.4958
G1 X7.507 Y-0.435 E21.5109
G1 X7.273 Y0.055 E21.5289
G1 X6.960 Y0.522 E21.5476
G1 X6.452 Y1.018 E21.5712
G1 X6.190 Y1.167 E21.5813
;segType:Perimeter
G0 X7.303 Y0.210 F10800
G1 X6.605 Y0.319 E21.6048 F2159
G1 X6.204 Y0.711 E21.6234
G1 X5.765 Y0.962 E21.6402
G1 X5.277 Y1.117 E21.6573
G1 X4.754 Y1.168 E21.6747
G1 X4.111 Y1.070 E21.6964
G1 X3.635 Y0.887 E21.7133
G1 X3.244 Y0.651 E21.7285
G1 X2.813 Y0.242 E21.7483
G1 X2.504 Y-0.205 E21.7664
G1 X2.343 Y-0.640 E21.7818
G1 X2.250 Y-1.313 E21.8044
G1 X2.327 Y-1.879 E21.8234
G1 X2.537 Y-2.380 E21.8415
G1 X2.833 Y-2.817 E21.8590
G1 X3.274 Y-3.242 E21.8794
G1 X3.636 Y-3.460 E21.8934
G1 X4.240 Y-3.688 E21.9149
G1 X4.763 Y-3.747 E21.9324
G1 X5.276 Y-3.696 E21.9496
G1 X5.853 Y-3.487 E21.9700
G1 X6.178 Y-3.298 E21.9825
G1 X6.528 Y-2.982 E21.9982
G1 X6.862 Y-2.596 E22.0151
G1 X7.073 Y-2.230 E22.0292
G1 X7.219 Y-1.781 E22.0449
G1 X7.268 Y-1.313 E22.0606
G1 X7.229 Y-0.941 E22.0730
G1 X7.129 Y-0.565 E22.0859
G1 X6.921 Y-0.132 E22.1019
G1 X6.679 Y0.231 E22.1164
G1 X6.719 Y0.912
;segType:HShell
G0 X25.774 Y-9.745 F10800
G1 X6.315 Y9.035 E23.0159 F3600
G1 X6.588 Y9.307
G1 X25.973 Y-9.401 E23.9119
G1 X26.171 Y-9.057
G1 X6.861 Y9.580 E24.8045
G1 X7.133 Y9.852
G1 X26.370 Y-8.713 E25.6937
G1 X26.569 Y-8.368
G1 X15.235 Y2.569 E26.2175
;segType:Perimeter
G0 X15.320 Y2.615 F10800
G1 X15.882 Y3.027 E26.2407 F2159
G1 X16.794 Y3.272 E26.2721
G1 X17.500 Y3.977 E26.3053
G1 X17.757 Y4.937 E26.3384
G1 X17.500 Y5.897 E26.3714
G1 X16.794 Y6.603 E26.4047
G1 X15.825 Y6.863 E26.4380
G1 X14.857 Y6.603 E26.4713
G1 X14.151 Y5.897 E26.5045
G1 X13.894 Y4.937 E26.5376
G1 X14.151 Y3.977 E26.5707
G1 X14.857 Y3.272 E26.6039
G1 X15.769 Y3.027 E26.6352
G1 X16.331 Y2.615
;segType:Loop
G0 X16.972 Y2.919 F10800
G1 X17.006 Y2.928 E26.6364 F3600
G1 X17.861 Y3.782 E26.6766
G1 X18.170 Y4.937 E26.7164
G1 X17.861 Y6.092 E26.7561
G1 X17.006 Y6.947 E26.7963
G1 X15.825 Y7.263 E26.8370
G1 X14.645 Y6.947 E26.8776
G1 X13.790 Y6.092 E26.9178
G1 X13.481 Y4.937 E26.9576
G1 X13.790 Y3.782 E26.9974
G1 X14.645 Y2.928 E27.0376
G1 X15.825 Y2.611 E27.0782
G1 X16.783 Y2.868 E27.1112
;segType:HShell
G0 X18.134 Y-6.658 F10800
G1 X24.185 Y-12.497 E27.3909 F3600
G1 X23.986 Y-12.841
G1 X18.328 Y-7.380 E27.6525
G1 X18.291 Y-7.881
G1 X23.788 Y-13.185 E27.9065
G1 X23.589 Y-13.529
G1 X18.177 Y-8.307 E28.1567
G1 X18.064 Y-8.732
G1 X23.391 Y-13.873 E28.4029
G1 X23.192 Y-14.217
G1 X17.822 Y-9.035 E28.6511
G1 X17.549 Y-9.307
G1 X22.993 Y-14.561 E28.9028
G1 X22.795 Y-14.906
G1 X17.276 Y-9.580 E29.1579
G1 X16.939 Y-9.790
G1 X22.596 Y-15.250 E29.4193
G1 X22.397 Y-15.594
G1 X16.505 Y-9.907 E29.6917
G1 X16.070 Y-10.023
G1 X22.199 Y-15.938 E29.9750
G1 X22.000 Y-16.282
G1 X15.490 Y-9.999 E30.2759
;segType:Perimeter
G0 X15.320 Y-9.885 F10800
G1 X15.882 Y-9.473 E30.2991 F2159
G1 X16.794 Y-9.228 E30.3305
G1 X17.500 Y-8.523 E30.3637
G1 X17.757 Y-7.563 E30.3967
G1 X17.500 Y-6.602 E30.4298
G1 X16.794 Y-5.897 E30.4630
G1 X15.825 Y-5.637 E30.4964
G1 X14.857 Y-5.897 E30.5297
G1 X14.151 Y-6.602 E30.5629
G1 X13.894 Y-7.563 E30.5960
G1 X14.151 Y-8.523 E30.6290
G1 X14.857 Y-9.228 E30.6622
G1 X15.769 Y-9.473 E30.6936
G1 X16.331 Y-9.885
;segType:Loop
G0 X16.972 Y-9.581 F10800
G1 X17.006 Y-9.572 E30.6947 F3600
G1 X17.861 Y-8.718 E30.7350
G1 X18.170 Y-7.563 E30.7747
G1 X17.861 Y-6.407 E30.8145
G1 X17.006 Y-5.553 E30.8547
G1 X15.825 Y-5.237 E30.8954
G1 X14.645 Y-5.553 E30.9360
G1 X13.790 Y-6.408 E30.9762
G1 X13.481 Y-7.563 E31.0160
G1 X13.790 Y-8.718 E31.0557
G1 X14.645 Y-9.572 E31.0959
G1 X15.825 Y-9.889 E31.1366
G1 X16.783 Y-9.632 E31.1696
;segType:HShell
G0 X7.470 Y-13.510 F10800
G1 X10.590 Y-16.521 E31.3138 F3600
G1 X10.192 Y-16.673
G1 X7.485 Y-14.060 E31.4389
G1 X7.371 Y-14.486
G1 X9.776 Y-16.807 E31.5501
G1 X9.342 Y-16.923
G1 X7.257 Y-14.912 E31.6464
G1 X7.042 Y-15.239
G1 X8.907 Y-17.040 E31.7327
G1 X8.473 Y-17.156
G1 X6.769 Y-15.512 E31.8114
G1 X6.496 Y-15.785
G1 X8.007 Y-17.242 E31.8813
G1 X7.530 Y-17.318
G1 X6.186 Y-16.021 E31.9434
G1 X5.752 Y-16.138
G1 X7.053 Y-17.393 E32.0035
G1 X6.564 Y-17.457
G1 X5.317 Y-16.254 E32.0611
G1 X4.792 Y-16.283
G1 X6.037 Y-17.485 E32.1187
G1 X5.511 Y-17.512
G1 X4.024 Y-16.078 E32.1874
;segType:Loop
G0 X6.147 Y-15.832 F10800
G1 X6.181 Y-15.823 E32.1886 F3600
G1 X7.035 Y-14.968 E32.2288
G1 X7.345 Y-13.813 E32.2685
G1 X7.035 Y-12.658 E32.3083
G1 X6.181 Y-11.803 E32.3485
G1 X5.000 Y-11.487 E32.3892
G1 X3.819 Y-11.803 E32.4298
G1 X2.965 Y-12.658 E32.4700
G1 X2.655 Y-13.813 E32.5098
G1 X2.965 Y-14.968 E32.5495
G1 X3.819 Y-15.823 E32.5898
G1 X5.000 Y-16.138 E32.6304
G1 X5.958 Y-15.882 E32.6634
;segType:Perimeter
G0 X4.494 Y-16.135 F10800
G1 X5.057 Y-15.723 E32.6866 F2159
G1 X5.968 Y-15.479 E32.7180
G1 X6.674 Y-14.773 E32.7512
G1 X6.932 Y-13.813 E32.7842
G1 X6.674 Y-12.853 E32.8173
G1 X5.968 Y-12.147 E32.8505
G1 X5.000 Y-11.887 E32.8838
G1 X4.032 Y-12.147 E32.9172
G1 X3.326 Y-12.853 E32.9504
G1 X3.068 Y-13.813 E32.9834
G1 X3.326 Y-14.773 E33.0165
G1 X4.032 Y-15.479 E33.0497
G1 X4.943 Y-15.723 E33.0811
G1 X5.506 Y-16.135
;segType:HShell
G0 X1.152 Y-17.056 F10800
G1 X-6.160 Y-9.999 E33.4191 F3600
;segType:Loop
G0 X-4.678 Y-9.581 F10800
G1 X-4.645 Y-9.572 E33.4202 F3600
G1 X-3.790 Y-8.718 E33.4604
G1 X-3.481 Y-7.563 E33.5002
G1 X-3.790 Y-6.408 E33.5400
G1 X-4.645 Y-5.553 E33.5802
G1 X-5.825 Y-5.237 E33.6208
G1 X-7.006 Y-5.553 E33.6615
G1 X-7.861 Y-6.407 E33.7017
G1 X-8.170 Y-7.563 E33.7414
G1 X-7.861 Y-8.718 E33.7812
G1 X-7.006 Y-9.572 E33.8214
G1 X-5.825 Y-9.889 E33.8621
G1 X-4.867 Y-9.632 E33.8951
;segType:Perimeter
G0 X-6.331 Y-9.885 F10800
G1 X-5.769 Y-9.473 E33.9183 F2159
G1 X-4.857 Y-9.228 E33.9497
G1 X-4.151 Y-8.523 E33.9829
G1 X-3.894 Y-7.563 E34.0159
G1 X-4.151 Y-6.602 E34.0490
G1 X-4.857 Y-5.897 E34.0822
G1 X-5.825 Y-5.637 E34.1155
G1 X-6.794 Y-5.897 E34.1489
G1 X-7.500 Y-6.602 E34.1821
G1 X-7.757 Y-7.563 E34.2151
G1 X-7.500 Y-8.523 E34.2482
G1 X-6.794 Y-9.228 E34.2814
G1 X-5.882 Y-9.473 E34.3128
G1 X-5.320 Y-9.885
G0 X3.931 Y-15.641 F10800
G0 X5.000 Y-15.927
G0 X11.310 Y-16.753
G0 X21.941 Y-23.726
;segType:HShell
G1 X-5.290 Y2.555 E35.5715 F3600
G1 X-5.724 Y2.438
G1 X21.709 Y-24.037 E36.8395
G1 X21.461 Y-24.334
G1 X-6.415 Y2.569 E38.1281
;segType:Perimeter
G0 X-6.331 Y2.615 F10800
G1 X-5.769 Y3.027 E38.1513 F2159
G1 X-4.857 Y3.272 E38.1827
G1 X-4.151 Y3.977 E38.2159
G1 X-3.894 Y4.937 E38.2489
G1 X-4.151 Y5.897 E38.2820
G1 X-4.857 Y6.603 E38.3152
G1 X-5.825 Y6.863 E38.3485
G1 X-6.794 Y6.603 E38.3819
G1 X-7.500 Y5.897 E38.4151
G1 X-7.757 Y4.937 E38.4481
G1 X-7.500 Y3.977 E38.4812
G1 X-6.794 Y3.272 E38.5144
G1 X-5.882 Y3.027 E38.5458
G1 X-5.320 Y2.615
;segType:Loop
G0 X-4.678 Y2.919 F10800
G1 X-4.645 Y2.928 E38.5469 F3600
G1 X-3.790 Y3.782 E38.5871
G1 X-3.481 Y4.937 E38.6269
G1 X-3.790 Y6.092 E38.6667
G1 X-4.645 Y6.947 E38.7069
G1 X-5.825 Y7.263 E38.7475
G1 X-7.006 Y6.947 E38.7882
G1 X-7.861 Y6.092 E38.8284
G1 X-8.170 Y4.937 E38.8681
G1 X-7.861 Y3.782 E38.9079
G1 X-7.006 Y2.928 E38.9481
G1 X-5.825 Y2.611 E38.9888
G1 X-4.867 Y2.868 E39.0218
;segType:HShell
G0 X-3.452 Y5.603 F10800
G1 X2.096 Y0.248 E39.2782 F3600
G1 X1.905 Y-0.103
G1 X-3.283 Y4.904 E39.5180
G1 X-3.397 Y4.478
G1 X1.759 Y-0.498 E39.7563
G1 X1.692 Y-0.969
G1 X-3.511 Y4.052 E39.9968
G1 X-3.647 Y3.648
G1 X1.668 Y-1.481 E40.2425
G1 X1.785 Y-2.130
G1 X-3.919 Y3.375 E40.5061
G1 X-4.192 Y3.102
G1 X22.621 Y-22.775 E41.7455
G1 X22.407 Y-23.103
G1 X-4.465 Y2.830 E42.9876
G1 X-4.855 Y2.671
G1 X22.174 Y-23.414 E44.2370
G0 X11.800 Y-25.725 F10800
G1 X11.995 Y-25.913 E44.2460 F3600
G1 X12.551 Y-25.913
G1 X11.800 Y-25.189 E44.2807
G1 X11.800 Y-24.653
G1 X13.106 Y-25.913 E44.3411
G1 X13.661 Y-25.913
G1 X11.800 Y-24.117 E44.4271
G1 X11.800 Y-23.582
G1 X14.216 Y-25.913 E44.5388
G1 X14.771 Y-25.913
G1 X11.800 Y-23.046 E44.6761
G1 X11.800 Y-22.510
G1 X15.326 Y-25.913 E44.8391
G1 X15.881 Y-25.913
G1 X11.800 Y-21.974 E45.0278
G1 X11.800 Y-21.439
G1 X16.437 Y-25.913 E45.2421
G1 X16.992 Y-25.913
G1 X11.800 Y-20.903 E45.4821
G1 X11.800 Y-20.367
G1 X17.547 Y-25.913 E45.7477
G1 X18.102 Y-25.913
G1 X11.800 Y-19.831 E46.0390
G1 X11.800 Y-19.296
G1 X18.657 Y-25.913 E46.3560
G1 X19.212 Y-25.913
G1 X11.800 Y-18.760 E46.6986
G1 X11.800 Y-18.224
G1 X19.767 Y-25.913 E47.0669
G1 X20.116 Y-25.714
G1 X11.800 Y-17.688 E47.4513
G1 X11.800 Y-17.153
G1 X20.385 Y-25.438 E47.8481
G1 X20.654 Y-25.162
G1 X11.800 Y-16.617 E48.2574
G1 X11.800 Y-16.081
G1 X20.923 Y-24.886 E48.6791
G1 X21.192 Y-24.610
G1 X-9.795 Y5.295 E50.1114
G1 X-9.612 Y5.654
G1 X-8.205 Y4.296 E50.1765
G0 X-14.267 Y-12.355 F10800
G1 X-1.800 Y-24.387 E50.7527 F3600
G1 X-1.800 Y-23.851
G1 X-14.966 Y-11.145 E51.3613
G0 X-15.664 Y-9.935 F10800
G1 X-1.800 Y-23.315 E52.0022 F3600
G1 X-1.800 Y-22.779
G1 X-16.363 Y-8.725 E52.6753
G0 X-17.607 Y-7.453 F10800
G0 X-22.624 Y-5.361
G1 X-20.656 Y-7.260 E52.7663 F3600
G1 X-20.048 Y-7.311
G1 X-23.017 Y-4.447 E52.9035
G1 X-23.264 Y-3.672
G1 X-19.502 Y-7.302 E53.0773
G1 X-19.010 Y-7.242
G1 X-23.472 Y-2.936 E53.2836
G1 X-23.680 Y-2.200
G1 X-18.517 Y-7.181 E53.5222
G1 X-18.030 Y-7.116
G1 X-23.619 Y-1.722 E53.7805
G1 X-23.420 Y-1.378
G1 X-17.590 Y-7.005 E54.0500
G1 X-17.061 Y-7.515
G1 X-1.800 Y-22.244 E54.7554
G1 X-1.800 Y-21.708
G1 X-23.222 Y-1.034 E55.7456
G1 X-23.023 Y-0.690
G1 X-1.800 Y-21.172 E56.7266
G1 X-1.800 Y-20.636
G1 X-22.824 Y-0.346 E57.6984
G1 X-22.626 Y-0.002
G1 X-1.800 Y-20.101 E58.6611
G1 X-1.800 Y-19.565
G1 X-22.427 Y0.342 E59.6145
G1 X-22.228 Y0.686
G1 X-1.800 Y-19.029 E60.5588
G1 X-1.800 Y-18.493
G1 X-22.030 Y1.030 E61.4939
G1 X-21.831 Y1.374
G1 X-1.800 Y-17.958 E62.4198
G1 X-1.800 Y-17.422
G1 X-21.633 Y1.718 E63.3365
G1 X-21.434 Y2.062
G1 X-1.800 Y-16.886 E64.2440
G1 X-1.800 Y-16.350
G1 X-21.235 Y2.406 E65.1424
G1 X-21.037 Y2.750
G1 X-1.384 Y-16.216 E66.0508
G0 X-9.655 Y-25.913 F10800
G1 X-11.992 Y-23.659 E66.1588 F3600
G0 X-12.844 Y-22.300 F10800
G1 X-9.100 Y-25.913 E66.3319 F3600
G1 X-8.545 Y-25.913
G1 X-13.055 Y-21.561 E66.5403
G1 X-13.050 Y-21.030
G1 X-7.990 Y-25.913 E66.7742
G1 X-7.435 Y-25.913
G1 X-12.963 Y-20.578 E67.0298
G1 X-12.790 Y-20.209
G1 X-6.879 Y-25.913 E67.3030
G1 X-6.324 Y-25.913
G1 X-12.617 Y-19.841 E67.5938
G1 X-12.401 Y-19.514
G1 X-5.769 Y-25.913 E67.9004
G1 X-5.214 Y-25.913
G1 X-12.168 Y-19.202 E68.2218
G1 X-11.935 Y-18.891
G1 X-4.659 Y-25.913 E68.5581
G1 X-4.104 Y-25.913
G1 X-11.703 Y-18.580 E68.9094
G1 X-11.454 Y-18.284
G1 X-3.549 Y-25.913 E69.2748
G1 X-2.993 Y-25.913
G1 X-11.185 Y-18.008 E69.6534
G1 X-11.474 Y-17.194
G1 X-2.438 Y-25.913 E70.0710
G1 X-1.883 Y-25.913
G1 X-12.172 Y-15.984 E70.5466
G0 X-12.871 Y-14.774 F10800
G1 X-1.800 Y-25.458 E71.0583 F3600
G1 X-1.800 Y-24.922
G1 X-13.569 Y-13.564 E71.6023
G0 X-8.269 Y-7.964 F10800
G1 X-20.441 Y3.782 E72.1649 F3600
G1 X-20.242 Y4.126
G1 X-8.326 Y-7.373 E72.7157
G1 X-8.212 Y-6.948
G1 X-20.043 Y4.471 E73.2626
G1 X-19.845 Y4.815
G1 X-8.098 Y-6.522 E73.8056
G1 X-7.904 Y-6.173
G1 X-19.467 Y4.986 E74.3400
G0 X-18.085 Y4.188 F10800
G1 X-7.632 Y-5.901 E74.8232 F3600
G1 X-7.359 Y-5.628
G1 X-16.703 Y3.390 E75.2551
G0 X-15.321 Y2.592 F10800
G1 X-7.071 Y-5.370 E75.6365 F3600
G1 X-6.636 Y-5.254
G1 X-13.939 Y1.794 E75.9740
G0 X-12.557 Y0.996 F10800
G1 X-6.202 Y-5.137 E76.2678 F3600
G1 X-5.723 Y-5.064
G1 X-11.175 Y0.198 E76.5198
G1 X-11.071 Y0.633
G1 X-4.954 Y-5.270 E76.8025
G0 X-6.894 Y-5.734 F10800
G0 X-7.671 Y-6.510
G0 X-8.076 Y-8.686
G1 X-20.639 Y3.438 E77.3833 F3600
G1 X-20.838 Y3.094
G1 X-0.463 Y-16.569 E78.3251
G1 X0.383 Y-16.850
G1 X-6.929 Y-9.793 E78.6630
G0 X-5.580 Y-10.023 F10800
G1 X1.882 Y-17.225 E79.0080 F3600
G1 X2.546 Y-17.330
G1 X-5.146 Y-9.907 E79.3635
G1 X-4.711 Y-9.790
G1 X3.210 Y-17.435 E79.7296
G1 X3.809 Y-17.477
G1 X-4.374 Y-9.580 E80.1079
G1 X-4.102 Y-9.307
G1 X4.396 Y-17.508 E80.5006
G1 X4.983 Y-17.538
G1 X-3.829 Y-9.035 E80.9079
G1 X-3.587 Y-8.732
G1 X2.718 Y-14.817 E81.1993
G1 X2.524 Y-14.094
G1 X-3.473 Y-8.306 E81.4766
G1 X-3.359 Y-7.881
G1 X2.518 Y-13.553 E81.7482
G1 X2.632 Y-13.127
G1 X-3.323 Y-7.380 E82.0235
G1 X-3.516 Y-6.657
G1 X2.746 Y-12.701 E82.3130
G1 X2.966 Y-12.378
G1 X-10.997 Y1.098 E82.9584
G1 X-10.924 Y1.562
G1 X3.239 Y-12.105 E83.6131
G1 X3.512 Y-11.833
G1 X-10.850 Y2.027 E84.2769
G1 X-10.739 Y2.456
G1 X3.826 Y-11.601 E84.9502
G1 X4.261 Y-11.484
G1 X-10.625 Y2.882 E85.6383
G1 X-10.511 Y3.308
G1 X4.695 Y-11.368 E86.3412
G1 X5.230 Y-11.348
G1 X-10.395 Y3.732 E87.0634
G1 X-10.245 Y4.122
G1 X5.998 Y-11.554 E87.8142
G0 X7.277 Y-12.788 F10800
G1 X10.987 Y-16.368 E87.9857 F3600
G1 X11.384 Y-16.216
G1 X-10.095 Y4.513 E88.9786
G1 X-9.945 Y4.904
G1 X11.781 Y-16.063 E89.9828
G0 X3.917 Y-4.188 F10800
G1 X22.795 Y-22.406 E90.8554 F3600
G1 X22.968 Y-22.037
G1 X4.601 Y-4.312 E91.7043
G1 X5.136 Y-4.292
G1 X23.052 Y-21.583 E92.5325
G1 X23.053 Y-21.048
G1 X5.595 Y-4.200 E93.3394
G1 X5.998 Y-4.053
G1 X22.832 Y-20.299 E94.1175
G0 X21.953 Y-18.915 F10800
G1 X6.361 Y-3.868 E94.8382 F3600
G1 X6.679 Y-3.638
G1 X21.206 Y-17.658 E95.5097
G1 X21.404 Y-17.314
G1 X6.966 Y-3.380 E96.1771
G1 X7.218 Y-3.088
G1 X21.603 Y-16.970 E96.8420
G1 X21.802 Y-16.626
G1 X14.722 Y-9.793 E97.1693
G0 X13.575 Y-8.687 F10800
G1 X7.447 Y-2.772 E97.4525 F3600
G1 X7.639 Y-2.422
G1 X13.382 Y-7.964 E97.7180
G1 X13.325 Y-7.374
G1 X7.772 Y-2.014 E97.9747
G1 X7.846 Y-1.550
G1 X13.439 Y-6.948 E98.2332
G1 X13.553 Y-6.522
G1 X7.839 Y-1.008 E98.4973
G1 X7.665 Y-0.304
G1 X13.746 Y-6.173 E98.7784
G1 X14.019 Y-5.901
G1 X-11.701 Y18.921 E99.9672
G1 X-11.502 Y19.265
G1 X14.292 Y-5.628 E101.1595
G1 X14.580 Y-5.370
G1 X-11.303 Y19.609 E102.3558
G1 X-11.105 Y19.953
G1 X15.014 Y-5.254 E103.5631
G1 X15.449 Y-5.137
G1 X-10.906 Y20.297 E104.7813
G1 X-10.707 Y20.641
G1 X15.928 Y-5.064 E106.0125
G1 X16.696 Y-5.270
G1 X-10.509 Y20.985 E107.2700
G1 X-10.310 Y21.329
G1 X24.384 Y-12.153 E108.8736
G1 X24.582 Y-11.809
G1 X-10.112 Y21.673 E110.4772
G1 X-9.913 Y22.017
G1 X24.781 Y-11.465 E112.0809
G1 X24.980 Y-11.121
G1 X4.282 Y8.853 E113.0376
G1 X5.029 Y8.669
G1 X25.178 Y-10.777 E113.9689
G1 X25.377 Y-10.433
G1 X5.463 Y8.785 E114.8894
G1 X5.898 Y8.902
G1 X25.576 Y-10.089 E115.7990
G0 X20.961 Y1.330 F10800
G1 X18.140 Y4.052 E115.9294 F3600
G1 X18.254 Y4.478
G1 X20.860 Y1.962 E116.0498
G1 X20.682 Y2.670
G1 X18.368 Y4.904 E116.1568
G0 X20.220 Y4.187 F10800
G1 X2.887 Y20.915 E116.9581 F3600
G1 X3.442 Y20.915
G1 X19.893 Y5.038 E117.7185
G0 X19.420 Y6.031 F10800
G1 X3.997 Y20.915 E118.4314 F3600
G1 X4.552 Y20.915
G1 X18.781 Y7.183 E119.0891
G0 X18.198 Y5.603 F10800
G1 X20.489 Y3.392 E119.1950 F3600
G0 X21.443 Y1.158 F10800
G0 X21.958 Y1.113
G0 X29.416 Y4.956
G1 X30.199 Y4.200 E119.2312 F3600
G0 X30.898 Y2.991 F10800
G1 X29.069 Y4.756 E119.3157 F3600
G1 X28.721 Y4.555
G1 X31.596 Y1.781 E119.4486
G0 X32.295 Y0.571 F10800
G1 X28.374 Y4.354 E119.6298 F3600
G1 X28.027 Y4.154
G1 X32.993 Y-0.639 E119.8594
G0 X33.691 Y-1.849 F10800
G1 X27.679 Y3.953 E120.1373 F3600
G1 X27.332 Y3.753
G1 X33.638 Y-2.332 E120.4287
G1 X33.520 Y-2.754
G1 X26.985 Y3.552 E120.7308
G1 X26.637 Y3.352
G1 X33.402 Y-3.176 E121.0434
G1 X33.284 Y-3.598
G1 X26.290 Y3.151 E121.3667
G1 X25.943 Y2.951
G1 X33.166 Y-4.020 E121.7006
G1 X33.027 Y-4.422
G1 X25.595 Y2.750 E122.0441
G1 X25.248 Y2.550
G1 X32.865 Y-4.801 E122.3961
G1 X32.702 Y-5.180
G1 X24.901 Y2.349 E122.7568
G1 X24.553 Y2.148
G1 X32.540 Y-5.559 E123.1259
G1 X32.352 Y-5.914
G1 X24.206 Y1.948 E123.5024
G1 X23.859 Y1.747
G1 X32.129 Y-6.234 E123.8847
G1 X31.906 Y-6.555
G1 X23.511 Y1.547 E124.2727
G1 X23.164 Y1.346
G1 X31.612 Y-6.806 E124.6632
G1 X31.295 Y-7.037
G1 X22.817 Y1.146 E125.0551
G1 X22.469 Y0.945
G1 X30.898 Y-7.189 E125.4447
G1 X30.436 Y-7.279
G1 X22.122 Y0.745 E125.8290
G1 X21.591 Y0.722
G1 X29.925 Y-7.322 E126.2142
G1 X29.330 Y-7.283
G1 X18.004 Y3.647 E126.7377
G1 X17.731 Y3.375
G1 X28.697 Y-7.208 E127.2446
G1 X28.053 Y-7.122
G1 X17.458 Y3.102 E127.7343
G1 X17.186 Y2.830
G1 X27.363 Y-6.992 E128.2048
G1 X27.165 Y-7.336
G1 X16.795 Y2.671 E128.6841
G1 X16.361 Y2.555
G1 X26.966 Y-7.680 E129.1743
G1 X26.767 Y-8.024
G1 X15.926 Y2.438 E129.6754
G0 X13.446 Y4.296 F10800
G1 X7.295 Y10.232 E129.9597 F3600
G1 X7.409 Y10.657
G1 X13.287 Y4.985 E130.2314
G1 X13.401 Y5.411
G1 X7.523 Y11.083 E130.5031
G0 X6.069 Y9.359 F10800
G0 X5.000 Y9.073
G0 X3.931 Y9.359
G0 X2.653 Y10.426
G1 X-9.714 Y22.361 E131.0747 F3600
G1 X-9.516 Y22.705
G1 X2.459 Y11.149 E131.6282
G1 X2.557 Y11.590
G1 X-9.317 Y23.049 E132.1770
G1 X-9.118 Y23.393
G1 X2.671 Y12.016 E132.7219
G1 X2.785 Y12.441
G1 X-8.920 Y23.737 E133.2630
G0 X-2.187 Y23.133 F10800
G1 X-3.620 Y24.516 E133.3292 F3600
G1 X-4.328 Y24.664
G1 X-1.795 Y22.219 E133.4463
G1 X-1.467 Y21.367
G1 X-4.925 Y24.704 E133.6061
G1 X-5.419 Y24.645
G1 X6.257 Y13.377 E134.1458
G1 X6.887 Y12.769
G1 X13.656 Y6.236 E134.4587
G1 X13.515 Y5.837
G1 X7.405 Y11.733 E134.7411
G0 X18.575 Y23.990 F10800
G1 X19.023 Y23.558 E134.7618 F3600
G0 X19.721 Y22.349 F10800
G1 X17.821 Y24.182 E134.8496 F3600
G1 X17.067 Y24.375
G1 X20.420 Y21.139 E135.0046
G0 X21.119 Y19.929 F10800
G1 X16.345 Y24.535 E135.2252 F3600
G1 X15.712 Y24.610
G1 X21.817 Y18.719 E135.5074
G0 X22.516 Y17.509 F10800
G1 X15.079 Y24.685 E135.8512 F3600
G1 X14.529 Y24.681
G1 X22.739 Y16.757 E136.2307
G1 X22.392 Y16.557
G1 X14.018 Y24.638 E136.6177
G1 X13.598 Y24.508
G1 X22.045 Y16.356 E137.0082
G1 X21.697 Y16.155
G1 X13.221 Y24.336 E137.4000
G1 X12.919 Y24.091
G1 X21.350 Y15.955 E137.7897
G1 X21.003 Y15.754
G1 X12.653 Y23.812 E138.1756
G1 X12.430 Y23.492
G1 X20.655 Y15.554 E138.5558
G1 X20.308 Y15.353
G1 X12.207 Y23.171 E138.9302
G1 X12.042 Y22.795
G1 X19.961 Y15.153 E139.2963
G1 X19.613 Y14.952
G1 X11.879 Y22.416 E139.6537
G1 X11.717 Y22.037
G1 X19.266 Y14.752 E140.0027
G1 X18.919 Y14.551
G1 X11.554 Y21.658 E140.3431
G1 X11.432 Y21.241
G1 X18.571 Y14.351 E140.6731
G1 X18.224 Y14.150
G1 X11.214 Y20.915 E140.9971
G1 X10.659 Y20.915
G1 X17.877 Y13.949 E141.3308
G1 X17.529 Y13.749
G1 X10.103 Y20.915 E141.6740
G1 X9.548 Y20.915
G1 X17.182 Y13.548 E142.0268
G1 X16.835 Y13.348
G1 X8.993 Y20.915 E142.3893
G1 X8.438 Y20.915
G1 X16.487 Y13.147 E142.7614
G1 X16.140 Y12.947
G1 X7.883 Y20.915 E143.1430
G1 X7.328 Y20.915
G1 X15.793 Y12.746 E143.5343
G1 X15.445 Y12.546
G1 X6.773 Y20.915 E143.9352
G1 X6.217 Y20.915
G1 X15.098 Y12.345 E144.3456
G1 X14.751 Y12.145
G1 X5.662 Y20.915 E144.7657
G1 X5.107 Y20.915
G1 X14.403 Y11.944 E145.1954
G1 X14.626 Y11.729
G1 X17.568 Y8.889 E145.3314
G0 X16.441 Y7.299 F10800
G1 X2.331 Y20.915 E145.9836 F3600
G1 X1.776 Y20.915
G1 X15.739 Y7.440 E146.6290
G1 X15.304 Y7.324
G1 X1.221 Y20.915 E147.2800
G1 X0.666 Y20.915
G1 X14.870 Y7.208 E147.9365
G1 X14.474 Y7.054
G1 X0.111 Y20.915 E148.6004
G1 X-0.444 Y20.915
G1 X14.201 Y6.781 E149.2774
G1 X13.929 Y6.509
G1 X-0.999 Y20.915 E149.9674
G0 X-12.694 Y17.200 F10800
G1 X-11.483 Y16.031 E150.0234 F3600
G0 X-10.101 Y15.234 F10800
G1 X-12.495 Y17.544 E150.1341 F3600
G1 X-12.297 Y17.888
G1 X-8.719 Y14.436 E150.2994
G0 X-7.337 Y13.638 F10800
G1 X-12.098 Y18.232 E150.5195 F3600
G1 X-11.899 Y18.577
G1 X-5.956 Y12.840 E150.7942
G0 X-5.818 Y11.273 F10800
G0 X-5.912 Y7.440
G1 X-7.500 Y8.974 E150.8676 F3600
G1 X-7.744 Y8.673
G1 X-6.346 Y7.324 E150.9322
G1 X-6.781 Y7.208
G1 X-7.987 Y8.372 E150.9880
G1 X-8.215 Y8.056
G1 X-7.177 Y7.054 E151.0360
G1 X-7.449 Y6.782
