; GCode generated by CraftWare

G28 X0 Y0
G28 Z0

M190 S60 ;set bed temp (wait)
M109 S205 ;set head temp (wait)
; ------------------------------------
; Layer #0
; ------------------------------------
G21 ; mm
G90 ; abs
G92 E0 ; reset extr
M106 S0
;segType:Skirt
G0 F4800 E-1.0000
G0 F2400 Z0.200
G0 X-3.935 Y-1.033 F10800
G0 F4800 E0.0000
G1 X-1.186 Y1.601 E0.1266 F600
G1 X-0.874 Y1.780 E0.1386
G1 X-0.624 Y2.019 E0.1501
G1 X-0.436 Y2.079 E0.1567
G1 X-0.249 Y2.259 E0.1653
G1 X0.501 Y2.379 E0.1905
G1 X0.751 Y2.379 E0.1988
G1 X0.876 Y2.498 E0.2046
G1 X2.875 Y2.498 E0.2711
G1 X3.250 Y2.379 E0.2842
G1 X3.750 Y2.379 E0.3008
G1 X4.999 Y1.660 E0.3487
G1 X7.748 Y-0.974 E0.4754
G1 X7.935 Y-1.273 E0.4871
G1 X8.185 Y-1.512 E0.4986
G1 X8.373 Y-1.812 E0.5104
G1 X8.623 Y-2.530 E0.5357
G1 X8.685 Y-2.949 E0.5497
G1 X8.685 Y-5.343 E0.6294
G1 X8.560 Y-6.181 E0.6576
G1 X7.998 Y-7.079 E0.6928
G1 X6.748 Y-8.276 E0.7503
G1 X6.623 Y-8.516 E0.7593
G1 X7.873 Y-8.516 E0.8009
G1 X10.622 Y-11.149 E0.9275
G1 X10.684 Y-11.568 E0.9416
G1 X10.684 Y-23.061 E1.3238
G1 X7.935 Y-25.695 E1.4505
G1 X7.498 Y-25.754 E1.4651
G1 X-3.997 Y-25.754 E1.8475
G1 X-6.746 Y-23.121 E1.9741
G1 X-6.808 Y-22.702 E1.9882
G1 X-6.808 Y-11.209 E2.3704
G1 X-4.059 Y-8.575 E2.4970
G1 X-3.622 Y-8.516 E2.5117
G1 X-3.123 Y-8.516 E2.5283
G1 X-2.685 Y-8.456 E2.5430
G1 X-3.935 Y-7.258 E2.6006
G1 X-4.122 Y-6.959 E2.6123
G1 X-4.372 Y-6.719 E2.6238
G1 X-4.559 Y-6.420 E2.6356
G1 X-4.559 Y-6.181 E2.6435
G1 X-4.684 Y-6.061 E2.6493
G1 X-4.684 Y-5.822 E2.6573
G1 X-4.809 Y-5.702 E2.6630
G1 X-4.809 Y-2.589 E2.7665
G1 X-4.684 Y-2.470 E2.7723
G1 X-4.684 Y-2.230 E2.7803
G1 X-4.559 Y-2.111 E2.7860
G1 X-4.559 Y-1.871 E2.7940
G1 X-4.372 Y-1.572 E2.8057
G1 X-4.122 Y-1.333 E2.8172
G1 X-3.935 Y-1.033 E2.8290
G1 X-4.309 Y-1.033 E2.8415
G1 X-1.061 Y2.079 E2.9911
G1 X-0.436 Y2.439 E3.0151
G1 X-0.249 Y2.618 E3.0237
G1 X0.501 Y2.738 E3.0489
G1 X0.751 Y2.738 E3.0572
G1 X0.876 Y2.857 E3.0630
G1 X2.875 Y2.857 E3.1295
G1 X3.250 Y2.738 E3.1426
G1 X3.750 Y2.738 E3.1592
G1 X4.999 Y2.019 E3.2071
G1 X8.248 Y-1.093 E3.3568
G1 X8.435 Y-1.392 E3.3685
G1 X8.685 Y-1.632 E3.3800
G1 X9.060 Y-2.709 E3.4180
G1 X9.060 Y-5.582 E3.5135
G1 X8.935 Y-5.942 E3.5262
G1 X8.935 Y-6.181 E3.5341
G1 X8.373 Y-7.079 E3.5694
G1 X7.373 Y-8.036 E3.6154
G1 X7.373 Y-8.156 E3.6194
G1 X7.873 Y-8.156 E3.6360
G1 X10.872 Y-11.030 E3.7742
G1 X11.059 Y-11.329 E3.7859
G1 X11.059 Y-23.061 E4.1761
G1 X8.060 Y-25.934 E4.3142
G1 X7.748 Y-26.113 E4.3262
G1 X-3.997 Y-26.113 E4.7169
G1 X-6.996 Y-23.240 E4.8550
G1 X-7.183 Y-22.941 E4.8667
G1 X-7.183 Y-11.209 E5.2569
G1 X-4.184 Y-8.336 E5.3951
G1 X-3.872 Y-8.156 E5.4071
G1 X-3.435 Y-8.096 E5.4217
G1 X-4.434 Y-7.139 E5.4678
G1 X-4.809 Y-6.540 E5.4913
G1 X-4.934 Y-6.420 E5.4970
G1 X-4.934 Y-6.181 E5.5050
G1 X-5.059 Y-6.061 E5.5108
G1 X-5.059 Y-5.822 E5.5187
G1 X-5.184 Y-5.702 E5.5245
G1 X-5.184 Y-2.589 E5.6280
G1 X-5.059 Y-2.470 E5.6338
G1 X-5.059 Y-2.230 E5.6417
G1 X-4.934 Y-2.111 E5.6475
G1 X-4.934 Y-1.871 E5.6554
G1 X-4.747 Y-1.572 E5.6672
G1 X-4.497 Y-1.333 E5.6787
G1 X-4.309 Y-1.033 E5.6904
G1 X-4.684 Y-1.033 E5.7029
G1 X-1.186 Y2.319 E5.8641
G1 X-0.874 Y2.498 E5.8760
G1 X-0.624 Y2.738 E5.8875
G1 X-0.436 Y2.798 E5.8941
G1 X-0.249 Y2.977 E5.9027
G1 X0.501 Y3.097 E5.9280
G1 X0.751 Y3.097 E5.9363
G1 X0.876 Y3.217 E5.9420
G1 X2.875 Y3.217 E6.0085
G1 X3.250 Y3.097 E6.0216
G1 X3.750 Y3.097 E6.0382
G1 X4.999 Y2.379 E6.0862
G1 X8.498 Y-0.974 E6.2473
G1 X8.685 Y-1.273 E6.2591
G1 X8.935 Y-1.512 E6.2706
G1 X9.122 Y-1.812 E6.2823
G1 X9.372 Y-2.530 E6.3076
G1 X9.435 Y-2.949 E6.3217
G1 X9.435 Y-5.343 E6.4013
G1 X9.310 Y-6.181 E6.4295
G1 X8.748 Y-7.079 E6.4647
G1 X7.998 Y-7.797 E6.4993
G1 X8.123 Y-8.037 E6.5083
G1 X11.371 Y-11.149 E6.6579
G1 X11.434 Y-11.568 E6.6720
G1 X11.434 Y-23.061 E7.0543
G1 X7.935 Y-26.413 E7.2154
G1 X7.498 Y-26.473 E7.2301
G1 X-3.997 Y-26.473 E7.6124
G1 X-7.496 Y-23.121 E7.7736
G1 X-7.558 Y-22.702 E7.7876
G1 X-7.558 Y-11.209 E8.1699
G1 X-4.059 Y-7.857 E8.3311
G1 X-4.809 Y-7.139 E8.3656
G1 X-5.184 Y-6.540 E8.3891
G1 X-5.309 Y-6.420 E8.3948
G1 X-5.309 Y-6.181 E8.4028
G1 X-5.434 Y-6.061 E8.4085
G1 X-5.434 Y-5.822 E8.4165
G1 X-5.559 Y-5.702 E8.4223
G1 X-5.559 Y-2.589 E8.5258
G1 X-5.434 Y-2.470 E8.5315
G1 X-5.434 Y-2.230 E8.5395
G1 X-5.309 Y-2.111 E8.5453
G1 X-5.309 Y-1.871 E8.5532
G1 X-5.122 Y-1.572 E8.5650
G1 X-4.872 Y-1.333 E8.5765
G1 X-4.684 Y-1.033 E8.5882
G1 X-5.059 Y-1.033 E8.6007
G1 X-1.061 Y2.798 E8.7849
G1 X-0.436 Y3.157 E8.8088
G1 X-0.249 Y3.336 E8.8175
G1 X0.501 Y3.456 E8.8427
G1 X0.751 Y3.456 E8.8510
G1 X0.876 Y3.576 E8.8568
G1 X2.875 Y3.576 E8.9233
G1 X3.250 Y3.456 E8.9364
G1 X3.750 Y3.456 E8.9530
G1 X4.999 Y2.738 E9.0009
G1 X8.997 Y-1.093 E9.1851
G1 X9.132 Y-1.308 E9.1935
G0 F4800 E8.1935
G0 X6.724 Y-2.892 F10800
G0 X4.316 Y-4.475
G0 F4800 E9.1935
;segType:Perimeter
G1 X4.787 Y-4.012 E9.2155 F359
G1 X4.720 Y-3.537 E9.2314
G1 X4.629 Y-3.235 E9.2419
G1 X4.505 Y-2.945 E9.2524
G1 X4.350 Y-2.672 E9.2629
G1 X4.165 Y-2.417 E9.2733
G1 X3.953 Y-2.185 E9.2838
G1 X3.716 Y-1.978 E9.2942
G1 X3.459 Y-1.799 E9.3047
G1 X3.183 Y-1.651 E9.3151
G1 X2.892 Y-1.534 E9.3255
G1 X2.590 Y-1.451 E9.3359
G1 X2.281 Y-1.402 E9.3463
G1 X1.969 Y-1.388 E9.3567
G1 X1.657 Y-1.409 E9.3671
G1 X1.349 Y-1.465 E9.3775
G1 X1.049 Y-1.555 E9.3880
G1 X0.761 Y-1.678 E9.3984
G1 X0.489 Y-1.833 E9.4088
G1 X0.235 Y-2.017 E9.4192
G1 X0.003 Y-2.229 E9.4297
G1 X-0.204 Y-2.466 E9.4401
G1 X-0.383 Y-2.725 E9.4506
G1 X-0.532 Y-3.002 E9.4611
G1 X-0.650 Y-3.295 E9.4716
G1 X-0.734 Y-3.599 E9.4821
G1 X-0.783 Y-3.911 E9.4926
G1 X-0.797 Y-4.226 E9.5031
G1 X-0.776 Y-4.541 E9.5136
G1 X-0.720 Y-4.851 E9.5241
G1 X-0.629 Y-5.154 E9.5346
G1 X-0.505 Y-5.443 E9.5450
G1 X-0.350 Y-5.717 E9.5555
G1 X-0.165 Y-5.972 E9.5660
G1 X0.047 Y-6.204 E9.5764
G1 X0.284 Y-6.411 E9.5869
G1 X0.542 Y-6.589 E9.5973
G1 X0.818 Y-6.738 E9.6077
G1 X1.109 Y-6.855 E9.6182
G1 X1.410 Y-6.938 E9.6286
G1 X1.719 Y-6.987 E9.6390
G1 X2.031 Y-7.001 E9.6494
G1 X2.344 Y-6.980 E9.6598
G1 X2.651 Y-6.924 E9.6702
G1 X2.951 Y-6.834 E9.6806
G1 X3.239 Y-6.711 E9.6910
G1 X3.512 Y-6.556 E9.7014
G1 X3.766 Y-6.372 E9.7119
G1 X3.997 Y-6.159 E9.7223
G1 X4.204 Y-5.923 E9.7328
G1 X4.383 Y-5.664 E9.7432
G1 X4.533 Y-5.386 E9.7537
G1 X4.650 Y-5.094 E9.7642
G1 X4.734 Y-4.790 E9.7747
G1 X4.783 Y-4.480 E9.7851
G1 X4.793 Y-4.119 E9.7971
G1 X4.273 Y-3.707
;segType:Loop
G0 X4.215 Y-3.278 F10800
G1 X4.143 Y-3.110 E9.8032 F600
G1 X4.009 Y-2.873 E9.8123
G1 X3.849 Y-2.653 E9.8213
G1 X3.667 Y-2.454 E9.8303
G1 X3.464 Y-2.276 E9.8393
G1 X3.243 Y-2.123 E9.8482
G1 X3.007 Y-1.996 E9.8571
G1 X2.759 Y-1.896 E9.8660
G1 X2.502 Y-1.825 E9.8749
G1 X2.239 Y-1.784 E9.8837
G1 X1.974 Y-1.772 E9.8926
G1 X1.708 Y-1.790 E9.9014
G1 X1.446 Y-1.837 E9.9103
G1 X1.191 Y-1.914 E9.9191
G1 X0.945 Y-2.019 E9.9280
G1 X0.712 Y-2.152 E9.9369
G1 X0.494 Y-2.310 E9.9459
G1 X0.295 Y-2.491 E9.9549
G1 X0.117 Y-2.696 E9.9639
G1 X-0.037 Y-2.919 E9.9729
G1 X-0.167 Y-3.159 E9.9820
G1 X-0.269 Y-3.413 E9.9911
G1 X-0.342 Y-3.677 E10.0002
G1 X-0.384 Y-3.948 E10.0093
G1 X-0.397 Y-4.222 E10.0184
G1 X-0.378 Y-4.496 E10.0276
G1 X-0.329 Y-4.765 E10.0367
G1 X-0.250 Y-5.028 E10.0458
G1 X-0.143 Y-5.279 E10.0549
G1 X-0.009 Y-5.516 E10.0639
G1 X0.151 Y-5.736 E10.0730
G1 X0.333 Y-5.935 E10.0820
G1 X0.537 Y-6.113 E10.0909
G1 X0.758 Y-6.266 E10.0999
G1 X0.993 Y-6.393 E10.1088
G1 X1.242 Y-6.492 E10.1177
G1 X1.499 Y-6.563 E10.1266
G1 X1.761 Y-6.605 E10.1354
G1 X2.026 Y-6.617 E10.1442
G1 X2.292 Y-6.599 E10.1531
G1 X2.554 Y-6.552 E10.1619
G1 X2.809 Y-6.475 E10.1708
G1 X3.055 Y-6.370 E10.1797
G1 X3.288 Y-6.237 E10.1886
G1 X3.506 Y-6.079 E10.1976
G1 X3.705 Y-5.897 E10.2065
G1 X3.883 Y-5.693 E10.2155
G1 X4.038 Y-5.469 E10.2246
G1 X4.167 Y-5.229 E10.2337
G1 X4.269 Y-4.976 E10.2427
G1 X4.342 Y-4.712 E10.2518
G1 X4.384 Y-4.446 E10.2608
G1 X4.394 Y-4.086 E10.2728
G1 X4.327 Y-3.616 E10.2886
G1 X4.327 Y-3.616
;segType:HShell
G0 X3.320 Y-2.661 F10800
G1 X3.033 Y-2.437 E10.3007 F300
G1 X2.629 Y-2.248 E10.3155
G1 X2.198 Y-2.155 E10.3302
G1 X1.758 Y-2.160 E10.3448
G1 X1.323 Y-2.264 E10.3597
G1 X1.129 Y-2.347 E10.3667
G1 X0.742 Y-2.596 E10.3820
G1 X0.428 Y-2.918 E10.3970
G1 X0.188 Y-3.311 E10.4123
G1 X0.039 Y-3.753 E10.4278
G1 X-0.008 Y-4.218 E10.4433
G1 X0.049 Y-4.682 E10.4589
G1 X0.207 Y-5.119 E10.4744
G1 X0.457 Y-5.506 E10.4897
G1 X0.607 Y-5.671 E10.4971
G1 X0.967 Y-5.952 E10.5123
G1 X1.371 Y-6.141 E10.5271
G1 X1.802 Y-6.234 E10.5418
G1 X2.242 Y-6.229 E10.5564
G1 X2.677 Y-6.125 E10.5713
G1 X2.872 Y-6.041 E10.5783
G1 X3.258 Y-5.793 E10.5936
G1 X3.572 Y-5.471 E10.6086
G1 X3.813 Y-5.077 E10.6239
G1 X3.961 Y-4.636 E10.6394
G1 X3.997 Y-4.412 E10.6469
G1 X4.006 Y-4.106 E10.6571
G1 X3.947 Y-3.693 E10.6710
G1 X3.793 Y-3.270 E10.6860
G1 X3.543 Y-2.882 E10.7013
G1 X3.543 Y-2.882
G0 X2.413 Y-2.570 F10800
G1 X2.159 Y-2.515 E10.7100 F300
G1 X1.807 Y-2.519 E10.7217
G1 X1.446 Y-2.605 E10.7340
G1 X1.311 Y-2.663 E10.7389
G1 X0.987 Y-2.872 E10.7517
G1 X0.731 Y-3.134 E10.7639
G1 X0.532 Y-3.459 E10.7766
G1 X0.408 Y-3.826 E10.7895
G1 X0.369 Y-4.214 E10.8024
G1 X0.417 Y-4.601 E10.8154
G1 X0.548 Y-4.964 E10.8282
G1 X0.760 Y-5.292 E10.8412
G1 X0.869 Y-5.412 E10.8466
G1 X1.171 Y-5.647 E10.8593
G1 X1.496 Y-5.799 E10.8713
G1 X1.842 Y-5.874 E10.8830
G1 X2.194 Y-5.870 E10.8948
G1 X2.554 Y-5.784 E10.9071
G1 X2.689 Y-5.726 E10.9120
G1 X3.013 Y-5.517 E10.9248
G1 X3.269 Y-5.254 E10.9370
G1 X3.469 Y-4.929 E10.9497
G1 X3.595 Y-4.554 E10.9629
G1 X3.630 Y-4.125 E10.9771
G1 X3.580 Y-3.777 E10.9888
G1 X3.452 Y-3.425 E11.0013
G1 X3.241 Y-3.096 E11.0143
G1 X3.131 Y-2.977 E11.0197
G1 X2.830 Y-2.742 E11.0324
G1 X2.588 Y-2.629 E11.0413
G0 X1.509 Y-2.974 F10800
G1 X1.494 Y-2.979 E11.0418 F300
G1 X1.232 Y-3.147 E11.0522
G1 X1.034 Y-3.351 E11.0616
G1 X0.876 Y-3.608 E11.0716
G1 X0.778 Y-3.900 E11.0819
G1 X0.746 Y-4.210 E11.0922
G1 X0.785 Y-4.520 E11.1026
G1 X0.889 Y-4.809 E11.1129
G1 X1.131 Y-5.152 E11.1268
G1 X1.374 Y-5.342 E11.1371
G1 X1.622 Y-5.458 E11.1462
G1 X1.881 Y-5.514 E11.1550
G1 X2.145 Y-5.511 E11.1638
G1 X2.507 Y-5.410 E11.1763
G1 X2.768 Y-5.242 E11.1866
G1 X2.967 Y-5.038 E11.1961
G1 X3.124 Y-4.781 E11.2061
G1 X3.224 Y-4.483 E11.2166
G1 X3.253 Y-4.136 E11.2282
G1 X3.214 Y-3.861 E11.2374
G1 X3.111 Y-3.581 E11.2473
G1 X2.870 Y-3.237 E11.2613
G1 X2.627 Y-3.047 E11.2716
G1 X2.379 Y-2.931 E11.2807
G1 X2.119 Y-2.875 E11.2895
G1 X1.855 Y-2.878 E11.2983
G1 X1.689 Y-2.924 E11.3040
G0 X1.192 Y-3.841 F10800
G1 X1.147 Y-3.973 E11.3087 F300
G1 X1.123 Y-4.206 E11.3164
G1 X1.153 Y-4.439 E11.3243
G1 X1.228 Y-4.647 E11.3316
G1 X1.411 Y-4.907 E11.3422
G1 X1.578 Y-5.037 E11.3492
G1 X1.747 Y-5.117 E11.3554
G1 X2.089 Y-5.152 E11.3669
G1 X2.346 Y-5.081 E11.3758
G1 X2.523 Y-4.966 E11.3828
G1 X2.664 Y-4.822 E11.3895
G1 X2.780 Y-4.633 E11.3969
G1 X2.854 Y-4.413 E11.4046
G1 X2.875 Y-4.146 E11.4135
G1 X2.847 Y-3.946 E11.4202
G1 X2.773 Y-3.743 E11.4274
G1 X2.590 Y-3.482 E11.4380
G1 X2.423 Y-3.351 E11.4450
G1 X2.254 Y-3.272 E11.4513
G1 X1.911 Y-3.236 E11.4627
G1 X1.655 Y-3.308 E11.4716
G1 X1.477 Y-3.423 E11.4786
G1 X1.336 Y-3.567 E11.4853
G1 X1.336 Y-3.567
G0 X1.619 Y-4.559 F10800
G1 X1.691 Y-4.662 E11.4895 F300
G1 X1.853 Y-4.766 E11.4959
G1 X2.056 Y-4.787 E11.5027
G1 X2.278 Y-4.691 E11.5107
G1 X2.435 Y-4.485 E11.5193
G1 X2.498 Y-4.157 E11.5305
G1 X2.435 Y-3.905 E11.5391
G1 X2.310 Y-3.727 E11.5463
G1 X2.148 Y-3.623 E11.5527
G1 X1.944 Y-3.602 E11.5596
G1 X1.722 Y-3.698 E11.5676
G1 X1.565 Y-3.904 E11.5762
G1 X1.501 Y-4.202 E11.5864
G1 X1.546 Y-4.397 E11.5930
G0 X2.099 Y-4.251 F10800
G1 X2.115 Y-4.167 E11.5959 F300
G1 X2.005 Y-3.970 E11.6034
G1 X1.916 Y-4.053 E11.6074
G1 X1.884 Y-4.199 E11.6124
G1 X1.994 Y-4.419 E11.6206
G1 X1.994 Y-4.419
G0 F4800 E10.6206
G0 X-1.131 Y-10.612 F10800
G0 X-2.173 Y-12.676
G0 F4800 E11.6206
;segType:Perimeter
G1 X-2.797 Y-12.429 E11.6429 F359
G1 X-2.797 Y-21.989 E11.9609
G1 X6.798 Y-21.989 E12.2800
G1 X6.798 Y-12.375 E12.5998
G1 X-2.741 Y-12.375 E12.9170
G1 X-2.482 Y-12.973
;segType:Loop
G0 X-2.397 Y-13.363 F10800
G1 X-2.397 Y-21.606 E13.1911 F600
G1 X6.398 Y-21.606 E13.4837
G1 X6.398 Y-12.758 E13.7779
G1 X-2.397 Y-12.758 E14.0704
G1 X-2.397 Y-13.184 E14.0846
;segType:Perimeter
G0 X2.810 Y-14.647 F10800
G1 X2.250 Y-15.009 E14.1068 F359
G1 X1.911 Y-14.992 E14.1181
G1 X1.519 Y-15.043 E14.1312
G1 X1.142 Y-15.164 E14.1444
G1 X0.794 Y-15.350 E14.1575
G1 X0.485 Y-15.594 E14.1706
G1 X0.227 Y-15.886 E14.1836
G1 X0.104 Y-16.072 E14.1910
G1 X-0.056 Y-16.405 E14.2033
G1 X-0.162 Y-16.782 E14.2163
G1 X-0.199 Y-17.172 E14.2293
G1 X-0.166 Y-17.562 E14.2424
G1 X-0.063 Y-17.940 E14.2554
G1 X0.105 Y-18.294 E14.2684
G1 X0.335 Y-18.613 E14.2815
G1 X0.618 Y-18.887 E14.2946
G1 X0.946 Y-19.105 E14.3077
G1 X1.309 Y-19.262 E14.3209
G1 X1.694 Y-19.352 E14.3340
G1 X2.090 Y-19.371 E14.3472
G1 X2.477 Y-19.321 E14.3602
G1 X2.677 Y-19.267 E14.3671
G1 X3.037 Y-19.115 E14.3801
G1 X3.367 Y-18.899 E14.3932
G1 X3.653 Y-18.628 E14.4063
G1 X3.885 Y-18.311 E14.4193
G1 X4.057 Y-17.959 E14.4324
G1 X4.163 Y-17.581 E14.4454
G1 X4.199 Y-17.196 E14.4583
G1 X4.191 Y-16.992 E14.4651
G1 X4.123 Y-16.610 E14.4780
G1 X3.988 Y-16.243 E14.4910
G1 X3.788 Y-15.905 E14.5041
G1 X3.530 Y-15.607 E14.5172
G1 X3.227 Y-15.363 E14.5301
G1 X3.050 Y-15.256 E14.5370
G1 X2.692 Y-15.101 E14.5500
G1 X2.361 Y-15.024 E14.5613
G1 X1.933 Y-14.524
;segType:Loop
G0 X1.164 Y-14.753 F10800
G1 X0.980 Y-14.812 E14.5677 F600
G1 X0.567 Y-15.032 E14.5832
G1 X0.202 Y-15.320 E14.5987
G1 X-0.097 Y-15.659 E14.6138
G1 X-0.248 Y-15.889 E14.6229
G1 X-0.434 Y-16.274 E14.6371
G1 X-0.558 Y-16.715 E14.6524
G1 X-0.601 Y-17.171 E14.6676
G1 X-0.562 Y-17.627 E14.6828
G1 X-0.441 Y-18.069 E14.6981
G1 X-0.244 Y-18.484 E14.7133
G1 X0.026 Y-18.859 E14.7287
G1 X0.360 Y-19.181 E14.7441
G1 X0.748 Y-19.440 E14.7597
G1 X1.178 Y-19.626 E14.7752
G1 X1.636 Y-19.733 E14.7909
G1 X2.107 Y-19.756 E14.8066
G1 X2.559 Y-19.697 E14.8217
G1 X2.813 Y-19.628 E14.8305
G1 X3.232 Y-19.451 E14.8456
G1 X3.622 Y-19.196 E14.8611
G1 X3.959 Y-18.877 E14.8766
G1 X4.233 Y-18.504 E14.8919
G1 X4.434 Y-18.091 E14.9072
G1 X4.558 Y-17.649 E14.9225
G1 X4.600 Y-17.206 E14.9373
G1 X4.590 Y-16.952 E14.9458
G1 X4.512 Y-16.513 E14.9606
G1 X4.353 Y-16.083 E14.9758
G1 X4.118 Y-15.686 E14.9912
G1 X3.815 Y-15.336 E15.0066
G1 X3.463 Y-15.053 E15.0216
G1 X3.240 Y-14.918 E15.0303
G1 X2.823 Y-14.738 E15.0454
G1 X2.365 Y-14.631 E15.0610
G1 X1.894 Y-14.608 E15.0767
G1 X1.427 Y-14.669 E15.0924
G1 X1.342 Y-14.696 E15.0953
;segType:HShell
G0 X0.039 Y-14.968 F10800
G1 X-0.071 Y-15.055 E15.1000 F300
G1 X-0.410 Y-15.439 E15.1170
G1 X-0.589 Y-15.711 E15.1279
G1 X-0.799 Y-16.147 E15.1439
G1 X-0.941 Y-16.649 E15.1613
G1 X-0.990 Y-17.169 E15.1787
G1 X-0.945 Y-17.689 E15.1960
G1 X-0.808 Y-18.193 E15.2134
G1 X-0.583 Y-18.668 E15.2309
G1 X-0.274 Y-19.097 E15.2485
G1 X0.110 Y-19.467 E15.2662
G1 X0.556 Y-19.765 E15.2840
G1 X1.051 Y-19.979 E15.3020
G1 X1.580 Y-20.102 E15.3200
G1 X2.123 Y-20.129 E15.3381
G1 X2.638 Y-20.061 E15.3554
G1 X2.944 Y-19.978 E15.3660
G1 X3.421 Y-19.777 E15.3832
G1 X3.870 Y-19.484 E15.4010
G1 X4.256 Y-19.117 E15.4187
G1 X4.570 Y-18.691 E15.4363
G1 X4.800 Y-18.218 E15.4538
G1 X4.941 Y-17.714 E15.4712
G1 X4.988 Y-17.215 E15.4879
G1 X4.976 Y-16.913 E15.4979
G1 X4.889 Y-16.420 E15.5146
G1 X4.707 Y-15.929 E15.5320
G1 X4.439 Y-15.475 E15.5496
G1 X4.092 Y-15.073 E15.5672
G1 X3.692 Y-14.752 E15.5843
G1 X3.424 Y-14.590 E15.5947
G1 X2.949 Y-14.385 E15.6119
G1 X2.421 Y-14.261 E15.6299
G1 X1.877 Y-14.235 E15.6480
G1 X1.339 Y-14.305 E15.6661
G1 X0.823 Y-14.471 E15.6841
G1 X0.348 Y-14.723 E15.7020
G1 X0.183 Y-14.854 E15.7090
G0 X-1.036 Y-15.780 F10800
G1 X-1.153 Y-16.024 E15.7180 F300
G1 X-1.312 Y-16.585 E15.7374
G1 X-1.366 Y-17.168 E15.7568
G1 X-1.316 Y-17.750 E15.7763
G1 X-1.163 Y-18.314 E15.7957
G1 X-0.911 Y-18.846 E15.8153
G1 X-0.563 Y-19.328 E15.8351
G1 X-0.133 Y-19.743 E15.8549
G1 X0.370 Y-20.079 E15.8751
G1 X0.928 Y-20.320 E15.8953
G1 X1.525 Y-20.460 E15.9157
G1 X2.139 Y-20.489 E15.9361
G1 X2.715 Y-20.414 E15.9554
G1 X3.072 Y-20.318 E15.9677
G1 X3.604 Y-20.093 E15.9869
G1 X4.110 Y-19.762 E16.0070
G1 X4.544 Y-19.350 E16.0269
G1 X4.896 Y-18.872 E16.0467
G1 X5.154 Y-18.342 E16.0663
G1 X5.312 Y-17.778 E16.0858
G1 X5.364 Y-17.224 E16.1043
G1 X5.350 Y-16.876 E16.1159
G1 X5.253 Y-16.329 E16.1343
G1 X5.050 Y-15.779 E16.1539
G1 X4.749 Y-15.270 E16.1735
G1 X4.359 Y-14.819 E16.1933
G1 X3.914 Y-14.461 E16.2123
G1 X3.602 Y-14.273 E16.2245
G1 X3.072 Y-14.044 E16.2437
G1 X2.475 Y-13.904 E16.2640
G1 X1.861 Y-13.874 E16.2845
G1 X1.253 Y-13.954 E16.3049
G1 X0.671 Y-14.140 E16.3252
G1 X0.136 Y-14.425 E16.3454
G1 X-0.336 Y-14.798 E16.3654
G1 X-0.714 Y-15.226 E16.3844
G1 X-0.920 Y-15.540 E16.3969
G1 X-0.957 Y-15.617 E16.3997
G0 X-1.211 Y-15.308 F10800
G1 X-1.017 Y-15.013 E16.4115 F300
G1 X-0.601 Y-14.542 E16.4324
G1 X-0.077 Y-14.127 E16.4546
G1 X0.446 Y-13.849 E16.4743
G1 X-1.259 Y-13.849 E16.5310
G1 X-1.259 Y-15.295 E16.5791
G0 X-2.009 Y-14.352 F10800
G1 X-2.009 Y-21.234 E16.8080 F300
G1 X6.010 Y-21.234 E17.0747
G1 X6.010 Y-13.130 E17.3443
G1 X-2.009 Y-13.130 E17.6110
G1 X-2.009 Y-14.172 E17.6457
G0 X-1.634 Y-15.748 F10800
G1 X-1.634 Y-20.874 E17.8162 F300
G1 X5.635 Y-20.874 E18.0579
G1 X5.635 Y-13.489 E18.3036
G1 X-1.634 Y-13.489 E18.5453
G1 X-1.634 Y-15.569 E18.6145
G0 X-1.259 Y-18.981 F10800
G1 X-1.259 Y-18.981 F300
G1 X-1.259 Y-20.515 E18.6655
G1 X0.467 Y-20.515 E18.7229
G1 X0.184 Y-20.393 E18.7331
G1 X-0.375 Y-20.019 E18.7555
G1 X-0.853 Y-19.559 E18.7776
G1 X-1.238 Y-19.024 E18.7995
G0 X3.629 Y-20.515 F10800
G1 X5.259 Y-20.515 E18.8537 F300
G1 X5.259 Y-18.976 E18.9049
G1 X5.222 Y-19.053 E18.9077
G1 X4.832 Y-19.584 E18.9297
G1 X4.349 Y-20.041 E18.9518
G1 X3.787 Y-20.408 E18.9741
G1 X3.621 Y-20.479 E18.9801
G0 X4.387 Y-17.200 F10800
G0 X3.620 Y-13.886
G1 X3.780 Y-13.955 E18.9859 F300
G1 X4.136 Y-14.170 E18.9997
G1 X4.626 Y-14.565 E19.0207
G1 X5.059 Y-15.065 E19.0427
G1 X5.259 Y-15.404 E19.0558
G1 X5.259 Y-13.849 E19.1075
G1 X3.628 Y-13.849 E19.1617
; ------------------------------------
; Layer #1
; ------------------------------------
G21 ; mm
G90 ; abs
G92 E0 ; reset extr
M106 S0
;segType:Perimeter
G0 F4800 E-1.0000
G0 F2400 Z0.400
G0 X-2.173 Y-12.676 F10800
G0 F4800 E0.0000
G1 X-2.797 Y-12.429 E0.0223 F2159
G1 X-2.797 Y-21.989 E0.3403
G1 X6.798 Y-21.989 E0.6594
G1 X6.798 Y-12.375 E0.9792
G1 X-2.741 Y-12.375 E1.2964
G1 X-2.482 Y-12.973
;segType:Loop
G0 X-2.397 Y-13.363 F10800
G1 X-2.397 Y-21.606 E1.5706 F3600
G1 X6.398 Y-21.606 E1.8631
G1 X6.398 Y-12.758 E2.1574
G1 X-2.397 Y-12.758 E2.4499
G1 X-2.397 Y-13.184 E2.4640
;segType:Perimeter
G0 X2.822 Y-14.651 F10800
G1 X2.260 Y-15.010 E2.4862 F2159
G1 X1.921 Y-14.992 E2.4975
G1 X1.529 Y-15.042 E2.5107
G1 X1.151 Y-15.160 E2.5238
G1 X0.802 Y-15.344 E2.5369
G1 X0.492 Y-15.587 E2.5500
G1 X0.233 Y-15.879 E2.5630
G1 X0.099 Y-16.080 E2.5711
G1 X-0.053 Y-16.397 E2.5827
G1 X-0.160 Y-16.773 E2.5957
G1 X-0.199 Y-17.162 E2.6088
G1 X-0.167 Y-17.552 E2.6218
G1 X-0.066 Y-17.931 E2.6348
G1 X0.100 Y-18.286 E2.6478
G1 X0.328 Y-18.606 E2.6609
G1 X0.610 Y-18.880 E2.6740
G1 X0.938 Y-19.100 E2.6871
G1 X1.300 Y-19.259 E2.7003
G1 X1.684 Y-19.350 E2.7134
G1 X2.080 Y-19.372 E2.7266
G1 X2.467 Y-19.323 E2.7396
G1 X2.668 Y-19.269 E2.7465
G1 X3.028 Y-19.119 E2.7595
G1 X3.359 Y-18.905 E2.7726
G1 X3.646 Y-18.635 E2.7857
G1 X3.880 Y-18.320 E2.7987
G1 X4.053 Y-17.968 E2.8118
G1 X4.161 Y-17.591 E2.8248
G1 X4.199 Y-17.206 E2.8377
G1 X4.192 Y-17.002 E2.8445
G1 X4.126 Y-16.620 E2.8574
G1 X3.991 Y-16.252 E2.8704
G1 X3.793 Y-15.913 E2.8835
G1 X3.537 Y-15.615 E2.8965
G1 X3.235 Y-15.369 E2.9095
G1 X3.059 Y-15.262 E2.9163
G1 X2.701 Y-15.105 E2.9293
G1 X2.371 Y-15.026 E2.9406
G1 X1.945 Y-14.524
;segType:Loop
G0 X1.176 Y-14.749 F10800
G1 X0.991 Y-14.807 E2.9471 F3600
G1 X0.577 Y-15.025 E2.9626
G1 X0.211 Y-15.313 E2.9781
G1 X-0.090 Y-15.651 E2.9931
G1 X-0.253 Y-15.897 E3.0030
G1 X-0.430 Y-16.265 E3.0166
G1 X-0.555 Y-16.704 E3.0317
G1 X-0.600 Y-17.159 E3.0469
G1 X-0.563 Y-17.615 E3.0622
G1 X-0.445 Y-18.058 E3.0774
G1 X-0.250 Y-18.474 E3.0927
G1 X0.018 Y-18.850 E3.1081
G1 X0.351 Y-19.174 E3.1235
G1 X0.738 Y-19.434 E3.1390
G1 X1.167 Y-19.622 E3.1546
G1 X1.624 Y-19.731 E3.1702
G1 X2.095 Y-19.756 E3.1859
G1 X2.547 Y-19.699 E3.2011
G1 X2.801 Y-19.631 E3.2098
G1 X3.221 Y-19.456 E3.2249
G1 X3.613 Y-19.203 E3.2405
G1 X3.952 Y-18.885 E3.2559
G1 X4.226 Y-18.514 E3.2713
G1 X4.430 Y-18.101 E3.2866
G1 X4.555 Y-17.660 E3.3018
G1 X4.600 Y-17.217 E3.3166
G1 X4.590 Y-16.964 E3.3251
G1 X4.515 Y-16.524 E3.3399
G1 X4.357 Y-16.094 E3.3551
G1 X4.125 Y-15.696 E3.3705
G1 X3.824 Y-15.345 E3.3859
G1 X3.473 Y-15.060 E3.4009
G1 X3.250 Y-14.924 E3.4096
G1 X2.834 Y-14.742 E3.4247
G1 X2.376 Y-14.633 E3.4403
G1 X1.906 Y-14.607 E3.4560
G1 X1.439 Y-14.667 E3.4716
G1 X1.354 Y-14.693 E3.4746
;segType:HShell
G0 X0.049 Y-14.959 F10800
G1 X-0.062 Y-15.046 E3.4793 F1800
G1 X-0.403 Y-15.430 E3.4964
G1 X-0.594 Y-15.719 E3.5079
G1 X-0.795 Y-16.138 E3.5233
G1 X-0.937 Y-16.636 E3.5406
G1 X-0.989 Y-17.156 E3.5579
G1 X-0.947 Y-17.676 E3.5753
G1 X-0.812 Y-18.181 E3.5927
G1 X-0.589 Y-18.656 E3.6101
G1 X-0.282 Y-19.087 E3.6277
G1 X0.099 Y-19.458 E3.6455
G1 X0.545 Y-19.758 E3.6633
G1 X1.039 Y-19.974 E3.6812
G1 X1.566 Y-20.100 E3.6993
G1 X2.109 Y-20.129 E3.7174
G1 X2.625 Y-20.064 E3.7347
G1 X2.932 Y-19.982 E3.7452
G1 X3.409 Y-19.783 E3.7624
G1 X3.859 Y-19.491 E3.7803
G1 X4.248 Y-19.127 E3.7980
G1 X4.562 Y-18.702 E3.8156
G1 X4.795 Y-18.230 E3.8331
G1 X4.938 Y-17.727 E3.8504
G1 X4.988 Y-17.229 E3.8671
G1 X4.977 Y-16.927 E3.8771
G1 X4.892 Y-16.432 E3.8938
G1 X4.712 Y-15.940 E3.9113
G1 X4.446 Y-15.486 E3.9288
G1 X4.101 Y-15.083 E3.9464
G1 X3.703 Y-14.761 E3.9635
G1 X3.436 Y-14.597 E3.9739
G1 X2.962 Y-14.389 E3.9911
G1 X2.434 Y-14.264 E4.0091
G1 X1.891 Y-14.234 E4.0272
G1 X1.353 Y-14.303 E4.0453
G1 X0.836 Y-14.465 E4.0633
G1 X0.359 Y-14.716 E4.0812
G1 X0.194 Y-14.846 E4.0882
G0 X-1.036 Y-15.780 F10800
G1 X-1.149 Y-16.014 E4.0968 F1800
G1 X-1.308 Y-16.571 E4.1161
G1 X-1.366 Y-17.152 E4.1355
G1 X-1.319 Y-17.735 E4.1549
G1 X-1.168 Y-18.301 E4.1744
G1 X-0.918 Y-18.833 E4.1940
G1 X-0.574 Y-19.316 E4.2137
G1 X-0.144 Y-19.734 E4.2336
G1 X0.357 Y-20.071 E4.2537
G1 X0.915 Y-20.315 E4.2740
G1 X1.510 Y-20.457 E4.2943
G1 X2.124 Y-20.490 E4.3148
G1 X2.700 Y-20.417 E4.3341
G1 X3.057 Y-20.322 E4.3464
G1 X3.590 Y-20.100 E4.3656
G1 X4.098 Y-19.771 E4.3857
G1 X4.534 Y-19.361 E4.4056
G1 X4.887 Y-18.884 E4.4254
G1 X5.148 Y-18.355 E4.4450
G1 X5.309 Y-17.792 E4.4644
G1 X5.364 Y-17.239 E4.4829
G1 X5.351 Y-16.892 E4.4945
G1 X5.257 Y-16.343 E4.5130
G1 X5.055 Y-15.792 E4.5325
G1 X4.757 Y-15.282 E4.5522
G1 X4.369 Y-14.830 E4.5720
G1 X3.926 Y-14.471 E4.5910
G1 X3.616 Y-14.280 E4.6031
G1 X3.087 Y-14.049 E4.6223
G1 X2.491 Y-13.907 E4.6427
G1 X1.877 Y-13.874 E4.6631
G1 X1.269 Y-13.951 E4.6835
G1 X0.686 Y-14.134 E4.7038
G1 X0.149 Y-14.417 E4.7240
G1 X-0.325 Y-14.789 E4.7440
G1 X-0.705 Y-15.216 E4.7631
G1 X-0.924 Y-15.547 E4.7762
G1 X-0.958 Y-15.617 E4.7788
G0 X-1.210 Y-15.307 F10800
G1 X-1.008 Y-15.002 E4.7910 F1800
G1 X-0.589 Y-14.531 E4.8120
G1 X-0.062 Y-14.118 E4.8342
G1 X0.449 Y-13.849 E4.8534
G1 X-1.259 Y-13.849 E4.9102
G1 X-1.259 Y-15.294 E4.9583
G0 X-2.009 Y-14.352 F10800
G1 X-2.009 Y-21.234 E5.1872 F1800
G1 X6.010 Y-21.234 E5.4539
G1 X6.010 Y-13.130 E5.7234
G1 X-2.009 Y-13.130 E5.9902
G1 X-2.009 Y-14.172 E6.0248
G0 X-1.634 Y-15.737 F10800
G1 X-1.634 Y-20.874 E6.1957 F1800
G1 X5.635 Y-20.874 E6.4375
G1 X5.635 Y-13.489 E6.6831
G1 X-1.634 Y-13.489 E6.9248
G1 X-1.634 Y-15.558 E6.9936
G0 X-1.259 Y-18.983 F10800
G1 X-1.259 Y-18.983 F1800
G1 X-1.259 Y-20.515 E7.0446
G1 X0.467 Y-20.515 E7.1020
G1 X0.170 Y-20.385 E7.1128
G1 X-0.388 Y-20.009 E7.1352
G1 X-0.865 Y-19.545 E7.1573
G1 X-1.246 Y-19.009 E7.1792
G0 X3.628 Y-20.515 F10800
G1 X5.259 Y-20.515 E7.2334 F1800
G1 X5.259 Y-18.971 E7.2848
G1 X5.212 Y-19.066 E7.2883
G1 X4.821 Y-19.595 E7.3102
G1 X4.336 Y-20.051 E7.3324
G1 X3.772 Y-20.416 E7.3547
G1 X3.621 Y-20.479 E7.3602
G0 X4.386 Y-17.211 F10800
G0 X3.618 Y-13.886
G1 X3.796 Y-13.964 E7.3666 F1800
G1 X4.150 Y-14.181 E7.3804
G1 X4.638 Y-14.577 E7.4013
G1 X5.068 Y-15.079 E7.4233
G1 X5.259 Y-15.405 E7.4359
G1 X5.259 Y-13.849 E7.4876
G1 X3.627 Y-13.849 E7.5419
G0 F4800 E6.5419
G0 X4.142 Y-6.839 F10800
G0 X4.313 Y-4.502
G0 F4800 E7.5419
;segType:Perimeter
G1 X4.791 Y-4.045 E7.5639 F2159
G1 X4.772 Y-3.817 E7.5715
G1 X4.712 Y-3.507 E7.5821
G1 X4.618 Y-3.206 E7.5926
G1 X4.491 Y-2.918 E7.6030
G1 X4.332 Y-2.645 E7.6135
G1 X4.145 Y-2.393 E7.6240
G1 X3.930 Y-2.163 E7.6344
G1 X3.691 Y-1.959 E7.6449
G1 X3.432 Y-1.783 E7.6553
G1 X3.154 Y-1.638 E7.6657
G1 X2.862 Y-1.525 E7.6761
G1 X2.559 Y-1.445 E7.6865
G1 X2.250 Y-1.399 E7.6970
G1 X1.938 Y-1.389 E7.7073
G1 X1.626 Y-1.414 E7.7178
G1 X1.319 Y-1.473 E7.7282
G1 X1.020 Y-1.566 E7.7386
G1 X0.733 Y-1.693 E7.7490
G1 X0.463 Y-1.850 E7.7594
G1 X0.211 Y-2.038 E7.7698
G1 X-0.019 Y-2.252 E7.7803
G1 X-0.223 Y-2.491 E7.7907
G1 X-0.399 Y-2.752 E7.8012
G1 X-0.545 Y-3.031 E7.8117
G1 X-0.659 Y-3.325 E7.8222
G1 X-0.740 Y-3.630 E7.8327
G1 X-0.786 Y-3.942 E7.8432
G1 X-0.796 Y-4.258 E7.8537
G1 X-0.772 Y-4.572 E7.8642
G1 X-0.712 Y-4.882 E7.8746
G1 X-0.618 Y-5.183 E7.8851
G1 X-0.491 Y-5.471 E7.8956
G1 X-0.332 Y-5.743 E7.9061
G1 X-0.144 Y-5.996 E7.9166
G1 X0.070 Y-6.226 E7.9270
G1 X0.309 Y-6.429 E7.9375
G1 X0.569 Y-6.605 E7.9479
G1 X0.846 Y-6.751 E7.9583
G1 X1.138 Y-6.864 E7.9687
G1 X1.441 Y-6.944 E7.9791
G1 X1.750 Y-6.989 E7.9895
G1 X2.063 Y-7.000 E7.9999
G1 X2.374 Y-6.975 E8.0103
G1 X2.682 Y-6.916 E8.0207
G1 X2.980 Y-6.823 E8.0312
G1 X3.267 Y-6.696 E8.0416
G1 X3.538 Y-6.538 E8.0520
G1 X3.790 Y-6.351 E8.0624
G1 X4.019 Y-6.137 E8.0729
G1 X4.223 Y-5.897 E8.0833
G1 X4.399 Y-5.637 E8.0938
G1 X4.546 Y-5.358 E8.1043
G1 X4.660 Y-5.064 E8.1148
G1 X4.740 Y-4.759 E8.1253
G1 X4.786 Y-4.447 E8.1357
G1 X4.794 Y-4.153 E8.1455
G1 X4.292 Y-3.720
;segType:Loop
G0 X4.204 Y-3.253 F10800
G1 X4.131 Y-3.086 E8.1516 F3600
G1 X3.994 Y-2.850 E8.1607
G1 X3.832 Y-2.632 E8.1697
G1 X3.647 Y-2.435 E8.1787
G1 X3.442 Y-2.260 E8.1877
G1 X3.220 Y-2.109 E8.1966
G1 X2.982 Y-1.985 E8.2055
G1 X2.733 Y-1.888 E8.2144
G1 X2.476 Y-1.820 E8.2232
G1 X2.213 Y-1.782 E8.2321
G1 X1.947 Y-1.773 E8.2409
G1 X1.682 Y-1.794 E8.2498
G1 X1.420 Y-1.844 E8.2586
G1 X1.166 Y-1.924 E8.2675
G1 X0.922 Y-2.031 E8.2764
G1 X0.690 Y-2.166 E8.2853
G1 X0.474 Y-2.327 E8.2942
G1 X0.277 Y-2.512 E8.3032
G1 X0.101 Y-2.718 E8.3122
G1 X-0.052 Y-2.943 E8.3213
G1 X-0.178 Y-3.184 E8.3303
G1 X-0.277 Y-3.439 E8.3394
G1 X-0.347 Y-3.704 E8.3486
G1 X-0.387 Y-3.975 E8.3577
G1 X-0.396 Y-4.249 E8.3668
G1 X-0.374 Y-4.523 E8.3759
G1 X-0.322 Y-4.792 E8.3850
G1 X-0.241 Y-5.053 E8.3941
G1 X-0.131 Y-5.303 E8.4032
G1 X0.006 Y-5.538 E8.4123
G1 X0.169 Y-5.756 E8.4213
G1 X0.353 Y-5.954 E8.4303
G1 X0.559 Y-6.129 E8.4393
G1 X0.781 Y-6.280 E8.4482
G1 X1.018 Y-6.404 E8.4571
G1 X1.267 Y-6.501 E8.4660
G1 X1.525 Y-6.568 E8.4749
G1 X1.788 Y-6.607 E8.4837
G1 X2.053 Y-6.616 E8.4925
G1 X2.319 Y-6.595 E8.5014
G1 X2.580 Y-6.545 E8.5102
G1 X2.834 Y-6.465 E8.5191
G1 X3.079 Y-6.357 E8.5280
G1 X3.310 Y-6.222 E8.5369
G1 X3.527 Y-6.062 E8.5459
G1 X3.723 Y-5.877 E8.5548
G1 X3.900 Y-5.671 E8.5639
G1 X4.052 Y-5.446 E8.5729
G1 X4.178 Y-5.205 E8.5820
G1 X4.277 Y-4.950 E8.5911
G1 X4.347 Y-4.685 E8.6002
G1 X4.387 Y-4.415 E8.6092
G1 X4.395 Y-4.109 E8.6194
G1 X4.375 Y-3.868 E8.6275
G1 X4.323 Y-3.597 E8.6366
G1 X4.323 Y-3.597
;segType:HShell
G0 X3.303 Y-2.646 F10800
G1 X3.014 Y-2.426 E8.6487 F1800
G1 X2.609 Y-2.242 E8.6635
G1 X2.176 Y-2.153 E8.6782
G1 X1.736 Y-2.163 E8.6929
G1 X1.308 Y-2.271 E8.7075
G1 X0.906 Y-2.476 E8.7226
G1 X0.563 Y-2.763 E8.7374
G1 X0.285 Y-3.128 E8.7527
G1 X0.094 Y-3.550 E8.7681
G1 X0.000 Y-4.007 E8.7836
G1 X0.011 Y-4.475 E8.7992
G1 X0.125 Y-4.927 E8.8147
G1 X0.335 Y-5.339 E8.8301
G1 X0.624 Y-5.687 E8.8451
G1 X0.987 Y-5.963 E8.8603
G1 X1.392 Y-6.147 E8.8751
G1 X1.824 Y-6.236 E8.8898
G1 X2.264 Y-6.226 E8.9044
G1 X2.698 Y-6.117 E8.9193
G1 X2.892 Y-6.031 E8.9263
G1 X3.275 Y-5.778 E8.9416
G1 X3.586 Y-5.452 E8.9566
G1 X3.823 Y-5.056 E8.9719
G1 X3.966 Y-4.613 E8.9874
G1 X4.000 Y-4.384 E8.9951
G1 X4.007 Y-4.124 E9.0038
G1 X3.944 Y-3.680 E9.0187
G1 X3.782 Y-3.249 E9.0340
G1 X3.529 Y-2.865 E9.0493
G1 X3.529 Y-2.865
G0 X2.321 Y-2.550 F10800
G1 X2.141 Y-2.513 E9.0554 F1800
G1 X1.789 Y-2.521 E9.0671
G1 X1.446 Y-2.608 E9.0789
G1 X1.120 Y-2.774 E9.0911
G1 X0.841 Y-3.007 E9.1031
G1 X0.613 Y-3.308 E9.1157
G1 X0.454 Y-3.657 E9.1285
G1 X0.376 Y-4.038 E9.1414
G1 X0.385 Y-4.428 E9.1544
G1 X0.480 Y-4.805 E9.1673
G1 X0.654 Y-5.146 E9.1800
G1 X0.891 Y-5.431 E9.1924
G1 X1.187 Y-5.656 E9.2047
G1 X1.513 Y-5.804 E9.2166
G1 X1.859 Y-5.876 E9.2284
G1 X2.211 Y-5.867 E9.2401
G1 X2.570 Y-5.777 E9.2524
G1 X2.705 Y-5.718 E9.2573
G1 X3.027 Y-5.505 E9.2702
G1 X3.281 Y-5.239 E9.2824
G1 X3.477 Y-4.912 E9.2951
G1 X3.599 Y-4.535 E9.3083
G1 X3.631 Y-4.143 E9.3213
G1 X3.578 Y-3.767 E9.3340
G1 X3.443 Y-3.408 E9.3467
G1 X3.228 Y-3.082 E9.3597
G1 X3.118 Y-2.964 E9.3651
G1 X2.814 Y-2.733 E9.3778
G1 X2.503 Y-2.591 E9.3891
G0 X1.501 Y-2.987 F10800
G1 X1.335 Y-3.072 E9.3953 F1800
G1 X1.120 Y-3.252 E9.4047
G1 X0.940 Y-3.487 E9.4145
G1 X0.815 Y-3.765 E9.4246
G1 X0.752 Y-4.069 E9.4350
G1 X0.760 Y-4.382 E9.4454
G1 X0.835 Y-4.682 E9.4557
G1 X0.973 Y-4.952 E9.4658
G1 X1.158 Y-5.175 E9.4754
G1 X1.387 Y-5.349 E9.4850
G1 X1.634 Y-5.462 E9.4940
G1 X1.894 Y-5.515 E9.5028
G1 X2.158 Y-5.509 E9.5116
G1 X2.519 Y-5.404 E9.5241
G1 X2.780 Y-5.232 E9.5345
G1 X2.976 Y-5.026 E9.5440
G1 X3.130 Y-4.767 E9.5540
G1 X3.228 Y-4.466 E9.5645
G1 X3.254 Y-4.154 E9.5749
G1 X3.211 Y-3.853 E9.5850
G1 X3.103 Y-3.567 E9.5952
G1 X2.860 Y-3.227 E9.6091
G1 X2.614 Y-3.040 E9.6194
G1 X2.366 Y-2.927 E9.6285
G1 X2.106 Y-2.874 E9.6373
G1 X1.842 Y-2.880 E9.6461
G1 X1.842 Y-2.880
G0 X1.231 Y-3.749 F10800
G1 X1.175 Y-3.872 E9.6506 F1800
G1 X1.128 Y-4.100 E9.6583
G1 X1.134 Y-4.335 E9.6661
G1 X1.190 Y-4.560 E9.6738
G1 X1.292 Y-4.759 E9.6813
G1 X1.425 Y-4.919 E9.6882
G1 X1.586 Y-5.042 E9.6949
G1 X1.756 Y-5.119 E9.7011
G1 X2.098 Y-5.151 E9.7126
G1 X2.354 Y-5.076 E9.7214
G1 X2.531 Y-4.959 E9.7285
G1 X2.671 Y-4.813 E9.7352
G1 X2.784 Y-4.623 E9.7426
G1 X2.857 Y-4.398 E9.7505
G1 X2.877 Y-4.164 E9.7583
G1 X2.845 Y-3.939 E9.7658
G1 X2.767 Y-3.732 E9.7732
G1 X2.582 Y-3.475 E9.7837
G1 X2.414 Y-3.347 E9.7907
G1 X2.245 Y-3.270 E9.7969
G1 X2.071 Y-3.234 E9.8028
G1 X1.895 Y-3.238 E9.8087
G1 X1.721 Y-3.282 E9.8146
G1 X1.549 Y-3.370 E9.8210
G1 X1.398 Y-3.496 E9.8276
G1 X1.398 Y-3.496
G0 X1.595 Y-4.514 F10800
G1 X1.692 Y-4.663 E9.8335 F1800
G1 X1.857 Y-4.767 E9.8400
G1 X2.060 Y-4.786 E9.8468
G1 X2.283 Y-4.686 E9.8549
G1 X2.438 Y-4.479 E9.8635
G1 X2.500 Y-4.174 E9.8739
G1 X2.430 Y-3.898 E9.8833
G1 X2.305 Y-3.723 E9.8905
G1 X2.123 Y-3.613 E9.8976
G1 X1.948 Y-3.597 E9.9034
G1 X1.764 Y-3.668 E9.9100
G1 X1.596 Y-3.847 E9.9182
G1 X1.504 Y-4.131 E9.9281
G1 X1.533 Y-4.348 E9.9354
G0 X2.067 Y-4.315 F10800
G1 X2.116 Y-4.182 E9.9401 F1800
G1 X2.001 Y-3.964 E9.9483
G1 X1.887 Y-4.163 E9.9559
G1 X1.907 Y-4.314 E9.9610
G1 X1.907 Y-4.314
; ------------------------------------
; Layer #2
; ------------------------------------
G21 ; mm
G90 ; abs
G92 E0 ; reset extr
M106 S0
;segType:Perimeter
G0 F4800 E-1.0000
G0 F2400 Z0.600
G0 X4.314 Y-4.536 F10800
G0 F4800 E0.0000
G1 X4.792 Y-4.079 E0.0220 F2159
G1 X4.767 Y-3.785 E0.0318
G1 X4.704 Y-3.476 E0.0423
G1 X4.607 Y-3.176 E0.0528
G1 X4.476 Y-2.889 E0.0633
G1 X4.315 Y-2.619 E0.0737
G1 X4.124 Y-2.369 E0.0842
G1 X3.907 Y-2.142 E0.0946
G1 X3.666 Y-1.940 E0.1051
G1 X3.405 Y-1.768 E0.1155
G1 X3.125 Y-1.625 E0.1259
G1 X2.832 Y-1.515 E0.1364
G1 X2.529 Y-1.439 E0.1468
G1 X2.219 Y-1.397 E0.1572
G1 X1.906 Y-1.390 E0.1676
G1 X1.595 Y-1.418 E0.1780
G1 X1.288 Y-1.480 E0.1884
G1 X0.991 Y-1.577 E0.1988
G1 X0.706 Y-1.707 E0.2092
G1 X0.436 Y-1.868 E0.2196
G1 X0.187 Y-2.058 E0.2301
G1 X-0.040 Y-2.275 E0.2405
G1 X-0.242 Y-2.516 E0.2510
G1 X-0.415 Y-2.779 E0.2614
G1 X-0.558 Y-3.060 E0.2719
G1 X-0.669 Y-3.355 E0.2824
G1 X-0.746 Y-3.661 E0.2929
G1 X-0.788 Y-3.974 E0.3034
G1 X-0.795 Y-4.289 E0.3139
G1 X-0.767 Y-4.604 E0.3244
G1 X-0.704 Y-4.913 E0.3349
G1 X-0.607 Y-5.212 E0.3454
G1 X-0.476 Y-5.499 E0.3558
G1 X-0.314 Y-5.770 E0.3663
G1 X-0.124 Y-6.020 E0.3768
G1 X0.093 Y-6.247 E0.3872
G1 X0.334 Y-6.448 E0.3977
G1 X0.596 Y-6.621 E0.4081
G1 X0.875 Y-6.763 E0.4185
G1 X1.168 Y-6.874 E0.4289
G1 X1.471 Y-6.950 E0.4394
G1 X1.781 Y-6.992 E0.4498
G1 X2.094 Y-6.999 E0.4602
G1 X2.406 Y-6.971 E0.4706
G1 X2.712 Y-6.908 E0.4810
G1 X3.010 Y-6.811 E0.4914
G1 X3.295 Y-6.682 E0.5018
G1 X3.564 Y-6.521 E0.5122
G1 X3.814 Y-6.331 E0.5227
G1 X4.041 Y-6.114 E0.5331
G1 X4.242 Y-5.872 E0.5436
G1 X4.415 Y-5.609 E0.5540
G1 X4.559 Y-5.329 E0.5645
G1 X4.669 Y-5.034 E0.5750
G1 X4.746 Y-4.728 E0.5855
G1 X4.789 Y-4.415 E0.5960
G1 X4.795 Y-4.186 E0.6036
G1 X4.292 Y-3.754
;segType:Loop
G0 X4.194 Y-3.228 F10800
G1 X4.118 Y-3.062 E0.6097 F3600
G1 X3.978 Y-2.827 E0.6187
G1 X3.815 Y-2.612 E0.6277
G1 X3.628 Y-2.416 E0.6367
G1 X3.421 Y-2.244 E0.6457
G1 X3.197 Y-2.096 E0.6546
G1 X2.958 Y-1.974 E0.6635
G1 X2.708 Y-1.880 E0.6724
G1 X2.450 Y-1.815 E0.6813
G1 X2.186 Y-1.779 E0.6901
G1 X1.920 Y-1.773 E0.6990
G1 X1.655 Y-1.797 E0.7078
G1 X1.395 Y-1.851 E0.7167
G1 X1.141 Y-1.933 E0.7255
G1 X0.898 Y-2.044 E0.7344
G1 X0.667 Y-2.181 E0.7434
G1 X0.453 Y-2.344 E0.7523
G1 X0.258 Y-2.531 E0.7613
G1 X0.084 Y-2.739 E0.7703
G1 X-0.065 Y-2.966 E0.7793
G1 X-0.189 Y-3.209 E0.7884
G1 X-0.285 Y-3.465 E0.7975
G1 X-0.352 Y-3.730 E0.8066
G1 X-0.389 Y-4.003 E0.8157
G1 X-0.395 Y-4.277 E0.8249
G1 X-0.371 Y-4.550 E0.8340
G1 X-0.315 Y-4.819 E0.8431
G1 X-0.231 Y-5.079 E0.8522
G1 X-0.118 Y-5.327 E0.8613
G1 X0.022 Y-5.561 E0.8703
G1 X0.186 Y-5.777 E0.8794
G1 X0.373 Y-5.972 E0.8884
G1 X0.580 Y-6.145 E0.8973
G1 X0.804 Y-6.293 E0.9063
G1 X1.043 Y-6.415 E0.9152
G1 X1.292 Y-6.509 E0.9240
G1 X1.551 Y-6.574 E0.9329
G1 X1.814 Y-6.610 E0.9418
G1 X2.080 Y-6.615 E0.9506
G1 X2.345 Y-6.592 E0.9594
G1 X2.605 Y-6.538 E0.9683
G1 X2.859 Y-6.455 E0.9772
G1 X3.102 Y-6.345 E0.9860
G1 X3.333 Y-6.207 E0.9950
G1 X3.547 Y-6.044 E1.0039
G1 X3.742 Y-5.858 E1.0129
G1 X3.916 Y-5.650 E1.0219
G1 X4.066 Y-5.422 E1.0310
G1 X4.190 Y-5.179 E1.0401
G1 X4.286 Y-4.924 E1.0491
G1 X4.352 Y-4.658 E1.0582
G1 X4.389 Y-4.385 E1.0674
G1 X4.396 Y-4.143 E1.0755
G1 X4.370 Y-3.837 E1.0857
G1 X4.316 Y-3.570 E1.0947
G1 X4.316 Y-3.570
;segType:HShell
G0 X3.343 Y-2.687 F10800
G1 X3.182 Y-2.537 E1.1020 F1800
G1 X2.999 Y-2.416 E1.1093
G1 X2.587 Y-2.235 E1.1243
G1 X2.154 Y-2.151 E1.1390
G1 X1.715 Y-2.166 E1.1536
G1 X1.282 Y-2.280 E1.1685
G1 X0.891 Y-2.485 E1.1832
G1 X0.547 Y-2.780 E1.1982
G1 X0.274 Y-3.147 E1.2135
G1 X0.087 Y-3.572 E1.2289
G1 X-0.002 Y-4.031 E1.2444
G1 X0.014 Y-4.498 E1.2600
G1 X0.133 Y-4.949 E1.2755
G1 X0.347 Y-5.359 E1.2909
G1 X0.644 Y-5.706 E1.3061
G1 X1.001 Y-5.972 E1.3209
G1 X1.413 Y-6.154 E1.3359
G1 X1.846 Y-6.238 E1.3505
G1 X2.286 Y-6.223 E1.3652
G1 X2.718 Y-6.108 E1.3801
G1 X3.109 Y-5.903 E1.3947
G1 X3.453 Y-5.609 E1.4098
G1 X3.727 Y-5.241 E1.4250
G1 X3.914 Y-4.817 E1.4405
G1 X3.970 Y-4.595 E1.4481
G1 X4.008 Y-4.148 E1.4630
G1 X3.986 Y-3.888 E1.4717
G1 X3.867 Y-3.440 E1.4871
G1 X3.771 Y-3.228 E1.4948
G1 X3.514 Y-2.848 E1.5101
G1 X3.477 Y-2.813 E1.5118
G0 X2.378 Y-2.561 F10800
G1 X2.123 Y-2.512 E1.5204 F1800
G1 X1.772 Y-2.524 E1.5321
G1 X1.424 Y-2.616 E1.5441
G1 X1.109 Y-2.781 E1.5559
G1 X0.828 Y-3.021 E1.5682
G1 X0.603 Y-3.324 E1.5807
G1 X0.448 Y-3.676 E1.5935
G1 X0.374 Y-4.058 E1.6065
G1 X0.387 Y-4.448 E1.6195
G1 X0.487 Y-4.823 E1.6324
G1 X0.664 Y-5.162 E1.6451
G1 X0.907 Y-5.447 E1.6576
G1 X1.197 Y-5.663 E1.6696
G1 X1.531 Y-5.810 E1.6817
G1 X1.877 Y-5.877 E1.6934
G1 X2.228 Y-5.865 E1.7051
G1 X2.576 Y-5.773 E1.7171
G1 X2.891 Y-5.608 E1.7289
G1 X3.172 Y-5.368 E1.7412
G1 X3.397 Y-5.065 E1.7538
G1 X3.556 Y-4.704 E1.7669
G1 X3.598 Y-4.538 E1.7726
G1 X3.631 Y-4.148 E1.7856
G1 X3.614 Y-3.947 E1.7923
G1 X3.511 Y-3.556 E1.8058
G1 X3.439 Y-3.399 E1.8115
G1 X3.222 Y-3.077 E1.8244
G1 X2.943 Y-2.816 E1.8371
G1 X2.813 Y-2.730 E1.8423
G1 X2.555 Y-2.616 E1.8517
G0 X1.484 Y-2.994 F10800
G1 X1.327 Y-3.076 E1.8576 F1800
G1 X1.109 Y-3.262 E1.8671
G1 X0.933 Y-3.500 E1.8769
G1 X0.810 Y-3.779 E1.8871
G1 X0.751 Y-4.085 E1.8975
G1 X0.761 Y-4.397 E1.9078
G1 X0.840 Y-4.697 E1.9181
G1 X0.981 Y-4.965 E1.9282
G1 X1.171 Y-5.188 E1.9380
G1 X1.393 Y-5.354 E1.9472
G1 X1.648 Y-5.466 E1.9564
G1 X1.908 Y-5.516 E1.9653
G1 X2.171 Y-5.508 E1.9740
G1 X2.434 Y-5.438 E1.9831
G1 X2.673 Y-5.312 E1.9920
G1 X2.891 Y-5.127 E2.0016
G1 X3.067 Y-4.889 E2.0114
G1 X3.226 Y-4.480 E2.0260
G1 X3.255 Y-4.148 E2.0371
G1 X3.243 Y-4.007 E2.0418
G1 X3.108 Y-3.569 E2.0570
G1 X2.930 Y-3.306 E2.0676
G1 X2.704 Y-3.095 E2.0779
G1 X2.353 Y-2.923 E2.0909
G1 X2.092 Y-2.872 E2.0997
G1 X1.829 Y-2.881 E2.1085
G1 X1.829 Y-2.881
G0 X1.226 Y-3.759 F10800
G1 X1.172 Y-3.883 E2.1130 F1800
G1 X1.127 Y-4.113 E2.1208
G1 X1.135 Y-4.347 E2.1286
G1 X1.194 Y-4.570 E2.1362
G1 X1.298 Y-4.768 E2.1437
G1 X1.435 Y-4.930 E2.1507
G1 X1.590 Y-5.044 E2.1571
G1 X1.765 Y-5.122 E2.1635
G1 X1.939 Y-5.156 E2.1694
G1 X2.114 Y-5.150 E2.1752
G1 X2.292 Y-5.103 E2.1813
G1 X2.456 Y-5.017 E2.1875
G1 X2.609 Y-4.885 E2.1942
G1 X2.733 Y-4.719 E2.2011
G1 X2.857 Y-4.401 E2.2124
G1 X2.872 Y-4.073 E2.2234
G1 X2.763 Y-3.721 E2.2356
G1 X2.637 Y-3.535 E2.2431
G1 X2.483 Y-3.390 E2.2502
G1 X2.228 Y-3.266 E2.2596
G1 X1.887 Y-3.239 E2.2710
G1 X1.708 Y-3.286 E2.2771
G1 X1.544 Y-3.372 E2.2833
G1 X1.391 Y-3.504 E2.2900
G1 X1.391 Y-3.504
G0 X1.598 Y-4.520 F10800
G1 X1.699 Y-4.670 E2.2960 F1800
G1 X1.882 Y-4.778 E2.3031
G1 X2.056 Y-4.792 E2.3089
G1 X2.238 Y-4.721 E2.3154
G1 X2.399 Y-4.549 E2.3232
G1 X2.484 Y-4.329 E2.3311
G1 X2.494 Y-4.117 E2.3381
G1 X2.419 Y-3.873 E2.3466
G1 X2.261 Y-3.685 E2.3548
G1 X2.124 Y-3.618 E2.3599
G1 X1.922 Y-3.603 E2.3666
G1 X1.762 Y-3.668 E2.3723
G1 X1.593 Y-3.852 E2.3807
G1 X1.503 Y-4.140 E2.3907
G1 X1.534 Y-4.355 E2.3979
G0 X2.068 Y-4.363 F10800
G1 X2.072 Y-4.360 E2.3981 F1800
G1 X2.117 Y-4.161 E2.4048
G1 X1.986 Y-3.968 E2.4126
G1 X1.886 Y-4.168 E2.4200
G1 X1.908 Y-4.316 E2.4250
G1 X1.908 Y-4.316
G0 F4800 E1.4250
G0 X-1.153 Y-10.586 F10800
G0 X-2.173 Y-12.676
G0 F4800 E2.4250
;segType:Perimeter
G1 X-2.797 Y-12.429 E2.4474 F2159
G1 X-2.797 Y-21.989 E2.7653
G1 X6.798 Y-21.989 E3.0844
G1 X6.798 Y-12.375 E3.4042
G1 X-2.741 Y-12.375 E3.7215
G1 X-2.482 Y-12.973
;segType:Loop
G0 X-2.397 Y-13.363 F10800
G1 X-2.397 Y-21.606 E3.9956 F3600
G1 X6.398 Y-21.606 E4.2881
G1 X6.398 Y-12.758 E4.5824
G1 X-2.397 Y-12.758 E4.8749
G1 X-2.397 Y-13.184 E4.8891
;segType:Perimeter
G0 X2.833 Y-14.655 F10800
G1 X2.270 Y-15.012 E4.9112 F2159
G1 X1.931 Y-14.992 E4.9225
G1 X1.538 Y-15.040 E4.9357
G1 X1.161 Y-15.157 E4.9488
G1 X0.811 Y-15.339 E4.9620
G1 X0.499 Y-15.581 E4.9751
G1 X0.239 Y-15.871 E4.9880
G1 X0.095 Y-16.089 E4.9967
G1 X-0.071 Y-16.445 E5.0098
G1 X-0.187 Y-16.954 E5.0271
G1 X-0.192 Y-17.348 E5.0402
G1 X-0.127 Y-17.734 E5.0533
G1 X0.006 Y-18.103 E5.0663
G1 X0.202 Y-18.443 E5.0793
G1 X0.456 Y-18.742 E5.0924
G1 X0.761 Y-18.992 E5.1055
G1 X1.106 Y-19.183 E5.1187
G1 X1.480 Y-19.311 E5.1318
G1 X1.869 Y-19.369 E5.1449
G1 X2.135 Y-19.369 E5.1537
G1 X2.651 Y-19.275 E5.1712
G1 X3.019 Y-19.123 E5.1844
G1 X3.351 Y-18.911 E5.1975
G1 X3.639 Y-18.642 E5.2106
G1 X3.874 Y-18.328 E5.2237
G1 X4.049 Y-17.976 E5.2367
G1 X4.159 Y-17.601 E5.2497
G1 X4.199 Y-17.211 E5.2628
G1 X4.169 Y-16.821 E5.2758
G1 X4.070 Y-16.442 E5.2888
G1 X3.905 Y-16.087 E5.3018
G1 X3.680 Y-15.768 E5.3148
G1 X3.497 Y-15.577 E5.3236
G1 X3.074 Y-15.270 E5.3410
G1 X2.710 Y-15.108 E5.3542
G1 X2.380 Y-15.028 E5.3655
G1 X1.957 Y-14.524
;segType:Loop
G0 X1.186 Y-14.746 F10800
G1 X1.002 Y-14.803 E5.3719 F3600
G1 X0.587 Y-15.020 E5.3875
G1 X0.220 Y-15.305 E5.4030
G1 X-0.084 Y-15.643 E5.4181
G1 X-0.259 Y-15.908 E5.4287
G1 X-0.453 Y-16.325 E5.4439
G1 X-0.586 Y-16.910 E5.4639
G1 X-0.592 Y-17.376 E5.4794
G1 X-0.517 Y-17.828 E5.4946
G1 X-0.361 Y-18.260 E5.5099
G1 X-0.131 Y-18.658 E5.5252
G1 X0.169 Y-19.011 E5.5406
G1 X0.529 Y-19.306 E5.5561
G1 X0.937 Y-19.533 E5.5716
G1 X1.382 Y-19.684 E5.5872
G1 X1.838 Y-19.752 E5.6026
G1 X2.173 Y-19.752 E5.6137
G1 X2.769 Y-19.644 E5.6339
G1 X3.211 Y-19.461 E5.6498
G1 X3.604 Y-19.210 E5.6653
G1 X3.944 Y-18.893 E5.6807
G1 X4.220 Y-18.523 E5.6961
G1 X4.425 Y-18.111 E5.7114
G1 X4.553 Y-17.671 E5.7266
G1 X4.600 Y-17.216 E5.7419
G1 X4.566 Y-16.760 E5.7571
G1 X4.449 Y-16.316 E5.7723
G1 X4.255 Y-15.900 E5.7876
G1 X3.995 Y-15.530 E5.8027
G1 X3.767 Y-15.292 E5.8136
G1 X3.282 Y-14.939 E5.8336
G1 X2.845 Y-14.745 E5.8495
G1 X2.388 Y-14.635 E5.8651
G1 X1.918 Y-14.607 E5.8808
G1 X1.451 Y-14.664 E5.8964
G1 X1.365 Y-14.691 E5.8994
;segType:HShell
G0 X0.059 Y-14.952 F10800
G1 X-0.051 Y-15.037 E5.9041 F1800
G1 X-0.396 Y-15.421 E5.9212
G1 X-0.601 Y-15.732 E5.9336
G1 X-0.823 Y-16.208 E5.9511
G1 X-0.973 Y-16.868 E5.9736
G1 X-0.980 Y-17.403 E5.9914
G1 X-0.895 Y-17.919 E6.0088
G1 X-0.717 Y-18.411 E6.0262
G1 X-0.453 Y-18.867 E6.0437
G1 X-0.109 Y-19.271 E6.0613
G1 X0.304 Y-19.610 E6.0791
G1 X0.774 Y-19.871 E6.0970
G1 X1.286 Y-20.046 E6.1150
G1 X1.808 Y-20.123 E6.1325
G1 X2.209 Y-20.123 E6.1459
G1 X2.883 Y-20.001 E6.1687
G1 X3.397 Y-19.789 E6.1871
G1 X3.849 Y-19.500 E6.2050
G1 X4.239 Y-19.136 E6.2227
G1 X4.555 Y-18.713 E6.2403
G1 X4.790 Y-18.242 E6.2578
G1 X4.936 Y-17.740 E6.2752
G1 X4.989 Y-17.221 E6.2925
G1 X4.950 Y-16.701 E6.3099
G1 X4.817 Y-16.195 E6.3273
G1 X4.595 Y-15.719 E6.3448
G1 X4.300 Y-15.300 E6.3618
G1 X4.030 Y-15.017 E6.3748
G1 X3.483 Y-14.619 E6.3973
G1 X2.975 Y-14.394 E6.4158
G1 X2.447 Y-14.266 E6.4339
G1 X1.905 Y-14.234 E6.4519
G1 X1.366 Y-14.300 E6.4700
G1 X0.848 Y-14.461 E6.4880
G1 X0.371 Y-14.710 E6.5059
G1 X0.205 Y-14.839 E6.5129
G0 X-1.029 Y-15.768 F10800
G1 X-1.181 Y-16.095 E6.5249 F1800
G1 X-1.348 Y-16.827 E6.5499
G1 X-1.356 Y-17.430 E6.5699
G1 X-1.260 Y-18.006 E6.5894
G1 X-1.060 Y-18.558 E6.6089
G1 X-0.765 Y-19.069 E6.6285
G1 X-0.379 Y-19.523 E6.6483
G1 X0.086 Y-19.905 E6.6683
G1 X0.616 Y-20.199 E6.6885
G1 X1.194 Y-20.396 E6.7088
G1 X1.778 Y-20.483 E6.7285
G1 X2.245 Y-20.483 E6.7440
G1 X2.993 Y-20.347 E6.7693
G1 X3.577 Y-20.106 E6.7903
G1 X4.086 Y-19.780 E6.8104
G1 X4.524 Y-19.372 E6.8303
G1 X4.880 Y-18.896 E6.8501
G1 X5.142 Y-18.369 E6.8696
G1 X5.306 Y-17.806 E6.8891
G1 X5.365 Y-17.226 E6.9085
G1 X5.322 Y-16.644 E6.9279
G1 X5.173 Y-16.077 E6.9475
G1 X4.925 Y-15.543 E6.9670
G1 X4.595 Y-15.076 E6.9860
G1 X4.283 Y-14.750 E7.0010
G1 X3.677 Y-14.309 E7.0260
G1 X3.101 Y-14.053 E7.0470
G1 X2.505 Y-13.909 E7.0673
G1 X1.893 Y-13.873 E7.0877
G1 X1.284 Y-13.948 E7.1081
G1 X0.700 Y-14.129 E7.1285
G1 X0.162 Y-14.410 E7.1487
G1 X-0.314 Y-14.778 E7.1687
G1 X-0.699 Y-15.207 E7.1878
G1 X-0.933 Y-15.562 E7.2020
G1 X-0.952 Y-15.604 E7.2035
G0 X-1.209 Y-15.307 F10800
G1 X-1.001 Y-14.992 E7.2160 F1800
G1 X-0.576 Y-14.519 E7.2372
G1 X-0.048 Y-14.110 E7.2594
G1 X0.452 Y-13.849 E7.2782
G1 X-1.259 Y-13.849 E7.3351
G1 X-1.259 Y-15.293 E7.3831
G0 X-2.009 Y-14.352 F10800
G1 X-2.009 Y-21.234 E7.6120 F1800
G1 X6.010 Y-21.234 E7.8787
G1 X6.010 Y-13.130 E8.1483
G1 X-2.009 Y-13.130 E8.4150
G1 X-2.009 Y-14.172 E8.4497
G0 X-1.634 Y-15.728 F10800
G1 X-1.634 Y-20.874 E8.6209 F1800
G1 X5.635 Y-20.874 E8.8626
G1 X5.635 Y-13.489 E9.1083
G1 X-1.634 Y-13.489 E9.3500
G1 X-1.634 Y-15.548 E9.4185
G0 X-1.259 Y-19.047 F10800
G1 X-1.259 Y-20.515 E9.4673 F1800
G1 X0.437 Y-20.515 E9.5237
G1 X-0.132 Y-20.199 E9.5453
G1 X-0.649 Y-19.775 E9.5676
G1 X-1.077 Y-19.271 E9.5896
G1 X-1.213 Y-19.036 E9.5986
G0 X3.629 Y-20.515 F10800
G1 X5.259 Y-20.515 E9.6528 F1800
G1 X5.259 Y-18.969 E9.7043
G1 X5.204 Y-19.080 E9.7084
G1 X4.810 Y-19.607 E9.7303
G1 X4.323 Y-20.061 E9.7524
G1 X3.756 Y-20.424 E9.7748
G1 X3.621 Y-20.479 E9.7796
G0 X4.386 Y-17.214 F10800
G0 X3.618 Y-13.887
G1 X3.872 Y-14.000 E9.7889 F1800
G1 X4.537 Y-14.483 E9.8163
G1 X4.890 Y-14.853 E9.8333
G1 X5.254 Y-15.368 E9.8542
G1 X5.259 Y-15.380 E9.8546
G1 X5.259 Y-13.849 E9.9056
G1 X3.627 Y-13.849 E9.9599
; ------------------------------------
; Layer #3
; ------------------------------------
G21 ; mm
G90 ; abs
G92 E0 ; reset extr
M106 S255
;segType:Perimeter
G0 F4800 E-1.0000
G0 F2400 Z0.800
G0 X-2.173 Y-12.676 F10800
G0 F4800 E0.0000
G1 X-2.797 Y-12.429 E0.0223 F1645
G1 X-2.797 Y-21.989 E0.3403
G1 X6.798 Y-21.989 E0.6594
G1 X6.798 Y-12.375 E0.9792
G1 X-2.741 Y-12.375 E1.2964
G1 X-2.482 Y-12.973
;segType:Loop
G0 X-2.397 Y-13.363 F10800
G1 X-2.397 Y-21.606 E1.5706 F2743
G1 X6.398 Y-21.606 E1.8631
G1 X6.398 Y-12.758 E2.1574
G1 X-2.397 Y-12.758 E2.4499
G1 X-2.397 Y-13.184 E2.4640
;segType:Perimeter
G0 X2.845 Y-14.659 F10800
G1 X2.279 Y-15.013 E2.4862 F1645
G1 X1.941 Y-14.992 E2.4975
G1 X1.548 Y-15.038 E2.5107
G1 X1.170 Y-15.153 E2.5238
G1 X0.819 Y-15.334 E2.5369
G1 X0.507 Y-15.574 E2.5500
G1 X0.245 Y-15.864 E2.5630
G1 X0.090 Y-16.098 E2.5723
G1 X-0.073 Y-16.454 E2.5854
G1 X-0.186 Y-16.945 E2.6021
G1 X-0.193 Y-17.339 E2.6152
G1 X-0.130 Y-17.725 E2.6282
G1 X0.001 Y-18.094 E2.6413
G1 X0.197 Y-18.434 E2.6543
G1 X0.450 Y-18.735 E2.6674
G1 X0.753 Y-18.986 E2.6805
G1 X1.097 Y-19.179 E2.6936
G1 X1.470 Y-19.308 E2.7067
G1 X1.859 Y-19.368 E2.7198
G1 X2.145 Y-19.368 E2.7293
G1 X2.642 Y-19.277 E2.7461
G1 X3.010 Y-19.128 E2.7594
G1 X3.343 Y-18.916 E2.7725
G1 X3.632 Y-18.649 E2.7856
G1 X3.869 Y-18.336 E2.7986
G1 X4.045 Y-17.986 E2.8117
G1 X4.156 Y-17.610 E2.8247
G1 X4.198 Y-17.221 E2.8377
G1 X4.170 Y-16.831 E2.8507
G1 X4.073 Y-16.452 E2.8638
G1 X3.909 Y-16.095 E2.8768
G1 X3.686 Y-15.776 E2.8898
G1 X3.490 Y-15.571 E2.8992
G1 X3.082 Y-15.275 E2.9159
G1 X2.720 Y-15.112 E2.9292
G1 X2.390 Y-15.030 E2.9405
G1 X1.969 Y-14.524
;segType:Loop
G0 X1.198 Y-14.743 F10800
G1 X1.013 Y-14.799 E2.9469 F2743
G1 X0.597 Y-15.014 E2.9624
G1 X0.228 Y-15.297 E2.9779
G1 X-0.077 Y-15.635 E2.9931
G1 X-0.264 Y-15.917 E3.0043
G1 X-0.455 Y-16.335 E3.0196
G1 X-0.585 Y-16.900 E3.0389
G1 X-0.593 Y-17.365 E3.0544
G1 X-0.520 Y-17.817 E3.0696
G1 X-0.366 Y-18.249 E3.0849
G1 X-0.137 Y-18.649 E3.1002
G1 X0.161 Y-19.003 E3.1156
G1 X0.519 Y-19.299 E3.1310
G1 X0.927 Y-19.528 E3.1466
G1 X1.370 Y-19.681 E3.1622
G1 X1.827 Y-19.751 E3.1775
G1 X2.182 Y-19.751 E3.1893
G1 X2.758 Y-19.646 E3.2088
G1 X3.200 Y-19.467 E3.2247
G1 X3.595 Y-19.217 E3.2402
G1 X3.936 Y-18.902 E3.2557
G1 X4.214 Y-18.533 E3.2710
G1 X4.421 Y-18.122 E3.2863
G1 X4.551 Y-17.683 E3.3016
G1 X4.600 Y-17.228 E3.3168
G1 X4.567 Y-16.771 E3.3320
G1 X4.453 Y-16.328 E3.3472
G1 X4.261 Y-15.910 E3.3625
G1 X4.001 Y-15.538 E3.3776
G1 X3.760 Y-15.287 E3.3892
G1 X3.290 Y-14.945 E3.4085
G1 X2.856 Y-14.750 E3.4244
G1 X2.399 Y-14.637 E3.4400
G1 X1.930 Y-14.607 E3.4557
G1 X1.462 Y-14.662 E3.4713
G1 X1.377 Y-14.688 E3.4743
;segType:Infill
G0 X-0.048 Y-12.950 F10800
G1 X-0.048 Y-15.310 E3.5528 F4114
G1 X-0.068 Y-15.332 E3.5538
G1 X-2.197 Y-15.332 E3.6246
G0 X-2.197 Y-19.117 F10800
G1 X0.014 Y-19.117 E3.6982 F4114
G1 X-0.048 Y-19.053 E3.7011
G1 X-0.048 Y-21.414 E3.7796
G0 X3.902 Y-21.414 F10800
G1 X3.902 Y-19.200 E3.8532 F4114
G1 X3.991 Y-19.117 E3.8573
G1 X6.198 Y-19.117 E3.9307
G0 X6.198 Y-15.332 F10800
G1 X4.079 Y-15.332 E4.0012 F4114
G0 X3.902 Y-12.950 F10800
G1 X3.902 Y-15.150 E4.0743 F4114
G0 F4800 E3.0743
G0 X4.198 Y-7.200 F10800
G0 X4.296 Y-4.551
G0 F4800 E4.0743
;segType:Perimeter
G1 X4.793 Y-4.112 E4.0964 F1645
G1 X4.763 Y-3.753 E4.1084
G1 X4.696 Y-3.446 E4.1188
G1 X4.595 Y-3.147 E4.1293
G1 X4.462 Y-2.861 E4.1398
G1 X4.297 Y-2.593 E4.1503
G1 X4.104 Y-2.345 E4.1607
G1 X3.885 Y-2.120 E4.1712
G1 X3.641 Y-1.921 E4.1816
G1 X3.377 Y-1.751 E4.1921
G1 X3.097 Y-1.613 E4.2025
G1 X2.802 Y-1.506 E4.2129
G1 X2.498 Y-1.433 E4.2233
G1 X2.187 Y-1.394 E4.2337
G1 X1.875 Y-1.391 E4.2441
G1 X1.564 Y-1.422 E4.2545
G1 X1.258 Y-1.488 E4.2649
G1 X0.961 Y-1.588 E4.2753
G1 X0.678 Y-1.721 E4.2857
G1 X0.410 Y-1.885 E4.2962
G1 X0.163 Y-2.078 E4.3066
G1 X-0.062 Y-2.298 E4.3171
G1 X-0.261 Y-2.542 E4.3275
G1 X-0.431 Y-2.806 E4.3380
G1 X-0.571 Y-3.089 E4.3485
G1 X-0.679 Y-3.385 E4.3590
G1 X-0.752 Y-3.692 E4.3695
G1 X-0.791 Y-4.005 E4.3800
G1 X-0.794 Y-4.321 E4.3905
G1 X-0.763 Y-4.635 E4.4009
G1 X-0.696 Y-4.943 E4.4114
G1 X-0.595 Y-5.242 E4.4219
G1 X-0.462 Y-5.527 E4.4324
G1 X-0.297 Y-5.796 E4.4429
G1 X-0.104 Y-6.044 E4.4534
G1 X0.116 Y-6.269 E4.4638
G1 X0.359 Y-6.467 E4.4742
G1 X0.623 Y-6.637 E4.4847
G1 X0.904 Y-6.776 E4.4951
G1 X1.198 Y-6.883 E4.5055
G1 X1.502 Y-6.956 E4.5159
G1 X1.813 Y-6.995 E4.5263
G1 X2.125 Y-6.998 E4.5367
G1 X2.436 Y-6.967 E4.5471
G1 X2.742 Y-6.900 E4.5575
G1 X3.039 Y-6.800 E4.5679
G1 X3.323 Y-6.668 E4.5784
G1 X3.590 Y-6.504 E4.5888
G1 X3.838 Y-6.310 E4.5992
G1 X4.062 Y-6.091 E4.6097
G1 X4.261 Y-5.847 E4.6202
G1 X4.431 Y-5.582 E4.6306
G1 X4.571 Y-5.300 E4.6411
G1 X4.679 Y-5.004 E4.6516
G1 X4.752 Y-4.697 E4.6621
G1 X4.793 Y-4.220 E4.6780
G1 X4.297 Y-3.781
;segType:Loop
G0 X4.232 Y-3.316 F10800
G1 X4.222 Y-3.285 E4.6791 F2743
G1 X4.106 Y-3.037 E4.6882
G1 X3.964 Y-2.805 E4.6972
G1 X3.797 Y-2.591 E4.7063
G1 X3.608 Y-2.398 E4.7153
G1 X3.399 Y-2.227 E4.7242
G1 X3.173 Y-2.082 E4.7332
G1 X2.934 Y-1.963 E4.7420
G1 X2.682 Y-1.872 E4.7509
G1 X2.423 Y-1.810 E4.7598
G1 X2.159 Y-1.777 E4.7686
G1 X1.894 Y-1.774 E4.7775
G1 X1.629 Y-1.801 E4.7863
G1 X1.369 Y-1.857 E4.7952
G1 X1.116 Y-1.942 E4.8041
G1 X0.874 Y-2.056 E4.8130
G1 X0.645 Y-2.196 E4.8219
G1 X0.433 Y-2.362 E4.8308
G1 X0.239 Y-2.551 E4.8398
G1 X0.068 Y-2.761 E4.8488
G1 X-0.079 Y-2.990 E4.8579
G1 X-0.200 Y-3.234 E4.8670
G1 X-0.293 Y-3.491 E4.8761
G1 X-0.357 Y-3.758 E4.8852
G1 X-0.391 Y-4.030 E4.8943
G1 X-0.394 Y-4.304 E4.9034
G1 X-0.367 Y-4.577 E4.9126
G1 X-0.309 Y-4.845 E4.9217
G1 X-0.221 Y-5.104 E4.9308
G1 X-0.106 Y-5.352 E4.9399
G1 X0.037 Y-5.584 E4.9489
G1 X0.203 Y-5.798 E4.9579
G1 X0.393 Y-5.991 E4.9669
G1 X0.601 Y-6.162 E4.9759
G1 X0.827 Y-6.307 E4.9848
G1 X1.067 Y-6.426 E4.9937
G1 X1.318 Y-6.517 E5.0026
G1 X1.577 Y-6.579 E5.0115
G1 X1.841 Y-6.612 E5.0203
G1 X2.106 Y-6.615 E5.0291
G1 X2.371 Y-6.588 E5.0380
G1 X2.632 Y-6.531 E5.0469
G1 X2.884 Y-6.446 E5.0557
G1 X3.127 Y-6.333 E5.0646
G1 X3.355 Y-6.193 E5.0735
G1 X3.568 Y-6.027 E5.0825
G1 X3.761 Y-5.838 E5.0915
G1 X3.932 Y-5.628 E5.1005
G1 X4.080 Y-5.399 E5.1096
G1 X4.201 Y-5.155 E5.1186
G1 X4.294 Y-4.897 E5.1277
G1 X4.356 Y-4.638 E5.1366
G1 X4.396 Y-4.166 E5.1524
G1 X4.366 Y-3.807 E5.1643
G1 X4.309 Y-3.544 E5.1733
G1 X4.290 Y-3.487 E5.1753
G0 F4800 E4.1753
G0 X3.238 Y-2.873 F10800
G0 F4800 E5.1753
;segType:HShell
G1 X3.198 Y-2.830 E5.1773 F1371
G1 X2.932 Y-2.634 E5.1883
G1 X2.537 Y-2.457 E5.2027
G1 X2.328 Y-2.405 E5.2098
G1 X1.997 Y-2.375 E5.2209
G1 X1.569 Y-2.427 E5.2352
G1 X1.162 Y-2.582 E5.2497
G1 X0.802 Y-2.830 E5.2642
G1 X0.512 Y-3.158 E5.2788
G1 X0.309 Y-3.545 E5.2933
G1 X0.219 Y-3.868 E5.3045
G1 X0.192 Y-4.302 E5.3189
G1 X0.243 Y-4.634 E5.3301
G1 X0.398 Y-5.043 E5.3447
G1 X0.647 Y-5.404 E5.3592
G1 X0.974 Y-5.694 E5.3738
G1 X1.361 Y-5.897 E5.3883
G1 X1.780 Y-6.000 E5.4027
G1 X2.112 Y-6.010 E5.4137
G1 X2.537 Y-5.932 E5.4281
G1 X2.738 Y-5.856 E5.4352
G1 X3.026 Y-5.693 E5.4462
G1 X3.280 Y-5.482 E5.4572
G1 X3.548 Y-5.139 E5.4717
G1 X3.728 Y-4.740 E5.4862
G1 X3.798 Y-4.415 E5.4973
G1 X3.808 Y-4.084 E5.5083
G1 X3.758 Y-3.757 E5.5193
G1 X3.649 Y-3.443 E5.5304
G1 X3.425 Y-3.072 E5.5448
G1 X3.364 Y-3.007 E5.5478
G0 X2.839 Y-3.083 F10800
G1 X2.658 Y-2.955 E5.5551 F1371
G1 X2.399 Y-2.845 E5.5645
G1 X1.997 Y-2.784 E5.5780
G1 X1.591 Y-2.848 E5.5917
G1 X1.228 Y-3.023 E5.6051
G1 X1.104 Y-3.126 E5.6105
G1 X0.838 Y-3.450 E5.6244
G1 X0.699 Y-3.728 E5.6347
G1 X0.620 Y-4.231 E5.6517
G1 X0.674 Y-4.579 E5.6634
G1 X0.726 Y-4.718 E5.6683
G1 X0.945 Y-5.101 E5.6830
G1 X1.299 Y-5.399 E5.6984
G1 X1.808 Y-5.590 E5.7165
G1 X2.304 Y-5.561 E5.7330
G1 X2.772 Y-5.366 E5.7499
G1 X2.967 Y-5.203 E5.7583
G1 X3.178 Y-4.933 E5.7697
G1 X3.320 Y-4.622 E5.7811
G1 X3.358 Y-4.467 E5.7864
G1 X3.382 Y-4.108 E5.7984
G1 X3.343 Y-3.855 E5.8069
G1 X3.258 Y-3.608 E5.8156
G1 X3.095 Y-3.343 E5.8259
G1 X2.975 Y-3.206 E5.8320
;segType:Infill
G0 X3.173 Y-3.979 F10800
G1 X0.849 Y-3.979 E5.9093 F4114
; ------------------------------------
; Layer #4
; ------------------------------------
G21 ; mm
G90 ; abs
G92 E0 ; reset extr
M106 S255
;segType:Perimeter
G0 F4800 E-1.0000
G0 F2400 Z1.000
G0 X3.316 Y-4.496 F10800
G0 F4800 E0.0000
G1 X3.787 Y-4.032 E0.0220 F1382
G1 X3.746 Y-3.760 E0.0311
G1 X3.638 Y-3.447 E0.0421
G1 X3.415 Y-3.079 E0.0564
G1 X3.189 Y-2.839 E0.0674
G1 X2.925 Y-2.644 E0.0783
G1 X2.533 Y-2.468 E0.0926
G1 X2.326 Y-2.417 E0.0997
G1 X1.997 Y-2.387 E0.1107
G1 X1.572 Y-2.439 E0.1249
G1 X1.167 Y-2.592 E0.1393
G1 X0.811 Y-2.839 E0.1537
G1 X0.522 Y-3.164 E0.1682
G1 X0.320 Y-3.548 E0.1826
G1 X0.231 Y-3.870 E0.1938
G1 X0.205 Y-4.301 E0.2081
G1 X0.255 Y-4.632 E0.2192
G1 X0.409 Y-5.037 E0.2337
G1 X0.657 Y-5.396 E0.2482
G1 X0.982 Y-5.684 E0.2626
G1 X1.365 Y-5.886 E0.2770
G1 X1.781 Y-5.988 E0.2913
G1 X2.111 Y-5.998 E0.3023
G1 X2.533 Y-5.921 E0.3165
G1 X2.732 Y-5.845 E0.3236
G1 X3.018 Y-5.684 E0.3345
G1 X3.271 Y-5.473 E0.3455
G1 X3.538 Y-5.132 E0.3599
G1 X3.716 Y-4.737 E0.3743
G1 X3.785 Y-4.413 E0.3853
G1 X3.794 Y-4.139 E0.3944
G1 X3.270 Y-3.730
;segType:Loop
G0 X3.119 Y-3.353 F10800
G1 X3.090 Y-3.306 E0.3963 F2304
G1 X2.917 Y-3.122 E0.4047
G1 X2.716 Y-2.973 E0.4130
G1 X2.397 Y-2.830 E0.4246
G1 X2.003 Y-2.773 E0.4378
G1 X1.672 Y-2.813 E0.4489
G1 X1.361 Y-2.931 E0.4600
G1 X1.084 Y-3.122 E0.4712
G1 X0.858 Y-3.378 E0.4825
G1 X0.696 Y-3.685 E0.4941
G1 X0.628 Y-3.931 E0.5026
G1 X0.607 Y-4.285 E0.5144
G1 X0.645 Y-4.538 E0.5229
G1 X0.769 Y-4.864 E0.5345
G1 X0.964 Y-5.146 E0.5459
G1 X1.217 Y-5.371 E0.5572
G1 X1.513 Y-5.526 E0.5683
G1 X1.838 Y-5.607 E0.5794
G1 X2.080 Y-5.614 E0.5875
G1 X2.420 Y-5.551 E0.5990
G1 X2.784 Y-5.371 E0.6125
G1 X2.976 Y-5.211 E0.6208
G1 X3.189 Y-4.939 E0.6323
G1 X3.332 Y-4.621 E0.6439
G1 X3.386 Y-4.369 E0.6525
G1 X3.394 Y-4.107 E0.6612
G1 X3.355 Y-3.849 E0.6699
G1 X3.271 Y-3.605 E0.6784
G1 X3.213 Y-3.509 E0.6822
G0 F4800 E-0.3178
G0 X0.846 Y-3.979 F10800
G0 F4800 E0.6822
;segType:Infill
G1 X3.173 Y-3.979 E0.7596 F3456
G0 F4800 E-0.2404
G0 X-0.837 Y-10.502 F10800
G0 X-2.173 Y-12.676
G0 F4800 E0.7596
;segType:Perimeter
G1 X-2.797 Y-12.429 E0.7819 F1382
G1 X-2.797 Y-21.989 E1.0999
G1 X6.798 Y-21.989 E1.4190
G1 X6.798 Y-12.375 E1.7388
G1 X-2.741 Y-12.375 E2.0560
G1 X-2.482 Y-12.973
;segType:Loop
G0 X-2.397 Y-13.363 F10800
G1 X-2.397 Y-21.606 E2.3301 F2304
G1 X6.398 Y-21.606 E2.6227
G1 X6.398 Y-12.758 E2.9169
G1 X-2.397 Y-12.758 E3.2094
G1 X-2.397 Y-13.184 E3.2236
;segType:Perimeter
G0 X2.856 Y-14.663 F10800
G1 X2.289 Y-15.015 E3.2458 F1382
G1 X1.951 Y-14.992 E3.2571
G1 X1.558 Y-15.036 E3.2702
G1 X1.179 Y-15.150 E3.2834
G1 X0.827 Y-15.329 E3.2965
G1 X0.514 Y-15.568 E3.3096
G1 X0.250 Y-15.856 E3.3226
G1 X0.086 Y-16.106 E3.3326
G1 X-0.076 Y-16.463 E3.3456
G1 X-0.184 Y-16.936 E3.3617
G1 X-0.193 Y-17.329 E3.3748
G1 X-0.132 Y-17.715 E3.3878
G1 X-0.002 Y-18.085 E3.4008
G1 X0.191 Y-18.426 E3.4139
G1 X0.443 Y-18.728 E3.4270
G1 X0.745 Y-18.980 E3.4401
G1 X1.088 Y-19.175 E3.4532
G1 X1.461 Y-19.306 E3.4663
G1 X1.849 Y-19.367 E3.4794
G1 X2.154 Y-19.367 E3.4895
G1 X2.633 Y-19.280 E3.5057
G1 X3.001 Y-19.132 E3.5189
G1 X3.335 Y-18.922 E3.5320
G1 X3.626 Y-18.657 E3.5451
G1 X3.864 Y-18.344 E3.5582
G1 X4.042 Y-17.995 E3.5712
G1 X4.154 Y-17.620 E3.5843
G1 X4.198 Y-17.231 E3.5973
G1 X4.172 Y-16.841 E3.6103
G1 X4.076 Y-16.461 E3.6233
G1 X3.914 Y-16.104 E3.6363
G1 X3.692 Y-15.783 E3.6493
G1 X3.483 Y-15.565 E3.6594
G1 X3.090 Y-15.280 E3.6755
G1 X2.729 Y-15.115 E3.6887
G1 X2.400 Y-15.032 E3.7000
G1 X1.981 Y-14.525
;segType:Loop
G0 X1.208 Y-14.740 F10800
G1 X1.024 Y-14.795 E3.7064 F2304
G1 X0.607 Y-15.007 E3.7220
G1 X0.237 Y-15.289 E3.7374
G1 X-0.071 Y-15.626 E3.7526
G1 X-0.269 Y-15.926 E3.7646
G1 X-0.459 Y-16.344 E3.7798
G1 X-0.583 Y-16.890 E3.7985
G1 X-0.594 Y-17.353 E3.8139
G1 X-0.522 Y-17.806 E3.8291
G1 X-0.371 Y-18.238 E3.8444
G1 X-0.144 Y-18.639 E3.8597
G1 X0.153 Y-18.994 E3.8751
G1 X0.510 Y-19.292 E3.8905
G1 X0.916 Y-19.523 E3.9061
G1 X1.359 Y-19.678 E3.9217
G1 X1.817 Y-19.750 E3.9371
G1 X2.191 Y-19.750 E3.9495
G1 X2.748 Y-19.649 E3.9684
G1 X3.190 Y-19.472 E3.9842
G1 X3.585 Y-19.223 E3.9997
G1 X3.928 Y-18.910 E4.0152
G1 X4.208 Y-18.543 E4.0305
G1 X4.417 Y-18.133 E4.0458
G1 X4.548 Y-17.694 E4.0611
G1 X4.599 Y-17.239 E4.0763
G1 X4.569 Y-16.783 E4.0915
G1 X4.457 Y-16.338 E4.1067
G1 X4.267 Y-15.920 E4.1220
G1 X4.008 Y-15.546 E4.1372
G1 X3.753 Y-15.280 E4.1494
G1 X3.299 Y-14.950 E4.1681
G1 X2.866 Y-14.754 E4.1839
G1 X2.411 Y-14.639 E4.1995
G1 X1.941 Y-14.607 E4.2151
G1 X1.474 Y-14.660 E4.2308
G1 X1.387 Y-14.686 E4.2338
;segType:Infill
G0 X-0.048 Y-12.950 F10800
G1 X-0.048 Y-15.310 E4.3123 F3456
G1 X-0.068 Y-15.332 E4.3133
G1 X-2.197 Y-15.332 E4.3841
G0 X-2.197 Y-19.117 F10800
G1 X0.002 Y-19.117 E4.4573 F3456
G1 X-0.048 Y-19.054 E4.4599
G1 X-0.048 Y-21.414 E4.5384
G0 X3.902 Y-21.414 F10800
G1 X3.902 Y-19.200 E4.6121 F3456
G1 X3.991 Y-19.117 E4.6161
G1 X6.198 Y-19.117 E4.6895
G0 X6.198 Y-15.332 F10800
G1 X4.079 Y-15.332 E4.7600 F3456
G0 X3.902 Y-12.950 F10800
G1 X3.902 Y-15.150 E4.8331 F3456
; ------------------------------------
; Layer #5
; ------------------------------------
G21 ; mm
G90 ; abs
G92 E0 ; reset extr
M106 S255
;segType:Perimeter
G0 F4800 E-1.0000
G0 F2400 Z1.200
G0 X-2.173 Y-12.676 F10800
G0 F4800 E0.0000
G1 X-2.797 Y-12.429 E0.0223 F1382
G1 X-2.797 Y-21.989 E0.3403
G1 X6.798 Y-21.989 E0.6594
G1 X6.798 Y-12.375 E0.9792
G1 X-2.741 Y-12.375 E1.2964
G1 X-2.482 Y-12.973
;segType:Loop
G0 X-2.397 Y-13.363 F10800
G1 X-2.397 Y-21.606 E1.5706 F2304
G1 X6.398 Y-21.606 E1.8631
G1 X6.398 Y-12.758 E2.1574
G1 X-2.397 Y-12.758 E2.4499
G1 X-2.397 Y-13.184 E2.4640
;segType:Perimeter
G0 X2.868 Y-14.667 F10800
G1 X2.299 Y-15.016 E2.4862 F1382
G1 X1.961 Y-14.992 E2.4975
G1 X1.567 Y-15.034 E2.5107
G1 X1.188 Y-15.146 E2.5238
G1 X0.836 Y-15.324 E2.5369
G1 X0.521 Y-15.561 E2.5500
G1 X0.256 Y-15.849 E2.5631
G1 X0.081 Y-16.114 E2.5736
G1 X-0.079 Y-16.472 E2.5867
G1 X-0.183 Y-16.926 E2.6022
G1 X-0.193 Y-17.319 E2.6152
G1 X-0.134 Y-17.706 E2.6282
G1 X-0.006 Y-18.076 E2.6413
G1 X0.186 Y-18.418 E2.6543
G1 X0.436 Y-18.721 E2.6674
G1 X0.737 Y-18.974 E2.6805
G1 X1.079 Y-19.171 E2.6936
G1 X1.452 Y-19.303 E2.7067
G1 X1.840 Y-19.366 E2.7198
G1 X2.162 Y-19.366 E2.7305
G1 X2.624 Y-19.283 E2.7461
G1 X2.993 Y-19.136 E2.7593
G1 X3.327 Y-18.928 E2.7725
G1 X3.619 Y-18.664 E2.7855
G1 X3.858 Y-18.352 E2.7986
G1 X4.038 Y-18.004 E2.8116
G1 X4.152 Y-17.629 E2.8247
G1 X4.197 Y-17.241 E2.8377
G1 X4.173 Y-16.850 E2.8507
G1 X4.079 Y-16.470 E2.8637
G1 X3.918 Y-16.112 E2.8768
G1 X3.698 Y-15.790 E2.8897
G1 X3.477 Y-15.559 E2.9004
G1 X3.098 Y-15.284 E2.9159
G1 X2.738 Y-15.119 E2.9291
G1 X2.410 Y-15.034 E2.9404
G1 X1.994 Y-14.525
;segType:Loop
G0 X1.220 Y-14.736 F10800
G1 X1.035 Y-14.791 E2.9468 F2304
G1 X0.617 Y-15.002 E2.9624
G1 X0.246 Y-15.282 E2.9779
G1 X-0.065 Y-15.618 E2.9931
G1 X-0.274 Y-15.935 E3.0057
G1 X-0.462 Y-16.354 E3.0210
G1 X-0.582 Y-16.880 E3.0389
G1 X-0.594 Y-17.342 E3.0543
G1 X-0.525 Y-17.794 E3.0695
G1 X-0.375 Y-18.228 E3.0848
G1 X-0.150 Y-18.629 E3.1001
G1 X0.145 Y-18.986 E3.1155
G1 X0.500 Y-19.285 E3.1309
G1 X0.906 Y-19.518 E3.1465
G1 X1.348 Y-19.675 E3.1621
G1 X1.806 Y-19.750 E3.1775
G1 X2.200 Y-19.750 E3.1906
G1 X2.739 Y-19.652 E3.2088
G1 X3.180 Y-19.477 E3.2246
G1 X3.576 Y-19.230 E3.2401
G1 X3.920 Y-18.919 E3.2556
G1 X4.201 Y-18.552 E3.2709
G1 X4.412 Y-18.144 E3.2862
G1 X4.546 Y-17.705 E3.3015
G1 X4.599 Y-17.250 E3.3167
G1 X4.570 Y-16.794 E3.3319
G1 X4.460 Y-16.349 E3.3471
G1 X4.272 Y-15.930 E3.3624
G1 X4.014 Y-15.554 E3.3776
G1 X3.747 Y-15.275 E3.3904
G1 X3.308 Y-14.956 E3.4085
G1 X2.878 Y-14.758 E3.4242
G1 X2.423 Y-14.641 E3.4399
G1 X1.953 Y-14.607 E3.4555
G1 X1.485 Y-14.657 E3.4712
G1 X1.399 Y-14.683 E3.4742
;segType:Infill
G0 X-0.048 Y-12.950 F10800
G1 X-0.048 Y-15.310 E3.5527 F3456
G1 X-0.068 Y-15.332 E3.5537
G1 X-2.197 Y-15.332 E3.6245
G0 X-2.197 Y-19.117 F10800
G1 X0.003 Y-19.117 E3.6976 F3456
G1 X-0.048 Y-19.057 E3.7002
G1 X-0.048 Y-21.414 E3.7786
G0 X3.902 Y-21.414 F10800
G1 X3.902 Y-19.199 E3.8523 F3456
G1 X3.991 Y-19.117 E3.8563
G1 X6.198 Y-19.117 E3.9297
G0 X6.198 Y-15.332 F10800
G1 X4.077 Y-15.332 E4.0002 F3456
G0 X3.902 Y-12.950 F10800
G1 X3.902 Y-15.150 E4.0734 F3456
G0 F4800 E3.0734
G0 X3.456 Y-7.158 F10800
G0 X3.308 Y-4.494
G0 F4800 E4.0734
;segType:Perimeter
G1 X3.786 Y-4.037 E4.0954 F1382
G1 X3.715 Y-3.651 E4.1085
G1 X3.594 Y-3.358 E4.1190
G1 X3.477 Y-3.163 E4.1266
G1 X3.275 Y-2.920 E4.1371
G1 X3.105 Y-2.769 E4.1446
G1 X2.844 Y-2.599 E4.1550
G1 X2.546 Y-2.473 E4.1658
G1 X2.306 Y-2.414 E4.1740
G1 X1.996 Y-2.387 E4.1843
G1 X1.686 Y-2.415 E4.1947
G1 X1.468 Y-2.468 E4.2022
G1 X1.177 Y-2.588 E4.2126
G1 X0.983 Y-2.704 E4.2201
G1 X0.743 Y-2.903 E4.2305
G1 X0.533 Y-3.151 E4.2413
G1 X0.403 Y-3.365 E4.2497
G1 X0.283 Y-3.656 E4.2601
G1 X0.217 Y-3.964 E4.2706
G1 X0.201 Y-4.194 E4.2783
G1 X0.217 Y-4.425 E4.2859
G1 X0.283 Y-4.733 E4.2964
G1 X0.403 Y-5.024 E4.3069
G1 X0.533 Y-5.237 E4.3152
G1 X0.743 Y-5.485 E4.3260
G1 X0.983 Y-5.685 E4.3364
G1 X1.177 Y-5.801 E4.3439
G1 X1.468 Y-5.920 E4.3544
G1 X1.686 Y-5.974 E4.3619
G1 X1.996 Y-6.001 E4.3722
G1 X2.306 Y-5.974 E4.3825
G1 X2.546 Y-5.916 E4.3908
G1 X2.844 Y-5.790 E4.4015
G1 X3.105 Y-5.620 E4.4119
G1 X3.275 Y-5.469 E4.4194
G1 X3.477 Y-5.226 E4.4300
G1 X3.594 Y-5.031 E4.4375
G1 X3.715 Y-4.738 E4.4481
G1 X3.769 Y-4.522 E4.4555
G1 X3.792 Y-4.144 E4.4680
G1 X3.263 Y-3.742
;segType:Loop
G0 X3.082 Y-3.312 F10800
G1 X2.855 Y-3.069 E4.4791 F2304
G1 X2.649 Y-2.936 E4.4873
G1 X2.415 Y-2.837 E4.4957
G1 X2.238 Y-2.793 E4.5018
G1 X1.997 Y-2.772 E4.5098
G1 X1.597 Y-2.832 E4.5233
G1 X1.221 Y-3.013 E4.5372
G1 X1.031 Y-3.171 E4.5454
G1 X0.863 Y-3.369 E4.5540
G1 X0.764 Y-3.533 E4.5604
G1 X0.668 Y-3.766 E4.5688
G1 X0.602 Y-4.194 E4.5832
G1 X0.668 Y-4.623 E4.5976
G1 X0.764 Y-4.856 E4.6060
G1 X0.863 Y-5.019 E4.6123
G1 X1.031 Y-5.217 E4.6210
G1 X1.363 Y-5.460 E4.6347
G1 X1.754 Y-5.595 E4.6484
G1 X1.997 Y-5.616 E4.6565
G1 X2.238 Y-5.596 E4.6646
G1 X2.415 Y-5.552 E4.6707
G1 X2.649 Y-5.453 E4.6791
G1 X2.980 Y-5.208 E4.6928
G1 X3.233 Y-4.864 E4.7070
G1 X3.371 Y-4.466 E4.7210
G1 X3.393 Y-4.112 E4.7328
G1 X3.328 Y-3.756 E4.7449
G1 X3.185 Y-3.461 E4.7558
G0 F4800 E3.7558
G0 X0.846 Y-3.979 F10800
G0 F4800 E4.7558
;segType:Infill
G1 X3.166 Y-3.979 E4.8329 F3456
; ------------------------------------
; Layer #6
; ------------------------------------
G21 ; mm
G90 ; abs
G92 E0 ; reset extr
M106 S255
;segType:Perimeter
G0 F4800 E-1.0000
G0 F2400 Z1.400
G0 X3.303 Y-4.497 F10800
G0 F4800 E0.0000
G1 X3.790 Y-4.049 E0.0220 F1382
G1 X3.771 Y-3.876 E0.0278
G1 X3.713 Y-3.645 E0.0357
G1 X3.599 Y-3.367 E0.0457
G1 X3.474 Y-3.159 E0.0538
G1 X3.282 Y-2.928 E0.0638
G1 X3.102 Y-2.766 E0.0718
G1 X2.854 Y-2.605 E0.0816
G1 X2.563 Y-2.480 E0.0922
G1 X2.286 Y-2.412 E0.1017
G1 X1.993 Y-2.387 E0.1115
G1 X1.698 Y-2.413 E0.1213
G1 X1.465 Y-2.469 E0.1293
G1 X1.189 Y-2.582 E0.1392
G1 X0.982 Y-2.705 E0.1472
G1 X0.753 Y-2.894 E0.1571
G1 X0.545 Y-3.136 E0.1677
G1 X0.395 Y-3.381 E0.1773
G1 X0.283 Y-3.657 E0.1872
G1 X0.219 Y-3.950 E0.1971
G1 X0.201 Y-4.194 E0.2053
G1 X0.219 Y-4.439 E0.2134
G1 X0.283 Y-4.731 E0.2234
G1 X0.395 Y-5.007 E0.2333
G1 X0.545 Y-5.253 E0.2429
G1 X0.753 Y-5.495 E0.2535
G1 X0.982 Y-5.684 E0.2633
G1 X1.189 Y-5.807 E0.2714
G1 X1.465 Y-5.920 E0.2813
G1 X1.698 Y-5.976 E0.2893
G1 X1.993 Y-6.001 E0.2991
G1 X2.286 Y-5.977 E0.3089
G1 X2.563 Y-5.909 E0.3184
G1 X2.854 Y-5.784 E0.3289
G1 X3.102 Y-5.622 E0.3388
G1 X3.282 Y-5.461 E0.3468
G1 X3.474 Y-5.230 E0.3568
G1 X3.599 Y-5.022 E0.3649
G1 X3.713 Y-4.744 E0.3749
G1 X3.769 Y-4.517 E0.3826
G1 X3.792 Y-4.156 E0.3947
G1 X3.285 Y-3.729
;segType:Loop
G0 X3.079 Y-3.308 F10800
G1 X2.852 Y-3.067 E0.4057 F2304
G1 X2.659 Y-2.941 E0.4133
G1 X2.431 Y-2.843 E0.4216
G1 X2.219 Y-2.791 E0.4289
G1 X1.993 Y-2.772 E0.4364
G1 X1.593 Y-2.833 E0.4499
G1 X1.219 Y-3.015 E0.4637
G1 X1.040 Y-3.163 E0.4714
G1 X0.874 Y-3.356 E0.4799
G1 X0.756 Y-3.549 E0.4874
G1 X0.668 Y-3.767 E0.4952
G1 X0.602 Y-4.194 E0.5096
G1 X0.668 Y-4.622 E0.5240
G1 X0.756 Y-4.840 E0.5318
G1 X0.874 Y-5.033 E0.5393
G1 X1.040 Y-5.226 E0.5478
G1 X1.374 Y-5.466 E0.5615
G1 X1.766 Y-5.597 E0.5752
G1 X1.993 Y-5.616 E0.5828
G1 X2.219 Y-5.598 E0.5903
G1 X2.431 Y-5.546 E0.5976
G1 X2.659 Y-5.448 E0.6058
G1 X2.988 Y-5.200 E0.6195
G1 X3.142 Y-5.014 E0.6276
G1 X3.331 Y-4.629 E0.6419
G1 X3.372 Y-4.461 E0.6476
G1 X3.395 Y-4.111 E0.6593
G1 X3.331 Y-3.760 E0.6711
G1 X3.182 Y-3.456 E0.6824
G0 F4800 E-0.3176
G0 X0.855 Y-3.979 F10800
G0 F4800 E0.6824
;segType:Infill
G1 X3.166 Y-3.979 E0.7592 F3456
G0 F4800 E-0.2408
G0 X-0.838 Y-10.502 F10800
G0 X-2.173 Y-12.676
G0 F4800 E0.7592
;segType:Perimeter
G1 X-2.797 Y-12.429 E0.7816 F1382
G1 X-2.797 Y-21.989 E1.0995
G1 X6.798 Y-21.989 E1.4187
G1 X6.798 Y-12.375 E1.7384
G1 X-2.741 Y-12.375 E2.0557
G1 X-2.482 Y-12.973
;segType:Loop
G0 X-2.397 Y-13.363 F10800
G1 X-2.397 Y-21.606 E2.3298 F2304
G1 X6.398 Y-21.606 E2.6223
G1 X6.398 Y-12.758 E2.9166
G1 X-2.397 Y-12.758 E3.2091
G1 X-2.397 Y-13.184 E3.2233
;segType:Perimeter
G0 X2.879 Y-14.671 F10800
G1 X2.309 Y-15.018 E3.2455 F1382
G1 X1.971 Y-14.992 E3.2568
G1 X1.577 Y-15.033 E3.2699
G1 X1.198 Y-15.143 E3.2831
G1 X0.844 Y-15.319 E3.2962
G1 X0.529 Y-15.555 E3.3093
G1 X0.262 Y-15.842 E3.3223
G1 X0.077 Y-16.122 E3.3335
G1 X-0.082 Y-16.481 E3.3465
G1 X-0.182 Y-16.917 E3.3614
G1 X-0.194 Y-17.309 E3.3745
G1 X-0.136 Y-17.696 E3.3875
G1 X-0.010 Y-18.067 E3.4005
G1 X0.180 Y-18.410 E3.4136
G1 X0.429 Y-18.713 E3.4266
G1 X0.729 Y-18.969 E3.4397
G1 X1.071 Y-19.166 E3.4528
G1 X1.442 Y-19.300 E3.4660
G1 X1.831 Y-19.365 E3.4791
G1 X2.171 Y-19.365 E3.4904
G1 X2.614 Y-19.285 E3.5054
G1 X2.984 Y-19.141 E3.5186
G1 X3.319 Y-18.934 E3.5317
G1 X3.612 Y-18.671 E3.5448
G1 X3.853 Y-18.361 E3.5578
G1 X4.034 Y-18.013 E3.5709
G1 X4.150 Y-17.639 E3.5839
G1 X4.197 Y-17.250 E3.5969
G1 X4.174 Y-16.860 E3.6099
G1 X4.082 Y-16.479 E3.6230
G1 X3.923 Y-16.121 E3.6360
G1 X3.703 Y-15.798 E3.6490
G1 X3.470 Y-15.553 E3.6602
G1 X3.107 Y-15.289 E3.6752
G1 X2.747 Y-15.122 E3.6884
G1 X2.419 Y-15.036 E3.6996
G1 X2.006 Y-14.525
;segType:Loop
G0 X1.231 Y-14.733 F10800
G1 X1.046 Y-14.787 E3.7060 F2304
G1 X0.627 Y-14.995 E3.7216
G1 X0.254 Y-15.274 E3.7371
G1 X-0.058 Y-15.610 E3.7524
G1 X-0.279 Y-15.944 E3.7656
G1 X-0.465 Y-16.364 E3.7809
G1 X-0.580 Y-16.870 E3.7982
G1 X-0.595 Y-17.331 E3.8135
G1 X-0.527 Y-17.783 E3.8287
G1 X-0.380 Y-18.217 E3.8440
G1 X-0.156 Y-18.620 E3.8593
G1 X0.137 Y-18.977 E3.8747
G1 X0.491 Y-19.278 E3.8901
G1 X0.895 Y-19.512 E3.9057
G1 X1.336 Y-19.671 E3.9213
G1 X1.796 Y-19.749 E3.9368
G1 X2.209 Y-19.749 E3.9505
G1 X2.728 Y-19.654 E3.9681
G1 X3.169 Y-19.482 E3.9838
G1 X3.566 Y-19.237 E3.9993
G1 X3.912 Y-18.927 E4.0148
G1 X4.195 Y-18.562 E4.0301
G1 X4.408 Y-18.154 E4.0454
G1 X4.543 Y-17.716 E4.0607
G1 X4.598 Y-17.262 E4.0759
G1 X4.572 Y-16.806 E4.0911
G1 X4.464 Y-16.360 E4.1063
G1 X4.278 Y-15.940 E4.1216
G1 X4.021 Y-15.562 E4.1368
G1 X3.740 Y-15.269 E4.1503
G1 X3.317 Y-14.961 E4.1677
G1 X2.889 Y-14.762 E4.1835
G1 X2.434 Y-14.643 E4.1991
G1 X1.965 Y-14.607 E4.2147
G1 X1.497 Y-14.656 E4.2304
G1 X1.410 Y-14.681 E4.2334
;segType:Infill
G0 X-0.048 Y-12.950 F10800
G1 X-0.048 Y-15.310 E4.3119 F3456
G1 X-0.068 Y-15.332 E4.3129
G1 X-2.197 Y-15.332 E4.3837
G0 X-2.197 Y-19.117 F10800
G1 X0.004 Y-19.117 E4.4569 F3456
G1 X-0.048 Y-19.058 E4.4595
G1 X-0.048 Y-21.414 E4.5379
G0 X3.902 Y-21.414 F10800
G1 X3.902 Y-19.199 E4.6115 F3456
G1 X3.991 Y-19.117 E4.6156
G1 X6.198 Y-19.117 E4.6890
G0 X6.198 Y-15.332 F10800
G1 X4.075 Y-15.332 E4.7595 F3456
G0 X3.902 Y-12.950 F10800
G1 X3.902 Y-15.151 E4.8328 F3456
; ------------------------------------
; Layer #7
; ------------------------------------
G21 ; mm
G90 ; abs
G92 E0 ; reset extr
M106 S255
;segType:Perimeter
G0 F4800 E-1.0000
G0 F2400 Z1.600
G0 X-2.173 Y-12.676 F10800
G0 F4800 E0.0000
G1 X-2.797 Y-12.429 E0.0223 F1381
G1 X-2.797 Y-21.989 E0.3403
G1 X6.798 Y-21.989 E0.6594
G1 X6.798 Y-12.375 E0.9792
G1 X-2.741 Y-12.375 E1.2964
G1 X-2.482 Y-12.973
;segType:Loop
G0 X-2.397 Y-13.363 F10800
G1 X-2.397 Y-21.606 E1.5706 F2302
G1 X6.398 Y-21.606 E1.8631
G1 X6.398 Y-12.758 E2.1574
G1 X-2.397 Y-12.758 E2.4499
G1 X-2.397 Y-13.184 E2.4640
;segType:Perimeter
G0 X2.891 Y-14.675 F10800
G1 X2.319 Y-15.019 E2.4862 F1381
G1 X1.981 Y-14.992 E2.4975
G1 X1.587 Y-15.031 E2.5107
G1 X1.207 Y-15.139 E2.5238
G1 X0.853 Y-15.314 E2.5369
G1 X0.536 Y-15.549 E2.5500
G1 X0.268 Y-15.834 E2.5631
G1 X0.072 Y-16.131 E2.5749
G1 X-0.085 Y-16.490 E2.5879
G1 X-0.180 Y-16.907 E2.6022
G1 X-0.194 Y-17.299 E2.6152
G1 X-0.138 Y-17.687 E2.6282
G1 X-0.014 Y-18.058 E2.6413
G1 X0.175 Y-18.402 E2.6543
G1 X0.422 Y-18.706 E2.6674
G1 X0.721 Y-18.963 E2.6805
G1 X1.061 Y-19.162 E2.6936
G1 X1.433 Y-19.298 E2.7067
G1 X1.821 Y-19.365 E2.7198
G1 X2.180 Y-19.365 E2.7318
G1 X2.606 Y-19.287 E2.7462
G1 X2.975 Y-19.145 E2.7593
G1 X3.311 Y-18.940 E2.7724
G1 X3.605 Y-18.678 E2.7855
G1 X3.847 Y-18.369 E2.7986
G1 X4.030 Y-18.022 E2.8116
G1 X4.148 Y-17.648 E2.8246
G1 X4.197 Y-17.260 E2.8377
G1 X4.176 Y-16.870 E2.8507
G1 X4.085 Y-16.489 E2.8637
G1 X3.928 Y-16.130 E2.8767
G1 X3.709 Y-15.805 E2.8897
G1 X3.463 Y-15.547 E2.9016
G1 X3.115 Y-15.294 E2.9159
G1 X2.757 Y-15.126 E2.9291
G1 X2.429 Y-15.038 E2.9404
G1 X2.018 Y-14.525
;segType:Loop
G0 X1.242 Y-14.729 F10800
G1 X1.057 Y-14.782 E2.9468 F2302
G1 X0.637 Y-14.989 E2.9623
G1 X0.263 Y-15.266 E2.9778
G1 X-0.052 Y-15.602 E2.9931
G1 X-0.284 Y-15.953 E3.0071
G1 X-0.468 Y-16.374 E3.0224
G1 X-0.579 Y-16.860 E3.0390
G1 X-0.595 Y-17.319 E3.0543
G1 X-0.530 Y-17.772 E3.0695
G1 X-0.384 Y-18.207 E3.0848
G1 X-0.163 Y-18.610 E3.1000
G1 X0.129 Y-18.969 E3.1154
G1 X0.481 Y-19.272 E3.1309
G1 X0.885 Y-19.508 E3.1464
G1 X1.325 Y-19.668 E3.1620
G1 X1.786 Y-19.748 E3.1776
G1 X2.218 Y-19.748 E3.1919
G1 X2.719 Y-19.657 E3.2089
G1 X3.159 Y-19.487 E3.2245
G1 X3.557 Y-19.244 E3.2401
G1 X3.904 Y-18.936 E3.2555
G1 X4.189 Y-18.572 E3.2709
G1 X4.403 Y-18.164 E3.2862
G1 X4.541 Y-17.727 E3.3014
G1 X4.598 Y-17.273 E3.3166
G1 X4.573 Y-16.817 E3.3319
G1 X4.467 Y-16.371 E3.3471
G1 X4.283 Y-15.951 E3.3624
G1 X4.027 Y-15.570 E3.3776
G1 X3.733 Y-15.263 E3.3917
G1 X3.326 Y-14.967 E3.4085
G1 X2.900 Y-14.766 E3.4242
G1 X2.446 Y-14.645 E3.4398
G1 X1.977 Y-14.607 E3.4555
G1 X1.509 Y-14.653 E3.4711
G1 X1.422 Y-14.678 E3.4741
;segType:Infill
G0 X-0.048 Y-12.950 F10800
G1 X-0.048 Y-15.310 E3.5526 F3454
G1 X-0.069 Y-15.332 E3.5536
G1 X-2.197 Y-15.332 E3.6244
G0 X-2.197 Y-19.117 F10800
G1 X0.004 Y-19.117 E3.6976 F3454
G1 X-0.048 Y-19.059 E3.7002
G1 X-0.048 Y-21.414 E3.7785
G0 X3.902 Y-21.414 F10800
G1 X3.902 Y-19.203 E3.8520 F3454
G1 X3.999 Y-19.117 E3.8563
G1 X6.198 Y-19.117 E3.9295
G0 X6.198 Y-15.332 F10800
G1 X4.075 Y-15.332 E4.0001 F3454
G0 X3.902 Y-12.950 F10800
G1 X3.902 Y-15.152 E4.0733 F3454
G0 F4800 E3.0733
G0 X3.453 Y-7.169 F10800
G0 X3.303 Y-4.508
G0 F4800 E4.0733
;segType:Perimeter
G1 X3.790 Y-4.060 E4.0954 F1381
G1 X3.771 Y-3.880 E4.1014
G1 X3.711 Y-3.639 E4.1096
G1 X3.603 Y-3.376 E4.1191
G1 X3.471 Y-3.155 E4.1277
G1 X3.290 Y-2.936 E4.1371
G1 X3.099 Y-2.764 E4.1456
G1 X2.865 Y-2.611 E4.1549
G1 X2.579 Y-2.485 E4.1653
G1 X2.266 Y-2.409 E4.1760
G1 X1.989 Y-2.387 E4.1853
G1 X1.710 Y-2.412 E4.1946
G1 X1.462 Y-2.470 E4.2031
G1 X1.201 Y-2.576 E4.2125
G1 X0.980 Y-2.706 E4.2210
G1 X0.764 Y-2.884 E4.2303
G1 X0.557 Y-3.120 E4.2407
G1 X0.388 Y-3.398 E4.2516
G1 X0.282 Y-3.658 E4.2609
G1 X0.221 Y-3.936 E4.2703
G1 X0.202 Y-4.194 E4.2790
G1 X0.221 Y-4.453 E4.2876
G1 X0.282 Y-4.730 E4.2970
G1 X0.388 Y-4.991 E4.3064
G1 X0.557 Y-5.269 E4.3172
G1 X0.764 Y-5.505 E4.3277
G1 X0.980 Y-5.683 E4.3370
G1 X1.201 Y-5.813 E4.3455
G1 X1.462 Y-5.919 E4.3549
G1 X1.710 Y-5.977 E4.3634
G1 X1.989 Y-6.001 E4.3727
G1 X2.266 Y-5.980 E4.3819
G1 X2.579 Y-5.903 E4.3926
G1 X2.865 Y-5.778 E4.4030
G1 X3.099 Y-5.625 E4.4123
G1 X3.290 Y-5.453 E4.4209
G1 X3.471 Y-5.234 E4.4303
G1 X3.603 Y-5.013 E4.4389
G1 X3.711 Y-4.749 E4.4483
G1 X3.770 Y-4.512 E4.4565
G1 X3.792 Y-4.168 E4.4679
G1 X3.287 Y-3.738
;segType:Loop
G0 X3.195 Y-3.464 F10800
G1 X3.138 Y-3.370 E4.4716 F2302
G1 X2.848 Y-3.064 E4.4856
G1 X2.668 Y-2.946 E4.4928
G1 X2.445 Y-2.848 E4.5009
G1 X2.200 Y-2.788 E4.5093
G1 X1.991 Y-2.772 E4.5163
G1 X1.589 Y-2.835 E4.5298
G1 X1.217 Y-3.017 E4.5436
G1 X1.049 Y-3.154 E4.5508
G1 X0.885 Y-3.341 E4.5591
G1 X0.749 Y-3.565 E4.5677
G1 X0.667 Y-3.768 E4.5750
G1 X0.603 Y-4.194 E4.5894
G1 X0.667 Y-4.621 E4.6037
G1 X0.749 Y-4.824 E4.6110
G1 X0.885 Y-5.047 E4.6197
G1 X1.049 Y-5.235 E4.6280
G1 X1.385 Y-5.471 E4.6417
G1 X1.777 Y-5.598 E4.6553
G1 X1.991 Y-5.617 E4.6625
G1 X2.200 Y-5.600 E4.6695
G1 X2.445 Y-5.541 E4.6779
G1 X2.668 Y-5.443 E4.6860
G1 X2.995 Y-5.193 E4.6997
G1 X3.138 Y-5.019 E4.7072
G1 X3.241 Y-4.847 E4.7138
G1 X3.373 Y-4.456 E4.7276
G1 X3.395 Y-4.121 E4.7387
G1 X3.329 Y-3.755 E4.7511
G1 X3.329 Y-3.755
;segType:Infill
G0 X0.849 Y-3.979 F10800
G1 X3.166 Y-3.979 E4.8281 F3454
; ------------------------------------
; Layer #8
; ------------------------------------
G21 ; mm
G90 ; abs
G92 E0 ; reset extr
M106 S255
;segType:Perimeter
G0 F4800 E-1.0000
G0 F2400 Z1.800
G0 X3.302 Y-4.518 F10800
G0 F4800 E0.0000
G1 X3.791 Y-4.072 E0.0220 F1381
G1 X3.772 Y-3.885 E0.0283
G1 X3.709 Y-3.633 E0.0369
G1 X3.608 Y-3.385 E0.0458
G1 X3.468 Y-3.150 E0.0549
G1 X3.298 Y-2.945 E0.0638
G1 X3.097 Y-2.762 E0.0728
G1 X2.876 Y-2.617 E0.0816
G1 X2.596 Y-2.491 E0.0918
G1 X2.247 Y-2.407 E0.1038
G1 X1.985 Y-2.387 E0.1125
G1 X1.723 Y-2.410 E0.1212
G1 X1.459 Y-2.471 E0.1302
G1 X1.214 Y-2.571 E0.1390
G1 X0.979 Y-2.707 E0.1481
G1 X0.774 Y-2.874 E0.1569
G1 X0.569 Y-3.105 E0.1671
G1 X0.380 Y-3.414 E0.1792
G1 X0.282 Y-3.660 E0.1880
G1 X0.224 Y-3.921 E0.1969
G1 X0.202 Y-4.194 E0.2060
G1 X0.224 Y-4.467 E0.2151
G1 X0.282 Y-4.729 E0.2240
G1 X0.380 Y-4.975 E0.2328
G1 X0.569 Y-5.284 E0.2449
G1 X0.774 Y-5.515 E0.2552
G1 X0.979 Y-5.682 E0.2640
G1 X1.214 Y-5.818 E0.2730
G1 X1.459 Y-5.918 E0.2818
G1 X1.723 Y-5.979 E0.2908
G1 X1.985 Y-6.002 E0.2996
G1 X2.247 Y-5.982 E0.3083
G1 X2.596 Y-5.898 E0.3202
G1 X2.876 Y-5.772 E0.3304
G1 X3.097 Y-5.627 E0.3392
G1 X3.298 Y-5.444 E0.3483
G1 X3.468 Y-5.238 E0.3571
G1 X3.608 Y-5.004 E0.3662
G1 X3.709 Y-4.756 E0.3751
G1 X3.771 Y-4.507 E0.3836
G1 X3.793 Y-4.179 E0.3946
G1 X3.289 Y-3.748
;segType:Loop
G0 X3.199 Y-3.473 F10800
G1 X3.135 Y-3.365 E0.3988 F2302
G1 X2.844 Y-3.061 E0.4128
G1 X2.677 Y-2.951 E0.4194
G1 X2.461 Y-2.854 E0.4273
G1 X2.181 Y-2.786 E0.4369
G1 X1.788 Y-2.789 E0.4499
G1 X1.396 Y-2.913 E0.4636
G1 X1.058 Y-3.146 E0.4773
G1 X0.896 Y-3.328 E0.4854
G1 X0.742 Y-3.580 E0.4952
G1 X0.667 Y-3.769 E0.5020
G1 X0.603 Y-4.194 E0.5163
G1 X0.667 Y-4.619 E0.5306
G1 X0.742 Y-4.809 E0.5374
G1 X0.896 Y-5.061 E0.5472
G1 X1.058 Y-5.243 E0.5553
G1 X1.396 Y-5.476 E0.5689
G1 X1.788 Y-5.600 E0.5826
G1 X2.181 Y-5.602 E0.5957
G1 X2.461 Y-5.535 E0.6052
G1 X2.677 Y-5.438 E0.6131
G1 X3.002 Y-5.185 E0.6269
G1 X3.135 Y-5.024 E0.6338
G1 X3.246 Y-4.838 E0.6410
G1 X3.374 Y-4.450 E0.6546
G1 X3.395 Y-4.132 E0.6652
G1 X3.327 Y-3.748 E0.6781
G1 X3.327 Y-3.748
;segType:Infill
G0 X0.849 Y-3.979 F10800
G1 X3.166 Y-3.979 E0.7552 F3454
G0 F4800 E-0.2448
G0 X-0.838 Y-10.502 F10800
G0 X-2.173 Y-12.676
G0 F4800 E0.7552
;segType:Perimeter
G1 X-2.797 Y-12.429 E0.7775 F1381
G1 X-2.797 Y-21.989 E1.0955
G1 X6.798 Y-21.989 E1.4146
G1 X6.798 Y-12.375 E1.7344
G1 X-2.741 Y-12.375 E2.0516
G1 X-2.482 Y-12.973
;segType:Loop
G0 X-2.397 Y-13.363 F10800
G1 X-2.397 Y-21.606 E2.3258 F2302
G1 X6.398 Y-21.606 E2.6183
G1 X6.398 Y-12.758 E2.9126
G1 X-2.397 Y-12.758 E3.2051
G1 X-2.397 Y-13.184 E3.2192
;segType:Perimeter
G0 X2.902 Y-14.679 F10800
G1 X2.328 Y-15.021 E3.2414 F1381
G1 X1.990 Y-14.992 E3.2527
G1 X1.597 Y-15.029 E3.2659
G1 X1.216 Y-15.136 E3.2790
G1 X0.861 Y-15.309 E3.2922
G1 X0.544 Y-15.542 E3.3052
G1 X0.273 Y-15.827 E3.3183
G1 X0.068 Y-16.139 E3.3307
G1 X-0.088 Y-16.499 E3.3438
G1 X-0.179 Y-16.898 E3.3574
G1 X-0.195 Y-17.290 E3.3704
G1 X-0.141 Y-17.677 E3.3834
G1 X-0.018 Y-18.049 E3.3965
G1 X0.170 Y-18.393 E3.4095
G1 X0.416 Y-18.699 E3.4226
G1 X0.713 Y-18.957 E3.4357
G1 X1.053 Y-19.158 E3.4488
G1 X1.423 Y-19.295 E3.4619
G1 X1.812 Y-19.364 E3.4751
G1 X2.189 Y-19.364 E3.4876
G1 X2.596 Y-19.290 E3.5014
G1 X2.966 Y-19.149 E3.5145
G1 X3.303 Y-18.945 E3.5276
G1 X3.599 Y-18.685 E3.5407
G1 X3.842 Y-18.377 E3.5538
G1 X4.026 Y-18.031 E3.5668
G1 X4.145 Y-17.658 E3.5799
G1 X4.196 Y-17.270 E3.5929
G1 X4.177 Y-16.879 E3.6059
G1 X4.088 Y-16.498 E3.6189
G1 X3.933 Y-16.139 E3.6319
G1 X3.715 Y-15.812 E3.6450
G1 X3.456 Y-15.541 E3.6574
G1 X3.123 Y-15.299 E3.6711
G1 X2.766 Y-15.129 E3.6843
G1 X2.439 Y-15.040 E3.6956
G1 X2.030 Y-14.525
;segType:Loop
G0 X1.253 Y-14.726 F10800
G1 X1.068 Y-14.778 E3.7020 F2302
G1 X0.647 Y-14.983 E3.7175
G1 X0.272 Y-15.258 E3.7330
G1 X-0.046 Y-15.594 E3.7484
G1 X-0.289 Y-15.962 E3.7631
G1 X-0.471 Y-16.383 E3.7783
G1 X-0.577 Y-16.849 E3.7942
G1 X-0.596 Y-17.308 E3.8095
G1 X-0.533 Y-17.761 E3.8247
G1 X-0.389 Y-18.196 E3.8399
G1 X-0.169 Y-18.601 E3.8553
G1 X0.121 Y-18.961 E3.8706
G1 X0.472 Y-19.265 E3.8861
G1 X0.874 Y-19.502 E3.9016
G1 X1.314 Y-19.665 E3.9172
G1 X1.775 Y-19.747 E3.9328
G1 X2.227 Y-19.747 E3.9478
G1 X2.708 Y-19.660 E3.9641
G1 X3.148 Y-19.493 E3.9797
G1 X3.548 Y-19.251 E3.9953
G1 X3.896 Y-18.944 E4.0107
G1 X4.182 Y-18.581 E4.0261
G1 X4.398 Y-18.175 E4.0414
G1 X4.538 Y-17.738 E4.0566
G1 X4.597 Y-17.285 E4.0718
G1 X4.575 Y-16.828 E4.0871
G1 X4.471 Y-16.382 E4.1023
G1 X4.289 Y-15.961 E4.1175
G1 X4.034 Y-15.578 E4.1328
G1 X3.727 Y-15.257 E4.1476
G1 X3.335 Y-14.972 E4.1638
G1 X2.910 Y-14.770 E4.1794
G1 X2.457 Y-14.647 E4.1950
G1 X1.988 Y-14.607 E4.2106
G1 X1.520 Y-14.651 E4.2263
G1 X1.433 Y-14.676 E4.2293
;segType:Infill
G0 X-0.048 Y-12.950 F10800
G1 X-0.048 Y-15.310 E4.3078 F3454
G1 X-0.069 Y-15.332 E4.3088
G1 X-2.197 Y-15.332 E4.3796
G0 X-2.197 Y-19.117 F10800
G1 X0.006 Y-19.117 E4.4529 F3454
G1 X-0.048 Y-19.061 E4.4555
G1 X-0.048 Y-21.414 E4.5337
G0 X3.902 Y-21.414 F10800
G1 X3.902 Y-19.203 E4.6072 F3454
G1 X4.000 Y-19.117 E4.6116
G1 X6.198 Y-19.117 E4.6847
G0 X6.198 Y-15.332 F10800
G1 X4.074 Y-15.332 E4.7553 F3454
G0 X3.902 Y-12.950 F10800
G1 X3.902 Y-15.153 E4.8286 F3454
; ------------------------------------
; Layer #9
; ------------------------------------
G21 ; mm
G90 ; abs
G92 E0 ; reset extr
M106 S255
;segType:Perimeter
G0 F4800 E-1.0000
G0 F2400 Z2.000
G0 X-2.173 Y-12.676 F10800
G0 F4800 E0.0000
G1 X-2.797 Y-12.429 E0.0223 F1382
G1 X-2.797 Y-21.989 E0.3403
G1 X6.798 Y-21.989 E0.6594
G1 X6.798 Y-12.375 E0.9792
G1 X-2.741 Y-12.375 E1.2964
G1 X-2.482 Y-12.973
;segType:Loop
G0 X-2.397 Y-13.363 F10800
G1 X-2.397 Y-21.606 E1.5706 F2304
G1 X6.398 Y-21.606 E1.8631
G1 X6.398 Y-12.758 E2.1574
G1 X-2.397 Y-12.758 E2.4499
G1 X-2.397 Y-13.184 E2.4640
;segType:Perimeter
G0 X2.913 Y-14.683 F10800
G1 X2.338 Y-15.022 E2.4862 F1382
G1 X2.000 Y-14.992 E2.4975
G1 X1.606 Y-15.027 E2.5107
G1 X1.225 Y-15.133 E2.5238
G1 X0.870 Y-15.304 E2.5369
G1 X0.551 Y-15.535 E2.5500
G1 X0.279 Y-15.819 E2.5631
G1 X0.063 Y-16.147 E2.5762
G1 X-0.091 Y-16.507 E2.5892
G1 X-0.178 Y-16.889 E2.6022
G1 X-0.195 Y-17.280 E2.6152
G1 X-0.143 Y-17.667 E2.6282
G1 X-0.022 Y-18.040 E2.6413
G1 X0.164 Y-18.385 E2.6543
G1 X0.409 Y-18.692 E2.6674
G1 X0.705 Y-18.951 E2.6805
G1 X1.043 Y-19.153 E2.6936
G1 X1.413 Y-19.292 E2.7067
G1 X1.802 Y-19.363 E2.7199
G1 X2.198 Y-19.363 E2.7330
G1 X2.587 Y-19.292 E2.7462
G1 X2.957 Y-19.153 E2.7593
G1 X3.295 Y-18.951 E2.7724
G1 X3.592 Y-18.692 E2.7855
G1 X3.836 Y-18.385 E2.7986
G1 X4.022 Y-18.040 E2.8116
G1 X4.143 Y-17.668 E2.8246
G1 X4.196 Y-17.280 E2.8377
G1 X4.178 Y-16.889 E2.8507
G1 X4.091 Y-16.507 E2.8637
G1 X3.937 Y-16.147 E2.8767
G1 X3.721 Y-15.819 E2.8898
G1 X3.449 Y-15.535 E2.9029
G1 X3.131 Y-15.304 E2.9160
G1 X2.775 Y-15.133 E2.9291
G1 X2.448 Y-15.042 E2.9404
G1 X2.042 Y-14.525
;segType:Loop
G0 X1.264 Y-14.723 F10800
G1 X1.079 Y-14.774 E2.9468 F2304
G1 X0.657 Y-14.977 E2.9623
G1 X0.281 Y-15.251 E2.9778
G1 X-0.040 Y-15.586 E2.9932
G1 X-0.293 Y-15.971 E3.0086
G1 X-0.474 Y-16.393 E3.0238
G1 X-0.576 Y-16.839 E3.0391
G1 X-0.597 Y-17.296 E3.0543
G1 X-0.535 Y-17.750 E3.0695
G1 X-0.393 Y-18.186 E3.0847
G1 X-0.175 Y-18.591 E3.1001
G1 X0.113 Y-18.952 E3.1154
G1 X0.463 Y-19.258 E3.1309
G1 X0.863 Y-19.497 E3.1464
G1 X1.302 Y-19.662 E3.1620
G1 X1.765 Y-19.746 E3.1776
G1 X2.236 Y-19.746 E3.1933
G1 X2.699 Y-19.662 E3.2089
G1 X3.137 Y-19.497 E3.2245
G1 X3.538 Y-19.258 E3.2400
G1 X3.888 Y-18.952 E3.2555
G1 X4.176 Y-18.591 E3.2709
G1 X4.394 Y-18.186 E3.2862
G1 X4.536 Y-17.750 E3.3014
G1 X4.597 Y-17.296 E3.3166
G1 X4.576 Y-16.839 E3.3319
G1 X4.475 Y-16.393 E3.3471
G1 X4.294 Y-15.971 E3.3624
G1 X4.040 Y-15.586 E3.3777
G1 X3.720 Y-15.251 E3.3931
G1 X3.343 Y-14.977 E3.4086
G1 X2.922 Y-14.774 E3.4242
G1 X2.469 Y-14.649 E3.4398
G1 X2.000 Y-14.607 E3.4554
G1 X1.532 Y-14.649 E3.4711
G1 X1.445 Y-14.673 E3.4741
;segType:Infill
G0 X-0.048 Y-12.950 F10800
G1 X-0.048 Y-15.310 E3.5526 F3456
G1 X-0.069 Y-15.332 E3.5536
G1 X-2.197 Y-15.332 E3.6244
G0 X-2.197 Y-19.117 F10800
G1 X0.003 Y-19.117 E3.6975 F3456
G1 X-0.048 Y-19.062 E3.7000
G1 X-0.048 Y-21.414 E3.7783
G0 X3.902 Y-21.414 F10800
G1 X3.902 Y-19.201 E3.8519 F3456
G1 X3.997 Y-19.117 E3.8561
G1 X6.198 Y-19.117 E3.9293
G0 X6.198 Y-15.332 F10800
G1 X4.072 Y-15.332 E4.0000 F3456
G0 X3.902 Y-12.950 F10800
G1 X3.902 Y-15.155 E4.0733 F3456
;segType:Perimeter
G0 F4800 E3.0733
G0 X3.302 Y-4.529 F10800
G0 F4800 E4.0733
G1 X3.791 Y-4.083 E4.0953 F1382
G1 X3.773 Y-3.889 E4.1018
G1 X3.707 Y-3.627 E4.1108
G1 X3.612 Y-3.394 E4.1192
G1 X3.465 Y-3.146 E4.1287
G1 X3.306 Y-2.953 E4.1371
G1 X3.093 Y-2.759 E4.1466
G1 X2.887 Y-2.623 E4.1549
G1 X2.612 Y-2.498 E4.1649
G1 X2.227 Y-2.404 E4.1781
G1 X1.982 Y-2.387 E4.1862
G1 X1.735 Y-2.408 E4.1945
G1 X1.456 Y-2.472 E4.2040
G1 X1.226 Y-2.565 E4.2123
G1 X0.978 Y-2.708 E4.2218
G1 X0.785 Y-2.864 E4.2300
G1 X0.581 Y-3.089 E4.2402
G1 X0.373 Y-3.430 E4.2534
G1 X0.282 Y-3.661 E4.2617
G1 X0.226 Y-3.907 E4.2701
G1 X0.202 Y-4.194 E4.2797
G1 X0.226 Y-4.482 E4.2893
G1 X0.282 Y-4.728 E4.2976
G1 X0.373 Y-4.959 E4.3059
G1 X0.581 Y-5.299 E4.3192
G1 X0.785 Y-5.525 E4.3293
G1 X0.978 Y-5.681 E4.3376
G1 X1.226 Y-5.824 E4.3471
G1 X1.456 Y-5.917 E4.3553
G1 X1.735 Y-5.981 E4.3648
G1 X1.982 Y-6.002 E4.3731
G1 X2.227 Y-5.985 E4.3813
G1 X2.612 Y-5.891 E4.3944
G1 X2.887 Y-5.766 E4.4045
G1 X3.093 Y-5.629 E4.4127
G1 X3.306 Y-5.436 E4.4223
G1 X3.465 Y-5.243 E4.4306
G1 X3.612 Y-4.995 E4.4402
G1 X3.707 Y-4.762 E4.4486
G1 X3.772 Y-4.503 E4.4574
G1 X3.793 Y-4.191 E4.4678
G1 X3.290 Y-3.758
;segType:Loop
G0 X3.137 Y-3.370 F10800
G1 X3.132 Y-3.361 E4.4682 F2304
G1 X2.841 Y-3.058 E4.4822
G1 X2.475 Y-2.860 E4.4960
G1 X2.163 Y-2.784 E4.5067
G1 X1.799 Y-2.787 E4.5188
G1 X1.408 Y-2.907 E4.5324
G1 X1.068 Y-3.137 E4.5461
G1 X0.907 Y-3.314 E4.5540
G1 X0.735 Y-3.596 E4.5650
G1 X0.622 Y-3.963 E4.5778
G1 X0.603 Y-4.194 E4.5855
G1 X0.666 Y-4.619 E4.5998
G1 X0.735 Y-4.793 E4.6060
G1 X0.907 Y-5.075 E4.6170
G1 X1.212 Y-5.369 E4.6311
G1 X1.582 Y-5.552 E4.6448
G1 X1.985 Y-5.617 E4.6584
G1 X2.163 Y-5.605 E4.6643
G1 X2.475 Y-5.529 E4.6750
G1 X2.841 Y-5.331 E4.6888
G1 X3.132 Y-5.028 E4.7028
G1 X3.325 Y-4.647 E4.7170
G1 X3.375 Y-4.445 E4.7239
G1 X3.395 Y-4.142 E4.7340
G1 X3.325 Y-3.742 E4.7475
G1 X3.219 Y-3.532 E4.7553
G0 F4800 E3.7553
G0 X0.844 Y-3.979 F10800
G0 F4800 E4.7553
;segType:Infill
G1 X3.166 Y-3.979 E4.8326 F3456
; ------------------------------------
; Layer #10
; ------------------------------------
G21 ; mm
G90 ; abs
G92 E0 ; reset extr
M106 S255
;segType:Perimeter
G0 F4800 E-1.0000
G0 F2400 Z2.200
G0 X3.314 Y-4.555 F10800
G0 F4800 E0.0000
G1 X3.792 Y-4.098 E0.0220 F1382
G1 X3.774 Y-3.893 E0.0288
G1 X3.705 Y-3.621 E0.0382
G1 X3.616 Y-3.403 E0.0460
G1 X3.462 Y-3.142 E0.0561
G1 X3.314 Y-2.961 E0.0639
G1 X3.090 Y-2.757 E0.0739
G1 X2.897 Y-2.629 E0.0816
G1 X2.622 Y-2.500 E0.0917
G1 X2.424 Y-2.438 E0.0986
G1 X2.128 Y-2.392 E0.1086
G1 X1.829 Y-2.396 E0.1186
G1 X1.600 Y-2.433 E0.1263
G1 X1.314 Y-2.524 E0.1363
G1 X1.105 Y-2.627 E0.1440
G1 X0.859 Y-2.798 E0.1540
G1 X0.644 Y-3.008 E0.1640
G1 X0.466 Y-3.251 E0.1740
G1 X0.332 Y-3.520 E0.1840
G1 X0.243 Y-3.810 E0.1940
G1 X0.209 Y-4.042 E0.2019
G1 X0.209 Y-4.347 E0.2120
G1 X0.243 Y-4.579 E0.2198
G1 X0.332 Y-4.869 E0.2299
G1 X0.466 Y-5.138 E0.2399
G1 X0.644 Y-5.381 E0.2499
G1 X0.859 Y-5.591 E0.2599
G1 X1.105 Y-5.762 E0.2699
G1 X1.314 Y-5.864 E0.2776
G1 X1.600 Y-5.956 E0.2876
G1 X1.829 Y-5.993 E0.2953
G1 X2.128 Y-5.997 E0.3052
G1 X2.422 Y-5.951 E0.3152
G1 X2.705 Y-5.857 E0.3251
G1 X2.969 Y-5.716 E0.3350
G1 X3.208 Y-5.533 E0.3450
G1 X3.369 Y-5.365 E0.3528
G1 X3.546 Y-5.118 E0.3629
G1 X3.651 Y-4.909 E0.3707
G1 X3.748 Y-4.621 E0.3808
G1 X3.790 Y-4.367 E0.3893
G1 X3.796 Y-4.206 E0.3947
G1 X3.291 Y-3.775
;segType:Loop
G0 X3.144 Y-3.385 F10800
G1 X3.129 Y-3.356 E0.3958 F2304
G1 X2.837 Y-3.055 E0.4097
G1 X2.471 Y-2.856 E0.4236
G1 X2.098 Y-2.776 E0.4363
G1 X1.697 Y-2.805 E0.4496
G1 X1.316 Y-2.954 E0.4633
G1 X1.121 Y-3.090 E0.4712
G1 X0.952 Y-3.254 E0.4790
G1 X0.813 Y-3.445 E0.4868
G1 X0.707 Y-3.658 E0.4948
G1 X0.609 Y-4.070 E0.5088
G1 X0.635 Y-4.498 E0.5231
G1 X0.707 Y-4.731 E0.5312
G1 X0.813 Y-4.944 E0.5391
G1 X0.953 Y-5.135 E0.5470
G1 X1.121 Y-5.299 E0.5548
G1 X1.470 Y-5.510 E0.5684
G1 X1.865 Y-5.610 E0.5819
G1 X2.099 Y-5.613 E0.5897
G1 X2.324 Y-5.578 E0.5973
G1 X2.541 Y-5.506 E0.6049
G1 X2.746 Y-5.396 E0.6126
G1 X3.055 Y-5.126 E0.6263
G1 X3.199 Y-4.926 E0.6345
G1 X3.358 Y-4.531 E0.6486
G1 X3.397 Y-4.163 E0.6610
G1 X3.378 Y-3.955 E0.6679
G1 X3.323 Y-3.736 E0.6754
G1 X3.226 Y-3.547 E0.6825
G0 F4800 E-0.3175
G0 X0.844 Y-3.979 F10800
G0 F4800 E0.6825
;segType:Infill
G1 X3.166 Y-3.979 E0.7597 F3456
G0 F4800 E-0.2403
G0 X-0.838 Y-10.502 F10800
G0 X-2.173 Y-12.676
G0 F4800 E0.7597
;segType:Perimeter
G1 X-2.797 Y-12.429 E0.7820 F1382
G1 X-2.797 Y-21.989 E1.1000
G1 X6.798 Y-21.989 E1.4191
G1 X6.798 Y-12.375 E1.7389
G1 X-2.741 Y-12.375 E2.0562
G1 X-2.482 Y-12.973
;segType:Loop
G0 X-2.397 Y-13.363 F10800
G1 X-2.397 Y-21.606 E2.3303 F2304
G1 X6.398 Y-21.606 E2.6228
G1 X6.398 Y-12.758 E2.9171
G1 X-2.397 Y-12.758 E3.2096
G1 X-2.397 Y-13.184 E3.2237
;segType:Perimeter
G0 X2.925 Y-14.687 F10800
G1 X2.348 Y-15.024 E3.2460 F1382
G1 X2.010 Y-14.992 E3.2572
G1 X1.616 Y-15.026 E3.2704
G1 X1.234 Y-15.129 E3.2835
G1 X0.878 Y-15.299 E3.2967
G1 X0.559 Y-15.529 E3.3098
G1 X0.285 Y-15.812 E3.3229
G1 X0.059 Y-16.155 E3.3365
G1 X-0.094 Y-16.516 E3.3496
G1 X-0.176 Y-16.880 E3.3620
G1 X-0.196 Y-17.270 E3.3750
G1 X-0.145 Y-17.658 E3.3880
G1 X-0.026 Y-18.031 E3.4010
G1 X0.159 Y-18.377 E3.4140
G1 X0.402 Y-18.685 E3.4271
G1 X0.697 Y-18.945 E3.4402
G1 X1.035 Y-19.149 E3.4533
G1 X1.404 Y-19.290 E3.4664
G1 X1.793 Y-19.362 E3.4796
G1 X2.207 Y-19.362 E3.4934
G1 X2.578 Y-19.295 E3.5059
G1 X2.948 Y-19.158 E3.5190
G1 X3.287 Y-18.957 E3.5322
G1 X3.585 Y-18.699 E3.5452
G1 X3.831 Y-18.393 E3.5583
G1 X4.019 Y-18.049 E3.5713
G1 X4.141 Y-17.677 E3.5844
G1 X4.195 Y-17.290 E3.5974
G1 X4.180 Y-16.899 E3.6104
G1 X4.094 Y-16.517 E3.6234
G1 X3.942 Y-16.156 E3.6364
G1 X3.727 Y-15.827 E3.6495
G1 X3.443 Y-15.530 E3.6632
G1 X3.139 Y-15.309 E3.6757
G1 X2.785 Y-15.136 E3.6888
G1 X2.458 Y-15.044 E3.7001
G1 X2.054 Y-14.525
;segType:Loop
G0 X1.276 Y-14.720 F10800
G1 X1.090 Y-14.770 E3.7065 F2304
G1 X0.668 Y-14.971 E3.7220
G1 X0.290 Y-15.243 E3.7375
G1 X-0.033 Y-15.578 E3.7530
G1 X-0.298 Y-15.980 E3.7690
G1 X-0.477 Y-16.403 E3.7843
G1 X-0.574 Y-16.830 E3.7989
G1 X-0.597 Y-17.285 E3.8140
G1 X-0.537 Y-17.738 E3.8292
G1 X-0.398 Y-18.175 E3.8445
G1 X-0.182 Y-18.581 E3.8598
G1 X0.105 Y-18.944 E3.8751
G1 X0.453 Y-19.251 E3.8906
G1 X0.853 Y-19.492 E3.9061
G1 X1.291 Y-19.659 E3.9217
G1 X1.755 Y-19.746 E3.9374
G1 X2.245 Y-19.746 E3.9537
G1 X2.688 Y-19.665 E3.9687
G1 X3.127 Y-19.502 E3.9842
G1 X3.528 Y-19.265 E3.9998
G1 X3.880 Y-18.961 E4.0152
G1 X4.170 Y-18.601 E4.0306
G1 X4.389 Y-18.197 E4.0459
G1 X4.533 Y-17.761 E4.0612
G1 X4.596 Y-17.308 E4.0764
G1 X4.578 Y-16.851 E4.0916
G1 X4.478 Y-16.404 E4.1068
G1 X4.300 Y-15.981 E4.1221
G1 X4.047 Y-15.594 E4.1375
G1 X3.713 Y-15.245 E4.1535
G1 X3.352 Y-14.983 E4.1683
G1 X2.933 Y-14.778 E4.1839
G1 X2.481 Y-14.651 E4.1995
G1 X2.012 Y-14.607 E4.2151
G1 X1.543 Y-14.647 E4.2308
G1 X1.456 Y-14.671 E4.2338
;segType:Infill
G0 X-0.048 Y-12.950 F10800
G1 X-0.048 Y-15.311 E4.3123 F3456
G1 X-0.068 Y-15.332 E4.3133
G1 X-2.197 Y-15.332 E4.3841
G0 X-2.197 Y-19.117 F10800
G1 X0.010 Y-19.117 E4.4575 F3456
G1 X-0.048 Y-19.064 E4.4601
G1 X-0.048 Y-21.414 E4.5383
G0 X3.902 Y-21.414 F10800
G1 X3.902 Y-19.202 E4.6119 F3456
G1 X4.003 Y-19.117 E4.6162
G1 X6.198 Y-19.117 E4.6892
G0 X6.198 Y-15.332 F10800
G1 X4.071 Y-15.332 E4.7600 F3456
G0 X3.902 Y-12.950 F10800
G1 X3.902 Y-15.156 E4.8333 F3456
; ------------------------------------
; Layer #11
; ------------------------------------
G21 ; mm
G90 ; abs
G92 E0 ; reset extr
M106 S255
;segType:Perimeter
G0 F4800 E-1.0000
G0 F2400 Z2.400
G0 X-2.173 Y-12.676 F10800
G0 F4800 E0.0000
G1 X-2.797 Y-12.429 E0.0223 F1447
G1 X-2.797 Y-21.989 E0.3403
G1 X6.798 Y-21.989 E0.6594
G1 X6.798 Y-12.375 E0.9792
G1 X-2.741 Y-12.375 E1.2964
G1 X-2.482 Y-12.973
;segType:Loop
G0 X-2.397 Y-13.363 F10800
G1 X-2.397 Y-21.606 E1.5706 F2411
G1 X6.398 Y-21.606 E1.8631
G1 X6.398 Y-12.758 E2.1574
G1 X-2.397 Y-12.758 E2.4499
G1 X-2.397 Y-13.184 E2.4640
;segType:Perimeter
G0 X2.936 Y-14.691 F10800
G1 X2.358 Y-15.026 E2.4862 F1447
G1 X2.020 Y-14.992 E2.4975
G1 X1.626 Y-15.024 E2.5107
G1 X1.244 Y-15.126 E2.5238
G1 X0.887 Y-15.294 E2.5370
G1 X0.566 Y-15.523 E2.5501
G1 X0.291 Y-15.805 E2.5632
G1 X0.054 Y-16.164 E2.5775
G1 X-0.096 Y-16.525 E2.5905
G1 X-0.175 Y-16.871 E2.6023
G1 X-0.196 Y-17.260 E2.6153
G1 X-0.147 Y-17.648 E2.6283
G1 X-0.030 Y-18.022 E2.6413
G1 X0.153 Y-18.369 E2.6543
G1 X0.395 Y-18.678 E2.6674
G1 X0.689 Y-18.940 E2.6805
G1 X1.026 Y-19.145 E2.6936
G1 X1.394 Y-19.287 E2.7067
G1 X1.784 Y-19.361 E2.7199
G1 X2.216 Y-19.361 E2.7343
G1 X2.569 Y-19.297 E2.7462
G1 X2.939 Y-19.162 E2.7593
G1 X3.279 Y-18.963 E2.7725
G1 X3.578 Y-18.706 E2.7856
G1 X3.826 Y-18.402 E2.7986
G1 X4.015 Y-18.058 E2.8117
G1 X4.139 Y-17.687 E2.8247
G1 X4.195 Y-17.299 E2.8377
G1 X4.181 Y-16.908 E2.8507
G1 X4.097 Y-16.526 E2.8637
G1 X3.947 Y-16.164 E2.8768
G1 X3.733 Y-15.834 E2.8898
G1 X3.436 Y-15.524 E2.9041
G1 X3.147 Y-15.314 E2.9160
G1 X2.794 Y-15.139 E2.9291
G1 X2.468 Y-15.046 E2.9404
G1 X2.067 Y-14.526
;segType:Loop
G0 X1.287 Y-14.716 F10800
G1 X1.101 Y-14.766 E2.9468 F2411
G1 X0.677 Y-14.965 E2.9624
G1 X0.298 Y-15.236 E2.9779
G1 X-0.027 Y-15.570 E2.9934
G1 X-0.303 Y-15.989 E3.0101
G1 X-0.480 Y-16.413 E3.0253
G1 X-0.573 Y-16.819 E3.0392
G1 X-0.597 Y-17.273 E3.0543
G1 X-0.540 Y-17.727 E3.0695
G1 X-0.403 Y-18.164 E3.0848
G1 X-0.188 Y-18.572 E3.1001
G1 X0.097 Y-18.936 E3.1155
G1 X0.444 Y-19.244 E3.1309
G1 X0.842 Y-19.487 E3.1464
G1 X1.280 Y-19.656 E3.1620
G1 X1.744 Y-19.745 E3.1778
G1 X2.254 Y-19.745 E3.1947
G1 X2.678 Y-19.667 E3.2091
G1 X3.116 Y-19.508 E3.2246
G1 X3.519 Y-19.272 E3.2401
G1 X3.872 Y-18.969 E3.2556
G1 X4.163 Y-18.610 E3.2709
G1 X4.385 Y-18.207 E3.2862
G1 X4.531 Y-17.772 E3.3015
G1 X4.596 Y-17.319 E3.3167
G1 X4.580 Y-16.862 E3.3319
G1 X4.481 Y-16.415 E3.3471
G1 X4.305 Y-15.991 E3.3624
G1 X4.053 Y-15.602 E3.3778
G1 X3.706 Y-15.239 E3.3945
G1 X3.361 Y-14.988 E3.4087
G1 X2.944 Y-14.782 E3.4242
G1 X2.492 Y-14.653 E3.4398
G1 X2.024 Y-14.607 E3.4555
G1 X1.555 Y-14.645 E3.4711
G1 X1.468 Y-14.668 E3.4741
;segType:Infill
G0 X-0.048 Y-12.950 F10800
G1 X-0.048 Y-15.310 E3.5526 F3617
G1 X-0.069 Y-15.332 E3.5536
G1 X-2.197 Y-15.332 E3.6244
G0 X-2.197 Y-19.117 F10800
G1 X0.011 Y-19.117 E3.6979 F3617
G1 X-0.048 Y-19.065 E3.7005
G1 X-0.048 Y-21.414 E3.7786
G0 X3.902 Y-21.414 F10800
G1 X3.902 Y-19.203 E3.8521 F3617
G1 X4.001 Y-19.117 E3.8565
G1 X6.198 Y-19.117 E3.9296
G0 X6.198 Y-15.332 F10800
G1 X4.070 Y-15.332 E4.0003 F3617
G0 X3.902 Y-12.950 F10800
G1 X3.902 Y-15.157 E4.0737 F3617
;segType:Perimeter
G0 F4800 E3.0737
G0 X3.289 Y-4.540 F10800
G0 F4800 E4.0737
G1 X3.793 Y-4.109 E4.0958 F1447
G1 X3.774 Y-3.898 E4.1028
G1 X3.703 Y-3.615 E4.1125
G1 X3.621 Y-3.412 E4.1198
G1 X3.459 Y-3.138 E4.1304
G1 X3.322 Y-2.970 E4.1376
G1 X3.088 Y-2.755 E4.1482
G1 X2.908 Y-2.635 E4.1554
G1 X2.637 Y-2.506 E4.1653
G1 X2.422 Y-2.437 E4.1728
G1 X2.132 Y-2.392 E4.1826
G1 X1.818 Y-2.397 E4.1931
G1 X1.606 Y-2.431 E4.2002
G1 X1.305 Y-2.528 E4.2107
G1 X1.111 Y-2.624 E4.2179
G1 X0.853 Y-2.803 E4.2284
G1 X0.642 Y-3.010 E4.2382
G1 X0.467 Y-3.250 E4.2481
G1 X0.334 Y-3.515 E4.2579
G1 X0.241 Y-3.818 E4.2685
G1 X0.209 Y-4.035 E4.2758
G1 X0.209 Y-4.354 E4.2864
G1 X0.241 Y-4.570 E4.2937
G1 X0.334 Y-4.874 E4.3042
G1 X0.467 Y-5.139 E4.3141
G1 X0.642 Y-5.378 E4.3239
G1 X0.853 Y-5.585 E4.3338
G1 X1.111 Y-5.765 E4.3442
G1 X1.305 Y-5.861 E4.3514
G1 X1.606 Y-5.958 E4.3619
G1 X1.818 Y-5.992 E4.3691
G1 X2.132 Y-5.996 E4.3795
G1 X2.421 Y-5.951 E4.3893
G1 X2.700 Y-5.859 E4.3990
G1 X2.961 Y-5.721 E4.4088
G1 X3.211 Y-5.530 E4.4193
G1 X3.362 Y-5.374 E4.4265
G1 X3.547 Y-5.116 E4.4371
G1 X3.646 Y-4.921 E4.4444
G1 X3.748 Y-4.620 E4.4550
G1 X3.792 Y-4.217 E4.4684
G1 X3.297 Y-3.777
;segType:Loop
G0 X3.149 Y-3.397 F10800
G1 X3.126 Y-3.351 E4.4701 F2411
G1 X2.834 Y-3.053 E4.4840
G1 X2.484 Y-2.861 E4.4973
G1 X2.103 Y-2.776 E4.5103
G1 X1.703 Y-2.804 E4.5236
G1 X1.322 Y-2.951 E4.5372
G1 X1.115 Y-3.095 E4.5456
G1 X0.951 Y-3.256 E4.5532
G1 X0.813 Y-3.444 E4.5610
G1 X0.709 Y-3.652 E4.5687
G1 X0.609 Y-4.062 E4.5828
G1 X0.633 Y-4.489 E4.5970
G1 X0.709 Y-4.736 E4.6056
G1 X0.813 Y-4.945 E4.6134
G1 X0.951 Y-5.133 E4.6211
G1 X1.115 Y-5.294 E4.6288
G1 X1.461 Y-5.507 E4.6423
G1 X1.854 Y-5.609 E4.6558
G1 X2.102 Y-5.613 E4.6640
G1 X2.323 Y-5.578 E4.6715
G1 X2.537 Y-5.507 E4.6790
G1 X2.738 Y-5.401 E4.6865
G1 X3.048 Y-5.134 E4.7001
G1 X3.274 Y-4.778 E4.7142
G1 X3.355 Y-4.540 E4.7225
G1 X3.396 Y-4.159 E4.7353
G1 X3.378 Y-3.959 E4.7419
G1 X3.321 Y-3.730 E4.7498
G1 X3.232 Y-3.558 E4.7562
G0 F4800 E3.7562
G0 X2.250 Y-3.190 F10800
G0 F4800 E4.7562
;segType:HShell
G1 X2.072 Y-3.150 E4.7623 F1205
G1 X1.792 Y-3.170 E4.7716
G1 X1.511 Y-3.279 E4.7816
G1 X1.376 Y-3.372 E4.7871
G1 X1.146 Y-3.638 E4.7988
G1 X1.077 Y-3.777 E4.8039
G1 X0.999 Y-4.095 E4.8148
G1 X1.018 Y-4.426 E4.8259
G1 X1.070 Y-4.596 E4.8318
G1 X1.255 Y-4.901 E4.8436
G1 X1.361 Y-5.004 E4.8486
G1 X1.620 Y-5.163 E4.8587
G1 X1.901 Y-5.236 E4.8683
G1 X2.228 Y-5.215 E4.8792
G1 X2.518 Y-5.091 E4.8897
G1 X2.747 Y-4.895 E4.8997
G1 X2.919 Y-4.622 E4.9105
G1 X2.974 Y-4.462 E4.9161
G1 X3.006 Y-4.163 E4.9261
G1 X2.951 Y-3.851 E4.9366
G1 X2.804 Y-3.565 E4.9473
G1 X2.591 Y-3.347 E4.9575
G1 X2.591 Y-3.347
G0 X1.578 Y-3.709 F10800
G1 X1.433 Y-3.896 E4.9654 F1205
G1 X1.377 Y-4.127 E4.9732
G1 X1.417 Y-4.453 E4.9842
G1 X1.600 Y-4.724 E4.9950
G1 X1.774 Y-4.831 E5.0018
G1 X1.938 Y-4.873 E5.0075
G1 X2.136 Y-4.860 E5.0141
G1 X2.312 Y-4.786 E5.0204
G1 X2.454 Y-4.663 E5.0267
G1 X2.605 Y-4.387 E5.0371
G1 X2.627 Y-4.175 E5.0442
G1 X2.590 Y-3.963 E5.0514
G1 X2.492 Y-3.772 E5.0585
G1 X2.355 Y-3.633 E5.0650
G1 X2.202 Y-3.549 E5.0708
G1 X2.043 Y-3.513 E5.0763
G1 X1.878 Y-3.525 E5.0818
G1 X1.878 Y-3.525
G0 X1.840 Y-4.397 F10800
G1 X1.928 Y-4.498 E5.0862 F1205
G1 X2.044 Y-4.506 E5.0901
G1 X2.153 Y-4.439 E5.0944
G1 X2.249 Y-4.186 E5.1034
G1 X2.180 Y-3.979 E5.1106
G1 X2.013 Y-3.876 E5.1171
G1 X1.880 Y-3.922 E5.1218
G1 X1.757 Y-4.147 E5.1304
G1 X1.757 Y-4.147
; ------------------------------------
; Layer #12
; ------------------------------------
G21 ; mm
G90 ; abs
G92 E0 ; reset extr
M106 S255
;segType:Perimeter
G0 F4800 E-1.0000
G0 F2400 Z2.600
G0 X3.288 Y-4.551 F10800
G0 F4800 E0.0000
G1 X3.794 Y-4.121 E0.0221 F1447
G1 X3.775 Y-3.903 E0.0294
G1 X3.702 Y-3.609 E0.0394
G1 X3.625 Y-3.421 E0.0462
G1 X3.456 Y-3.134 E0.0573
G1 X3.329 Y-2.978 E0.0639
G1 X3.085 Y-2.753 E0.0750
G1 X2.918 Y-2.641 E0.0817
G1 X2.654 Y-2.512 E0.0914
G1 X2.421 Y-2.437 E0.0996
G1 X2.135 Y-2.393 E0.1092
G1 X1.807 Y-2.398 E0.1201
G1 X1.611 Y-2.430 E0.1267
G1 X1.296 Y-2.532 E0.1377
G1 X1.117 Y-2.620 E0.1444
G1 X0.846 Y-2.809 E0.1553
G1 X0.640 Y-3.013 E0.1650
G1 X0.467 Y-3.249 E0.1747
G1 X0.336 Y-3.509 E0.1844
G1 X0.240 Y-3.827 E0.1955
G1 X0.210 Y-4.027 E0.2022
G1 X0.210 Y-4.362 E0.2133
G1 X0.240 Y-4.562 E0.2201
G1 X0.336 Y-4.879 E0.2311
G1 X0.467 Y-5.140 E0.2408
G1 X0.640 Y-5.376 E0.2505
G1 X0.846 Y-5.580 E0.2602
G1 X1.117 Y-5.769 E0.2712
G1 X1.296 Y-5.857 E0.2778
G1 X1.611 Y-5.959 E0.2888
G1 X1.807 Y-5.991 E0.2954
G1 X2.135 Y-5.996 E0.3063
G1 X2.420 Y-5.952 E0.3159
G1 X2.695 Y-5.861 E0.3256
G1 X2.952 Y-5.727 E0.3352
G1 X3.214 Y-5.527 E0.3461
G1 X3.354 Y-5.383 E0.3528
G1 X3.549 Y-5.113 E0.3639
G1 X3.641 Y-4.934 E0.3706
G1 X3.748 Y-4.619 E0.3817
G1 X3.792 Y-4.229 E0.3947
G1 X3.298 Y-3.787
;segType:Loop
G0 X3.155 Y-3.410 F10800
G1 X3.122 Y-3.347 E0.3971 F2411
G1 X2.830 Y-3.050 E0.4110
G1 X2.498 Y-2.867 E0.4235
G1 X2.106 Y-2.776 E0.4369
G1 X1.709 Y-2.803 E0.4502
G1 X1.327 Y-2.947 E0.4637
G1 X1.110 Y-3.099 E0.4726
G1 X0.949 Y-3.257 E0.4801
G1 X0.814 Y-3.443 E0.4877
G1 X0.711 Y-3.647 E0.4953
G1 X0.610 Y-4.054 E0.5093
G1 X0.631 Y-4.481 E0.5235
G1 X0.711 Y-4.742 E0.5325
G1 X0.814 Y-4.945 E0.5401
G1 X0.949 Y-5.131 E0.5478
G1 X1.110 Y-5.290 E0.5553
G1 X1.452 Y-5.503 E0.5687
G1 X1.844 Y-5.608 E0.5822
G1 X2.106 Y-5.613 E0.5909
G1 X2.322 Y-5.579 E0.5982
G1 X2.534 Y-5.509 E0.6056
G1 X2.730 Y-5.406 E0.6130
G1 X3.041 Y-5.143 E0.6265
G1 X3.269 Y-4.789 E0.6405
G1 X3.355 Y-4.537 E0.6494
G1 X3.396 Y-4.170 E0.6617
G1 X3.379 Y-3.963 E0.6686
G1 X3.319 Y-3.723 E0.6768
G1 X3.239 Y-3.570 E0.6825
G0 F4800 E-0.3175
G0 X2.262 Y-3.194 F10800
G0 F4800 E0.6825
;segType:HShell
G1 X2.074 Y-3.151 E0.6890 F1205
G1 X1.796 Y-3.169 E0.6982
G1 X1.516 Y-3.275 E0.7082
G1 X1.371 Y-3.376 E0.7141
G1 X1.146 Y-3.638 E0.7255
G1 X1.078 Y-3.773 E0.7305
G1 X0.999 Y-4.089 E0.7414
G1 X1.016 Y-4.419 E0.7524
G1 X1.072 Y-4.601 E0.7587
G1 X1.254 Y-4.899 E0.7703
G1 X1.357 Y-5.001 E0.7751
G1 X1.614 Y-5.161 E0.7852
G1 X1.900 Y-5.237 E0.7951
G1 X2.070 Y-5.241 E0.8007
G1 X2.384 Y-5.164 E0.8115
G1 X2.507 Y-5.100 E0.8161
G1 X2.741 Y-4.901 E0.8263
G1 X2.915 Y-4.632 E0.8370
G1 X2.974 Y-4.459 E0.8430
G1 X3.006 Y-4.173 E0.8526
G1 X2.949 Y-3.846 E0.8636
G1 X2.801 Y-3.562 E0.8743
G1 X2.587 Y-3.344 E0.8845
G1 X2.587 Y-3.344
G0 X1.574 Y-3.712 F10800
G1 X1.434 Y-3.894 E0.8921 F1205
G1 X1.377 Y-4.122 E0.8999
G1 X1.419 Y-4.458 E0.9112
G1 X1.597 Y-4.721 E0.9217
G1 X1.770 Y-4.829 E0.9285
G1 X2.026 Y-4.880 E0.9372
G1 X2.290 Y-4.804 E0.9463
G1 X2.451 Y-4.667 E0.9534
G1 X2.605 Y-4.383 E0.9641
G1 X2.628 Y-4.183 E0.9708
G1 X2.588 Y-3.958 E0.9784
G1 X2.490 Y-3.770 E0.9855
G1 X2.351 Y-3.629 E0.9920
G1 X2.213 Y-3.552 E0.9973
G1 X2.042 Y-3.513 E1.0031
G1 X1.880 Y-3.524 E1.0085
G1 X1.880 Y-3.524
G0 X1.840 Y-4.402 F10800
G1 X1.915 Y-4.491 E1.0124 F1205
G1 X2.103 Y-4.482 E1.0187
G1 X2.240 Y-4.277 E1.0269
G1 X2.228 Y-4.071 E1.0337
G1 X2.116 Y-3.914 E1.0401
G1 X2.011 Y-3.875 E1.0439
G1 X1.877 Y-3.925 E1.0486
G1 X1.757 Y-4.143 E1.0569
G1 X1.757 Y-4.143
G0 F4800 E0.0569
G0 X-1.190 Y-10.543 F10800
G0 X-2.173 Y-12.676
G0 F4800 E1.0569
;segType:Perimeter
G1 X-2.797 Y-12.429 E1.0792 F1447
G1 X-2.797 Y-21.989 E1.3972
G1 X6.798 Y-21.989 E1.7163
G1 X6.798 Y-12.375 E2.0361
G1 X-2.741 Y-12.375 E2.3533
G1 X-2.482 Y-12.973
;segType:Loop
G0 X-2.397 Y-13.363 F10800
G1 X-2.397 Y-21.606 E2.6275 F2411
G1 X6.398 Y-21.606 E2.9200
G1 X6.398 Y-12.758 E3.2142
G1 X-2.397 Y-12.758 E3.5068
G1 X-2.397 Y-13.184 E3.5209
;segType:Perimeter
G0 X2.948 Y-14.695 F10800
G1 X2.368 Y-15.027 E3.5431 F1447
G1 X2.030 Y-14.992 E3.5544
G1 X1.635 Y-15.022 E3.5676
G1 X1.253 Y-15.122 E3.5807
G1 X0.895 Y-15.289 E3.5939
G1 X0.573 Y-15.516 E3.6070
G1 X0.297 Y-15.798 E3.6201
G1 X0.050 Y-16.172 E3.6350
G1 X-0.099 Y-16.534 E3.6481
G1 X-0.174 Y-16.861 E3.6592
G1 X-0.197 Y-17.250 E3.6722
G1 X-0.149 Y-17.639 E3.6852
G1 X-0.033 Y-18.013 E3.6982
G1 X0.148 Y-18.361 E3.7112
G1 X0.388 Y-18.671 E3.7243
G1 X0.681 Y-18.934 E3.7374
G1 X1.017 Y-19.140 E3.7505
G1 X1.385 Y-19.284 E3.7636
G1 X1.774 Y-19.361 E3.7768
G1 X2.225 Y-19.361 E3.7918
G1 X2.560 Y-19.300 E3.8032
G1 X2.930 Y-19.166 E3.8162
G1 X3.272 Y-18.969 E3.8294
G1 X3.571 Y-18.714 E3.8425
G1 X3.820 Y-18.410 E3.8555
G1 X4.011 Y-18.067 E3.8686
G1 X4.137 Y-17.696 E3.8816
G1 X4.194 Y-17.309 E3.8946
G1 X4.182 Y-16.918 E3.9076
G1 X4.101 Y-16.535 E3.9206
G1 X3.951 Y-16.173 E3.9337
G1 X3.739 Y-15.842 E3.9468
G1 X3.429 Y-15.518 E3.9617
G1 X3.155 Y-15.318 E3.9729
G1 X2.803 Y-15.143 E3.9860
G1 X2.477 Y-15.048 E3.9973
G1 X2.079 Y-14.526
;segType:Loop
G0 X1.298 Y-14.713 F10800
G1 X1.112 Y-14.762 E4.0037 F2411
G1 X0.688 Y-14.959 E4.0193
G1 X0.307 Y-15.228 E4.0348
G1 X-0.021 Y-15.562 E4.0503
G1 X-0.308 Y-15.998 E4.0677
G1 X-0.483 Y-16.422 E4.0830
G1 X-0.571 Y-16.809 E4.0962
G1 X-0.598 Y-17.262 E4.1113
G1 X-0.543 Y-17.716 E4.1265
G1 X-0.407 Y-18.154 E4.1417
G1 X-0.194 Y-18.562 E4.1570
G1 X0.089 Y-18.927 E4.1724
G1 X0.434 Y-19.237 E4.1878
G1 X0.831 Y-19.482 E4.2033
G1 X1.268 Y-19.653 E4.2189
G1 X1.734 Y-19.744 E4.2347
G1 X2.262 Y-19.744 E4.2523
G1 X2.668 Y-19.670 E4.2660
G1 X3.105 Y-19.513 E4.2815
G1 X3.510 Y-19.279 E4.2970
G1 X3.864 Y-18.977 E4.3125
G1 X4.157 Y-18.620 E4.3279
G1 X4.380 Y-18.217 E4.3432
G1 X4.528 Y-17.783 E4.3584
G1 X4.595 Y-17.331 E4.3736
G1 X4.581 Y-16.874 E4.3888
G1 X4.485 Y-16.426 E4.4041
G1 X4.310 Y-16.001 E4.4193
G1 X4.060 Y-15.610 E4.4348
G1 X3.700 Y-15.233 E4.4521
G1 X3.370 Y-14.993 E4.4657
G1 X2.955 Y-14.787 E4.4811
G1 X2.504 Y-14.656 E4.4967
G1 X2.036 Y-14.607 E4.5124
G1 X1.566 Y-14.643 E4.5281
G1 X1.479 Y-14.666 E4.5311
;segType:Infill
G0 X-0.048 Y-12.950 F10800
G1 X-0.048 Y-15.310 E4.6096 F3617
G1 X-0.069 Y-15.332 E4.6106
G1 X-2.197 Y-15.332 E4.6814
