; GCode generated by CraftWare

G28 X0 Y0
G28 Z0

M190 S60 ;set bed temp (wait)
M109 S210 ;set head temp (wait)
; ------------------------------------
; Layer #0
; ------------------------------------
G21 ; mm
G90 ; abs
G92 E0 ; reset extr
M106 S0
;segType:Skirt
G0 F4800 E-1.0000
G0 F3000 Z0.200
G0 X-0.386 Y14.093 F10800
G0 F4800 E0.0000
G1 X4.557 Y19.090 E0.2338 F2400
G1 X4.747 Y19.282 E0.2427
G1 X9.689 Y19.282 E0.4071
G1 X10.132 Y19.218 E0.4220
G1 X15.201 Y14.093 E0.6617
G1 X15.201 Y13.324 E0.6873
G1 X15.328 Y13.196 E0.6933
G1 X15.328 Y11.915 E0.7359
G1 X15.454 Y11.787 E0.7419
G1 X15.454 Y10.506 E0.7845
G1 X15.581 Y10.378 E0.7905
G1 X15.581 Y9.096 E0.8331
G1 X15.708 Y8.968 E0.8391
G1 X15.708 Y7.687 E0.8817
G1 X15.835 Y7.559 E0.8877
G1 X15.835 Y6.278 E0.9303
G1 X15.961 Y6.150 E0.9363
G1 X15.961 Y4.869 E0.9790
G1 X16.088 Y4.740 E0.9849
G1 X16.088 Y3.459 E1.0276
G1 X16.215 Y3.331 E1.0335
G1 X16.215 Y2.050 E1.0762
G1 X16.342 Y1.922 E1.0822
G1 X16.342 Y0.641 E1.1248
G1 X16.532 Y0.320 E1.1372
G1 X21.347 Y-4.548 E1.3649
G1 X21.537 Y-4.869 E1.3773
G1 X21.537 Y-5.125 E1.3858
G1 X24.198 Y-9.609 E1.5593
G1 X24.325 Y-9.993 E1.5727
G1 X24.579 Y-10.249 E1.5847
G1 X24.705 Y-10.634 E1.5982
G1 X24.959 Y-10.890 E1.6101
G1 X25.085 Y-11.274 E1.6236
G1 X26.796 Y-14.157 E1.7351
G1 X26.860 Y-14.606 E1.7502
G1 X26.860 Y-17.680 E1.8524
G1 X26.670 Y-18.000 E1.8648
G1 X21.601 Y-23.125 E2.1046
G1 X21.347 Y-23.125 E2.1130
G1 X20.334 Y-24.150 E2.1609
G1 X20.080 Y-24.150 E2.1694
G1 X19.193 Y-25.047 E2.2113
G1 X15.645 Y-25.047 E2.3293
G1 X15.391 Y-24.791 E2.3413
G1 X15.075 Y-24.599 E2.3536
G1 X14.821 Y-24.343 E2.3656
G1 X14.504 Y-24.150 E2.3780
G1 X14.251 Y-23.894 E2.3899
G1 X13.617 Y-23.510 E2.4146
G1 X12.857 Y-22.741 E2.4506
G1 X12.540 Y-22.549 E2.4629
G1 X12.033 Y-22.036 E2.4868
G1 X11.716 Y-21.844 E2.4992
G1 X11.209 Y-21.331 E2.5232
G1 X10.893 Y-21.140 E2.5355
G1 X10.386 Y-20.627 E2.5594
G1 X9.942 Y-20.563 E2.5744
G1 X9.182 Y-20.563 E2.5996
G1 X9.055 Y-20.435 E2.6056
G1 X8.295 Y-20.435 E2.6309
G1 X8.168 Y-20.307 E2.6369
G1 X7.661 Y-20.307 E2.6538
G1 X7.281 Y-20.178 E2.6671
G1 X7.028 Y-20.178 E2.6756
G1 X6.901 Y-20.307 E2.6815
G1 X6.141 Y-20.307 E2.7068
G1 X6.014 Y-20.435 E2.7128
G1 X5.253 Y-20.435 E2.7381
G1 X5.127 Y-20.563 E2.7441
G1 X4.620 Y-20.563 E2.7610
G1 X4.176 Y-20.627 E2.7759
G1 X3.923 Y-20.883 E2.7879
G1 X3.606 Y-21.075 E2.8002
G1 X3.099 Y-21.588 E2.8242
G1 X2.782 Y-21.780 E2.8365
G1 X2.275 Y-22.293 E2.8605
G1 X1.959 Y-22.485 E2.8728
G1 X1.452 Y-22.997 E2.8968
G1 X1.135 Y-23.189 E2.9091
G1 X0.881 Y-23.446 E2.9211
G1 X0.565 Y-23.638 E2.9334
G1 X0.311 Y-23.894 E2.9454
G1 X-0.006 Y-24.086 E2.9577
G1 X-0.259 Y-24.343 E2.9697
G1 X-0.576 Y-24.534 E2.9820
G1 X-0.956 Y-24.919 E3.0000
G1 X-4.504 Y-24.919 E3.1180
G1 X-4.821 Y-24.727 E3.1303
G1 X-5.328 Y-24.214 E3.1543
G1 X-5.961 Y-23.830 E3.1789
G1 X-6.468 Y-23.318 E3.2029
G1 X-6.785 Y-23.125 E3.2153
G1 X-7.039 Y-23.125 E3.2237
G1 X-12.108 Y-18.000 E3.4634
G1 X-12.298 Y-17.680 E3.4758
G1 X-12.298 Y-14.606 E3.5781
G1 X-12.234 Y-14.157 E3.5931
G1 X-10.904 Y-11.915 E3.6799
G1 X-10.777 Y-11.531 E3.6933
G1 X-6.975 Y-5.125 E3.9411
G1 X-6.848 Y-4.997 E3.9471
G1 X-6.785 Y-4.548 E3.9621
G1 X-1.970 Y0.320 E4.1899
G1 X-1.653 Y0.769 E4.2082
G1 X-1.653 Y1.794 E4.2422
G1 X-1.526 Y2.178 E4.2557
G1 X-1.526 Y3.203 E4.2898
G1 X-1.399 Y3.331 E4.2958
G1 X-1.399 Y4.612 E4.3384
G1 X-1.273 Y4.740 E4.3444
G1 X-1.273 Y5.765 E4.3785
G1 X-1.146 Y6.150 E4.3919
G1 X-1.146 Y7.175 E4.4260
G1 X-1.019 Y7.303 E4.4320
G1 X-1.019 Y8.328 E4.4661
G1 X-0.892 Y8.712 E4.4796
G1 X-0.892 Y9.737 E4.5137
G1 X-0.766 Y9.865 E4.5197
G1 X-0.766 Y10.890 E4.5537
G1 X-0.639 Y11.274 E4.5672
G1 X-0.639 Y12.299 E4.6013
G1 X-0.512 Y12.428 E4.6073
G1 X-0.512 Y13.452 E4.6414
G1 X-0.386 Y13.837 E4.6548
G1 X-0.386 Y14.093 E4.6634
G1 X-0.766 Y13.837 E4.6786
G1 X-0.766 Y14.093 E4.6871
G1 X4.557 Y19.474 E4.9389
G1 X4.747 Y19.666 E4.9478
G1 X9.689 Y19.666 E5.1122
G1 X10.132 Y19.602 E5.1271
G1 X15.581 Y14.093 E5.3848
G1 X15.581 Y13.324 E5.4104
G1 X15.708 Y13.196 E5.4164
G1 X15.708 Y11.915 E5.4590
G1 X15.835 Y11.787 E5.4650
G1 X15.835 Y10.506 E5.5076
G1 X15.961 Y10.378 E5.5136
G1 X15.961 Y9.096 E5.5562
G1 X16.088 Y8.968 E5.5622
G1 X16.088 Y7.687 E5.6048
G1 X16.215 Y7.559 E5.6108
G1 X16.215 Y6.278 E5.6534
G1 X16.342 Y6.150 E5.6594
G1 X16.342 Y4.869 E5.7020
G1 X16.468 Y4.740 E5.7080
G1 X16.468 Y3.459 E5.7507
G1 X16.595 Y3.331 E5.7566
G1 X16.595 Y2.050 E5.7993
G1 X16.722 Y1.922 E5.8053
G1 X16.722 Y0.641 E5.8479
G1 X16.912 Y0.320 E5.8603
G1 X21.728 Y-4.548 E6.0880
G1 X21.917 Y-4.869 E6.1004
G1 X21.917 Y-5.125 E6.1089
G1 X24.579 Y-9.609 E6.2824
G1 X24.705 Y-9.993 E6.2958
G1 X24.959 Y-10.249 E6.3078
G1 X25.085 Y-10.634 E6.3213
G1 X25.339 Y-10.890 E6.3332
G1 X25.466 Y-11.274 E6.3467
G1 X27.177 Y-14.157 E6.4582
G1 X27.240 Y-14.606 E6.4733
G1 X27.240 Y-17.680 E6.5755
G1 X27.050 Y-18.000 E6.5879
G1 X21.601 Y-23.510 E6.8456
G1 X21.347 Y-23.510 E6.8541
G1 X20.334 Y-24.534 E6.9020
G1 X20.080 Y-24.534 E6.9104
G1 X19.193 Y-25.431 E6.9524
G1 X15.645 Y-25.431 E7.0704
G1 X15.391 Y-25.175 E7.0824
G1 X15.075 Y-24.983 E7.0947
G1 X14.821 Y-24.727 E7.1067
G1 X14.504 Y-24.534 E7.1190
G1 X14.251 Y-24.278 E7.1310
G1 X13.617 Y-23.894 E7.1557
G1 X12.857 Y-23.125 E7.1916
G1 X12.540 Y-22.933 E7.2039
G1 X12.033 Y-22.421 E7.2279
G1 X11.716 Y-22.228 E7.2403
G1 X11.209 Y-21.716 E7.2642
G1 X10.893 Y-21.524 E7.2765
G1 X10.386 Y-21.011 E7.3005
G1 X9.942 Y-20.947 E7.3154
G1 X9.182 Y-20.947 E7.3407
G1 X9.055 Y-20.819 E7.3467
G1 X8.295 Y-20.819 E7.3720
G1 X8.168 Y-20.691 E7.3780
G1 X7.661 Y-20.691 E7.3949
G1 X7.281 Y-20.563 E7.4082
G1 X7.028 Y-20.563 E7.4166
G1 X6.901 Y-20.691 E7.4226
G1 X6.141 Y-20.691 E7.4479
G1 X6.014 Y-20.819 E7.4539
G1 X5.253 Y-20.819 E7.4792
G1 X5.127 Y-20.947 E7.4852
G1 X4.620 Y-20.947 E7.5020
G1 X4.176 Y-21.011 E7.5170
G1 X3.923 Y-21.268 E7.5289
G1 X3.606 Y-21.460 E7.5413
G1 X3.099 Y-21.972 E7.5652
G1 X2.782 Y-22.165 E7.5776
G1 X2.275 Y-22.677 E7.6015
G1 X1.959 Y-22.869 E7.6139
G1 X1.452 Y-23.381 E7.6378
G1 X1.135 Y-23.574 E7.6502
G1 X0.881 Y-23.830 E7.6622
G1 X0.565 Y-24.022 E7.6745
G1 X0.311 Y-24.278 E7.6865
G1 X-0.006 Y-24.471 E7.6988
G1 X-0.259 Y-24.727 E7.7108
G1 X-0.576 Y-24.919 E7.7231
G1 X-0.956 Y-25.303 E7.7411
G1 X-4.504 Y-25.303 E7.8591
G1 X-4.821 Y-25.111 E7.8714
G1 X-5.328 Y-24.599 E7.8954
G1 X-5.961 Y-24.214 E7.9200
G1 X-6.468 Y-23.702 E7.9440
G1 X-6.785 Y-23.510 E7.9563
G1 X-7.039 Y-23.510 E7.9648
G1 X-12.615 Y-17.872 E8.2285
G1 X-12.678 Y-17.424 E8.2435
G1 X-12.678 Y-14.349 E8.3458
G1 X-12.551 Y-13.965 E8.3593
G1 X-7.229 Y-4.997 E8.7061
G1 X-7.165 Y-4.548 E8.7212
G1 X-2.350 Y0.320 E8.9489
G1 X-2.033 Y0.769 E8.9672
G1 X-2.033 Y1.794 E9.0013
G1 X-1.906 Y2.178 E9.0148
G1 X-1.906 Y3.203 E9.0488
G1 X-1.779 Y3.331 E9.0548
G1 X-1.779 Y4.612 E9.0975
G1 X-1.653 Y4.740 E9.1034
G1 X-1.653 Y5.765 E9.1375
G1 X-1.526 Y6.150 E9.1510
G1 X-1.526 Y7.175 E9.1851
G1 X-1.399 Y7.303 E9.1911
G1 X-1.399 Y8.328 E9.2252
G1 X-1.273 Y8.712 E9.2386
G1 X-1.273 Y9.737 E9.2727
G1 X-1.146 Y9.865 E9.2787
G1 X-1.146 Y10.890 E9.3128
G1 X-1.019 Y11.274 E9.3263
G1 X-1.019 Y12.299 E9.3604
G1 X-0.892 Y12.428 E9.3664
G1 X-0.892 Y13.452 E9.4004
G1 X-0.766 Y13.837 E9.4139
G1 X-1.146 Y13.837 E9.4265
G1 X-1.146 Y14.093 E9.4351
G1 X4.557 Y19.858 E9.7048
G1 X4.747 Y20.050 E9.7138
G1 X9.689 Y20.050 E9.8781
G1 X10.132 Y19.986 E9.8930
G1 X15.961 Y14.093 E10.1687
G1 X15.961 Y13.324 E10.1943
G1 X16.088 Y13.196 E10.2003
G1 X16.088 Y11.915 E10.2429
G1 X16.215 Y11.787 E10.2489
G1 X16.215 Y10.506 E10.2915
G1 X16.342 Y10.378 E10.2975
G1 X16.342 Y9.096 E10.3401
G1 X16.468 Y8.968 E10.3461
G1 X16.468 Y7.687 E10.3887
G1 X16.595 Y7.559 E10.3947
G1 X16.595 Y6.278 E10.4373
G1 X16.722 Y6.150 E10.4433
G1 X16.722 Y4.869 E10.4859
G1 X16.848 Y4.740 E10.4919
G1 X16.848 Y3.459 E10.5345
G1 X16.975 Y3.331 E10.5405
G1 X16.975 Y2.050 E10.5832
G1 X17.102 Y1.922 E10.5891
G1 X17.102 Y0.641 E10.6318
G1 X17.292 Y0.320 E10.6442
G1 X22.108 Y-4.548 E10.8719
G1 X22.298 Y-4.869 E10.8843
G1 X22.298 Y-5.125 E10.8928
G1 X24.959 Y-9.609 E11.0662
G1 X25.085 Y-9.993 E11.0797
G1 X25.339 Y-10.249 E11.0917
G1 X25.466 Y-10.634 E11.1052
G1 X25.719 Y-10.890 E11.1171
G1 X25.846 Y-11.274 E11.1306
G1 X27.557 Y-14.157 E11.2421
G1 X27.620 Y-14.606 E11.2572
G1 X27.620 Y-17.680 E11.3594
G1 X27.430 Y-18.000 E11.3718
G1 X21.601 Y-23.894 E11.6475
G1 X21.347 Y-23.894 E11.6559
G1 X20.334 Y-24.919 E11.7039
G1 X20.080 Y-24.919 E11.7123
G1 X19.193 Y-25.816 E11.7543
G1 X15.645 Y-25.816 E11.8723
G1 X15.391 Y-25.559 E11.8843
G1 X15.075 Y-25.367 E11.8966
G1 X14.821 Y-25.111 E11.9086
G1 X14.504 Y-24.919 E11.9209
G1 X14.251 Y-24.663 E11.9329
G1 X13.617 Y-24.278 E11.9575
G1 X12.857 Y-23.510 E11.9935
G1 X12.540 Y-23.318 E12.0058
G1 X12.033 Y-22.805 E12.0298
G1 X11.716 Y-22.613 E12.0421
G1 X11.209 Y-22.100 E12.0661
G1 X10.893 Y-21.908 E12.0784
G1 X10.386 Y-21.396 E12.1024
G1 X9.942 Y-21.331 E12.1173
G1 X9.182 Y-21.331 E12.1426
G1 X9.055 Y-21.203 E12.1486
G1 X8.295 Y-21.203 E12.1739
G1 X8.168 Y-21.075 E12.1799
G1 X7.661 Y-21.075 E12.1967
G1 X7.281 Y-20.947 E12.2101
G1 X7.028 Y-20.947 E12.2185
G1 X6.901 Y-21.075 E12.2245
G1 X6.141 Y-21.075 E12.2498
G1 X6.014 Y-21.203 E12.2558
G1 X5.253 Y-21.203 E12.2811
G1 X5.127 Y-21.331 E12.2871
G1 X4.620 Y-21.331 E12.3039
G1 X4.176 Y-21.396 E12.3188
G1 X3.923 Y-21.652 E12.3308
G1 X3.606 Y-21.844 E12.3431
G1 X3.099 Y-22.356 E12.3671
G1 X2.782 Y-22.549 E12.3794
G1 X2.275 Y-23.061 E12.4034
G1 X1.959 Y-23.253 E12.4157
G1 X1.452 Y-23.766 E12.4397
G1 X1.135 Y-23.958 E12.4520
G1 X0.881 Y-24.214 E12.4640
G1 X0.565 Y-24.406 E12.4763
G1 X0.311 Y-24.663 E12.4883
G1 X-0.006 Y-24.855 E12.5007
G1 X-0.259 Y-25.111 E12.5127
G1 X-0.576 Y-25.303 E12.5250
G1 X-0.956 Y-25.688 E12.5429
G1 X-4.504 Y-25.688 E12.6610
G1 X-4.821 Y-25.496 E12.6733
G1 X-5.328 Y-24.983 E12.6972
G1 X-5.961 Y-24.599 E12.7219
G1 X-6.468 Y-24.086 E12.7459
G1 X-6.785 Y-23.894 E12.7582
G1 X-7.039 Y-23.894 E12.7666
G1 X-12.868 Y-18.000 E13.0423
G1 X-13.058 Y-17.680 E13.0547
G1 X-13.058 Y-14.606 E13.1570
G1 X-12.995 Y-14.157 E13.1720
G1 X-11.664 Y-11.915 E13.2588
G1 X-11.537 Y-11.531 E13.2722
G1 X-7.735 Y-5.125 E13.5200
G1 X-7.609 Y-4.997 E13.5260
G1 X-7.546 Y-4.548 E13.5410
G1 X-2.730 Y0.320 E13.7688
G1 X-2.413 Y0.769 E13.7871
G1 X-2.413 Y1.794 E13.8212
G1 X-2.286 Y2.178 E13.8346
G1 X-2.286 Y3.203 E13.8687
G1 X-2.160 Y3.331 E13.8747
G1 X-2.160 Y4.612 E13.9173
G1 X-2.033 Y4.740 E13.9233
G1 X-2.033 Y5.765 E13.9574
G1 X-1.906 Y6.150 E13.9709
G1 X-1.906 Y7.175 E14.0049
G1 X-1.779 Y7.303 E14.0109
G1 X-1.779 Y8.328 E14.0450
G1 X-1.653 Y8.712 E14.0585
G1 X-1.653 Y9.737 E14.0926
G1 X-1.526 Y9.865 E14.0986
G1 X-1.526 Y10.890 E14.1327
G1 X-1.399 Y11.274 E14.1461
G1 X-1.399 Y12.299 E14.1802
G1 X-1.273 Y12.428 E14.1862
G1 X-1.273 Y13.452 E14.2203
G1 X-1.146 Y13.837 E14.2338
G1 X-1.526 Y13.837 E14.2464
G1 X-1.526 Y14.093 E14.2549
G1 X4.557 Y20.243 E14.5426
G1 X4.747 Y20.435 E14.5516
G1 X9.689 Y20.435 E14.7160
G1 X10.132 Y20.371 E14.7309
G1 X16.342 Y14.093 E15.0246
G1 X16.342 Y13.324 E15.0501
G1 X16.468 Y13.196 E15.0561
G1 X16.468 Y11.915 E15.0987
G1 X16.595 Y11.787 E15.1047
G1 X16.595 Y10.506 E15.1473
G1 X16.722 Y10.378 E15.1533
G1 X16.722 Y9.096 E15.1959
G1 X16.848 Y8.968 E15.2019
G1 X16.848 Y7.687 E15.2445
G1 X16.975 Y7.559 E15.2505
G1 X16.975 Y6.278 E15.2932
G1 X17.102 Y6.150 E15.2991
G1 X17.102 Y4.869 E15.3418
G1 X17.229 Y4.740 E15.3478
G1 X17.229 Y3.459 E15.3904
G1 X17.355 Y3.331 E15.3964
G1 X17.355 Y2.050 E15.4390
G1 X17.482 Y1.922 E15.4450
G1 X17.482 Y0.641 E15.4876
G1 X17.672 Y0.320 E15.5000
G1 X22.488 Y-4.548 E15.7277
G1 X22.678 Y-4.869 E15.7401
G1 X22.678 Y-5.125 E15.7486
G1 X25.339 Y-9.609 E15.9221
G1 X25.466 Y-9.993 E15.9355
G1 X25.719 Y-10.249 E15.9475
G1 X25.846 Y-10.634 E15.9610
G1 X26.099 Y-10.890 E15.9730
G1 X26.226 Y-11.274 E15.9864
G1 X27.937 Y-14.157 E16.0979
G1 X28.000 Y-14.606 E16.1130
G1 X28.000 Y-17.680 E16.2152
G1 X27.810 Y-18.000 E16.2276
G1 X21.601 Y-24.278 E16.5213
G1 X21.347 Y-24.278 E16.5297
G1 X20.334 Y-25.303 E16.5777
G1 X20.080 Y-25.303 E16.5861
G1 X19.193 Y-26.200 E16.6281
G1 X15.645 Y-26.200 E16.7461
G1 X15.391 Y-25.944 E16.7581
G1 X15.075 Y-25.752 E16.7704
G1 X14.821 Y-25.496 E16.7824
G1 X14.504 Y-25.303 E16.7947
G1 X14.251 Y-25.047 E16.8067
G1 X13.617 Y-24.663 E16.8313
G1 X12.857 Y-23.894 E16.8673
G1 X12.540 Y-23.702 E16.8796
G1 X12.033 Y-23.189 E16.9036
G1 X11.716 Y-22.997 E16.9159
G1 X11.209 Y-22.485 E16.9399
G1 X10.893 Y-22.293 E16.9522
G1 X10.386 Y-21.780 E16.9762
G1 X9.942 Y-21.716 E16.9911
G1 X9.182 Y-21.716 E17.0164
G1 X9.055 Y-21.588 E17.0224
G1 X8.295 Y-21.588 E17.0477
G1 X8.168 Y-21.460 E17.0537
G1 X7.661 Y-21.460 E17.0705
G1 X7.281 Y-21.331 E17.0839
G1 X7.028 Y-21.331 E17.0923
G1 X6.901 Y-21.460 E17.0983
G1 X6.141 Y-21.460 E17.1236
G1 X6.014 Y-21.588 E17.1296
G1 X5.253 Y-21.588 E17.1549
G1 X5.127 Y-21.716 E17.1609
G1 X4.620 Y-21.716 E17.1777
G1 X4.176 Y-21.780 E17.1926
G1 X3.923 Y-22.036 E17.2046
G1 X3.606 Y-22.228 E17.2169
G1 X3.099 Y-22.741 E17.2409
G1 X2.782 Y-22.933 E17.2532
G1 X2.275 Y-23.446 E17.2772
G1 X1.959 Y-23.638 E17.2895
G1 X1.452 Y-24.150 E17.3135
G1 X1.135 Y-24.343 E17.3258
G1 X0.881 Y-24.599 E17.3378
G1 X0.565 Y-24.791 E17.3501
G1 X0.311 Y-25.047 E17.3621
G1 X-0.006 Y-25.239 E17.3745
G1 X-0.259 Y-25.496 E17.3864
G1 X-0.576 Y-25.688 E17.3988
G1 X-0.956 Y-26.072 E17.4167
G1 X-4.504 Y-26.072 E17.5347
G1 X-4.821 Y-25.880 E17.5471
G1 X-5.328 Y-25.367 E17.5710
G1 X-5.961 Y-24.983 E17.5957
G1 X-6.468 Y-24.471 E17.6197
G1 X-6.785 Y-24.278 E17.6320
G1 X-7.039 Y-24.278 E17.6404
G1 X-13.375 Y-17.872 E17.9401
G1 X-13.438 Y-17.424 E17.9552
G1 X-13.438 Y-14.349 E18.0574
G1 X-13.311 Y-13.965 E18.0709
G1 X-7.989 Y-4.997 E18.4177
G1 X-7.926 Y-4.548 E18.4328
G1 X-3.110 Y0.320 E18.6606
G1 X-2.793 Y0.769 E18.6788
G1 X-2.793 Y1.794 E18.7129
G1 X-2.667 Y2.178 E18.7264
G1 X-2.667 Y3.203 E18.7605
G1 X-2.540 Y3.331 E18.7665
G1 X-2.540 Y4.612 E18.8091
G1 X-2.413 Y4.740 E18.8151
G1 X-2.413 Y5.765 E18.8492
G1 X-2.286 Y6.150 E18.8626
G1 X-2.286 Y7.175 E18.8967
G1 X-2.160 Y7.303 E18.9027
G1 X-2.160 Y8.328 E18.9368
G1 X-2.033 Y8.712 E18.9502
G1 X-2.033 Y9.737 E18.9843
G1 X-1.906 Y9.865 E18.9903
G1 X-1.906 Y10.890 E19.0244
G1 X-1.779 Y11.274 E19.0379
G1 X-1.779 Y12.299 E19.0720
G1 X-1.653 Y12.428 E19.0780
G1 X-1.653 Y13.452 E19.1121
G1 X-1.526 Y13.837 E19.1255
G1 X-1.906 Y13.837 E19.1382
G0 F4800 E18.1382
G0 X-3.325 Y-13.422 F10800
G0 X-3.453 Y-15.900
G0 F4800 E19.1382
;segType:HShell
G1 X-3.021 Y-16.337 E19.1586 F2400
;segType:Loop
G0 X-2.333 Y-16.965 F10800
G1 X-1.311 Y-16.123 E19.2026 F2400
G1 X-1.091 Y-15.990 E19.2112
G1 X2.500 Y-12.942 E19.3678
G1 X3.150 Y-13.056 E19.3898
G1 X7.360 Y-12.443 E19.5313
G1 X11.565 Y-13.084 E19.6728
G1 X12.216 Y-12.976 E19.6947
G1 X15.785 Y-16.051 E19.8514
G1 X16.004 Y-16.186 E19.8600
G1 X17.093 Y-17.097 E19.9072
G1 X17.178 Y-16.606 E19.9238
G1 X18.239 Y-16.621 E19.9591
G1 X18.400 Y-15.696 E19.9903
G1 X19.104 Y-15.676 E20.0137
G1 X18.307 Y-14.296 E20.0667
G1 X18.138 Y-13.955 E20.0794
G1 X14.143 Y-7.086 E20.3437
G1 X14.090 Y-6.798 E20.3534
G1 X9.713 Y-4.288 E20.5213
G1 X8.637 Y-3.689 E20.5622
G1 X9.188 Y-3.157 E20.5877
G1 X7.836 Y11.726 E21.0847
G1 X7.060 Y11.728 E21.1105
G1 X5.599 Y-3.143 E21.6075
G1 X6.147 Y-3.679 E21.6330
G1 X5.067 Y-4.271 E21.6740
G1 X0.672 Y-6.749 E21.8418
G1 X0.616 Y-7.036 E21.8515
G1 X-3.429 Y-13.877 E22.1159
G1 X-3.600 Y-14.216 E22.1285
G1 X-4.408 Y-15.590 E22.1815
G1 X-3.705 Y-15.615 E22.2049
G1 X-3.546 Y-16.547 E22.2363
G1 X-2.489 Y-16.532 E22.2715
G1 X-2.422 Y-16.931 E22.2849
G0 F4800 E21.2849
G0 X-3.112 Y-16.373 F10800
G0 F4800 E22.2849
;segType:Perimeter
G1 X-2.817 Y-16.998 E22.3079 F1439
G1 X-2.687 Y-17.779 E22.3342
G1 X-1.081 Y-16.455 E22.4035
G1 X-0.858 Y-16.320 E22.4121
G1 X2.615 Y-13.373 E22.5636
G1 X3.144 Y-13.465 E22.5815
G1 X7.358 Y-12.852 E22.7232
G1 X11.567 Y-13.493 E22.8648
G1 X12.098 Y-13.405 E22.8827
G1 X15.550 Y-16.380 E23.0342
G1 X15.771 Y-16.516 E23.0429
G1 X17.368 Y-17.852 E23.1121
G1 X17.513 Y-17.015 E23.1403
G1 X18.575 Y-17.030 E23.1757
G1 X18.737 Y-16.091 E23.2074
G1 X19.790 Y-16.061 E23.2424
G1 X18.659 Y-14.104 E23.3176
G1 X18.490 Y-13.762 E23.3303
G1 X14.524 Y-6.941 E23.5927
G1 X14.448 Y-6.539 E23.6063
G1 X9.908 Y-3.935 E23.7804
G1 X9.308 Y-3.601 E23.8033
G1 X9.604 Y-3.314 E23.8170
G1 X8.202 Y12.122 E24.3325
G1 X7.450 Y12.139 E24.3575
G1 X6.697 Y12.127 E24.3825
G1 X5.182 Y-3.298 E24.8980
G1 X5.477 Y-3.586 E24.9118
G1 X4.874 Y-3.917 E24.9346
G1 X0.315 Y-6.487 E25.1087
G1 X0.237 Y-6.889 E25.1223
G1 X-3.780 Y-13.681 E25.3848
G1 X-3.951 Y-14.021 E25.3975
G1 X-5.096 Y-15.970 E25.4726
G1 X-4.044 Y-16.008 E25.5077
G1 X-3.881 Y-16.956 E25.5396
G1 X-2.884 Y-16.942 E25.5728
G1 X-2.222 Y-17.123
G0 F4800 E24.5728
G0 X-2.216 Y-16.608 F10800
G0 F4800 E25.5728
;segType:HShell
G1 X-2.285 Y-16.538 E25.5761 F2400
G1 X-2.490 Y-16.330
G1 X-3.820 Y-14.986 E25.6390
G1 X-3.619 Y-14.644
G1 X-1.919 Y-16.363 E25.7194
G1 X-1.623 Y-16.119
G1 X-3.419 Y-14.302 E25.8044
G1 X-3.236 Y-13.944
G1 X-1.312 Y-15.888 E25.8954
G1 X-1.006 Y-15.654
G1 X-3.035 Y-13.603 E25.9913
G1 X-2.833 Y-13.263
G1 X-0.714 Y-15.406 E26.0916
G1 X-0.421 Y-15.157
G1 X-2.632 Y-12.922 E26.1961
G1 X-2.430 Y-12.582
G1 X-0.128 Y-14.909 E26.3050
G1 X0.164 Y-14.661
G1 X-2.229 Y-12.241 E26.4182
G1 X-2.028 Y-11.901
G1 X0.457 Y-14.412 E26.5357
G1 X0.749 Y-14.164
G1 X-1.826 Y-11.560 E26.6575
G1 X-1.625 Y-11.220
G1 X1.042 Y-13.916 E26.7836
G1 X1.334 Y-13.667
G1 X-1.424 Y-10.879 E26.9141
G1 X-1.222 Y-10.539
G1 X1.627 Y-13.419 E27.0488
G1 X1.920 Y-13.171
G1 X-1.021 Y-10.198 E27.1879
G1 X-0.819 Y-9.858
G1 X2.212 Y-12.922 E27.3313
G1 X2.581 Y-12.751
G1 X-0.618 Y-9.517 E27.4826
G1 X-0.417 Y-9.177
G1 X3.209 Y-12.843 E27.6541
G1 X3.680 Y-12.774
G1 X-0.215 Y-8.836 E27.8383
G1 X-0.014 Y-8.495
G1 X4.150 Y-12.706 E28.0353
G1 X4.621 Y-12.637
G1 X0.187 Y-8.155 E28.2450
G1 X0.389 Y-7.814
G1 X5.091 Y-12.569 E28.4674
G1 X5.562 Y-12.500
G1 X0.590 Y-7.474 E28.7025
G1 X0.792 Y-7.133
G1 X6.032 Y-12.432 E28.9504
G1 X6.503 Y-12.363
G1 X0.997 Y-6.797 E29.2108
G1 X1.342 Y-6.602
G1 X6.973 Y-12.295 E29.4771
G1 X7.472 Y-12.255
G1 X1.688 Y-6.407 E29.7506
G1 X2.033 Y-6.213
G1 X8.106 Y-12.352 E30.0379
G1 X8.740 Y-12.449
G1 X2.379 Y-6.018 E30.3387
G1 X2.724 Y-5.823
G1 X9.374 Y-12.545 E30.6532
G1 X10.008 Y-12.642
G1 X3.070 Y-5.628 E30.9813
G1 X3.415 Y-5.433
G1 X10.641 Y-12.739 E31.3231
G1 X11.275 Y-12.835
G1 X3.761 Y-5.239 E31.6785
G1 X4.106 Y-5.044
G1 X11.815 Y-12.837 E32.0431
G1 X12.292 Y-12.775
G1 X4.452 Y-4.849 E32.4139
G1 X4.797 Y-4.654
G1 X15.917 Y-15.896 E32.9398
G0 X17.002 Y-16.449 F10800
G1 X5.143 Y-4.459 E33.5007 F2400
G1 X5.492 Y-4.268
G1 X17.500 Y-16.409 E34.0686
G1 X18.046 Y-16.416
G1 X5.841 Y-4.077 E34.6459
G1 X6.190 Y-3.886
G1 X18.148 Y-15.976 E35.2115
G1 X18.229 Y-15.513
G1 X5.818 Y-2.965 E35.7985
G1 X5.866 Y-2.470
G1 X18.739 Y-15.484 E36.4073
G0 X18.064 Y-14.258 F10800
G1 X5.915 Y-1.975 E36.9819 F2400
G1 X5.963 Y-1.480
G1 X17.340 Y-12.982 E37.5200
G0 X14.269 Y-7.701 F10800
G1 X12.972 Y-6.390 E37.5813 F2400
G0 X15.037 Y-9.021 F10800
G1 X11.729 Y-5.677 E37.7378 F2400
G0 X10.485 Y-4.963 F10800
G1 X15.805 Y-10.342 E37.9894 F2400
G0 X16.573 Y-11.662 F10800
G1 X9.255 Y-4.264 E38.3355 F2400
G0 X7.710 Y10.900 F10800
G1 X7.227 Y11.389 E38.3583 F2400
G1 X7.179 Y10.894
G1 X7.765 Y10.301 E38.3861
G1 X7.819 Y9.702
G1 X7.130 Y10.399 E38.4187
G1 X7.082 Y9.904
G1 X7.874 Y9.103 E38.4561
G1 X7.928 Y8.504
G1 X7.033 Y9.409 E38.4985
G1 X6.984 Y8.914
G1 X7.983 Y7.905 E38.5457
G1 X8.037 Y7.306
G1 X6.936 Y8.419 E38.5978
G1 X6.887 Y7.924
G1 X8.091 Y6.706 E38.6547
G1 X8.146 Y6.107
G1 X6.838 Y7.429 E38.7166
G1 X6.790 Y6.934
G1 X8.200 Y5.508 E38.7833
G1 X8.255 Y4.909
G1 X6.741 Y6.439 E38.8549
G1 X6.693 Y5.944
G1 X8.309 Y4.310 E38.9313
G1 X8.364 Y3.711
G1 X6.644 Y5.449 E39.0127
G1 X6.595 Y4.954
G1 X8.418 Y3.112 E39.0989
G1 X8.472 Y2.513
G1 X6.547 Y4.459 E39.1899
G1 X6.498 Y3.964
G1 X8.527 Y1.913 E39.2859
G1 X8.581 Y1.314
G1 X6.450 Y3.469 E39.3867
G1 X6.401 Y2.974
G1 X8.636 Y0.715 E39.4924
G1 X8.690 Y0.116
G1 X6.352 Y2.480 E39.6030
G1 X6.304 Y1.985
G1 X8.745 Y-0.483 E39.7184
G1 X8.799 Y-1.082
G1 X6.255 Y1.490 E39.8387
G1 X6.207 Y0.995
G1 X8.853 Y-1.681 E39.9639
G1 X8.908 Y-2.281
G1 X6.158 Y0.500 E40.0940
G1 X6.109 Y0.005
G1 X8.962 Y-2.880 E40.2289
G1 X8.796 Y-3.256
G1 X6.061 Y-0.490 E40.3583
G1 X6.012 Y-0.985
G1 X8.521 Y-3.522 E40.4769
G0 X-4.020 Y-15.327 F10800
G1 X-3.944 Y-15.405 E40.4806 F2400
; ------------------------------------
; Layer #1
; ------------------------------------
G21 ; mm
G90 ; abs
G92 E0 ; reset extr
M106 S0
;segType:HShell
G0 F4800 E-1.0000
G0 F3000 Z0.400
G0 X-2.653 Y-16.253 F10800
G0 F4800 E0.0000
G1 X9.322 Y-4.146 E0.5664 F3600
G1 X9.669 Y-4.340
G1 X-2.290 Y-16.430 E1.1319
;segType:Loop
G0 X-2.320 Y-16.904 F10800
G1 X-1.493 Y-16.224 E1.1676 F3600
G1 X-1.050 Y-15.955 E1.1848
G1 X2.327 Y-13.089 E1.3321
G1 X3.446 Y-13.284 E1.3699
G1 X7.359 Y-12.714 E1.5014
G1 X11.267 Y-13.311 E1.6329
G1 X12.387 Y-13.124 E1.6707
G1 X15.744 Y-16.017 E1.8181
G1 X16.182 Y-16.286 E1.8352
G1 X17.087 Y-17.017 E1.8738
G1 X17.172 Y-16.525 E1.8905
G1 X18.162 Y-16.546 E1.9234
G1 X18.317 Y-15.648 E1.9537
G1 X19.016 Y-15.628 E1.9769
G1 X18.403 Y-14.567 E2.0177
G1 X18.066 Y-13.884 E2.0430
G1 X14.317 Y-7.439 E2.2910
G1 X14.178 Y-6.691 E2.3163
G1 X9.939 Y-4.259 E2.4789
G1 X8.501 Y-3.458 E2.5336
G1 X9.221 Y-2.762 E2.5669
G1 X9.146 Y-1.946 E2.5942
G1 X7.893 Y11.850 E3.0550
G1 X7.004 Y11.854 E3.0845
G1 X5.570 Y-2.749 E3.5726
G1 X6.284 Y-3.450 E3.6059
G1 X4.841 Y-4.241 E3.6606
G1 X0.584 Y-6.641 E3.8231
G1 X0.439 Y-7.388 E3.8484
G1 X-3.357 Y-13.806 E4.0964
G1 X-3.699 Y-14.486 E4.1218
G1 X-4.319 Y-15.543 E4.1625
G1 X-3.621 Y-15.568 E4.1858
G1 X-3.472 Y-16.467 E4.2161
G1 X-2.489 Y-16.453 E4.2488
G1 X-2.411 Y-16.871 E4.2629
G0 F4800 E3.2629
G0 X-3.107 Y-16.295 F10800
G0 F4800 E4.2629
;segType:Perimeter
G1 X-2.809 Y-16.919 E4.2859 F2159
G1 X-2.662 Y-17.708 E4.3126
G1 X-1.263 Y-16.556 E4.3729
G1 X-0.817 Y-16.286 E4.3902
G1 X2.442 Y-13.519 E4.5324
G1 X3.441 Y-13.693 E4.5661
G1 X7.358 Y-13.123 E4.6978
G1 X11.269 Y-13.720 E4.8294
G1 X12.269 Y-13.553 E4.8631
G1 X15.509 Y-16.345 E5.0053
G1 X15.953 Y-16.618 E5.0227
G1 X17.364 Y-17.759 E5.0830
G1 X17.507 Y-16.936 E5.1108
G1 X18.405 Y-16.955 E5.1406
G1 X18.519 Y-16.830 E5.1463
G1 X18.655 Y-16.043 E5.1728
G1 X19.581 Y-16.017 E5.2037
G1 X19.654 Y-15.930 E5.2074
G1 X18.755 Y-14.375 E5.2672
G1 X18.418 Y-13.691 E5.2925
G1 X14.698 Y-7.294 E5.5387
G1 X14.536 Y-6.432 E5.5679
G1 X10.134 Y-3.907 E5.7367
G1 X9.171 Y-3.370 E5.7733
G1 X9.637 Y-2.920 E5.7949
G1 X9.544 Y-1.909 E5.8286
G1 X8.259 Y12.247 E6.3014
G1 X7.450 Y12.265 E6.3283
G1 X6.641 Y12.253 E6.3552
G1 X5.252 Y-1.894 E6.8280
G1 X5.152 Y-2.903 E6.8617
G1 X5.615 Y-3.357 E6.8833
G1 X4.648 Y-3.887 E6.9199
G1 X0.227 Y-6.379 E7.0887
G1 X0.060 Y-7.241 E7.1179
G1 X-3.707 Y-13.610 E7.3640
G1 X-4.049 Y-14.291 E7.3894
G1 X-4.960 Y-15.841 E7.4491
G1 X-4.887 Y-15.928 E7.4529
G1 X-3.961 Y-15.960 E7.4837
G1 X-3.831 Y-16.749 E7.5103
G1 X-3.718 Y-16.875 E7.5159
G1 X-2.877 Y-16.863 E7.5439
G1 X-2.213 Y-17.034
G0 F4800 E6.5439
G0 X-3.199 Y-16.261 F10800
G0 F4800 E7.5439
;segType:HShell
G1 X8.975 Y-3.953 E8.1197 F3600
G1 X8.628 Y-3.760
G1 X-3.365 Y-15.885 E8.6869
G1 X-3.443 Y-15.419
G1 X8.281 Y-3.566 E9.2414
G0 X8.979 Y-2.316 F10800
G1 X-3.918 Y-15.355 E9.8513 F3600
G0 X-3.348 Y-14.235 F10800
G1 X8.933 Y-1.818 E10.4322 F3600
G1 X8.888 Y-1.320
G1 X-2.620 Y-12.955 E10.9765
G0 X-1.820 Y-11.602 F10800
G1 X5.698 Y-4.002 E11.3320 F3600
G0 X6.405 Y-3.287 F10800
G1 X8.843 Y-0.822 E11.4474 F3600
G1 X8.798 Y-0.323
G1 X6.131 Y-3.019 E11.5735
G1 X5.858 Y-2.751
G1 X8.752 Y0.175 E11.7104
G1 X8.707 Y0.673
G1 X5.820 Y-2.245 E11.8469
G1 X5.880 Y-1.641
G1 X8.662 Y1.172 E11.9785
G1 X8.617 Y1.670
G1 X5.939 Y-1.037 E12.1051
G1 X5.998 Y-0.433
G1 X8.571 Y2.168 E12.2268
G1 X8.526 Y2.667
G1 X6.058 Y0.171 E12.3436
G1 X6.117 Y0.775
G1 X8.481 Y3.165 E12.4554
G1 X8.436 Y3.664
G1 X6.176 Y1.379 E12.5623
G1 X6.236 Y1.983
G1 X8.390 Y4.162 E12.6642
G1 X8.345 Y4.660
G1 X6.295 Y2.587 E12.7612
G1 X6.354 Y3.192
G1 X8.300 Y5.159 E12.8532
G1 X8.255 Y5.657
G1 X6.414 Y3.796 E12.9403
G1 X6.473 Y4.400
G1 X8.209 Y6.155 E13.0224
G1 X8.164 Y6.654
G1 X6.532 Y5.004 E13.0996
G1 X6.592 Y5.608
G1 X8.119 Y7.152 E13.1718
G1 X8.074 Y7.650
G1 X6.651 Y6.212 E13.2391
G1 X6.710 Y6.816
G1 X8.028 Y8.149 E13.3014
G1 X7.983 Y8.647
G1 X6.770 Y7.420 E13.3588
G1 X6.829 Y8.024
G1 X7.938 Y9.145 E13.4113
G1 X7.893 Y9.644
G1 X6.888 Y8.628 E13.4588
G1 X6.948 Y9.232
G1 X7.847 Y10.142 E13.5013
G1 X7.802 Y10.640
G1 X7.007 Y9.837 E13.5389
G1 X7.066 Y10.441
G1 X7.757 Y11.139 E13.5716
G1 X7.712 Y11.637
G1 X7.126 Y11.045 E13.5993
G0 X5.803 Y-3.383 F10800
G0 X4.508 Y-4.660
G1 X-1.019 Y-10.248 E13.8608 F3600
G0 X-0.219 Y-8.895 F10800
G1 X3.291 Y-5.346 E14.0268 F3600
G0 X0.752 Y-6.825 F10800
G1 X0.858 Y-6.719 E14.0317 F3600
G0 X2.074 Y-6.032 F10800
G1 X0.581 Y-7.542 E14.1024 F3600
G0 X18.054 Y-15.994 F10800
G1 X17.717 Y-16.334 E14.1183 F3600
G1 X17.190 Y-16.323
G1 X18.450 Y-15.049 E14.1779
G1 X18.252 Y-14.706
G1 X16.606 Y-16.370 E14.2557
G1 X16.307 Y-16.128
G1 X18.070 Y-14.345 E14.3391
G1 X17.891 Y-13.983
G1 X15.973 Y-15.921 E14.4298
G1 X15.668 Y-15.686
G1 X17.692 Y-13.640 E14.5255
G1 X17.492 Y-13.297
G1 X15.378 Y-15.435 E14.6255
G1 X15.087 Y-15.185
G1 X17.293 Y-12.955 E14.7299
G1 X17.094 Y-12.612
G1 X14.797 Y-14.934 E14.8385
G1 X14.506 Y-14.684
G1 X16.895 Y-12.269 E14.9515
G1 X16.695 Y-11.927
G1 X14.216 Y-14.434 E15.0688
G1 X13.925 Y-14.183
G1 X16.496 Y-11.584 E15.1904
G1 X16.297 Y-11.241
G1 X13.634 Y-13.933 E15.3163
G1 X13.344 Y-13.682
G1 X16.097 Y-10.899 E15.4465
G1 X15.898 Y-10.556
G1 X13.053 Y-13.432 E15.5811
G1 X12.763 Y-13.182
G1 X15.699 Y-10.213 E15.7199
G1 X15.500 Y-9.871
G1 X12.472 Y-12.931 E15.8631
G1 X11.860 Y-13.007
G1 X15.300 Y-9.528 E16.0258
G1 X15.101 Y-9.185
G1 X11.229 Y-13.100 E16.2090
G1 X10.761 Y-13.029
G1 X14.902 Y-8.843 E16.4048
G1 X14.703 Y-8.500
G1 X10.294 Y-12.958 E16.6134
G1 X9.826 Y-12.886
G1 X14.503 Y-8.157 E16.8346
G1 X14.304 Y-7.815
G1 X9.358 Y-12.815 E17.0685
G1 X8.891 Y-12.744
G1 X14.118 Y-7.459 E17.3157
G1 X14.032 Y-7.001
G1 X8.423 Y-12.672 E17.5810
G1 X7.956 Y-12.601
G1 X13.791 Y-6.701 E17.8570
G1 X13.447 Y-6.505
G1 X7.488 Y-12.529 E18.1388
G1 X6.904 Y-12.576
G1 X13.104 Y-6.308 E18.4321
G1 X12.761 Y-6.111
G1 X6.275 Y-12.668 E18.7388
G1 X5.646 Y-12.759
G1 X12.417 Y-5.914 E19.0591
G1 X12.074 Y-5.717
G1 X5.017 Y-12.851 E19.3928
G1 X4.389 Y-12.942
G1 X11.731 Y-5.520 E19.7401
G1 X11.387 Y-5.323
G1 X3.760 Y-13.034 E20.1008
G1 X3.217 Y-13.039
G1 X11.044 Y-5.126 E20.4710
G1 X10.700 Y-4.929
G1 X2.758 Y-12.959 E20.8466
G1 X2.299 Y-12.879
G1 X10.357 Y-4.732 E21.2278
G1 X10.014 Y-4.535
G1 X-0.872 Y-15.540 E21.7426
; ------------------------------------
; Layer #2
; ------------------------------------
G21 ; mm
G90 ; abs
G92 E0 ; reset extr
M106 S0
;segType:HShell
G0 F4800 E-1.0000
G0 F3000 Z0.600
G0 X2.353 Y-13.065 F10800
G0 F4800 E0.0000
G1 X-0.780 Y-9.897 E0.1482 F3600
G1 X-0.982 Y-10.237
G1 X1.920 Y-13.171 E0.2854
G1 X1.627 Y-13.419
G1 X-1.183 Y-10.578 E0.4184
G1 X-1.385 Y-10.918
G1 X1.335 Y-13.668 E0.5470
G1 X1.042 Y-13.916
G1 X-1.586 Y-11.259 E0.6713
G1 X-1.787 Y-11.600
G1 X0.750 Y-14.164 E0.7912
G1 X0.457 Y-14.413
G1 X-1.989 Y-11.940 E0.9069
G1 X-2.190 Y-12.281
G1 X0.164 Y-14.661 E1.0183
G1 X-0.128 Y-14.909
G1 X-2.391 Y-12.621 E1.1253
G1 X-2.593 Y-12.962
G1 X-0.421 Y-15.158 E1.2281
G1 X-0.713 Y-15.406
G1 X-2.794 Y-13.302 E1.3265
G1 X-2.995 Y-13.643
G1 X-1.006 Y-15.654 E1.4206
G1 X-1.325 Y-15.876
G1 X-3.188 Y-13.992 E1.5087
G1 X-3.370 Y-14.353
G1 X-1.661 Y-16.080 E1.5895
G1 X-1.973 Y-16.309
G1 X-3.551 Y-14.713 E1.6641
G1 X-3.489 Y-15.320
G1 X-3.744 Y-15.062 E1.6762
G1 X-3.345 Y-15.466
G1 X-2.645 Y-16.174 E1.7093
;segType:Loop
G0 X-2.313 Y-16.849 F10800
G1 X-1.676 Y-16.324 E1.7368 F3600
G1 X-1.008 Y-15.920 E1.7627
G1 X2.155 Y-13.235 E1.9007
G1 X3.743 Y-13.512 E1.9543
G1 X7.358 Y-12.986 E2.0758
G1 X10.969 Y-13.537 E2.1973
G1 X12.559 Y-13.272 E2.2509
G1 X15.703 Y-15.982 E2.3890
G1 X16.367 Y-16.390 E2.4149
G1 X17.073 Y-16.981 E2.4456
G1 X17.166 Y-16.446 E2.4636
G1 X18.089 Y-16.443 E2.4943
G1 X18.235 Y-15.600 E2.5228
G1 X18.929 Y-15.581 E2.5458
G1 X18.500 Y-14.838 E2.5744
G1 X17.994 Y-13.814 E2.6124
G1 X14.491 Y-7.791 E2.8441
G1 X14.266 Y-6.583 E2.8849
G1 X10.164 Y-4.231 E3.0422
G1 X8.364 Y-3.228 E3.1108
G1 X9.253 Y-2.369 E3.1519
G1 X9.128 Y-0.999 E3.1976
G1 X7.950 Y11.975 E3.6309
G1 X7.449 Y11.986 E3.6476
G1 X6.948 Y11.979 E3.6643
G1 X5.675 Y-0.986 E4.0975
G1 X5.540 Y-2.355 E4.1433
G1 X6.423 Y-3.221 E4.1844
G1 X4.616 Y-4.211 E4.2530
G1 X0.497 Y-6.533 E4.4102
G1 X0.262 Y-7.739 E4.4511
G1 X-3.284 Y-13.736 E4.6828
G1 X-3.797 Y-14.757 E4.7208
G1 X-4.232 Y-15.496 E4.7493
G1 X-3.538 Y-15.521 E4.7724
G1 X-3.379 Y-16.386 E4.8017
G1 X-2.475 Y-16.374 E4.8318
G1 X-2.402 Y-16.815 E4.8466
G0 F4800 E3.8466
G0 X-3.098 Y-16.214 F10800
G0 F4800 E4.8466
;segType:Perimeter
G1 X-2.804 Y-16.840 E4.8696 F2159
G1 X-2.699 Y-17.469 E4.8908
G1 X-2.582 Y-17.593 E4.8965
G1 X-1.446 Y-16.656 E4.9455
G1 X-0.776 Y-16.251 E4.9715
G1 X2.270 Y-13.666 E5.1044
G1 X3.737 Y-13.922 E5.1539
G1 X7.357 Y-13.395 E5.2756
G1 X10.971 Y-13.946 E5.3972
G1 X12.441 Y-13.701 E5.4467
G1 X15.468 Y-16.310 E5.5797
G1 X16.134 Y-16.720 E5.6057
G1 X17.264 Y-17.665 E5.6547
G1 X17.382 Y-17.542 E5.6604
G1 X17.501 Y-16.857 E5.6835
G1 X18.241 Y-16.873 E5.7081
G1 X18.463 Y-16.630 E5.7190
G1 X18.573 Y-15.995 E5.7405
G1 X19.309 Y-15.974 E5.7649
G1 X19.493 Y-15.756 E5.7745
G1 X18.852 Y-14.645 E5.8171
G1 X18.345 Y-13.621 E5.8551
G1 X14.872 Y-7.647 E6.0850
G1 X14.625 Y-6.324 E6.1297
G1 X10.360 Y-3.878 E6.2932
G1 X9.034 Y-3.140 E6.3437
G1 X9.669 Y-2.526 E6.3731
G1 X9.526 Y-0.962 E6.4253
G1 X8.316 Y12.372 E6.8706
G1 X7.451 Y12.390 E6.8994
G1 X6.585 Y12.378 E6.9282
G1 X5.277 Y-0.946 E7.3735
G1 X5.122 Y-2.509 E7.4257
G1 X5.753 Y-3.128 E7.4551
G1 X4.423 Y-3.857 E7.5056
G1 X0.140 Y-6.272 E7.6691
G1 X-0.117 Y-7.592 E7.7138
G1 X-3.634 Y-13.540 E7.9437
G1 X-4.148 Y-14.561 E7.9817
G1 X-4.797 Y-15.667 E8.0243
G1 X-4.615 Y-15.887 E8.0338
G1 X-3.879 Y-15.913 E8.0583
G1 X-3.773 Y-16.549 E8.0798
G1 X-3.554 Y-16.793 E8.0907
G1 X-2.870 Y-16.784 E8.1134
G1 X-2.209 Y-16.964
G0 F4800 E7.1134
G0 X3.654 Y-13.292 F10800
G0 F4800 E8.1134
;segType:HShell
G1 X-0.378 Y-9.216 E8.3041 F3600
G1 X-0.176 Y-8.875
G1 X4.149 Y-13.249 E8.5087
G1 X4.620 Y-13.180
G1 X0.025 Y-8.535 E8.7260
G1 X0.226 Y-8.194
G1 X5.090 Y-13.112 E8.9561
G1 X5.561 Y-13.043
G1 X0.428 Y-7.854 E9.1989
G1 X0.530 Y-7.413
G1 X6.031 Y-12.975 E9.4591
G1 X6.502 Y-12.906
G1 X0.618 Y-6.958 E9.7373
G1 X0.797 Y-6.595
G1 X6.972 Y-12.838 E10.0294
G1 X7.472 Y-12.799
G1 X1.143 Y-6.401 E10.3287
G1 X1.488 Y-6.206
G1 X8.105 Y-12.896 E10.6417
G1 X8.739 Y-12.992
G1 X1.834 Y-6.011 E10.9683
G1 X2.179 Y-5.816
G1 X9.373 Y-13.089 E11.3085
G1 X10.007 Y-13.186
G1 X2.525 Y-5.621 E11.6624
G1 X2.870 Y-5.427
G1 X10.641 Y-13.283 E12.0299
G1 X11.191 Y-13.295
G1 X3.216 Y-5.232 E12.4071
G1 X3.562 Y-5.037
G1 X11.653 Y-13.218 E12.7898
G1 X12.115 Y-13.141
G1 X3.907 Y-4.842 E13.1780
G1 X4.253 Y-4.647
G1 X12.577 Y-13.064 E13.5718
G0 X15.868 Y-15.846 F10800
G1 X4.598 Y-4.453 E14.1048 F3600
G1 X4.946 Y-4.260
G1 X16.969 Y-16.415 E14.6734
G1 X17.337 Y-16.243
G1 X5.295 Y-4.069 E15.2430
G1 X5.644 Y-3.878
G1 X17.873 Y-16.241 E15.8214
G1 X17.994 Y-15.820
G1 X5.993 Y-3.686 E16.3890
G1 X6.342 Y-3.495
G1 X18.119 Y-15.402 E16.9460
G1 X18.505 Y-15.248
G1 X6.691 Y-3.304 E17.5047
G0 X5.791 Y-1.850 F10800
G1 X17.915 Y-14.107 E18.0782 F3600
G0 X17.189 Y-12.829 F10800
G1 X5.840 Y-1.355 E18.6149 F3600
G1 X5.889 Y-0.860
G1 X8.154 Y-3.151 E18.7221
G1 X8.429 Y-2.885
G1 X5.937 Y-0.365 E18.8400
G1 X5.986 Y0.130
G1 X8.705 Y-2.619 E18.9686
G1 X8.980 Y-2.353
G1 X6.034 Y0.625 E19.1079
G1 X6.083 Y1.120
G1 X9.003 Y-1.833 E19.2460
G1 X8.948 Y-1.233
G1 X6.132 Y1.615 E19.3792
G1 X6.180 Y2.110
G1 X8.894 Y-0.634 E19.5076
G1 X8.839 Y-0.035
G1 X6.229 Y2.605 E19.6311
G1 X6.277 Y3.099
G1 X8.785 Y0.564 E19.7497
G1 X8.731 Y1.163
G1 X6.326 Y3.594 E19.8634
G1 X6.375 Y4.089
G1 X8.676 Y1.762 E19.9723
G1 X8.622 Y2.361
G1 X6.423 Y4.584 E20.0763
G1 X6.472 Y5.079
G1 X8.568 Y2.960 E20.1754
G1 X8.513 Y3.560
G1 X6.520 Y5.574 E20.2697
G1 X6.569 Y6.069
G1 X8.459 Y4.159 E20.3591
G1 X8.404 Y4.758
G1 X6.617 Y6.564 E20.4436
G1 X6.666 Y7.059
G1 X8.350 Y5.357 E20.5232
G1 X8.296 Y5.956
G1 X6.715 Y7.554 E20.5980
G1 X6.763 Y8.049
G1 X8.241 Y6.555 E20.6679
G1 X8.187 Y7.154
G1 X6.812 Y8.544 E20.7329
G1 X6.860 Y9.039
G1 X8.132 Y7.753 E20.7931
G1 X8.078 Y8.352
G1 X6.909 Y9.534 E20.8484
G1 X6.958 Y10.029
G1 X8.024 Y8.951 E20.8988
G1 X7.969 Y9.551
G1 X7.006 Y10.524 E20.9443
G1 X7.055 Y11.019
G1 X7.915 Y10.150 E20.9850
G1 X7.860 Y10.749
G1 X7.103 Y11.514 E21.0208
G1 X7.380 Y11.778
G1 X7.806 Y11.348 E21.0409
G0 X8.575 Y-3.576 F10800
G1 X16.421 Y-11.509 E21.4120 F3600
G0 X15.654 Y-10.189 F10800
G1 X9.775 Y-4.245 E21.6901 F3600
G0 X11.007 Y-4.947 F10800
G1 X14.886 Y-8.869 E21.8735 F3600
G0 X14.146 Y-7.032 F10800
G1 X13.494 Y-6.373 E21.9044 F3600
G0 X14.271 Y-7.703 F10800
G1 X12.251 Y-5.660 E22.0000 F3600
G0 X3.003 Y-13.178 F10800
G1 X-0.579 Y-9.556 E22.1694 F3600
; ------------------------------------
; Layer #3
; ------------------------------------
G21 ; mm
G90 ; abs
G92 E0 ; reset extr
M106 S255
;segType:HShell
G0 F4800 E-1.0000
G0 F3000 Z0.800
G0 X-3.195 Y-14.081 F10800
G0 F4800 E0.0000
G1 X-2.967 Y-13.850 E0.0108 F3600
;segType:Infill
G0 X-3.209 Y-14.331 F10800
G1 X-3.209 Y-15.115 E0.0369 F5400
;segType:HShell
G0 X-3.418 Y-14.849 F10800
G1 X-3.766 Y-15.202 E0.0534 F3600
G1 X-3.302 Y-15.277
G1 X-3.179 Y-15.153 E0.0592
G1 X-2.941 Y-15.456
G1 X-3.201 Y-15.718 E0.0714
;segType:Loop
G0 X-2.302 Y-16.791 F10800
G1 X-1.858 Y-16.425 E0.0906 F3600
G1 X-0.968 Y-15.886 E0.1252
G1 X1.982 Y-13.382 E0.2539
G1 X4.039 Y-13.741 E0.3233
G1 X7.357 Y-13.258 E0.4349
G1 X10.670 Y-13.763 E0.5463
G1 X12.730 Y-13.420 E0.6158
G1 X15.662 Y-15.947 E0.7445
G1 X16.549 Y-16.492 E0.7791
G1 X17.063 Y-16.923 E0.8015
G1 X17.160 Y-16.367 E0.8202
G1 X17.906 Y-16.382 E0.8450
G1 X18.033 Y-16.243 E0.8513
G1 X18.153 Y-15.552 E0.8746
G1 X18.841 Y-15.533 E0.8975
G1 X18.596 Y-15.108 E0.9138
G1 X17.921 Y-13.743 E0.9645
G1 X14.665 Y-8.144 E1.1799
G1 X14.354 Y-6.476 E1.2363
G1 X10.391 Y-4.203 E1.3883
G1 X8.227 Y-2.998 E1.4707
G1 X9.286 Y-1.975 E1.5196
G1 X9.110 Y-0.052 E1.5839
G1 X8.007 Y12.100 E1.9897
G1 X7.450 Y12.111 E2.0082
G1 X6.892 Y12.104 E2.0268
G1 X5.700 Y-0.039 E2.4326
G1 X5.510 Y-1.961 E2.4968
G1 X6.561 Y-2.992 E2.5458
G1 X4.390 Y-4.181 E2.6281
G1 X0.410 Y-6.425 E2.7801
G1 X0.086 Y-8.091 E2.8366
G1 X-3.211 Y-13.665 E3.0520
G1 X-3.896 Y-15.027 E3.1026
G1 X-4.144 Y-15.449 E3.1189
G1 X-3.455 Y-15.474 E3.1418
G1 X-3.341 Y-16.165 E3.1651
G1 X-3.215 Y-16.305 E3.1714
G1 X-2.469 Y-16.295 E3.1962
G1 X-2.392 Y-16.757 E3.2118
G0 F4800 E2.2118
G0 X-3.091 Y-16.136 F10800
G0 F4800 E3.2118
;segType:Perimeter
G1 X-2.797 Y-16.761 E3.2348 F2159
G1 X-2.715 Y-17.252 E3.2513
G1 X-2.502 Y-17.477 E3.2616
G1 X-1.628 Y-16.757 E3.2993
G1 X-0.735 Y-16.217 E3.3340
G1 X2.097 Y-13.813 E3.4576
G1 X4.033 Y-14.150 E3.5230
G1 X7.356 Y-13.667 E3.6346
G1 X10.673 Y-14.173 E3.7462
G1 X12.612 Y-13.849 E3.8116
G1 X15.427 Y-16.275 E3.9352
G1 X16.316 Y-16.822 E3.9699
G1 X17.185 Y-17.549 E4.0076
G1 X17.400 Y-17.326 E4.0179
G1 X17.495 Y-16.778 E4.0364
G1 X18.078 Y-16.790 E4.0558
G1 X18.407 Y-16.430 E4.0720
G1 X18.490 Y-15.947 E4.0883
G1 X19.037 Y-15.932 E4.1065
G1 X19.332 Y-15.581 E4.1218
G1 X18.948 Y-14.916 E4.1473
G1 X18.273 Y-13.550 E4.1980
G1 X15.046 Y-8.000 E4.4115
G1 X14.713 Y-6.217 E4.4718
G1 X10.586 Y-3.850 E4.6301
G1 X8.897 Y-2.909 E4.6943
G1 X9.702 Y-2.132 E4.7316
G1 X9.508 Y-0.015 E4.8023
G1 X8.372 Y12.497 E5.2201
G1 X7.451 Y12.516 E5.2508
G1 X6.530 Y12.503 E5.2814
G1 X5.302 Y0.001 E5.6993
G1 X5.093 Y-2.115 E5.7700
G1 X5.892 Y-2.898 E5.8072
G1 X4.197 Y-3.827 E5.8715
G1 X0.053 Y-6.164 E6.0297
G1 X-0.293 Y-7.944 E6.0900
G1 X-3.561 Y-13.470 E6.3036
G1 X-4.246 Y-14.831 E6.3543
G1 X-4.635 Y-15.493 E6.3798
G1 X-4.342 Y-15.846 E6.3950
G1 X-3.796 Y-15.866 E6.4132
G1 X-3.716 Y-16.349 E6.4295
G1 X-3.390 Y-16.712 E6.4457
G1 X-2.863 Y-16.705 E6.4632
G1 X-2.202 Y-16.886
G0 F4800 E5.4632
G0 X-2.495 Y-16.093 F10800
G0 F4800 E6.4632
;segType:HShell
G1 X-2.337 Y-15.933 E6.4707 F3600
G1 X-2.703 Y-15.760
G1 X-3.041 Y-16.101 E6.4867
G0 X-2.465 Y-12.798 F10800
G1 X-2.232 Y-12.562 E6.4977 F3600
;segType:Infill
G0 X-1.811 Y-11.850 F10800
G1 X16.495 Y-11.850 E7.1066 F5400
G1 X16.820 Y-12.408 E7.1280
G1 X16.820 Y-16.393 E7.2606
G1 X16.019 Y-15.900 E7.2918
G1 X17.345 Y-15.900 E7.3359
;segType:HShell
G0 X17.355 Y-16.156 F10800
G1 X17.949 Y-15.556 E7.3640 F3600
G1 X18.379 Y-15.121
G1 X18.153 Y-15.350 E7.3747
G1 X18.125 Y-14.834
G1 X18.200 Y-14.758 E7.3783
G1 X18.020 Y-14.396
G1 X17.946 Y-14.471 E7.3818
G1 X17.766 Y-14.108
G1 X17.841 Y-14.033 E7.3853
G1 X17.652 Y-13.680
G1 X17.587 Y-13.745 E7.3884
;segType:Infill
G0 X12.814 Y-13.225 F10800
G1 X12.814 Y-6.299 E7.6188 F5400
G0 X8.808 Y-4.015 F10800
G1 X8.808 Y-12.459 E7.8996 F5400
;segType:HShell
G0 X12.086 Y-13.322 F10800
G1 X12.473 Y-12.931 E7.9179 F3600
G1 X12.069 Y-12.795
G1 X11.441 Y-13.430 E7.9476
G1 X10.797 Y-13.537
G1 X11.463 Y-12.864 E7.9791
G1 X10.995 Y-12.793
G1 X10.294 Y-13.501 E8.0123
G1 X9.826 Y-13.430
G1 X10.527 Y-12.721 E8.0454
G1 X10.060 Y-12.650
G1 X9.359 Y-13.359 E8.0786
G1 X8.891 Y-13.287
G1 X9.592 Y-12.579 E8.1117
G1 X9.124 Y-12.507
G1 X8.424 Y-13.216 E8.1449
G1 X7.956 Y-13.145
G1 X8.657 Y-12.436 E8.1780
G1 X8.189 Y-12.365
G1 X7.488 Y-13.073 E8.2111
G1 X6.905 Y-13.119
G1 X7.722 Y-12.293 E8.2498
G1 X7.217 Y-12.259
G1 X6.276 Y-13.211 E8.2943
G1 X5.647 Y-13.302
G1 X6.588 Y-12.351 E8.3388
G1 X5.960 Y-12.442
G1 X5.019 Y-13.394 E8.3833
G1 X4.390 Y-13.485
G1 X5.331 Y-12.534 E8.4279
G1 X4.702 Y-12.625
G1 X3.837 Y-13.500 E8.4688
G1 X3.378 Y-13.420
G1 X4.074 Y-12.717 E8.5017
G1 X3.445 Y-12.808
G1 X2.919 Y-13.340 E8.5266
G1 X2.460 Y-13.260
G1 X2.907 Y-12.808 E8.5478
G1 X2.448 Y-12.728
G1 X2.001 Y-13.180 E8.5689
;segType:Infill
G0 X4.803 Y-12.611 F10800
G1 X4.803 Y-4.651 E8.8337 F5400
;segType:HShell
G0 X3.993 Y-4.636 F10800
G1 X2.940 Y-5.702 E8.8835 F3600
G0 X1.560 Y-6.008 F10800
G1 X0.483 Y-7.097 E8.9344 F3600
G1 X0.581 Y-7.542
G1 X0.351 Y-7.774 E8.9453
G0 X-1.664 Y-11.444 F10800
G1 X-1.432 Y-11.209 E8.9563 F3600
G0 X-0.864 Y-10.091 F10800
G1 X-0.631 Y-9.856 E8.9673 F3600
G0 X-0.064 Y-8.738 F10800
G1 X0.014 Y-8.660 E8.9710 F3600
;segType:Infill
G0 X0.454 Y-7.800 F10800
G1 X14.290 Y-7.800 E9.4311 F5400
;segType:HShell
G0 X14.385 Y-7.733 F10800
G1 X14.294 Y-7.825 E9.4354 F3600
G1 X14.118 Y-7.459
G1 X14.300 Y-7.275 E9.4440
G1 X14.214 Y-6.817
G1 X13.941 Y-7.093 E9.4569
G1 X13.691 Y-6.802
G1 X13.990 Y-6.500 E9.4711
G1 X13.647 Y-6.303
G1 X13.348 Y-6.605 E9.4852
G1 X13.004 Y-6.408
G1 X13.303 Y-6.106 E9.4993
G1 X12.960 Y-5.909
G1 X12.661 Y-6.211 E9.5135
G1 X12.318 Y-6.014
G1 X12.616 Y-5.712 E9.5276
G1 X12.273 Y-5.515
G1 X11.974 Y-5.817 E9.5417
G1 X11.631 Y-5.620
G1 X11.930 Y-5.318 E9.5558
G1 X11.586 Y-5.122
G1 X11.288 Y-5.424 E9.5700
G1 X10.944 Y-5.227
G1 X11.243 Y-4.925 E9.5841
G1 X10.899 Y-4.728
G1 X10.601 Y-5.030 E9.5982
G1 X10.257 Y-4.833
G1 X10.556 Y-4.531 E9.6124
G1 X10.212 Y-4.335
G1 X9.914 Y-4.636 E9.6265
G1 X9.570 Y-4.439
G1 X9.865 Y-4.141 E9.6404
G1 X9.518 Y-3.948
G1 X9.223 Y-4.246 E9.6544
G1 X8.876 Y-4.053
G1 X9.171 Y-3.754 E9.6683
G1 X8.824 Y-3.561
G1 X8.529 Y-3.859 E9.6823
G1 X8.281 Y-3.566
G1 X8.477 Y-3.368 E9.6916
G1 X8.130 Y-3.174
G1 X8.032 Y-3.274 E9.6962
G0 X7.138 Y-2.545 F10800
G1 X7.023 Y-2.661 E9.7016 F3600
G1 X6.955 Y-2.731
G1 X6.772 Y-2.916 E9.7103
G1 X6.498 Y-2.648
G1 X7.048 Y-2.092 E9.7363
G1 X6.775 Y-1.824
G1 X6.225 Y-2.380 E9.7623
G1 X5.952 Y-2.112
G1 X6.502 Y-1.556 E9.7883
G1 X6.228 Y-1.289
G1 X5.727 Y-1.795 E9.8120
G1 X5.787 Y-1.191
G1 X6.014 Y-0.961 E9.8228
G1 X6.074 Y-0.357
G1 X5.847 Y-0.586 E9.8335
G1 X5.907 Y0.018
G1 X6.133 Y0.247 E9.8442
G1 X6.192 Y0.852
G1 X5.966 Y0.622 E9.8549
G1 X6.025 Y1.227
G1 X6.252 Y1.456 E9.8657
G1 X6.311 Y2.060
G1 X6.084 Y1.831 E9.8764
G1 X6.144 Y2.435
G1 X6.370 Y2.664 E9.8871
G1 X6.430 Y3.268
G1 X6.203 Y3.039 E9.8978
G1 X6.262 Y3.643
G1 X6.489 Y3.872 E9.9085
G1 X6.548 Y4.476
G1 X6.322 Y4.247 E9.9193
G1 X6.381 Y4.851
G1 X6.608 Y5.080 E9.9300
G1 X6.667 Y5.684
G1 X6.440 Y5.455 E9.9407
G1 X6.500 Y6.059
G1 X6.726 Y6.288 E9.9514
G1 X6.786 Y6.892
G1 X6.559 Y6.663 E9.9622
G1 X6.618 Y7.267
G1 X6.845 Y7.496 E9.9729
G1 X6.904 Y8.101
G1 X6.678 Y7.871 E9.9836
G1 X6.737 Y8.475
G1 X6.964 Y8.705 E9.9943
G1 X7.023 Y9.309
G1 X6.796 Y9.079 E10.0051
G1 X6.856 Y9.683
G1 X7.082 Y9.913 E10.0158
G1 X7.142 Y10.517
G1 X6.915 Y10.288 E10.0265
G1 X6.974 Y10.892
G1 X7.201 Y11.121 E10.0373
G1 X7.033 Y11.496
G1 X7.436 Y11.903 E10.0563
G1 X7.836 Y11.763
G1 X7.600 Y11.524 E10.0675
G1 X7.695 Y11.076
G1 X7.882 Y11.265 E10.0763
G1 X7.927 Y10.767
G1 X7.740 Y10.577 E10.0852
G1 X7.785 Y10.079
G1 X7.972 Y10.268 E10.0940
G1 X8.017 Y9.770
G1 X7.830 Y9.581 E10.1029
G1 X7.876 Y9.082
G1 X8.063 Y9.272 E10.1117
G1 X8.108 Y8.773
G1 X7.921 Y8.584 E10.1206
G1 X7.966 Y8.086
G1 X8.153 Y8.275 E10.1294
G1 X8.198 Y7.776
G1 X8.011 Y7.587 E10.1383
G1 X8.057 Y7.089
G1 X8.244 Y7.278 E10.1471
G1 X8.289 Y6.780
G1 X8.102 Y6.591 E10.1559
G1 X8.147 Y6.092
G1 X8.334 Y6.281 E10.1648
G1 X8.379 Y5.783
G1 X8.192 Y5.594 E10.1736
G1 X8.238 Y5.096
G1 X8.425 Y5.285 E10.1825
G1 X8.470 Y4.786
G1 X8.283 Y4.597 E10.1913
G1 X8.328 Y4.099
G1 X8.515 Y4.288 E10.2001
G1 X8.560 Y3.790
G1 X8.374 Y3.601 E10.2090
G1 X8.419 Y3.102
G1 X8.606 Y3.291 E10.2178
G1 X8.651 Y2.793
G1 X8.464 Y2.604 E10.2266
G1 X8.509 Y2.106
G1 X8.696 Y2.295 E10.2355
G1 X8.741 Y1.796
G1 X8.555 Y1.607 E10.2443
G1 X8.600 Y1.109
G1 X8.787 Y1.298 E10.2531
G1 X8.832 Y0.800
G1 X8.645 Y0.611 E10.2620
G1 X8.690 Y0.112
G1 X8.877 Y0.301 E10.2708
G1 X8.923 Y-0.197
G1 X8.736 Y-0.386 E10.2796
G1 X8.781 Y-0.884
G1 X8.968 Y-0.695 E10.2885
G1 X9.014 Y-1.193
G1 X7.633 Y-2.589 E10.3538
G1 X7.882 Y-2.882
G1 X9.059 Y-1.691 E10.4095
;segType:Infill
G0 X7.938 Y8.399 F10800
G1 X6.934 Y8.399 E10.4429 F5400
G0 X6.536 Y4.349 F10800
G1 X8.306 Y4.349 E10.5017 F5400
G0 X8.673 Y0.299 F10800
G1 X6.138 Y0.299 E10.5860 F5400
;segType:HShell
G0 X6.360 Y-3.332 F10800
G1 X5.366 Y-4.337 E10.6331 F3600
;segType:Infill
G0 X8.334 Y-3.751 F10800
G1 X6.437 Y-3.751 E10.6962 F5400
;segType:HShell
G0 X5.185 Y-3.975 F10800
G1 X4.157 Y-5.016 E10.7448 F3600
G0 X2.777 Y-5.322 F10800
G1 X1.723 Y-6.388 E10.7946 F3600
;segType:Infill
G0 X0.797 Y-7.125 F10800
G1 X0.797 Y-14.124 E11.0274 F5400
G0 X-1.412 Y-15.900 F10800
G1 X-2.593 Y-15.900 E11.0667 F5400
; ------------------------------------
; Layer #4
; ------------------------------------
G21 ; mm
G90 ; abs
G92 E0 ; reset extr
M106 S255
;segType:HShell
G0 F4800 E-1.0000
G0 F3000 Z1.000
G0 X-2.798 Y-16.018 F10800
G0 F4800 E0.0000
G1 X-3.127 Y-15.686 E0.0155 F3600
;segType:Loop
G0 X-2.292 Y-16.733 F10800
G1 X-2.041 Y-16.526 E0.0264 F3600
G1 X-0.926 Y-15.851 E0.0697
G1 X1.810 Y-13.529 E0.1891
G1 X4.336 Y-13.969 E0.2743
G1 X7.356 Y-13.529 E0.3759
G1 X10.372 Y-13.990 E0.4773
G1 X12.901 Y-13.568 E0.5626
G1 X15.621 Y-15.912 E0.6820
G1 X16.730 Y-16.594 E0.7253
G1 X17.054 Y-16.864 E0.7394
G1 X17.153 Y-16.287 E0.7589
G1 X17.743 Y-16.300 E0.7785
G1 X17.977 Y-16.043 E0.7900
G1 X18.071 Y-15.504 E0.8082
G1 X18.575 Y-15.490 E0.8250
G1 X18.684 Y-15.361 E0.8306
G1 X17.849 Y-13.672 E0.8933
G1 X14.839 Y-8.497 E1.0924
G1 X14.442 Y-6.369 E1.1644
G1 X10.616 Y-4.175 E1.3110
G1 X8.091 Y-2.767 E1.4072
G1 X9.319 Y-1.581 E1.4640
G1 X9.092 Y0.896 E1.5467
G1 X8.063 Y12.225 E1.9251
G1 X7.450 Y12.237 E1.9455
G1 X6.837 Y12.229 E1.9659
G1 X5.725 Y0.908 E2.3443
G1 X5.480 Y-1.566 E2.4270
G1 X6.700 Y-2.762 E2.4838
G1 X4.164 Y-4.151 E2.5799
G1 X0.322 Y-6.318 E2.7266
G1 X-0.091 Y-8.442 E2.7986
G1 X-3.138 Y-13.595 E2.9977
G1 X-3.985 Y-15.278 E3.0604
G1 X-3.877 Y-15.408 E3.0660
G1 X-3.373 Y-15.426 E3.0828
G1 X-3.283 Y-15.965 E3.1010
G1 X-3.051 Y-16.224 E3.1125
G1 X-2.462 Y-16.216 E3.1321
G1 X-2.382 Y-16.699 E3.1484
G0 F4800 E2.1484
G0 X-3.084 Y-16.057 F10800
G0 F4800 E3.1484
;segType:Perimeter
G1 X-2.790 Y-16.682 E3.1714 F2159
G1 X-2.731 Y-17.036 E3.1833
G1 X-2.423 Y-17.362 E3.1983
G1 X-1.810 Y-16.858 E3.2246
G1 X-0.694 Y-16.182 E3.2681
G1 X1.925 Y-13.959 E3.3823
G1 X4.330 Y-14.379 E3.4635
G1 X7.355 Y-13.938 E3.5652
G1 X10.375 Y-14.399 E3.6668
G1 X12.783 Y-13.997 E3.7480
G1 X15.386 Y-16.241 E3.8623
G1 X16.498 Y-16.924 E3.9057
G1 X17.106 Y-17.433 E3.9321
G1 X17.417 Y-17.109 E3.9470
G1 X17.488 Y-16.699 E3.9609
G1 X17.914 Y-16.708 E3.9750
G1 X18.351 Y-16.229 E3.9966
G1 X18.408 Y-15.899 E4.0077
G1 X18.764 Y-15.889 E4.0196
G1 X19.171 Y-15.406 E4.0406
G1 X19.045 Y-15.187 E4.0490
G1 X18.201 Y-13.479 E4.1124
G1 X15.220 Y-8.352 E4.3096
G1 X14.801 Y-6.110 E4.3855
G1 X10.812 Y-3.822 E4.5384
G1 X8.761 Y-2.679 E4.6165
G1 X9.735 Y-1.738 E4.6616
G1 X9.490 Y0.933 E4.7508
G1 X8.429 Y12.622 E5.1411
G1 X7.451 Y12.641 E5.1737
G1 X6.474 Y12.629 E5.2062
G1 X5.327 Y0.948 E5.5966
G1 X5.063 Y-1.721 E5.6858
G1 X6.030 Y-2.669 E5.7308
G1 X3.971 Y-3.797 E5.8089
G1 X-0.035 Y-6.056 E5.9619
G1 X-0.470 Y-8.295 E6.0377
G1 X-3.488 Y-13.399 E6.2350
G1 X-4.345 Y-15.101 E6.2983
G1 X-4.473 Y-15.319 E6.3067
G1 X-4.070 Y-15.806 E6.3277
G1 X-3.713 Y-15.818 E6.3396
G1 X-3.659 Y-16.149 E6.3508
G1 X-3.226 Y-16.631 E6.3723
G1 X-2.857 Y-16.626 E6.3846
G1 X-2.196 Y-16.807
G0 F4800 E5.3846
G0 X-2.242 Y-15.900 F10800
G0 F4800 E6.3846
;segType:Infill
G1 X-1.445 Y-15.900 E6.4111 F5400
;segType:HShell
G0 X-2.010 Y-16.271 F10800
G1 X-3.501 Y-14.764 E6.4816 F3600
G1 X-3.320 Y-14.403
G1 X-3.246 Y-14.478 E6.4851
G1 X-3.064 Y-14.117
G1 X-3.139 Y-14.042 E6.4887
G1 X-2.956 Y-13.682
G1 X-2.883 Y-13.757 E6.4921
;segType:Infill
G0 X-1.779 Y-11.850 F10800
G1 X16.464 Y-11.850 E7.0989 F5400
;segType:HShell
G0 X16.270 Y-11.356 F10800
G1 X16.044 Y-11.128 E7.1096 F3600
G0 X17.038 Y-12.677 F10800
G1 X16.812 Y-12.448 E7.1203 F3600
G0 X17.543 Y-13.731 F10800
G1 X17.766 Y-13.957 E7.1309 F3600
G1 X17.955 Y-14.692
G1 X18.304 Y-15.045 E7.1474
G1 X18.022 Y-15.304
G1 X17.715 Y-14.993 E7.1619
G1 X17.474 Y-15.294
G1 X17.840 Y-15.664 E7.1792
G1 X17.691 Y-16.058
G1 X17.234 Y-15.596 E7.2008
G1 X16.994 Y-15.897
G1 X17.180 Y-16.085 E7.2096
G1 X16.934 Y-16.380
G1 X16.754 Y-16.198 E7.2181
G0 X15.744 Y-15.722 F10800
G1 X15.818 Y-15.796 E7.2216 F3600
;segType:Infill
G0 X16.035 Y-15.900 F10800
G1 X16.992 Y-15.900 E7.2535 F5400
G1 X16.820 Y-16.116 E7.2626
G1 X16.820 Y-12.462 E7.3841
G0 X8.808 Y-12.731 F10800
G1 X8.808 Y-3.860 E7.6792 F5400
;segType:HShell
G0 X8.914 Y-3.920 F10800
G1 X7.971 Y-2.966 E7.7238 F3600
G1 X7.094 Y-2.623
G1 X5.715 Y-1.229 E7.7890
G1 X5.763 Y-0.734
G1 X7.246 Y-2.233 E7.8591
;segType:Infill
G0 X8.808 Y-0.441 F10800
G1 X8.808 Y-0.707 E7.8680 F5400
G0 X8.741 Y0.299 F10800
G1 X6.070 Y0.299 E7.9568 F5400
G0 X6.866 Y8.399 F10800
G1 X8.006 Y8.399 E7.9947 F5400
G0 X8.373 Y4.349 F10800
G1 X6.468 Y4.349 E8.0581 F5400
;segType:HShell
G0 X5.999 Y-0.428 F10800
G1 X5.812 Y-0.239 E8.0669 F3600
G1 X5.861 Y0.255
G1 X6.047 Y0.067 E8.0757
G1 X6.096 Y0.562
G1 X5.910 Y0.750 E8.0845
G1 X5.959 Y1.245
G1 X6.145 Y1.057 E8.0933
G1 X6.193 Y1.552
G1 X6.008 Y1.740 E8.1021
G1 X6.056 Y2.235
G1 X6.242 Y2.047 E8.1109
G1 X6.290 Y2.542
G1 X6.105 Y2.730 E8.1196
G1 X6.153 Y3.225
G1 X6.339 Y3.037 E8.1284
G1 X6.388 Y3.532
G1 X6.202 Y3.720 E8.1372
G1 X6.251 Y4.215
G1 X6.436 Y4.027 E8.1460
G1 X6.485 Y4.522
G1 X6.299 Y4.710 E8.1548
G1 X6.348 Y5.205
G1 X6.534 Y5.017 E8.1636
G1 X6.582 Y5.512
G1 X6.396 Y5.700 E8.1723
G1 X6.445 Y6.195
G1 X6.631 Y6.007 E8.1811
G1 X6.679 Y6.502
G1 X6.494 Y6.690 E8.1899
G1 X6.542 Y7.185
G1 X6.728 Y6.997 E8.1987
G1 X6.777 Y7.492
G1 X6.591 Y7.680 E8.2075
G1 X6.639 Y8.175
G1 X6.825 Y7.987 E8.2163
G1 X6.874 Y8.482
G1 X6.688 Y8.669 E8.2251
G1 X6.737 Y9.164
G1 X6.922 Y8.977 E8.2339
G1 X6.971 Y9.471
G1 X6.785 Y9.659 E8.2427
G1 X6.834 Y10.154
G1 X7.020 Y9.966 E8.2514
G1 X7.068 Y10.461
G1 X6.882 Y10.649 E8.2602
G1 X6.931 Y11.144
G1 X7.117 Y10.956 E8.2690
G1 X7.166 Y11.451
G1 X6.980 Y11.639 E8.2778
G1 X7.132 Y12.029
G1 X7.507 Y11.650 E8.2956
G1 X7.901 Y11.795
G1 X7.672 Y12.027 E8.3064
G1 X7.956 Y11.196
G1 X7.731 Y11.424 E8.3170
G1 X7.785 Y10.825
G1 X8.010 Y10.597 E8.3277
G1 X8.065 Y9.998
G1 X7.840 Y10.226 E8.3383
G1 X7.894 Y9.626
G1 X8.119 Y9.399 E8.3489
G1 X8.173 Y8.800
G1 X7.949 Y9.027 E8.3596
G1 X8.003 Y8.428
G1 X8.228 Y8.201 E8.3702
G1 X8.282 Y7.602
G1 X8.057 Y7.829 E8.3809
G1 X8.112 Y7.230
G1 X8.337 Y7.003 E8.3915
G1 X8.391 Y6.404
G1 X8.166 Y6.631 E8.4021
G1 X8.221 Y6.032
G1 X8.445 Y5.804 E8.4128
G1 X8.500 Y5.205
G1 X8.275 Y5.433 E8.4234
G1 X8.329 Y4.834
G1 X8.554 Y4.606 E8.4340
G1 X8.609 Y4.007
G1 X8.384 Y4.234 E8.4447
G1 X8.438 Y3.635
G1 X8.663 Y3.408 E8.4553
G1 X8.717 Y2.809
G1 X8.493 Y3.036 E8.4659
G1 X8.547 Y2.437
G1 X8.772 Y2.210 E8.4766
G1 X8.826 Y1.611
G1 X8.601 Y1.838 E8.4872
G1 X8.656 Y1.239
G1 X8.881 Y1.012 E8.4978
G1 X8.935 Y0.412
G1 X8.710 Y0.640 E8.5085
G1 X8.765 Y0.041
G1 X8.990 Y-0.188 E8.5191
G1 X9.045 Y-0.787
G1 X8.819 Y-0.558 E8.5298
G1 X8.614 Y-0.895
G1 X9.100 Y-1.387 E8.5529
G1 X8.889 Y-1.717
G1 X8.339 Y-1.161 E8.5789
G1 X8.063 Y-1.427
G1 X8.613 Y-1.983 E8.6049
G1 X8.338 Y-2.249
G1 X7.788 Y-1.693 E8.6309
G1 X7.513 Y-1.959
G1 X8.063 Y-2.514 E8.6569
;segType:Infill
G0 X8.611 Y-3.751 F10800
G1 X6.156 Y-3.751 E8.7385 F5400
;segType:HShell
G0 X6.494 Y-3.105 F10800
G1 X6.691 Y-3.304 E8.7478 F3600
G1 X6.440 Y-3.595
G1 X6.145 Y-3.296 E8.7618
G1 X5.796 Y-3.487
G1 X6.091 Y-3.786 E8.7758
G1 X5.742 Y-3.977
G1 X5.447 Y-3.678 E8.7898
G1 X5.098 Y-3.870
G1 X5.393 Y-4.168 E8.8037
G1 X5.044 Y-4.360
G1 X4.749 Y-4.061 E8.8177
G1 X4.400 Y-4.252
G1 X4.698 Y-4.553 E8.8318
G1 X4.352 Y-4.748
G1 X4.053 Y-4.445 E8.8460
G1 X3.707 Y-4.640
G1 X4.007 Y-4.943 E8.8601
G1 X3.661 Y-5.138
G1 X3.362 Y-4.835 E8.8743
G1 X3.016 Y-5.030
G1 X3.316 Y-5.332 E8.8884
G1 X2.970 Y-5.527
G1 X2.671 Y-5.225 E8.9026
G1 X2.325 Y-5.420
G1 X2.625 Y-5.722 E8.9168
G1 X2.279 Y-5.917
G1 X1.980 Y-5.614 E8.9309
G1 X1.634 Y-5.809
G1 X1.934 Y-6.112 E8.9451
G1 X1.588 Y-6.307
G1 X1.289 Y-6.004 E8.9592
G1 X0.943 Y-6.199
G1 X1.243 Y-6.501 E8.9734
G1 X0.897 Y-6.696
G1 X0.598 Y-6.394 E8.9875
G1 X0.437 Y-6.775
G1 X0.709 Y-7.050 E9.0004
G1 X0.610 Y-7.494
G1 X0.349 Y-7.230 E9.0127
G1 X0.260 Y-7.685
G1 X0.428 Y-7.854 E9.0206
G1 X0.246 Y-8.214
G1 X0.172 Y-8.139 E9.0241
;segType:Infill
G0 X0.454 Y-7.800 F10800
G1 X14.290 Y-7.800 E9.4843 F5400
;segType:HShell
G0 X15.503 Y-10.036 F10800
G1 X15.277 Y-9.808 E9.4950 F3600
G0 X14.538 Y-7.973 F10800
G1 X14.193 Y-7.624 E9.5113 F3600
G1 X14.413 Y-7.302
G1 X14.013 Y-6.898 E9.5302
G1 X14.017 Y-6.358
G1 X14.288 Y-6.631 E9.5430
G1 X13.856 Y-6.739
G1 X12.774 Y-5.645 E9.5941
G0 X11.368 Y-5.312 F10800
G1 X10.295 Y-4.227 E9.6449 F3600
G1 X10.124 Y-4.598
G1 X9.095 Y-3.558 E9.6936
G0 X11.530 Y-4.932 F10800
G1 X12.612 Y-6.025 E9.7447 F3600
;segType:Infill
G0 X12.814 Y-6.141 F10800
G1 X12.814 Y-13.226 E9.9803 F5400
;segType:HShell
G0 X12.877 Y-13.367 F10800
G1 X12.427 Y-12.912 E10.0016 F3600
G1 X11.965 Y-12.989
G1 X12.415 Y-13.444 E10.0229
G1 X11.953 Y-13.521
G1 X11.503 Y-13.066 E10.0442
G1 X10.958 Y-13.059
G1 X11.491 Y-13.598 E10.0694
G1 X11.029 Y-13.675
G1 X10.324 Y-12.962 E10.1028
G1 X9.690 Y-12.866
G1 X10.567 Y-13.752 E10.1442
G1 X10.007 Y-13.729
G1 X9.056 Y-12.769 E10.1892
G1 X8.423 Y-12.672
G1 X9.373 Y-13.633 E10.2341
G1 X8.739 Y-13.536
G1 X7.789 Y-12.575 E10.2791
G1 X7.208 Y-12.532
G1 X8.105 Y-13.439 E10.3215
G1 X7.471 Y-13.342
G1 X6.737 Y-12.600 E10.3562
G1 X6.267 Y-12.669
G1 X6.971 Y-13.381 E10.3895
G1 X6.501 Y-13.450
G1 X5.796 Y-12.737 E10.4228
G1 X5.326 Y-12.806
G1 X6.030 Y-13.518 E10.4561
G1 X5.560 Y-13.587
G1 X4.855 Y-12.874 E10.4894
G1 X4.385 Y-12.943
G1 X5.089 Y-13.655 E10.5228
G1 X4.619 Y-13.724
G1 X3.915 Y-13.011 E10.5561
G1 X3.442 Y-13.078
G1 X4.076 Y-13.719 E10.5861
G1 X3.426 Y-13.605
G1 X2.792 Y-12.965 E10.6160
G1 X2.212 Y-12.923
G1 X2.776 Y-13.492 E10.6427
G1 X2.125 Y-13.379
G1 X1.920 Y-13.171 E10.6524
;segType:Infill
G0 X4.803 Y-12.882 F10800
G1 X4.803 Y-4.494 E10.9314 F5400
G0 X0.797 Y-6.753 F10800
G1 X0.797 Y-14.124 E11.1766 F5400
G0 X-3.209 Y-14.405 F10800
G1 X-3.209 Y-14.667 E11.1853 F5400
;segType:HShell
G0 X-3.683 Y-15.124 F10800
G1 X-3.592 Y-15.216 E11.1896 F3600
; ------------------------------------
; Layer #5
; ------------------------------------
G21 ; mm
G90 ; abs
G92 E0 ; reset extr
M106 S255
;segType:HShell
G0 F4800 E-1.0000
G0 F3000 Z1.200
G0 X-3.600 Y-15.034 F10800
G0 F4800 E0.0000
G1 X-3.026 Y-14.453 E0.0272 F3600
G1 X-2.788 Y-14.757
G1 X-3.365 Y-15.340 E0.0545
G1 X-3.094 Y-15.611
G1 X-2.550 Y-15.060 E0.0802
G1 X-2.312 Y-15.364
G1 X-2.838 Y-15.896 E0.1052
;segType:Loop
G0 X-2.236 Y-16.637 F10800
G1 X-2.223 Y-16.626 E0.1057 F3600
G1 X-0.885 Y-15.817 E0.1577
G1 X1.637 Y-13.676 E0.2678
G1 X4.632 Y-14.198 E0.3689
G1 X7.355 Y-13.801 E0.4604
G1 X10.074 Y-14.216 E0.5519
G1 X13.073 Y-13.716 E0.6530
G1 X15.580 Y-15.877 E0.7631
G1 X16.912 Y-16.696 E0.8151
G1 X16.998 Y-16.768 E0.8188
G1 X17.062 Y-16.701 E0.8219
G1 X17.147 Y-16.208 E0.8385
G1 X17.579 Y-16.217 E0.8529
G1 X18.082 Y-15.666 E0.8777
G1 X18.175 Y-15.599 E0.8815
G1 X18.543 Y-15.152 E0.9008
G1 X17.777 Y-13.601 E0.9583
G1 X15.014 Y-8.849 E1.1411
G1 X14.531 Y-6.262 E1.2287
G1 X10.842 Y-4.147 E1.3701
G1 X7.954 Y-2.537 E1.4801
G1 X9.352 Y-1.187 E1.5447
G1 X9.074 Y1.843 E1.6459
G1 X8.120 Y12.350 E1.9968
G1 X7.450 Y12.363 E2.0191
G1 X6.781 Y12.355 E2.0414
G1 X5.750 Y1.855 E2.3922
G1 X5.450 Y-1.172 E2.4934
G1 X6.838 Y-2.533 E2.5581
G1 X3.938 Y-4.122 E2.6680
G1 X0.235 Y-6.210 E2.8094
G1 X-0.267 Y-8.794 E2.8970
G1 X-3.065 Y-13.525 E3.0798
G1 X-3.843 Y-15.070 E3.1373
G1 X-3.477 Y-15.520 E3.1566
G1 X-3.385 Y-15.588 E3.1604
G1 X-2.887 Y-16.143 E3.1852
G1 X-2.455 Y-16.137 E3.1996
G1 X-2.373 Y-16.630 E3.2162
G1 X-2.373 Y-16.630
;segType:Perimeter
G0 X-3.078 Y-15.978 F10800
G1 X-2.784 Y-16.603 E3.2392 F2159
G1 X-2.747 Y-16.820 E3.2465
G1 X-2.343 Y-17.247 E3.2661
G1 X-1.993 Y-16.958 E3.2811
G1 X-0.653 Y-16.147 E3.3333
G1 X1.752 Y-14.106 E3.4382
G1 X4.627 Y-14.607 E3.5352
G1 X7.354 Y-14.210 E3.6269
G1 X10.077 Y-14.626 E3.7185
G1 X12.955 Y-14.145 E3.8155
G1 X15.345 Y-16.206 E3.9205
G1 X16.680 Y-17.026 E3.9726
G1 X17.028 Y-17.317 E3.9877
G1 X17.435 Y-16.893 E4.0073
G1 X17.482 Y-16.620 E4.0165
G1 X17.751 Y-16.625 E4.0254
G1 X18.349 Y-15.970 E4.0549
G1 X18.449 Y-15.897 E4.0591
G1 X19.018 Y-15.208 E4.0888
G1 X18.129 Y-13.408 E4.1555
G1 X15.394 Y-8.705 E4.3365
G1 X14.889 Y-6.003 E4.4279
G1 X11.037 Y-3.794 E4.5756
G1 X8.624 Y-2.449 E4.6675
G1 X9.768 Y-1.344 E4.7204
G1 X9.472 Y1.880 E4.8281
G1 X8.486 Y12.747 E5.1910
G1 X7.452 Y12.767 E5.2254
G1 X6.418 Y12.754 E5.2598
G1 X5.352 Y1.896 E5.6227
G1 X5.033 Y-1.326 E5.7304
G1 X6.168 Y-2.440 E5.7833
G1 X3.745 Y-3.767 E5.8751
G1 X-0.122 Y-5.948 E6.0228
G1 X-0.646 Y-8.647 E6.1143
G1 X-3.415 Y-13.329 E6.2952
G1 X-4.318 Y-15.122 E6.3620
G1 X-3.754 Y-15.816 E6.3917
G1 X-3.654 Y-15.890 E6.3958
G1 X-3.062 Y-16.550 E6.4253
G1 X-2.850 Y-16.547 E6.4324
G1 X-2.189 Y-16.728
G0 F4800 E5.4324
G0 X-2.216 Y-16.355 F10800
G0 F4800 E6.4324
;segType:HShell
G1 X-1.836 Y-15.970 E6.4504 F3600
G1 X-2.074 Y-15.667
G1 X-2.337 Y-15.933 E6.4628
G0 X-2.815 Y-13.696 F10800
G1 X-3.043 Y-13.927 E6.4736 F3600
G0 X-2.309 Y-12.641 F10800
G1 X-2.077 Y-12.406 E6.4846 F3600
G0 X-1.509 Y-11.287 F10800
G1 X-1.276 Y-11.052 E6.4956 F3600
G0 X-0.554 Y-9.777 F10800
G1 X-0.708 Y-9.934 E6.5030 F3600
;segType:Infill
G0 X-1.748 Y-11.850 F10800
G1 X16.434 Y-11.850 E7.1077 F5400
G1 X16.820 Y-12.515 E7.1333
G1 X16.820 Y-15.672 E7.2383
G1 X16.051 Y-15.900 E7.2650
G1 X16.639 Y-15.900 E7.2845
;segType:HShell
G0 X16.667 Y-16.308 F10800
G1 X18.150 Y-14.809 E7.3547 F3600
G0 X17.079 Y-15.348 F10800
G1 X17.971 Y-14.446 E7.3968 F3600
G1 X17.791 Y-14.083
G1 X17.717 Y-14.158 E7.4004
G1 X17.538 Y-13.795
G1 X17.612 Y-13.720 E7.4039
G0 X13.053 Y-13.432 F10800
G1 X12.956 Y-13.530 E7.4085 F3600
G1 X12.312 Y-13.638
G1 X12.763 Y-13.182 E7.4298
G1 X12.295 Y-13.111
G1 X11.667 Y-13.745 E7.4595
G1 X11.023 Y-13.853
G1 X11.650 Y-13.218 E7.4892
G1 X11.006 Y-13.326
G1 X10.378 Y-13.961 E7.5189
G1 X9.827 Y-13.974
G1 X10.528 Y-13.265 E7.5520
G1 X10.060 Y-13.194
G1 X9.359 Y-13.902 E7.5852
G1 X8.892 Y-13.831
G1 X9.592 Y-13.123 E7.6183
G1 X9.125 Y-13.051
G1 X8.424 Y-13.760 E7.6515
G1 X7.956 Y-13.688
G1 X8.657 Y-12.980 E7.6846
G1 X8.190 Y-12.908
G1 X7.489 Y-13.617 E7.7178
G1 X6.906 Y-13.662
G1 X7.722 Y-12.837 E7.7564
G1 X7.218 Y-12.802
G1 X6.277 Y-13.754 E7.8009
G1 X5.648 Y-13.845
G1 X6.590 Y-12.894 E7.8454
G1 X5.961 Y-12.985
G1 X5.020 Y-13.937 E7.8899
G1 X4.457 Y-13.962
G1 X5.332 Y-13.077 E7.9314
G1 X4.704 Y-13.168
G1 X3.998 Y-13.882 E7.9647
G1 X3.539 Y-13.802
G1 X4.075 Y-13.260 E7.9901
G1 X3.527 Y-13.269
G1 X3.080 Y-13.722 E8.0113
G1 X2.621 Y-13.642
G1 X3.068 Y-13.189 E8.0324
G1 X2.609 Y-13.109
G1 X2.161 Y-13.562 E8.0536
G1 X1.702 Y-13.482
G1 X2.150 Y-13.029 E8.0748
;segType:Infill
G0 X4.803 Y-13.154 F10800
G1 X4.803 Y-4.339 E8.3680 F5400
;segType:HShell
G0 X4.854 Y-4.311 F10800
G1 X5.849 Y-3.305 E8.4150 F3600
G0 X6.955 Y-2.731 F10800
G1 X6.029 Y-3.667 E8.4588 F3600
;segType:Infill
G0 X5.876 Y-3.751 F10800
G1 X8.887 Y-3.751 E8.5590 F5400
G1 X8.808 Y-3.706 E8.5620
G1 X8.808 Y-13.003 E8.8712
G0 X12.814 Y-13.226 F10800
G1 X12.814 Y-5.983 E9.1121 F5400
G0 X8.436 Y-2.474 F10800
G0 X9.140 Y-1.066
;segType:HShell
G1 X8.115 Y-2.102 E9.1605 F3600
G1 X7.483 Y-2.197
G1 X9.094 Y-0.568 E9.2367
G1 X9.048 Y-0.070
G1 X8.860 Y-0.260 E9.2457
G1 X8.815 Y0.238
G1 X9.003 Y0.428 E9.2546
G1 X8.957 Y0.926
G1 X8.769 Y0.736 E9.2634
G1 X8.724 Y1.235
G1 X8.912 Y1.424 E9.2723
G1 X8.866 Y1.922
G1 X8.679 Y1.733 E9.2812
G1 X8.634 Y2.231
G1 X8.821 Y2.421 E9.2900
G1 X8.776 Y2.919
G1 X8.588 Y2.730 E9.2989
G1 X8.543 Y3.228
G1 X8.730 Y3.417 E9.3077
G1 X8.685 Y3.916
G1 X8.498 Y3.727 E9.3166
G1 X8.453 Y4.225
G1 X8.640 Y4.414 E9.3254
G1 X8.595 Y4.912
G1 X8.407 Y4.723 E9.3343
G1 X8.362 Y5.222
G1 X8.549 Y5.411 E9.3431
G1 X8.504 Y5.909
G1 X8.317 Y5.720 E9.3520
G1 X8.272 Y6.218
G1 X8.459 Y6.408 E9.3608
G1 X8.414 Y6.906
G1 X8.227 Y6.717 E9.3697
G1 X8.181 Y7.215
G1 X8.368 Y7.404 E9.3785
G1 X8.323 Y7.903
G1 X8.136 Y7.713 E9.3874
G1 X8.091 Y8.212
G1 X8.278 Y8.401 E9.3962
G1 X8.233 Y8.899
G1 X8.046 Y8.710 E9.4051
G1 X8.000 Y9.209
G1 X8.187 Y9.398 E9.4139
G1 X8.142 Y9.896
G1 X7.955 Y9.707 E9.4228
G1 X7.910 Y10.205
G1 X8.097 Y10.394 E9.4316
G1 X8.052 Y10.893
G1 X7.865 Y10.704 E9.4405
G1 X7.819 Y11.202
G1 X8.006 Y11.391 E9.4493
G1 X7.961 Y11.890
G1 X7.774 Y11.700 E9.4582
G1 X7.313 Y11.778
G1 X7.686 Y12.156 E9.4758
G1 X7.149 Y12.157
G1 X6.941 Y11.947 E9.4857
G1 X7.109 Y11.572
G1 X6.882 Y11.343 E9.4964
G1 X6.823 Y10.739
G1 X7.050 Y10.968 E9.5071
G1 X6.991 Y10.364
G1 X6.764 Y10.135 E9.5179
G1 X6.704 Y9.531
G1 X6.931 Y9.760 E9.5286
G1 X6.872 Y9.156
G1 X6.645 Y8.927 E9.5393
G1 X6.586 Y8.322
G1 X6.813 Y8.552 E9.5501
G1 X6.753 Y7.948
G1 X6.526 Y7.718 E9.5608
G1 X6.467 Y7.114
G1 X6.694 Y7.344 E9.5715
G1 X6.635 Y6.740
G1 X6.408 Y6.510 E9.5823
G1 X6.349 Y5.906
G1 X6.575 Y6.136 E9.5930
G1 X6.516 Y5.532
G1 X6.289 Y5.302 E9.6037
G1 X6.230 Y4.698
G1 X6.457 Y4.928 E9.6144
G1 X6.397 Y4.323
G1 X6.171 Y4.094 E9.6252
G1 X6.111 Y3.490
G1 X6.338 Y3.719 E9.6359
G1 X6.279 Y3.115
G1 X6.052 Y2.886 E9.6466
G1 X5.993 Y2.282
G1 X6.220 Y2.511 E9.6574
G1 X6.160 Y1.907
G1 X5.933 Y1.678 E9.6681
G1 X5.873 Y1.073
G1 X6.101 Y1.303 E9.6788
G1 X6.042 Y0.699
G1 X5.814 Y0.469 E9.6896
G1 X5.754 Y-0.136
G1 X5.982 Y0.095 E9.7004
G1 X6.048 Y-0.383
G1 X5.694 Y-0.741 E9.7172
G1 X5.772 Y-1.206
G1 X6.321 Y-0.650 E9.7432
G1 X6.595 Y-0.918
G1 X6.045 Y-1.474 E9.7692
G1 X6.318 Y-1.742
G1 X6.868 Y-1.186 E9.7952
G1 X7.141 Y-1.454
G1 X6.592 Y-2.010 E9.8211
G1 X6.865 Y-2.277
G1 X8.089 Y-1.040 E9.8790
;segType:Infill
G0 X8.441 Y4.349 F10800
G1 X6.400 Y4.349 E9.9469 F5400
G0 X6.798 Y8.399 F10800
G1 X8.074 Y8.399 E9.9894 F5400
G0 X6.002 Y0.299 F10800
G1 X8.809 Y0.299 E10.0827 F5400
G1 X8.808 Y0.307 E10.0830
G1 X8.808 Y-0.345 E10.1047
;segType:HShell
G0 X7.980 Y-2.782 F10800
G1 X7.882 Y-2.882 E10.1093 F3600
G1 X8.032 Y-3.274
G1 X8.327 Y-2.976 E10.1233
G1 X8.674 Y-3.169
G1 X8.379 Y-3.467 E10.1372
G1 X8.726 Y-3.660
G1 X9.021 Y-3.362 E10.1512
G1 X9.368 Y-3.556
G1 X9.073 Y-3.854 E10.1651
G1 X9.420 Y-4.047
G1 X9.715 Y-3.749 E10.1791
G1 X10.061 Y-3.943
G1 X9.767 Y-4.241 E10.1930
G1 X10.113 Y-4.434
G1 X10.408 Y-4.136 E10.2070
G1 X10.755 Y-4.330
G1 X10.457 Y-4.631 E10.2211
G1 X10.800 Y-4.828
G1 X11.098 Y-4.526 E10.2352
G1 X11.442 Y-4.723
G1 X11.143 Y-5.025 E10.2493
G1 X11.487 Y-5.222
G1 X11.785 Y-4.920 E10.2634
G1 X12.129 Y-5.117
G1 X11.830 Y-5.419 E10.2776
G1 X12.174 Y-5.616
G1 X12.472 Y-5.314 E10.2917
G1 X12.815 Y-5.511
G1 X12.517 Y-5.813 E10.3058
G1 X12.860 Y-6.010
G1 X13.159 Y-5.708 E10.3199
G1 X13.502 Y-5.905
G1 X13.204 Y-6.207 E10.3340
G1 X13.547 Y-6.404
G1 X13.846 Y-6.102 E10.3482
G1 X14.189 Y-6.299
G1 X13.891 Y-6.601 E10.3623
G1 X14.123 Y-6.909
G1 X14.396 Y-6.633 E10.3752
G1 X14.482 Y-7.091
G1 X14.209 Y-7.367 E10.3881
G1 X14.294 Y-7.825
G1 X14.567 Y-7.549 E10.4010
G1 X14.653 Y-8.006
G1 X14.471 Y-8.191 E10.4096
G1 X14.647 Y-8.556
G1 X14.738 Y-8.464 E10.4140
;segType:Infill
G0 X14.290 Y-7.800 F10800
G1 X0.454 Y-7.800 E10.8741 F5400
;segType:HShell
G0 X0.014 Y-8.660 F10800
G1 X-0.050 Y-8.724 E10.8771 F3600
G1 X0.082 Y-8.047
G1 X0.486 Y-7.639 E10.8962
G1 X0.213 Y-7.370
G1 X0.617 Y-6.961 E10.9153
G1 X0.345 Y-6.693
G1 X1.046 Y-5.984 E10.9485
G0 X2.426 Y-5.677 F10800
G1 X3.480 Y-4.612 E10.9983 F3600
G0 X4.674 Y-3.948 F10800
G1 X3.642 Y-4.991 E11.0471 F3600
G0 X2.263 Y-5.298 F10800
G1 X1.209 Y-6.363 E11.0970 F3600
;segType:Infill
G0 X0.797 Y-6.596 F10800
G1 X0.797 Y-14.124 E11.3474 F5400
G0 X-1.461 Y-15.900 F10800
G1 X-1.891 Y-15.900 E11.3617 F5400
; ------------------------------------
; Layer #6
; ------------------------------------
G21 ; mm
G90 ; abs
G92 E0 ; reset extr
M106 S255
;segType:Loop
G0 F4800 E-1.0000
G0 F3000 Z1.400
G0 X5.577 Y-3.070 F10800
G0 F4800 E0.0000
G1 X3.712 Y-4.092 E0.0707 F3600
G1 X0.148 Y-6.102 E0.2068
G1 X-0.444 Y-9.145 E0.3100
G1 X-2.993 Y-13.454 E0.4765
G1 X-3.686 Y-14.833 E0.5278
G1 X-2.729 Y-16.053 E0.5794
G1 X-2.528 Y-16.244 E0.5886
G1 X-2.200 Y-16.602 E0.6047
G1 X-0.844 Y-15.782 E0.6574
G1 X1.465 Y-13.823 E0.7582
G1 X4.928 Y-14.426 E0.8751
G1 X7.354 Y-14.073 E0.9566
G1 X9.776 Y-14.442 E1.0381
G1 X13.244 Y-13.864 E1.1551
G1 X15.539 Y-15.842 E1.2558
G1 X16.889 Y-16.672 E1.3085
G1 X17.220 Y-16.316 E1.3247
G1 X17.422 Y-16.126 E1.3339
G1 X18.388 Y-14.913 E1.3855
G1 X17.705 Y-13.531 E1.4368
G1 X15.188 Y-9.202 E1.6033
G1 X14.619 Y-6.155 E1.7064
G1 X11.068 Y-4.118 E1.8426
G1 X7.817 Y-2.307 E1.9663
G1 X9.385 Y-0.793 E2.0388
G1 X9.056 Y2.791 E2.1585
G1 X8.177 Y12.475 E2.4819
G1 X7.451 Y12.488 E2.5061
G1 X6.725 Y12.480 E2.5302
G1 X5.775 Y2.803 E2.8536
G1 X5.420 Y-0.778 E2.9733
G1 X6.976 Y-2.304 E3.0458
G1 X5.745 Y-2.978 E3.0925
;segType:Perimeter
G0 X6.557 Y-1.616 F10800
G1 X6.257 Y-2.238 E3.1155 F2159
G1 X3.520 Y-3.737 E3.2193
G1 X-0.209 Y-5.840 E3.3617
G1 X-0.823 Y-8.998 E3.4687
G1 X-3.343 Y-13.259 E3.6333
G1 X-4.159 Y-14.881 E3.6937
G1 X-3.024 Y-16.327 E3.7548
G1 X-2.813 Y-16.529 E3.7646
G1 X-2.261 Y-17.130 E3.7917
G1 X-2.175 Y-17.059 E3.7954
G1 X-0.611 Y-16.113 E3.8562
G1 X1.580 Y-14.253 E3.9518
G1 X4.923 Y-14.835 E4.0646
G1 X7.353 Y-14.482 E4.1463
G1 X9.779 Y-14.852 E4.2279
G1 X13.126 Y-14.293 E4.3408
G1 X15.304 Y-16.171 E4.4364
G1 X16.861 Y-17.128 E4.4972
G1 X16.947 Y-17.200 E4.5009
G1 X17.503 Y-16.603 E4.5281
G1 X17.716 Y-16.402 E4.5378
G1 X18.860 Y-14.965 E4.5989
G1 X18.056 Y-13.337 E4.6593
G1 X15.568 Y-9.058 E4.8239
G1 X14.977 Y-5.896 E4.9309
G1 X11.263 Y-3.765 E5.0733
G1 X8.488 Y-2.219 E5.1790
G1 X9.801 Y-0.950 E5.2397
G1 X9.454 Y2.828 E5.3659
G1 X8.542 Y12.872 E5.7014
G1 X7.452 Y12.893 E5.7376
G1 X6.362 Y12.880 E5.7739
G1 X5.377 Y2.843 E6.1093
G1 X5.003 Y-0.932 E6.2355
G1 X6.266 Y-2.170 E6.2943
G1 X6.388 Y-2.852
;segType:Infill
G0 X5.596 Y-3.751 F10800
G1 X9.164 Y-3.751 E6.4130 F5400
;segType:HShell
G0 X9.435 Y-3.901 F10800
G1 X8.415 Y-2.871 E6.4612 F3600
G1 X7.971 Y-2.966
G1 X8.235 Y-3.233 E6.4737
G1 X7.895 Y-2.889
G1 X7.788 Y-2.780 E6.4788
;segType:Infill
G0 X8.808 Y-3.552 F10800
G1 X8.808 Y-13.275 E6.8022 F5400
G0 X12.814 Y-13.226 F10800
G1 X12.814 Y-5.826 E7.0483 F5400
;segType:HShell
G0 X11.890 Y-5.296 F10800
G1 X10.813 Y-4.207 E7.0993 F3600
G0 X9.614 Y-3.539 F10800
G1 X10.647 Y-4.583 E7.1481 F3600
G0 X12.052 Y-4.915 F10800
G1 X13.134 Y-6.009 E7.1993 F3600
G1 X13.296 Y-5.629
G1 X14.554 Y-6.901 E7.2588
G1 X14.280 Y-7.167
G1 X14.680 Y-7.572 E7.2777
G0 X16.120 Y-11.204 F10800
G1 X15.894 Y-10.976 E7.2884 F3600
G0 X15.352 Y-9.884 F10800
G1 X15.277 Y-9.808 E7.2920 F3600
G1 X14.930 Y-8.913
G1 X14.735 Y-8.716 E7.3012
G1 X14.805 Y-8.243
G1 X14.405 Y-7.838 E7.3201
;segType:Infill
G1 X0.346 Y-7.800 E7.7875 F5400
G0 X0.797 Y-6.439 F10800
G1 X0.797 Y-14.125 E8.0431 F5400
G0 X-1.477 Y-15.900 F10800
G1 X-1.539 Y-15.900 E8.0452 F5400
;segType:HShell
G0 X-1.685 Y-16.056 F10800
G1 X-3.270 Y-14.453 E8.1201 F3600
G1 X-3.421 Y-14.844
G1 X-2.022 Y-16.259 E8.1863
G0 X-2.452 Y-14.736 F10800
G1 X-3.089 Y-14.092 E8.2165 F3600
G1 X-2.908 Y-13.732
G1 X-2.833 Y-13.807 E8.2200
G1 X-2.652 Y-13.446
G1 X-2.716 Y-13.381 E8.2230
;segType:Infill
G0 X-1.717 Y-11.850 F10800
G1 X16.402 Y-11.850 E8.8257 F5400
;segType:HShell
G0 X16.662 Y-12.296 F10800
G1 X16.887 Y-12.524 E8.8364 F3600
;segType:Infill
G0 X16.820 Y-12.569 F10800
G1 X16.820 Y-15.229 E8.9248 F5400
;segType:HShell
G0 X17.394 Y-13.581 F10800
G1 X17.617 Y-13.806 E8.9354 F3600
G1 X17.563 Y-14.296
G1 X18.150 Y-14.889 E8.9632
G1 X17.910 Y-15.191
G1 X17.323 Y-14.597 E8.9909
G1 X17.083 Y-14.899
G1 X17.670 Y-15.492 E9.0187
G1 X17.430 Y-15.793
G1 X16.843 Y-15.200 E9.0464
G1 X16.603 Y-15.502
G1 X17.180 Y-16.084 E9.0737
G1 X16.911 Y-16.357
G1 X16.363 Y-15.803 E9.0996
;segType:Infill
G0 X16.286 Y-15.900 F10800
G1 X16.066 Y-15.900 E9.1069 F5400
;segType:HShell
G0 X15.769 Y-15.746 F10800
G1 X15.695 Y-15.672 E9.1104 F3600
G0 X13.177 Y-13.670 F10800
G1 X12.727 Y-13.215 E9.1317 F3600
G1 X12.265 Y-13.292
G1 X12.715 Y-13.747 E9.1530
G1 X12.253 Y-13.824
G1 X11.803 Y-13.369 E9.1742
G1 X11.341 Y-13.446
G1 X11.791 Y-13.901 E9.1955
G1 X11.329 Y-13.978
G1 X10.879 Y-13.523 E9.2168
G1 X10.324 Y-13.506
G1 X10.867 Y-14.055 E9.2425
G1 X10.405 Y-14.133
G1 X9.690 Y-13.409 E9.2764
G1 X9.056 Y-13.312
G1 X9.943 Y-14.210 E9.3183
G1 X9.372 Y-14.176
G1 X8.422 Y-13.216 E9.3633
G1 X7.788 Y-13.119
G1 X8.738 Y-14.079 E9.4082
G1 X8.104 Y-13.983
G1 X7.207 Y-13.075 E9.4506
G1 X6.736 Y-13.144
G1 X7.471 Y-13.886 E9.4854
G1 X6.970 Y-13.924
G1 X6.266 Y-13.212 E9.5187
G1 X5.796 Y-13.281
G1 X6.500 Y-13.993 E9.5520
G1 X6.029 Y-14.061
G1 X5.325 Y-13.349 E9.5853
G1 X4.855 Y-13.418
G1 X5.559 Y-14.130 E9.6186
G1 X5.089 Y-14.198
G1 X4.384 Y-13.486 E9.6519
G1 X3.865 Y-13.505
G1 X4.498 Y-14.146 E9.6819
G1 X3.848 Y-14.033
G1 X3.215 Y-13.392 E9.7119
G0 X1.898 Y-13.693 F10800
G1 X1.627 Y-13.420 E9.7246 F3600
G1 X1.920 Y-13.171
G1 X2.548 Y-13.806 E9.7543
G1 X2.564 Y-13.279
G1 X3.198 Y-13.919 E9.7843
;segType:Infill
G0 X4.803 Y-13.425 F10800
G1 X4.803 Y-4.185 E10.0916 F5400
;segType:HShell
G0 X-0.118 Y-8.935 F10800
G1 X-0.186 Y-8.866 E10.0949 F3600
G1 X-0.097 Y-8.411
G1 X0.064 Y-8.574 E10.1025
G1 X0.246 Y-8.214
G1 X-0.009 Y-7.956 E10.1146
G1 X0.079 Y-7.502
G1 X0.351 Y-7.776 E10.1274
G1 X0.439 Y-7.322
G1 X0.168 Y-7.047 E10.1403
G1 X0.256 Y-6.592
G1 X0.528 Y-6.867 E10.1531
G1 X0.698 Y-6.495
G1 X0.398 Y-6.192 E10.1673
G1 X0.744 Y-5.997
G1 X1.043 Y-6.300 E10.1814
G1 X1.389 Y-6.105
G1 X1.089 Y-5.802 E10.1956
G1 X1.435 Y-5.608
G1 X1.734 Y-5.910 E10.2097
G1 X2.080 Y-5.715
G1 X1.780 Y-5.413 E10.2239
G1 X2.126 Y-5.218
G1 X2.425 Y-5.521 E10.2380
G1 X2.771 Y-5.326
G1 X2.471 Y-5.023 E10.2522
G1 X2.817 Y-4.828
G1 X3.116 Y-5.131 E10.2664
G1 X3.462 Y-4.936
G1 X3.162 Y-4.633 E10.2805
G1 X3.508 Y-4.439
G1 X3.807 Y-4.741 E10.2947
G1 X4.153 Y-4.547
G1 X3.854 Y-4.244 E10.3088
G1 X4.203 Y-4.053
G1 X4.498 Y-4.352 E10.3228
G1 X4.847 Y-4.161
G1 X4.552 Y-3.862 E10.3368
G1 X4.901 Y-3.671
G1 X5.196 Y-3.969 E10.3508
G1 X5.545 Y-3.778
G1 X5.250 Y-3.479 E10.3647
G1 X5.599 Y-3.288
G1 X5.895 Y-3.587 E10.3787
G1 X6.244 Y-3.396
G1 X5.948 Y-3.097 E10.3927
G1 X6.297 Y-2.906
G1 X6.593 Y-3.204 E10.4066
G1 X6.843 Y-2.914
G1 X6.646 Y-2.715 E10.4160
G1 X6.995 Y-2.523
G1 X7.094 Y-2.623 E10.4206
G1 X7.246 Y-2.233
G1 X5.638 Y-0.607 E10.4967
G1 X5.687 Y-0.113
G1 X7.696 Y-2.144 E10.5917
G1 X7.972 Y-1.878
G1 X7.422 Y-1.322 E10.6177
G1 X7.697 Y-1.056
G1 X8.247 Y-1.612 E10.6437
G1 X8.522 Y-1.346
G1 X7.972 Y-0.791 E10.6697
G1 X8.247 Y-0.525
G1 X8.797 Y-1.080 E10.6957
G1 X9.072 Y-0.815
G1 X8.523 Y-0.259 E10.7217
G1 X8.798 Y0.007
G1 X9.142 Y-0.341 E10.7380
G1 X9.087 Y0.259
G1 X8.860 Y0.488 E10.7487
G1 X8.806 Y1.087
G1 X9.032 Y0.858 E10.7594
G1 X8.977 Y1.458
G1 X8.751 Y1.686 E10.7701
G1 X8.697 Y2.285
G1 X8.922 Y2.058 E10.7808
G1 X8.867 Y2.657
G1 X8.643 Y2.885 E10.7914
G1 X8.588 Y3.484
G1 X8.813 Y3.256 E10.8021
G1 X8.759 Y3.856
G1 X8.534 Y4.083 E10.8127
G1 X8.479 Y4.682
G1 X8.704 Y4.455 E10.8233
G1 X8.650 Y5.054
G1 X8.425 Y5.281 E10.8340
G1 X8.371 Y5.880
G1 X8.595 Y5.653 E10.8446
G1 X8.541 Y6.252
G1 X8.316 Y6.479 E10.8552
G1 X8.262 Y7.078
G1 X8.487 Y6.851 E10.8659
G1 X8.432 Y7.450
G1 X8.207 Y7.677 E10.8765
G1 X8.153 Y8.277
G1 X8.378 Y8.049 E10.8871
G1 X8.323 Y8.648
G1 X8.099 Y8.876 E10.8978
G1 X8.044 Y9.475
G1 X8.269 Y9.247 E10.9084
G1 X8.215 Y9.846
G1 X7.990 Y10.074 E10.9190
G1 X7.935 Y10.673
G1 X8.160 Y10.446 E10.9297
G1 X8.106 Y11.045
G1 X7.881 Y11.272 E10.9403
G1 X7.827 Y11.871
G1 X8.051 Y11.644 E10.9509
G1 X7.796 Y11.902
G1 X7.417 Y12.286 E10.9689
G1 X6.904 Y12.260
G1 X7.256 Y11.904 E10.9856
G1 X7.041 Y11.577
G1 X6.856 Y11.765 E10.9944
G1 X6.807 Y11.270
G1 X6.993 Y11.082 E11.0031
G1 X6.944 Y10.587
G1 X6.758 Y10.775 E11.0119
G1 X6.710 Y10.280
G1 X6.896 Y10.092 E11.0207
G1 X6.847 Y9.597
G1 X6.661 Y9.785 E11.0295
G1 X6.613 Y9.290
G1 X6.798 Y9.102 E11.0383
G1 X6.750 Y8.607
G1 X6.564 Y8.795 E11.0471
G1 X6.515 Y8.300
G1 X6.701 Y8.112 E11.0559
G1 X6.653 Y7.617
G1 X6.467 Y7.805 E11.0646
G1 X6.418 Y7.310
G1 X6.604 Y7.122 E11.0734
G1 X6.555 Y6.627
G1 X6.370 Y6.815 E11.0822
G1 X6.321 Y6.320
G1 X6.507 Y6.132 E11.0910
G1 X6.458 Y5.637
G1 X6.272 Y5.825 E11.0998
G1 X6.224 Y5.330
G1 X6.410 Y5.142 E11.1086
G1 X6.361 Y4.647
G1 X6.175 Y4.835 E11.1174
G1 X6.127 Y4.340
G1 X6.312 Y4.152 E11.1262
G1 X6.264 Y3.657
G1 X6.078 Y3.845 E11.1350
G1 X6.029 Y3.350
G1 X6.215 Y3.162 E11.1437
G1 X6.167 Y2.667
G1 X5.981 Y2.855 E11.1525
G1 X5.932 Y2.360
G1 X6.118 Y2.172 E11.1613
G1 X6.069 Y1.677
G1 X5.883 Y1.866 E11.1702
G1 X5.834 Y1.371
G1 X6.021 Y1.182 E11.1790
G1 X5.972 Y0.687
G1 X5.785 Y0.877 E11.1878
G1 X5.736 Y0.382
G1 X5.924 Y0.192 E11.1967
;segType:Infill
G0 X5.934 Y0.299 F10800
G1 X8.877 Y0.299 E11.2946 F5400
G1 X8.808 Y0.017 E11.3043
G1 X8.808 Y1.058 E11.3389
G0 X8.510 Y4.349 F10800
G1 X6.332 Y4.349 E11.4113 F5400
G0 X6.729 Y8.399 F10800
G1 X8.142 Y8.399 E11.4583 F5400
; ------------------------------------
; Layer #7
; ------------------------------------
G21 ; mm
G90 ; abs
G92 E0 ; reset extr
M106 S255
;segType:HShell
G0 F4800 E-1.0000
G0 F3000 Z1.600
G0 X7.231 Y-1.907 F10800
G0 F4800 E0.0000
G1 X9.174 Y0.058 E0.0919 F3600
G1 X9.129 Y0.556
G1 X6.958 Y-1.639 E0.1946
G1 X6.685 Y-1.371
G1 X7.234 Y-0.816 E0.2206
G1 X6.961 Y-0.548
G1 X6.412 Y-1.103 E0.2466
;segType:Loop
G0 X5.716 Y-2.841 F10800
G1 X3.487 Y-4.062 E0.3311 F3600
G1 X0.060 Y-5.994 E0.4619
G1 X-0.621 Y-9.497 E0.5806
G1 X-2.920 Y-13.384 E0.7308
G1 X-3.526 Y-14.589 E0.7757
G1 X-2.033 Y-16.492 E0.8561
G1 X-0.803 Y-15.748 E0.9039
G1 X1.292 Y-13.969 E0.9953
G1 X5.225 Y-14.654 E1.1281
G1 X7.353 Y-14.345 E1.1996
G1 X9.478 Y-14.669 E1.2711
G1 X13.416 Y-14.012 E1.4039
G1 X15.499 Y-15.807 E1.4954
G1 X16.723 Y-16.560 E1.5432
G1 X18.230 Y-14.669 E1.6236
G1 X17.632 Y-13.460 E1.6685
G1 X15.362 Y-9.555 E1.8187
G1 X14.707 Y-6.048 E1.9374
G1 X11.294 Y-4.090 E2.0682
G1 X7.681 Y-2.076 E2.2058
G1 X9.417 Y-0.399 E2.2861
G1 X9.038 Y3.738 E2.4243
G1 X8.234 Y12.599 E2.7202
G1 X7.451 Y12.614 E2.7462
G1 X6.669 Y12.605 E2.7723
G1 X5.800 Y3.750 E3.0682
G1 X5.391 Y-0.384 E3.2064
G1 X7.115 Y-2.074 E3.2867
G1 X5.883 Y-2.749 E3.3334
;segType:Perimeter
G0 X6.695 Y-1.386 F10800
G1 X6.395 Y-2.009 E3.3564 F2159
G1 X3.294 Y-3.707 E3.4740
G1 X-0.297 Y-5.732 E3.6111
G1 X-1.000 Y-9.350 E3.7336
G1 X-3.270 Y-13.188 E3.8820
G1 X-3.999 Y-14.637 E3.9359
G1 X-2.128 Y-17.021 E4.0367
G1 X-0.570 Y-16.078 E4.0973
G1 X1.407 Y-14.400 E4.1835
G1 X5.219 Y-15.064 E4.3122
G1 X7.352 Y-14.753 E4.3839
G1 X9.481 Y-15.078 E4.4555
G1 X13.298 Y-14.442 E4.5842
G1 X15.263 Y-16.136 E4.6705
G1 X16.814 Y-17.090 E4.7311
G1 X18.702 Y-14.720 E4.8319
G1 X17.984 Y-13.267 E4.8858
G1 X15.742 Y-9.410 E5.0342
G1 X15.065 Y-5.788 E5.1567
G1 X11.489 Y-3.737 E5.2938
G1 X8.351 Y-1.988 E5.4133
G1 X9.833 Y-0.556 E5.4819
G1 X9.436 Y3.775 E5.6266
G1 X8.599 Y12.997 E5.9345
G1 X7.453 Y13.018 E5.9727
G1 X6.306 Y13.006 E6.0108
G1 X5.402 Y3.790 E6.3188
G1 X4.973 Y-0.538 E6.4634
G1 X6.404 Y-1.941 E6.5301
G1 X6.527 Y-2.622
;segType:HShell
G1 X5.517 Y-3.640 E6.5771 F3600
;segType:Infill
G0 X5.315 Y-3.751 F10800
G1 X9.440 Y-3.751 E6.7143 F5400
G1 X8.808 Y-3.398 E6.7384
G1 X8.808 Y-13.546 E7.0759
G0 X4.803 Y-13.697 F10800
G1 X4.803 Y-4.031 E7.3974 F5400
;segType:HShell
G0 X4.343 Y-4.283 F10800
G1 X5.336 Y-3.279 E7.4444 F3600
G0 X3.129 Y-4.966 F10800
G1 X4.162 Y-3.922 E7.4932 F3600
G0 X2.965 Y-4.587 F10800
G1 X1.912 Y-5.653 E7.5431 F3600
G1 X1.749 Y-5.274
G1 X0.695 Y-6.339 E7.5929
G1 X0.075 Y-6.965
G1 X0.480 Y-6.557 E7.6121
G1 X0.532 Y-5.960
G1 X0.207 Y-6.288 E7.6274
;segType:Infill
G0 X0.797 Y-6.282 F10800
G1 X0.797 Y-14.125 E7.8883 F5400
;segType:HShell
G0 X1.404 Y-13.783 F10800
G1 X1.852 Y-13.331 E7.9095 F3600
G1 X2.311 Y-13.411
G1 X1.863 Y-13.863 E7.9306
G1 X2.322 Y-13.943
G1 X2.770 Y-13.491 E7.9518
G1 X3.229 Y-13.571
G1 X2.781 Y-14.023 E7.9729
G1 X3.240 Y-14.103
G1 X3.688 Y-13.651 E7.9941
G1 X4.147 Y-13.731
G1 X3.699 Y-14.183 E8.0153
G1 X4.158 Y-14.263
G1 X4.705 Y-13.711 E8.0411
G1 X5.333 Y-13.620
G1 X4.618 Y-14.343 E8.0750
G1 X5.077 Y-14.423
G1 X5.962 Y-13.528 E8.1168
G1 X6.591 Y-13.436
G1 X5.650 Y-14.388 E8.1614
G1 X6.278 Y-14.297
G1 X7.220 Y-13.345 E8.2059
G1 X7.722 Y-13.381
G1 X6.907 Y-14.205 E8.2445
G1 X7.489 Y-14.161
G1 X8.190 Y-13.452 E8.2776
G1 X8.658 Y-13.523
G1 X7.957 Y-14.232 E8.3108
G1 X8.424 Y-14.303
G1 X9.125 Y-13.595 E8.3439
G1 X9.593 Y-13.666
G1 X8.892 Y-14.375 E8.3771
G1 X9.359 Y-14.446
G1 X10.060 Y-13.738 E8.4102
G1 X10.587 Y-13.749
G1 X9.959 Y-14.384 E8.4399
G1 X10.604 Y-14.276
G1 X11.232 Y-13.641 E8.4696
G1 X11.876 Y-13.534
G1 X11.249 Y-14.169 E8.4993
G1 X11.893 Y-14.061
G1 X12.521 Y-13.426 E8.5290
G1 X13.053 Y-13.433
G1 X12.538 Y-13.954 E8.5534
G1 X13.182 Y-13.846
G1 X13.343 Y-13.683 E8.5610
;segType:Infill
G0 X12.814 Y-13.378 F10800
G1 X12.814 Y-5.668 E8.8174 F5400
G0 X14.506 Y-7.800 F10800
G1 X0.238 Y-7.800 E9.2920 F5400
;segType:HShell
G0 X0.348 Y-7.234 F10800
G1 X-0.056 Y-7.643 E9.3111 F3600
G1 X0.216 Y-7.911
G1 X-0.188 Y-8.320 E9.3302
G0 X-1.121 Y-10.895 F10800
G1 X-1.354 Y-11.131 E9.3413 F3600
G0 X0.014 Y-8.660 F10800
G1 X-0.320 Y-8.997 E9.3570 F3600
G0 X-1.444 Y-15.575 F10800
G1 X-2.031 Y-16.168 E9.3848 F3600
G1 X-2.269 Y-15.865
G1 X-1.682 Y-15.271 E9.4126
G1 X-1.920 Y-14.967
G1 X-2.507 Y-15.562 E9.4404
G1 X-2.745 Y-15.258
G1 X-2.158 Y-14.664 E9.4682
G1 X-2.396 Y-14.360
G1 X-2.983 Y-14.955 E9.4960
G1 X-3.221 Y-14.651
G1 X-2.634 Y-14.057 E9.5238
G1 X-2.662 Y-13.542
G1 X-2.891 Y-13.773 E9.5346
G0 X-2.154 Y-12.484 F10800
G1 X-1.921 Y-12.248 E9.5457 F3600
;segType:Infill
G0 X-1.686 Y-11.850 F10800
G1 X16.371 Y-11.850 E10.1462 F5400
G1 X16.820 Y-12.622 E10.1759
G1 X16.820 Y-14.785 E10.2479
;segType:HShell
G0 X17.921 Y-14.496 F10800
G1 X16.344 Y-16.090 E10.3225 F3600
G1 X16.009 Y-15.885
G1 X17.742 Y-14.133 E10.4044
G1 X17.562 Y-13.771
G1 X17.488 Y-13.846 E10.4079
G1 X17.309 Y-13.483
G1 X17.375 Y-13.416 E10.4110
G0 X15.091 Y-9.196 F10800
G1 X15.003 Y-9.284 E10.4152 F3600
G1 X14.824 Y-8.922
G1 X15.006 Y-8.738 E10.4238
G1 X14.920 Y-8.280
G1 X14.647 Y-8.556 E10.4367
G1 X14.562 Y-8.099
G1 X14.835 Y-7.823 E10.4496
G1 X14.749 Y-7.365
G1 X14.476 Y-7.641 E10.4625
G1 X14.391 Y-7.183
G1 X14.664 Y-6.907 E10.4754
G1 X14.578 Y-6.449
G1 X14.305 Y-6.726 E10.4883
G1 X14.089 Y-6.399
G1 X14.388 Y-6.097 E10.5025
G1 X14.045 Y-5.900
G1 X13.746 Y-6.203 E10.5166
G1 X13.403 Y-6.006
G1 X13.701 Y-5.704 E10.5307
G1 X13.358 Y-5.507
G1 X13.059 Y-5.809 E10.5449
G1 X12.716 Y-5.612
G1 X13.015 Y-5.310 E10.5590
G1 X12.671 Y-5.113
G1 X12.373 Y-5.415 E10.5731
G1 X12.029 Y-5.218
G1 X12.328 Y-4.916 E10.5873
G1 X11.985 Y-4.719
G1 X11.686 Y-5.021 E10.6014
G1 X11.342 Y-4.824
G1 X11.641 Y-4.522 E10.6155
G1 X11.298 Y-4.325
G1 X10.999 Y-4.627 E10.6297
G1 X10.656 Y-4.430
G1 X10.952 Y-4.130 E10.6437
G1 X10.605 Y-3.937
G1 X10.310 Y-4.235 E10.6577
G1 X9.963 Y-4.042
G1 X10.258 Y-3.744 E10.6716
G1 X9.911 Y-3.550
G1 X9.616 Y-3.849 E10.6856
G1 X9.269 Y-3.655
G1 X9.564 Y-3.357 E10.6995
G1 X9.217 Y-3.164
G1 X8.923 Y-3.462 E10.7135
G1 X8.576 Y-3.268
G1 X8.871 Y-2.970 E10.7274
G1 X8.524 Y-2.777
G1 X8.229 Y-3.075 E10.7414
G1 X7.882 Y-2.882
G1 X8.177 Y-2.583 E10.7553
G1 X7.830 Y-2.390
G1 X7.633 Y-2.589 E10.7646
G1 X7.138 Y-2.545
G1 X7.023 Y-2.661 E10.7700
G1 X6.692 Y-2.997
G1 X6.955 Y-2.731 E10.7825
;segType:Infill
G0 X6.097 Y0.299 F10800
G1 X8.725 Y0.299 E10.8699 F5400
G1 X8.808 Y0.380 E10.8737
G1 X8.808 Y1.807 E10.9212
G0 X8.578 Y4.349 F10800
G1 X6.264 Y4.349 E10.9982 F5400
;segType:HShell
G0 X8.894 Y0.862 F10800
G1 X9.083 Y1.054 E11.0071 F3600
G1 X9.038 Y1.552
G1 X8.849 Y1.361 E11.0160
G1 X8.804 Y1.859
G1 X8.992 Y2.049 E11.0249
G1 X8.946 Y2.547
G1 X8.758 Y2.358 E11.0338
G1 X8.713 Y2.856
G1 X8.901 Y3.045 E11.0427
G1 X8.855 Y3.543
G1 X8.668 Y3.354 E11.0515
G1 X8.623 Y3.853
G1 X8.810 Y4.042 E11.0604
G1 X8.764 Y4.540
G1 X8.577 Y4.351 E11.0692
G1 X8.532 Y4.849
G1 X8.719 Y5.038 E11.0781
G1 X8.674 Y5.537
G1 X8.487 Y5.348 E11.0869
G1 X8.442 Y5.846
G1 X8.629 Y6.035 E11.0957
G1 X8.583 Y6.533
G1 X8.396 Y6.344 E11.1046
G1 X8.351 Y6.843
G1 X8.538 Y7.032 E11.1134
G1 X8.493 Y7.530
G1 X8.306 Y7.341 E11.1223
G1 X8.261 Y7.839
G1 X8.448 Y8.029 E11.1311
G1 X8.402 Y8.527
G1 X8.215 Y8.338 E11.1400
G1 X8.170 Y8.836
G1 X8.357 Y9.025 E11.1488
G1 X8.312 Y9.524
G1 X8.125 Y9.335 E11.1577
G1 X8.080 Y9.833
G1 X8.267 Y10.022 E11.1665
G1 X8.221 Y10.520
G1 X8.034 Y10.331 E11.1754
G1 X7.989 Y10.830
G1 X8.176 Y11.019 E11.1842
G1 X8.131 Y11.517
G1 X7.944 Y11.328 E11.1931
G1 X7.899 Y11.826
G1 X8.086 Y12.015 E11.2019
G1 X7.931 Y12.403
G1 X7.559 Y12.027 E11.2195
G1 X7.023 Y12.029
G1 X7.401 Y12.411 E11.2373
;segType:Infill
G0 X8.210 Y8.399 F10800
G1 X6.661 Y8.399 E11.2889 F5400
;segType:HShell
G0 X7.017 Y12.023 F10800
G1 X6.790 Y11.794 E11.2996 F3600
G1 X6.731 Y11.190
G1 X6.958 Y11.419 E11.3103
G1 X6.899 Y10.815
G1 X6.672 Y10.586 E11.3211
G1 X6.612 Y9.982
G1 X6.839 Y10.211 E11.3318
G1 X6.780 Y9.607
G1 X6.553 Y9.378 E11.3425
G1 X6.494 Y8.774
G1 X6.721 Y9.003 E11.3533
G1 X6.661 Y8.399
G1 X6.434 Y8.170 E11.3640
G1 X6.375 Y7.566
G1 X6.602 Y7.795 E11.3747
G1 X6.543 Y7.191
G1 X6.316 Y6.962 E11.3854
G1 X6.257 Y6.357
G1 X6.483 Y6.587 E11.3962
G1 X6.424 Y5.983
G1 X6.197 Y5.753 E11.4069
G1 X6.138 Y5.149
G1 X6.365 Y5.379 E11.4176
G1 X6.306 Y4.775
G1 X6.079 Y4.545 E11.4284
G1 X6.019 Y3.941
G1 X6.246 Y4.171 E11.4391
G1 X6.187 Y3.566
G1 X5.960 Y3.337 E11.4498
G1 X5.900 Y2.732
G1 X6.128 Y2.962 E11.4606
G1 X6.068 Y2.358
G1 X5.840 Y2.128 E11.4714
G1 X5.780 Y1.523
G1 X6.009 Y1.754 E11.4822
G1 X5.950 Y1.150
G1 X5.720 Y0.918 E11.4930
G1 X5.661 Y0.314
G1 X5.890 Y0.546 E11.5039
G1 X6.142 Y0.256
G1 X5.601 Y-0.291 E11.5295
G1 X5.865 Y-0.568
G1 X6.415 Y-0.012 E11.5555
G1 X6.688 Y-0.280
G1 X6.138 Y-0.835 E11.5815
; ------------------------------------
; Layer #8
; ------------------------------------
G21 ; mm
G90 ; abs
G92 E0 ; reset extr
M106 S255
;segType:Loop
G0 F4800 E-1.0000
G0 F3000 Z1.800
G0 X5.853 Y-2.612 F10800
G0 F4800 E0.0000
G1 X3.261 Y-4.032 E0.0983 F3600
G1 X-0.027 Y-5.886 E0.2239
G1 X-0.797 Y-9.848 E0.3581
G1 X-2.847 Y-13.314 E0.4920
G1 X-3.366 Y-14.345 E0.5304
G1 X-1.800 Y-16.341 E0.6148
G1 X-0.762 Y-15.713 E0.6552
G1 X1.120 Y-14.116 E0.7373
G1 X5.521 Y-14.883 E0.8859
G1 X7.352 Y-14.616 E0.9474
G1 X9.180 Y-14.895 E1.0089
G1 X13.587 Y-14.160 E1.1575
G1 X15.458 Y-15.772 E1.2396
G1 X16.491 Y-16.408 E1.2800
G1 X18.072 Y-14.424 E1.3644
G1 X17.560 Y-13.389 E1.4027
G1 X15.536 Y-9.907 E1.5367
G1 X14.795 Y-5.940 E1.6709
G1 X11.520 Y-4.062 E1.7965
G1 X7.544 Y-1.846 E1.9479
G1 X9.450 Y-0.005 E2.0360
G1 X9.020 Y4.686 E2.1927
G1 X8.290 Y12.724 E2.4611
G1 X7.452 Y12.740 E2.4890
G1 X6.613 Y12.731 E2.5169
G1 X5.824 Y4.697 E2.7854
G1 X5.361 Y0.010 E2.9420
G1 X7.253 Y-1.845 E3.0302
G1 X6.021 Y-2.520 E3.0769
;segType:Perimeter
G0 X6.833 Y-1.157 F10800
G1 X6.533 Y-1.780 E3.0999 F2159
G1 X3.068 Y-3.678 E3.2313
G1 X-0.384 Y-5.624 E3.3631
G1 X-1.176 Y-9.701 E3.5012
G1 X-3.197 Y-13.118 E3.6333
G1 X-3.838 Y-14.393 E3.6807
G1 X-1.896 Y-16.870 E3.7854
G1 X-0.529 Y-16.044 E3.8386
G1 X1.235 Y-14.546 E3.9155
G1 X5.516 Y-15.292 E4.0600
G1 X7.351 Y-15.025 E4.1217
G1 X9.183 Y-15.305 E4.1834
G1 X13.469 Y-14.590 E4.3279
G1 X15.223 Y-16.101 E4.4049
G1 X16.583 Y-16.938 E4.4580
G1 X18.544 Y-14.475 E4.5627
G1 X17.912 Y-13.196 E4.6102
G1 X15.916 Y-9.763 E4.7422
G1 X15.153 Y-5.681 E4.8803
G1 X11.715 Y-3.709 E5.0122
G1 X8.214 Y-1.758 E5.1455
G1 X9.866 Y-0.162 E5.2219
G1 X9.418 Y4.723 E5.3850
G1 X8.656 Y13.122 E5.6655
G1 X7.453 Y13.144 E5.7055
G1 X6.251 Y13.131 E5.7455
G1 X5.426 Y4.737 E6.0260
G1 X4.943 Y-0.144 E6.1892
G1 X6.542 Y-1.712 E6.2637
G1 X6.665 Y-2.393
;segType:HShell
G0 X7.605 Y-1.507 F10800
G1 X5.611 Y0.509 E6.3580 F3600
G1 X5.660 Y1.003
G1 X7.880 Y-1.242 E6.4630
G1 X8.155 Y-0.976
G1 X7.606 Y-0.420 E6.4890
G1 X7.881 Y-0.154
G1 X8.431 Y-0.710 E6.5150
G1 X8.706 Y-0.444
G1 X8.156 Y0.112 E6.5410
G1 X8.431 Y0.378
G1 X8.981 Y-0.178 E6.5670
G1 X9.239 Y0.105
G1 X8.706 Y0.644 E6.5922
G1 X8.956 Y0.935
G1 X9.184 Y0.705 E6.6029
G1 X9.129 Y1.305
G1 X8.902 Y1.535 E6.6137
G1 X8.847 Y2.134
G1 X9.074 Y1.904 E6.6244
G1 X9.019 Y2.504
G1 X8.793 Y2.733 E6.6352
G1 X8.738 Y3.332
G1 X8.964 Y3.103 E6.6459
G1 X8.909 Y3.703
G1 X8.684 Y3.931 E6.6565
G1 X8.629 Y4.530
G1 X8.854 Y4.303 E6.6672
G1 X8.800 Y4.902
G1 X8.575 Y5.129 E6.6778
G1 X8.521 Y5.729
G1 X8.745 Y5.501 E6.6884
G1 X8.691 Y6.100
G1 X8.466 Y6.328 E6.6991
G1 X8.412 Y6.927
G1 X8.636 Y6.700 E6.7097
G1 X8.582 Y7.299
G1 X8.357 Y7.526 E6.7203
G1 X8.303 Y8.125
G1 X8.528 Y7.898 E6.7309
G1 X8.473 Y8.497
G1 X8.249 Y8.724 E6.7416
G1 X8.194 Y9.323
G1 X8.419 Y9.096 E6.7522
G1 X8.364 Y9.695
G1 X8.140 Y9.922 E6.7628
G1 X8.085 Y10.521
G1 X8.310 Y10.294 E6.7735
G1 X8.256 Y10.893
G1 X8.031 Y11.120 E6.7841
G1 X7.977 Y11.719
G1 X8.201 Y11.492 E6.7947
G0 X7.711 Y12.533 F10800
G1 X8.147 Y12.091 E6.8153 F3600
G1 X7.542 Y12.159
G1 X7.171 Y12.534 E6.8329
G1 X6.780 Y12.385
G1 X7.008 Y12.155 E6.8437
G1 X6.917 Y11.702
G1 X6.732 Y11.890 E6.8525
G1 X6.683 Y11.395
G1 X6.869 Y11.207 E6.8612
G1 X6.820 Y10.712
G1 X6.634 Y10.900 E6.8700
G1 X6.586 Y10.405
G1 X6.772 Y10.217 E6.8788
G1 X6.723 Y9.722
G1 X6.537 Y9.910 E6.8876
G1 X6.489 Y9.415
G1 X6.675 Y9.227 E6.8964
G1 X6.626 Y8.732
G1 X6.440 Y8.920 E6.9052
G1 X6.391 Y8.425
G1 X6.577 Y8.237 E6.9140
G1 X6.529 Y7.742
G1 X6.343 Y7.930 E6.9228
G1 X6.294 Y7.435
G1 X6.480 Y7.247 E6.9316
G1 X6.432 Y6.752
G1 X6.246 Y6.940 E6.9404
G1 X6.197 Y6.445
G1 X6.383 Y6.257 E6.9492
G1 X6.334 Y5.762
G1 X6.148 Y5.950 E6.9580
G1 X6.100 Y5.455
G1 X6.286 Y5.267 E6.9668
G1 X6.237 Y4.772
G1 X6.051 Y4.960 E6.9756
G1 X6.002 Y4.466
G1 X6.189 Y4.277 E6.9844
G1 X6.140 Y3.782
G1 X5.954 Y3.971 E6.9932
G1 X5.905 Y3.476
G1 X6.091 Y3.287 E7.0020
G1 X6.043 Y2.792
G1 X5.856 Y2.982 E7.0109
G1 X5.807 Y2.487
G1 X5.994 Y2.297 E7.0198
G1 X5.946 Y1.802
G1 X5.758 Y1.992 E7.0286
G1 X5.709 Y1.498
G1 X5.897 Y1.308 E7.0375
;segType:Infill
G0 X8.278 Y8.399 F10800
G1 X6.593 Y8.399 E7.0936 F5400
G0 X6.196 Y4.349 F10800
G1 X8.646 Y4.349 E7.1751 F5400
G0 X8.808 Y2.558 F10800
G1 X8.808 Y0.742 E7.2355 F5400
G1 X8.350 Y0.299 E7.2566
G1 X6.470 Y0.299 E7.3192
;segType:HShell
G0 X8.935 Y-2.852 F10800
G1 X9.955 Y-3.883 E7.3674 F3600
G1 X10.135 Y-3.521
G1 X11.170 Y-4.567 E7.4164
G0 X12.575 Y-4.900 F10800
G1 X13.657 Y-5.994 E7.4675 F3600
G0 X14.421 Y-6.766 F10800
G1 X14.821 Y-7.171 E7.4864 F3600
G1 X14.696 Y-6.500
G1 X13.819 Y-5.613 E7.5279
G0 X11.335 Y-4.190 F10800
G1 X12.413 Y-5.280 E7.5789 F3600
;segType:Infill
G0 X12.814 Y-5.510 F10800
G1 X12.814 Y-13.554 E7.8465 F5400
;segType:HShell
G0 X13.027 Y-13.519 F10800
G1 X13.477 Y-13.974 E7.8678 F3600
G1 X13.015 Y-14.051
G1 X12.565 Y-13.596 E7.8890
G1 X12.103 Y-13.673
G1 X12.553 Y-14.128 E7.9103
G1 X12.091 Y-14.205
G1 X11.641 Y-13.750 E7.9316
G1 X11.179 Y-13.827
G1 X11.629 Y-14.282 E7.9529
G1 X11.167 Y-14.359
G1 X10.717 Y-13.904 E7.9742
G1 X10.255 Y-13.981
G1 X10.705 Y-14.436 E7.9955
G1 X10.244 Y-14.513
G1 X9.690 Y-13.953 E8.0217
G1 X9.056 Y-13.856
G1 X9.782 Y-14.590 E8.0560
G1 X9.320 Y-14.667
G1 X8.422 Y-13.759 E8.0985
G1 X7.788 Y-13.663
G1 X8.738 Y-14.623 E8.1434
G1 X8.104 Y-14.526
G1 X7.206 Y-13.618 E8.1859
G1 X6.736 Y-13.687
G1 X7.470 Y-14.429 E8.2206
G1 X6.969 Y-14.467
G1 X6.265 Y-13.755 E8.2539
G1 X5.795 Y-13.824
G1 X6.499 Y-14.536 E8.2872
G1 X6.029 Y-14.605
G1 X5.324 Y-13.893 E8.3206
G1 X4.854 Y-13.961
G1 X5.558 Y-14.673 E8.3539
G1 X4.921 Y-14.573
G1 X4.287 Y-13.932 E8.3838
G1 X4.271 Y-14.460
G1 X3.637 Y-13.819 E8.4138
G1 X3.621 Y-14.346
G1 X2.987 Y-13.706 E8.4438
G1 X2.337 Y-13.592
G1 X2.970 Y-14.233 E8.4738
G1 X2.320 Y-14.120
G1 X1.686 Y-13.479 E8.5037
G1 X1.335 Y-13.668
G1 X1.670 Y-14.006 E8.5196
;segType:Infill
G0 X0.797 Y-14.125 F10800
G1 X0.797 Y-6.124 E8.7857 F5400
G0 X0.130 Y-7.800 F10800
G1 X14.614 Y-7.800 E9.2674 F5400
;segType:HShell
G0 X14.546 Y-7.437 F10800
G1 X14.946 Y-7.841 E9.2863 F3600
G1 X14.672 Y-8.108
G1 X15.072 Y-8.512 E9.3052
G1 X14.797 Y-8.778
G1 X15.197 Y-9.183 E9.3242
G0 X15.819 Y-10.900 F10800
G1 X15.969 Y-11.052 E9.3313 F3600
G0 X15.646 Y-15.622 F10800
G1 X15.720 Y-15.696 E9.3347 F3600
G1 X16.559 Y-16.001
G1 X15.972 Y-15.407 E9.3625
G1 X16.212 Y-15.106
G1 X16.799 Y-15.699 E9.3903
G1 X17.039 Y-15.398
G1 X16.452 Y-14.804 E9.4180
G1 X16.692 Y-14.503
G1 X17.279 Y-15.096 E9.4458
G1 X17.519 Y-14.795
G1 X16.932 Y-14.201 E9.4736
G1 X17.171 Y-13.900
G1 X17.759 Y-14.494 E9.5014
G1 X17.469 Y-13.656
G1 X17.245 Y-13.430 E9.5120
;segType:Infill
G0 X16.820 Y-14.341 F10800
G1 X16.820 Y-12.675 E9.5674 F5400
;segType:HShell
G0 X16.737 Y-12.373 F10800
G1 X16.511 Y-12.143 E9.5781 F3600
;segType:Infill
G0 X16.340 Y-11.850 F10800
G1 X-1.655 Y-11.850 E10.1766 F5400
;segType:HShell
G0 X-1.697 Y-16.043 F10800
G1 X-2.089 Y-15.648 E10.1951 F3600
G0 X-3.039 Y-14.142 F10800
G1 X-1.361 Y-15.840 E10.2745 F3600
G1 X-1.124 Y-15.535
G1 X-2.858 Y-13.782 E10.3565
G1 X-2.676 Y-13.421
G1 X-2.602 Y-13.496 E10.3600
G0 X-0.455 Y-9.138 F10800
G1 X-0.299 Y-9.295 E10.3674 F3600
G1 X-0.117 Y-8.935
G1 X-0.367 Y-8.683 E10.3792
G1 X-0.278 Y-8.228
G1 X-0.007 Y-8.503 E10.3920
G1 X0.082 Y-8.048
G1 X-0.190 Y-7.773 E10.4049
G1 X-0.102 Y-7.319
G1 X0.170 Y-7.593 E10.4177
G1 X0.258 Y-7.138
G1 X-0.013 Y-6.864 E10.4306
G1 X0.075 Y-6.409
G1 X0.347 Y-6.684 E10.4434
G1 X0.498 Y-6.293
G1 X0.199 Y-5.990 E10.4576
G1 X0.544 Y-5.795
G1 X0.844 Y-6.098 E10.4717
G1 X1.189 Y-5.903
G1 X0.890 Y-5.601 E10.4859
G1 X1.235 Y-5.406
G1 X1.535 Y-5.708 E10.5001
G1 X1.880 Y-5.514
G1 X1.581 Y-5.211 E10.5142
G1 X1.926 Y-5.016
G1 X2.226 Y-5.319 E10.5284
G1 X2.571 Y-5.124
G1 X2.272 Y-4.821 E10.5425
G1 X2.617 Y-4.626
G1 X2.917 Y-4.929 E10.5567
G1 X3.262 Y-4.734
G1 X2.963 Y-4.432 E10.5708
G1 X3.308 Y-4.237
G1 X3.608 Y-4.539 E10.5850
G1 X3.953 Y-4.345
G1 X3.657 Y-4.045 E10.5990
G1 X4.006 Y-3.854
G1 X4.301 Y-4.153 E10.6130
G1 X4.650 Y-3.961
G1 X4.355 Y-3.663 E10.6270
G1 X4.704 Y-3.471
G1 X4.999 Y-3.770 E10.6409
G1 X5.348 Y-3.579
G1 X5.053 Y-3.280 E10.6549
G1 X5.402 Y-3.089
G1 X5.697 Y-3.388 E10.6689
G1 X6.047 Y-3.196
G1 X5.751 Y-2.898 E10.6829
G1 X6.100 Y-2.706
G1 X6.396 Y-3.005 E10.6968
G1 X6.745 Y-2.814
G1 X6.449 Y-2.515 E10.7108
G1 X6.798 Y-2.324
G1 X7.094 Y-2.623 E10.7248
G1 X7.246 Y-2.233
G1 X7.147 Y-2.133 E10.7295
G1 X7.736 Y-2.184
G1 X8.755 Y-3.214 E10.7777
;segType:Infill
G0 X8.808 Y-3.244 F10800
G1 X8.808 Y-13.818 E11.1294 F5400
G0 X4.803 Y-13.969 F10800
G1 X4.803 Y-3.878 E11.4650 F5400
G1 X5.035 Y-3.751 E11.4738
G1 X9.717 Y-3.751 E11.6295
; ------------------------------------
; Layer #9
; ------------------------------------
G21 ; mm
G90 ; abs
G92 E0 ; reset extr
M106 S255
G0 F4800 E-1.0000
G0 F3000 Z2.000
G0 X7.511 Y-1.603 F10800
G0 X7.975 Y0.299
G0 F4800 E0.0000
;segType:Infill
G1 X6.842 Y0.299 E0.0377 F5400
;segType:HShell
G0 X6.781 Y0.359 F10800
G1 X6.232 Y-0.197 E0.0637 F3600
G1 X6.505 Y-0.465
G1 X7.055 Y0.091 E0.0897
G1 X7.328 Y-0.177
G1 X6.778 Y-0.733 E0.1157
;segType:Loop
G0 X5.992 Y-2.382 F10800
G1 X3.036 Y-4.002 E0.2278 F3600
G1 X-0.115 Y-5.778 E0.3481
G1 X-0.974 Y-10.199 E0.4979
G1 X-2.774 Y-13.244 E0.6155
G1 X-3.206 Y-14.101 E0.6475
G1 X-1.567 Y-16.190 E0.7358
G1 X-0.721 Y-15.679 E0.7687
G1 X0.948 Y-14.262 E0.8414
G1 X5.818 Y-15.111 E1.0059
G1 X7.351 Y-14.888 E1.0574
G1 X8.882 Y-15.121 E1.1089
G1 X13.759 Y-14.308 E1.2734
G1 X15.417 Y-15.737 E1.3462
G1 X16.259 Y-16.256 E1.3791
G1 X17.913 Y-14.179 E1.4674
G1 X17.488 Y-13.318 E1.4993
G1 X15.710 Y-10.260 E1.6170
G1 X14.883 Y-5.833 E1.7667
G1 X11.746 Y-4.034 E1.8870
G1 X8.786 Y-2.382 E1.9998
G1 X7.406 Y-1.617 E2.0522
G1 X9.483 Y0.389 E2.1483
G1 X9.002 Y5.633 E2.3234
G1 X8.347 Y12.849 E2.5644
G1 X7.452 Y12.865 E2.5942
G1 X6.558 Y12.856 E2.6240
G1 X5.849 Y5.645 E2.8650
G1 X5.331 Y0.405 E3.0401
G1 X7.391 Y-1.616 E3.1361
G1 X6.159 Y-2.291 E3.1828
;segType:Perimeter
G0 X6.971 Y-0.928 F10800
G1 X6.671 Y-1.550 E3.2058 F2159
G1 X2.843 Y-3.648 E3.3510
G1 X-0.471 Y-5.517 E3.4775
G1 X-1.353 Y-10.052 E3.6312
G1 X-3.124 Y-13.048 E3.7470
G1 X-3.678 Y-14.149 E3.7880
G1 X-1.663 Y-16.720 E3.8966
G1 X-0.488 Y-16.009 E3.9423
G1 X1.063 Y-14.693 E4.0099
G1 X5.812 Y-15.521 E4.1703
G1 X7.350 Y-15.297 E4.2219
G1 X8.885 Y-15.531 E4.2736
G1 X13.640 Y-14.738 E4.4340
G1 X15.181 Y-16.066 E4.5016
G1 X16.351 Y-16.785 E4.5473
G1 X18.386 Y-14.230 E4.6559
G1 X17.840 Y-13.125 E4.6969
G1 X16.090 Y-10.116 E4.8127
G1 X15.242 Y-5.574 E4.9664
G1 X11.941 Y-3.681 E5.0929
G1 X8.979 Y-2.028 E5.2058
G1 X8.077 Y-1.528 E5.2400
G1 X9.899 Y0.232 E5.3243
G1 X9.400 Y5.670 E5.5059
G1 X8.712 Y13.247 E5.7590
G1 X7.454 Y13.270 E5.8009
G1 X6.195 Y13.257 E5.8427
G1 X5.451 Y5.685 E6.0958
G1 X4.913 Y0.250 E6.2774
G1 X6.681 Y-1.482 E6.3597
G1 X6.803 Y-2.164
;segType:HShell
G0 X6.000 Y-2.608 F10800
G1 X5.005 Y-3.614 E6.4068 F3600
G1 X4.825 Y-3.252
G1 X3.830 Y-4.257 E6.4538
;segType:Infill
G0 X4.755 Y-3.751 F10800
G1 X9.994 Y-3.751 E6.6281 F5400
G0 X8.808 Y-3.090 F10800
G1 X8.808 Y-14.090 E6.9939 F5400
;segType:HShell
G0 X-1.121 Y-10.895 F10800
G1 X-1.199 Y-10.974 E6.9976 F3600
G0 X-0.721 Y-9.947 F10800
G1 X-0.554 Y-9.777 E7.0056 F3600
G1 X-0.589 Y-9.269
G1 X-0.185 Y-8.860 E7.0247
G1 X-0.053 Y-8.183
G1 X-0.458 Y-8.592 E7.0438
G1 X-0.326 Y-7.915
G1 X0.079 Y-7.506 E7.0630
G1 X0.210 Y-6.829
G1 X-0.195 Y-7.238 E7.0821
;segType:Infill
G0 X0.021 Y-7.800 F10800
G1 X14.722 Y-7.800 E7.5711 F5400
G0 X12.814 Y-5.352 F10800
G1 X12.814 Y-13.731 E7.8497 F5400
;segType:HShell
G0 X13.634 Y-13.934 F10800
G1 X13.408 Y-14.162 E7.8604 F3600
G1 X12.764 Y-14.269
G1 X13.343 Y-13.683 E7.8878
G1 X12.747 Y-13.742
G1 X12.119 Y-14.377 E7.9175
G1 X11.475 Y-14.484
G1 X12.102 Y-13.849 E7.9472
G1 X11.458 Y-13.957
G1 X10.830 Y-14.592 E7.9769
G1 X10.186 Y-14.699
G1 X10.813 Y-14.064 E8.0066
G1 X10.169 Y-14.172
G1 X9.541 Y-14.807 E8.0362
G1 X8.897 Y-14.914
G1 X9.593 Y-14.210 E8.0692
G1 X9.126 Y-14.139
G1 X8.425 Y-14.847 E8.1023
G1 X7.957 Y-14.776
G1 X8.658 Y-14.067 E8.1355
G1 X8.190 Y-13.996
G1 X7.490 Y-14.704 E8.1686
G1 X6.908 Y-14.748
G1 X7.723 Y-13.924 E8.2072
G1 X7.221 Y-13.888
G1 X6.279 Y-14.840 E8.2517
G1 X5.696 Y-14.885
G1 X6.592 Y-13.979 E8.2941
G1 X5.963 Y-14.071
G1 X5.237 Y-14.805 E8.3284
G1 X4.778 Y-14.725
G1 X5.335 Y-14.162 E8.3547
G1 X4.767 Y-14.193
G1 X4.319 Y-14.645 E8.3759
G1 X3.860 Y-14.565
G1 X4.308 Y-14.113 E8.3970
G1 X3.849 Y-14.033
G1 X3.401 Y-14.485 E8.4182
G1 X2.942 Y-14.405
G1 X3.389 Y-13.953 E8.4393
G1 X2.930 Y-13.873
G1 X2.483 Y-14.325 E8.4605
G1 X2.024 Y-14.245
G1 X2.471 Y-13.793 E8.4817
G1 X2.012 Y-13.713
G1 X1.565 Y-14.165 E8.5028
G1 X1.106 Y-14.085
G1 X1.553 Y-13.633 E8.5240
;segType:Infill
G0 X4.803 Y-14.199 F10800
G1 X4.803 Y-3.724 E8.8723 F5400
;segType:HShell
G0 X3.650 Y-3.895 F10800
G1 X2.614 Y-4.943 E8.9213 F3600
G1 X2.452 Y-4.563
G1 X1.397 Y-5.629 E8.9712
G1 X1.235 Y-5.249
G1 X-0.063 Y-6.561 E9.0326
;segType:Infill
G0 X0.797 Y-5.967 F10800
G1 X0.797 Y-14.126 E9.3039 F5400
;segType:HShell
G0 X-0.785 Y-15.453 F10800
G1 X-0.857 Y-15.526 E9.3074 F3600
G1 X-1.639 Y-15.772
G1 X-1.052 Y-15.179 E9.3351
G1 X-1.290 Y-14.875
G1 X-1.877 Y-15.469 E9.3629
G1 X-2.115 Y-15.165
G1 X-1.528 Y-14.571 E9.3907
G1 X-1.766 Y-14.268
G1 X-2.354 Y-14.862 E9.4185
G1 X-2.592 Y-14.558
G1 X-2.004 Y-13.964 E9.4463
G1 X-2.242 Y-13.661
G1 X-2.830 Y-14.255 E9.4741
G1 X-2.739 Y-13.619
G1 X-2.480 Y-13.357 E9.4864
G0 X-1.999 Y-12.327 F10800
G1 X-1.766 Y-12.091 E9.4974 F3600
;segType:Infill
G0 X-1.623 Y-11.850 F10800
G1 X16.309 Y-11.850 E10.0938 F5400
G0 X16.820 Y-12.729 F10800
G1 X16.820 Y-13.898 E10.1327 F5400
;segType:HShell
G0 X17.490 Y-14.388 F10800
G1 X16.021 Y-15.873 E10.2022 F3600
G1 X15.687 Y-15.667
G1 X17.513 Y-13.821 E10.2885
G1 X17.333 Y-13.458
G1 X16.498 Y-14.303 E10.3280
G0 X15.444 Y-9.927 F10800
G1 X15.363 Y-10.009 E10.3319 F3600
G1 X15.183 Y-9.647
G1 X15.359 Y-9.469 E10.3402
G1 X15.273 Y-9.011
G1 X15.003 Y-9.284 E10.3530
G1 X14.915 Y-8.830
G1 X15.188 Y-8.554 E10.3659
G1 X15.102 Y-8.096
G1 X14.829 Y-8.372 E10.3788
G1 X14.744 Y-7.914
G1 X15.017 Y-7.638 E10.3917
G1 X14.931 Y-7.181
G1 X14.658 Y-7.457 E10.4046
G1 X14.573 Y-6.999
G1 X14.846 Y-6.723 E10.4175
G1 X14.760 Y-6.265
G1 X14.487 Y-6.541 E10.4305
G1 X14.289 Y-6.198
G1 X14.587 Y-5.896 E10.4446
G1 X14.244 Y-5.699
G1 X13.945 Y-6.001 E10.4587
G1 X13.602 Y-5.804
G1 X13.901 Y-5.502 E10.4728
G1 X13.557 Y-5.305
G1 X13.259 Y-5.607 E10.4870
G1 X12.915 Y-5.410
G1 X13.214 Y-5.108 E10.5011
G1 X12.871 Y-4.911
G1 X12.572 Y-5.213 E10.5152
G1 X12.228 Y-5.016
G1 X12.527 Y-4.714 E10.5294
G1 X12.184 Y-4.517
G1 X11.885 Y-4.819 E10.5435
G1 X11.542 Y-4.622
G1 X11.840 Y-4.320 E10.5576
G1 X11.496 Y-4.125
G1 X11.198 Y-4.425 E10.5717
G1 X10.854 Y-4.230
G1 X11.149 Y-3.932 E10.5856
G1 X10.802 Y-3.738
G1 X10.507 Y-4.036 E10.5996
G1 X10.160 Y-3.843
G1 X10.455 Y-3.544 E10.6135
G1 X10.108 Y-3.351
G1 X9.813 Y-3.650 E10.6275
G1 X9.466 Y-3.456
G1 X9.762 Y-3.157 E10.6415
G1 X9.415 Y-2.964
G1 X9.119 Y-3.263 E10.6555
G1 X8.772 Y-3.070
G1 X9.068 Y-2.770 E10.6695
G1 X8.721 Y-2.577
G1 X8.425 Y-2.876 E10.6835
G1 X8.078 Y-2.683
G1 X8.374 Y-2.384 E10.6975
G1 X8.026 Y-2.192
G1 X7.731 Y-2.490 E10.7114
G1 X7.483 Y-2.197
G1 X7.678 Y-1.999 E10.7207
G1 X7.174 Y-1.965
G1 X6.180 Y-2.970 E10.7677
;segType:Infill
G0 X8.808 Y1.105 F10800
G1 X8.808 Y3.307 E10.8410 F5400
G0 X6.525 Y8.399 F10800
G1 X8.346 Y8.399 E10.9015 F5400
G0 X8.714 Y4.349 F10800
G1 X6.128 Y4.349 E10.9875 F5400
;segType:HShell
G0 X5.958 Y0.071 F10800
G1 X6.508 Y0.627 E11.0135 F3600
G1 X6.235 Y0.894
G1 X5.685 Y0.339 E11.0395
G1 X5.567 Y0.763
G1 X5.962 Y1.162 E11.0582
G1 X5.857 Y1.600
G1 X5.627 Y1.368 E11.0691
G1 X5.687 Y1.973
G1 X5.917 Y2.205 E11.0799
G1 X5.976 Y2.809
G1 X5.747 Y2.577 E11.0908
G1 X5.807 Y3.182
G1 X6.036 Y3.414 E11.1016
G1 X6.095 Y4.018
G1 X5.866 Y3.787 E11.1124
G1 X5.926 Y4.391
G1 X6.154 Y4.622 E11.1232
G1 X6.214 Y5.226
G1 X5.986 Y4.996 E11.1340
G1 X6.046 Y5.600
G1 X6.273 Y5.830 E11.1447
G1 X6.332 Y6.434
G1 X6.105 Y6.205 E11.1554
G1 X6.165 Y6.809
G1 X6.392 Y7.038 E11.1661
G1 X6.451 Y7.642
G1 X6.224 Y7.413 E11.1769
G1 X6.283 Y8.017
G1 X6.510 Y8.246 E11.1876
G1 X6.569 Y8.850
G1 X6.343 Y8.621 E11.1983
G1 X6.402 Y9.225
G1 X6.629 Y9.454 E11.2090
G1 X6.688 Y10.058
G1 X6.461 Y9.829 E11.2198
G1 X6.521 Y10.433
G1 X6.747 Y10.662 E11.2305
G1 X6.807 Y11.266
G1 X6.580 Y11.037 E11.2412
G1 X6.639 Y11.641
G1 X6.866 Y11.870 E11.2519
G1 X6.699 Y12.245
G1 X7.108 Y12.659 E11.2713
G1 X7.646 Y12.660
G1 X7.275 Y12.284 E11.2889
G1 X7.809 Y12.279
G1 X8.165 Y12.640 E11.3058
G1 X8.210 Y12.141
G1 X8.023 Y11.952 E11.3146
G1 X8.069 Y11.454
G1 X8.256 Y11.643 E11.3234
G1 X8.301 Y11.145
G1 X8.114 Y10.956 E11.3323
G1 X8.159 Y10.457
G1 X8.346 Y10.646 E11.3411
G1 X8.391 Y10.148
G1 X8.204 Y9.959 E11.3500
G1 X8.250 Y9.461
G1 X8.437 Y9.650 E11.3588
G1 X8.482 Y9.151
G1 X8.295 Y8.962 E11.3676
G1 X8.340 Y8.464
G1 X8.527 Y8.653 E11.3765
G1 X8.572 Y8.155
G1 X8.385 Y7.966 E11.3853
G1 X8.431 Y7.467
G1 X8.618 Y7.656 E11.3942
G1 X8.663 Y7.158
G1 X8.476 Y6.969 E11.4030
G1 X8.521 Y6.471
G1 X8.708 Y6.659 E11.4118
G1 X8.753 Y6.161
G1 X8.566 Y5.972 E11.4207
G1 X8.612 Y5.474
G1 X8.799 Y5.663 E11.4295
G1 X8.844 Y5.165
G1 X8.657 Y4.975 E11.4384
G1 X8.702 Y4.477
G1 X8.890 Y4.667 E11.4473
G1 X8.935 Y4.169
G1 X8.747 Y3.979 E11.4562
G1 X8.793 Y3.480
G1 X8.981 Y3.671 E11.4651
G1 X9.027 Y3.173
G1 X8.838 Y2.982 E11.4740
G1 X8.883 Y2.484
G1 X9.072 Y2.675 E11.4829
G1 X9.118 Y2.177
G1 X8.929 Y1.986 E11.4919
G1 X8.975 Y1.488
G1 X9.164 Y1.679 E11.5008
G1 X9.209 Y1.181
G1 X7.051 Y-1.001 E11.6029
G1 X7.324 Y-1.269
G1 X9.255 Y0.683 E11.6942
; ------------------------------------
; Layer #10
; ------------------------------------
G21 ; mm
G90 ; abs
G92 E0 ; reset extr
M106 S255
;segType:HShell
G0 F4800 E-1.0000
G0 F3000 Z2.200
G0 X5.820 Y1.929 F10800
G0 F4800 E0.0000
G1 X5.633 Y2.119 E0.0089 F3600
G1 X5.682 Y2.614
G1 X5.869 Y2.424 E0.0178
G1 X5.918 Y2.918
G1 X5.730 Y3.108 E0.0267
G1 X5.779 Y3.603
G1 X5.967 Y3.413 E0.0355
G1 X6.016 Y3.908
G1 X5.828 Y4.098 E0.0444
G1 X5.877 Y4.592
G1 X6.065 Y4.403 E0.0533
G1 X6.113 Y4.898
G1 X5.926 Y5.087 E0.0621
G1 X5.975 Y5.581
G1 X6.162 Y5.393 E0.0710
G1 X6.210 Y5.888
G1 X6.024 Y6.076 E0.0798
G1 X6.073 Y6.571
G1 X6.259 Y6.383 E0.0886
G1 X6.308 Y6.878
G1 X6.122 Y7.066 E0.0974
G1 X6.170 Y7.561
G1 X6.356 Y7.373 E0.1062
G1 X6.405 Y7.868
G1 X6.219 Y8.056 E0.1150
G1 X6.267 Y8.550
G1 X6.453 Y8.363 E0.1238
G1 X6.502 Y8.857
G1 X6.316 Y9.045 E0.1326
G1 X6.365 Y9.540
G1 X6.551 Y9.352 E0.1413
G1 X6.599 Y9.847
G1 X6.413 Y10.035 E0.1501
G1 X6.462 Y10.530
G1 X6.648 Y10.342 E0.1589
G1 X6.696 Y10.837
G1 X6.511 Y11.025 E0.1677
G1 X6.559 Y11.520
G1 X6.745 Y11.332 E0.1765
G1 X6.794 Y11.827
G1 X6.608 Y12.015 E0.1853
G1 X6.656 Y12.510
G1 X6.842 Y12.322 E0.1941
G1 X7.294 Y12.410
G1 X6.924 Y12.783 E0.2116
G1 X7.457 Y12.788
G1 X7.837 Y12.405 E0.2295
G1 X8.005 Y12.779
G1 X8.242 Y12.539 E0.2407
G1 X8.297 Y11.940
G1 X8.072 Y12.167 E0.2514
G1 X8.126 Y11.568
G1 X8.351 Y11.341 E0.2620
G1 X8.406 Y10.742
G1 X8.181 Y10.969 E0.2726
G1 X8.235 Y10.370
G1 X8.460 Y10.143 E0.2833
G1 X8.514 Y9.544
G1 X8.290 Y9.771 E0.2939
G1 X8.344 Y9.172
G1 X8.569 Y8.944 E0.3045
G1 X8.623 Y8.345
G1 X8.398 Y8.573 E0.3152
G1 X8.453 Y7.974
G1 X8.678 Y7.746 E0.3258
G1 X8.732 Y7.147
G1 X8.507 Y7.374 E0.3364
G1 X8.561 Y6.775
G1 X8.786 Y6.548 E0.3471
G1 X8.841 Y5.948
G1 X8.616 Y6.176 E0.3578
G1 X8.670 Y5.577
G1 X8.896 Y5.349 E0.3684
G1 X8.951 Y4.749
G1 X8.725 Y4.978 E0.3792
G1 X8.779 Y4.379
G1 X9.006 Y4.149 E0.3899
G1 X9.061 Y3.550
G1 X8.833 Y3.780 E0.4007
G1 X8.888 Y3.180
G1 X9.116 Y2.950 E0.4115
G1 X9.171 Y2.350
G1 X8.943 Y2.581 E0.4222
G1 X8.998 Y1.981
G1 X9.226 Y1.751 E0.4330
G1 X9.281 Y1.151
G1 X8.890 Y1.546 E0.4515
G1 X8.615 Y1.280
G1 X9.165 Y0.724 E0.4775
G1 X8.890 Y0.458
G1 X8.340 Y1.014 E0.5035
G1 X8.065 Y0.748
G1 X8.614 Y0.193 E0.5295
G1 X8.339 Y-0.073
G1 X7.790 Y0.482 E0.5555
G1 X7.514 Y0.217
G1 X8.064 Y-0.339 E0.5815
G1 X7.789 Y-0.605
G1 X5.584 Y1.624 E0.6858
G1 X5.535 Y1.130
G1 X7.514 Y-0.871 E0.7794
;segType:Loop
G0 X7.001 Y-0.869 F10800
G1 X7.401 Y-1.260 E0.7980 F3600
G1 X9.515 Y0.783 E0.8958
G1 X8.984 Y6.581 E1.0894
G1 X8.404 Y12.974 E1.3029
G1 X7.453 Y12.991 E1.3346
G1 X6.502 Y12.981 E1.3662
G1 X5.874 Y6.592 E1.5798
G1 X5.301 Y0.799 E1.7734
G1 X6.865 Y-0.735 E1.8462
;segType:Perimeter
G0 X7.111 Y-0.699 F10800
G1 X6.810 Y-1.321 E1.8692 F2159
G1 X5.888 Y-1.823 E1.9041
G1 X2.617 Y-3.618 E2.0282
G1 X-0.559 Y-5.409 E2.1495
G1 X-1.529 Y-10.404 E2.3187
G1 X-3.051 Y-12.978 E2.4182
G1 X-3.518 Y-13.905 E2.4527
G1 X-1.430 Y-16.569 E2.5653
G1 X-0.447 Y-15.975 E2.6035
G1 X0.890 Y-14.840 E2.6618
G1 X6.109 Y-15.749 E2.8380
G1 X7.349 Y-15.568 E2.8797
G1 X8.587 Y-15.757 E2.9214
G1 X13.812 Y-14.886 E3.0975
G1 X15.141 Y-16.031 E3.1559
G1 X16.119 Y-16.633 E3.1941
G1 X18.227 Y-13.985 E3.3067
G1 X17.767 Y-13.054 E3.3412
G1 X16.264 Y-10.469 E3.4407
G1 X15.330 Y-5.467 E3.6099
G1 X12.167 Y-3.653 E3.7312
G1 X8.909 Y-1.834 E3.8553
G1 X7.941 Y-1.298 E3.8921
G1 X9.932 Y0.626 E3.9842
G1 X9.383 Y6.618 E4.1843
G1 X8.769 Y13.372 E4.4099
G1 X7.454 Y13.395 E4.4537
G1 X6.139 Y13.382 E4.4974
G1 X5.476 Y6.632 E4.7230
G1 X4.884 Y0.644 E4.9231
G1 X6.820 Y-1.254 E5.0133
G1 X6.941 Y-1.936
;segType:Loop
G0 X6.129 Y-2.152 F10800
G1 X6.079 Y-2.179 E5.0152 F3600
G1 X2.810 Y-3.972 E5.1392
G1 X-0.202 Y-5.670 E5.2542
G1 X-1.150 Y-10.551 E5.4196
G1 X-2.701 Y-13.173 E5.5209
G1 X-3.045 Y-13.857 E5.5463
