; GCode generated by CraftWare

G28 X0 Y0
G28 Z0

M190 S60 ;set bed temp (wait)
M109 S215 ;set head temp (wait)
; ------------------------------------
; Layer #0
; ------------------------------------
G21 ; mm
G90 ; abs
G92 E0 ; reset extr
M106 S0
;segType:Skirt
G0 F4800 E-1.0000
G0 F300 Z0.200
G0 X-5.386 Y14.093 F10800
G0 F4800 E0.0000
G1 X-0.443 Y19.090 E0.2338 F1200
G1 X-0.253 Y19.282 E0.2427
G1 X4.689 Y19.282 E0.4071
G1 X5.132 Y19.218 E0.4220
G1 X10.201 Y14.093 E0.6617
G1 X10.201 Y13.324 E0.6873
G1 X10.328 Y13.196 E0.6933
G1 X10.328 Y11.915 E0.7359
G1 X10.454 Y11.787 E0.7419
G1 X10.454 Y10.506 E0.7845
G1 X10.581 Y10.378 E0.7905
G1 X10.581 Y9.096 E0.8331
G1 X10.708 Y8.968 E0.8391
G1 X10.708 Y7.687 E0.8817
G1 X10.835 Y7.559 E0.8877
G1 X10.835 Y6.278 E0.9303
G1 X10.961 Y6.150 E0.9363
G1 X10.961 Y4.869 E0.9790
G1 X11.088 Y4.740 E0.9849
G1 X11.088 Y3.459 E1.0276
G1 X11.215 Y3.331 E1.0335
G1 X11.215 Y2.050 E1.0762
G1 X11.342 Y1.922 E1.0822
G1 X11.342 Y0.641 E1.1248
G1 X11.532 Y0.320 E1.1372
G1 X16.347 Y-4.548 E1.3649
G1 X16.537 Y-4.869 E1.3773
G1 X16.537 Y-5.125 E1.3858
G1 X19.198 Y-9.609 E1.5593
G1 X19.325 Y-9.993 E1.5727
G1 X19.579 Y-10.249 E1.5847
G1 X19.705 Y-10.634 E1.5982
G1 X19.959 Y-10.890 E1.6101
G1 X20.085 Y-11.274 E1.6236
G1 X21.796 Y-14.157 E1.7351
G1 X21.860 Y-14.606 E1.7502
G1 X21.860 Y-17.680 E1.8524
G1 X21.670 Y-18.000 E1.8648
G1 X16.601 Y-23.125 E2.1046
G1 X16.347 Y-23.125 E2.1130
G1 X15.334 Y-24.150 E2.1609
G1 X15.080 Y-24.150 E2.1694
G1 X14.193 Y-25.047 E2.2113
G1 X10.645 Y-25.047 E2.3293
G1 X10.391 Y-24.791 E2.3413
G1 X10.074 Y-24.983 E2.3537
G1 X9.314 Y-25.752 E2.3896
G1 X8.997 Y-25.944 E2.4019
G1 X-1.647 Y-25.944 E2.7560
G1 X-3.422 Y-24.150 E2.8399
G1 X-3.485 Y-23.702 E2.8549
G1 X-3.485 Y-23.189 E2.8720
G1 X-3.548 Y-22.997 E2.8787
G1 X-3.865 Y-23.189 E2.8911
G1 X-4.119 Y-23.446 E2.9031
G1 X-4.435 Y-23.638 E2.9154
G1 X-4.689 Y-23.894 E2.9274
G1 X-5.006 Y-24.086 E2.9397
G1 X-5.259 Y-24.343 E2.9517
G1 X-5.576 Y-24.534 E2.9640
G1 X-5.956 Y-24.919 E2.9820
G1 X-9.504 Y-24.919 E3.1000
G1 X-9.821 Y-24.727 E3.1123
G1 X-10.328 Y-24.214 E3.1363
G1 X-10.961 Y-23.830 E3.1609
G1 X-11.468 Y-23.318 E3.1849
G1 X-11.785 Y-23.125 E3.1972
G1 X-12.039 Y-23.125 E3.2057
G1 X-17.108 Y-18.000 E3.4454
G1 X-17.298 Y-17.680 E3.4578
G1 X-17.298 Y-14.606 E3.5600
G1 X-17.234 Y-14.157 E3.5751
G1 X-15.904 Y-11.915 E3.6618
G1 X-15.777 Y-11.531 E3.6753
G1 X-11.975 Y-5.125 E3.9230
G1 X-11.848 Y-4.997 E3.9290
G1 X-11.785 Y-4.548 E3.9441
G1 X-6.970 Y0.320 E4.1718
G1 X-6.653 Y0.769 E4.1901
G1 X-6.653 Y1.794 E4.2242
G1 X-6.526 Y2.178 E4.2377
G1 X-6.526 Y3.203 E4.2718
G1 X-6.399 Y3.331 E4.2778
G1 X-6.399 Y4.612 E4.3204
G1 X-6.273 Y4.740 E4.3264
G1 X-6.273 Y5.765 E4.3605
G1 X-6.146 Y6.150 E4.3739
G1 X-6.146 Y7.175 E4.4080
G1 X-6.019 Y7.303 E4.4140
G1 X-6.019 Y8.328 E4.4481
G1 X-5.892 Y8.712 E4.4615
G1 X-5.892 Y9.737 E4.4956
G1 X-5.766 Y9.865 E4.5016
G1 X-5.766 Y10.890 E4.5357
G1 X-5.639 Y11.274 E4.5492
G1 X-5.639 Y12.299 E4.5833
G1 X-5.512 Y12.428 E4.5893
G1 X-5.512 Y13.452 E4.6234
G1 X-5.386 Y13.837 E4.6368
G1 X-5.386 Y14.093 E4.6453
G1 X-5.766 Y13.837 E4.6606
G1 X-5.766 Y14.093 E4.6691
G1 X-0.443 Y19.474 E4.9208
G1 X-0.253 Y19.666 E4.9298
G1 X4.689 Y19.666 E5.0942
G1 X5.132 Y19.602 E5.1091
G1 X10.581 Y14.093 E5.3668
G1 X10.581 Y13.324 E5.3924
G1 X10.708 Y13.196 E5.3984
G1 X10.708 Y11.915 E5.4410
G1 X10.835 Y11.787 E5.4470
G1 X10.835 Y10.506 E5.4896
G1 X10.961 Y10.378 E5.4956
G1 X10.961 Y9.096 E5.5382
G1 X11.088 Y8.968 E5.5442
G1 X11.088 Y7.687 E5.5868
G1 X11.215 Y7.559 E5.5928
G1 X11.215 Y6.278 E5.6354
G1 X11.342 Y6.150 E5.6414
G1 X11.342 Y4.869 E5.6840
G1 X11.468 Y4.740 E5.6900
G1 X11.468 Y3.459 E5.7326
G1 X11.595 Y3.331 E5.7386
G1 X11.595 Y2.050 E5.7812
G1 X11.722 Y1.922 E5.7872
G1 X11.722 Y0.641 E5.8298
G1 X11.912 Y0.320 E5.8422
G1 X16.728 Y-4.548 E6.0700
G1 X16.917 Y-4.869 E6.0824
G1 X16.917 Y-5.125 E6.0909
G1 X19.579 Y-9.609 E6.2643
G1 X19.705 Y-9.993 E6.2778
G1 X19.959 Y-10.249 E6.2898
G1 X20.085 Y-10.634 E6.3032
G1 X20.339 Y-10.890 E6.3152
G1 X20.466 Y-11.274 E6.3287
G1 X22.177 Y-14.157 E6.4402
G1 X22.240 Y-14.606 E6.4552
G1 X22.240 Y-17.680 E6.5575
G1 X22.050 Y-18.000 E6.5699
G1 X16.601 Y-23.510 E6.8276
G1 X16.347 Y-23.510 E6.8360
G1 X15.334 Y-24.534 E6.8840
G1 X15.080 Y-24.534 E6.8924
G1 X14.193 Y-25.431 E6.9344
G1 X10.645 Y-25.431 E7.0524
G1 X10.391 Y-25.175 E7.0644
G1 X10.074 Y-25.367 E7.0767
G1 X9.314 Y-26.136 E7.1127
G1 X8.997 Y-26.328 E7.1250
G1 X-1.647 Y-26.328 E7.4790
G1 X-3.675 Y-24.278 E7.5749
G1 X-3.865 Y-23.958 E7.5873
G1 X-3.865 Y-23.702 E7.5958
G1 X-4.435 Y-24.022 E7.6176
G1 X-4.689 Y-24.278 E7.6296
G1 X-5.006 Y-24.471 E7.6419
G1 X-5.259 Y-24.727 E7.6539
G1 X-5.576 Y-24.919 E7.6662
G1 X-5.956 Y-25.303 E7.6842
G1 X-9.504 Y-25.303 E7.8022
G1 X-9.821 Y-25.111 E7.8145
G1 X-10.328 Y-24.599 E7.8385
G1 X-10.961 Y-24.214 E7.8631
G1 X-11.468 Y-23.702 E7.8871
G1 X-11.785 Y-23.510 E7.8994
G1 X-12.039 Y-23.510 E7.9079
G1 X-17.615 Y-17.872 E8.1716
G1 X-17.678 Y-17.424 E8.1866
G1 X-17.678 Y-14.349 E8.2889
G1 X-17.551 Y-13.965 E8.3024
G1 X-12.229 Y-4.997 E8.6492
G1 X-12.165 Y-4.548 E8.6643
G1 X-7.350 Y0.320 E8.8920
G1 X-7.033 Y0.769 E8.9103
G1 X-7.033 Y1.794 E8.9444
G1 X-6.906 Y2.178 E8.9579
G1 X-6.906 Y3.203 E8.9920
G1 X-6.779 Y3.331 E8.9980
G1 X-6.779 Y4.612 E9.0406
G1 X-6.653 Y4.740 E9.0466
G1 X-6.653 Y5.765 E9.0807
G1 X-6.526 Y6.150 E9.0941
G1 X-6.526 Y7.175 E9.1282
G1 X-6.399 Y7.303 E9.1342
G1 X-6.399 Y8.328 E9.1683
G1 X-6.273 Y8.712 E9.1817
G1 X-6.273 Y9.737 E9.2158
G1 X-6.146 Y9.865 E9.2218
G1 X-6.146 Y10.890 E9.2559
G1 X-6.019 Y11.274 E9.2694
G1 X-6.019 Y12.299 E9.3035
G1 X-5.892 Y12.428 E9.3095
G1 X-5.892 Y13.452 E9.3436
G1 X-5.766 Y13.837 E9.3570
G1 X-6.146 Y13.837 E9.3697
G1 X-6.146 Y14.093 E9.3782
G1 X-0.443 Y19.858 E9.6479
G1 X-0.253 Y20.050 E9.6569
G1 X4.689 Y20.050 E9.8213
G1 X5.132 Y19.986 E9.8361
G1 X10.961 Y14.093 E10.1119
G1 X10.961 Y13.324 E10.1374
G1 X11.088 Y13.196 E10.1434
G1 X11.088 Y11.915 E10.1860
G1 X11.215 Y11.787 E10.1920
G1 X11.215 Y10.506 E10.2346
G1 X11.342 Y10.378 E10.2406
G1 X11.342 Y9.096 E10.2832
G1 X11.468 Y8.968 E10.2892
G1 X11.468 Y7.687 E10.3318
G1 X11.595 Y7.559 E10.3378
G1 X11.595 Y6.278 E10.3805
G1 X11.722 Y6.150 E10.3864
G1 X11.722 Y4.869 E10.4291
G1 X11.848 Y4.740 E10.4351
G1 X11.848 Y3.459 E10.4777
G1 X11.975 Y3.331 E10.4837
G1 X11.975 Y2.050 E10.5263
G1 X12.102 Y1.922 E10.5323
G1 X12.102 Y0.641 E10.5749
G1 X12.292 Y0.320 E10.5873
G1 X17.108 Y-4.548 E10.8150
G1 X17.298 Y-4.869 E10.8274
G1 X17.298 Y-5.125 E10.8359
G1 X19.959 Y-9.609 E11.0094
G1 X20.085 Y-9.993 E11.0228
G1 X20.339 Y-10.249 E11.0348
G1 X20.466 Y-10.634 E11.0483
G1 X20.719 Y-10.890 E11.0603
G1 X20.846 Y-11.274 E11.0737
G1 X22.557 Y-14.157 E11.1852
G1 X22.620 Y-14.606 E11.2003
G1 X22.620 Y-17.680 E11.3025
G1 X22.430 Y-18.000 E11.3149
G1 X16.601 Y-23.894 E11.5906
G1 X16.347 Y-23.894 E11.5991
G1 X15.334 Y-24.919 E11.6470
G1 X15.080 Y-24.919 E11.6554
G1 X14.193 Y-25.816 E11.6974
G1 X10.645 Y-25.816 E11.8154
G1 X10.391 Y-25.559 E11.8274
G1 X10.074 Y-25.752 E11.8397
G1 X9.314 Y-26.521 E11.8757
G1 X8.997 Y-26.712 E11.8880
G1 X-1.647 Y-26.712 E12.2420
G1 X-4.055 Y-24.278 E12.3559
G1 X-4.309 Y-24.278 E12.3644
G1 X-4.816 Y-24.791 E12.3883
G1 X-5.133 Y-24.983 E12.4007
G1 X-5.386 Y-25.239 E12.4126
G1 X-5.703 Y-25.431 E12.4250
G1 X-5.956 Y-25.688 E12.4369
G1 X-9.504 Y-25.688 E12.5550
G1 X-9.821 Y-25.496 E12.5673
G1 X-10.328 Y-24.983 E12.5913
G1 X-10.961 Y-24.599 E12.6159
G1 X-11.468 Y-24.086 E12.6399
G1 X-11.785 Y-23.894 E12.6522
G1 X-12.039 Y-23.894 E12.6606
G1 X-17.868 Y-18.000 E12.9363
G1 X-18.058 Y-17.680 E12.9487
G1 X-18.058 Y-14.606 E13.0510
G1 X-17.995 Y-14.157 E13.0660
G1 X-16.664 Y-11.915 E13.1528
G1 X-16.537 Y-11.531 E13.1662
G1 X-12.735 Y-5.125 E13.4140
G1 X-12.609 Y-4.997 E13.4200
G1 X-12.546 Y-4.548 E13.4350
G1 X-7.730 Y0.320 E13.6628
G1 X-7.413 Y0.769 E13.6811
G1 X-7.413 Y1.794 E13.7152
G1 X-7.286 Y2.178 E13.7286
G1 X-7.286 Y3.203 E13.7627
G1 X-7.160 Y3.331 E13.7687
G1 X-7.160 Y4.612 E13.8113
G1 X-7.033 Y4.740 E13.8173
G1 X-7.033 Y5.765 E13.8514
G1 X-6.906 Y6.150 E13.8649
G1 X-6.906 Y7.175 E13.8989
G1 X-6.779 Y7.303 E13.9049
G1 X-6.779 Y8.328 E13.9390
G1 X-6.653 Y8.712 E13.9525
G1 X-6.653 Y9.737 E13.9866
G1 X-6.526 Y9.865 E13.9926
G1 X-6.526 Y10.890 E14.0267
G1 X-6.399 Y11.274 E14.0401
G1 X-6.399 Y12.299 E14.0742
G1 X-6.273 Y12.428 E14.0802
G1 X-6.273 Y13.452 E14.1143
G1 X-6.146 Y13.837 E14.1278
G1 X-6.526 Y13.837 E14.1404
G1 X-6.526 Y14.093 E14.1489
G1 X-0.443 Y20.243 E14.4366
G1 X-0.253 Y20.435 E14.4456
G1 X4.689 Y20.435 E14.6100
G1 X5.132 Y20.371 E14.6249
G1 X11.342 Y14.093 E14.9186
G1 X11.342 Y13.324 E14.9441
G1 X11.468 Y13.196 E14.9501
G1 X11.468 Y11.915 E14.9927
G1 X11.595 Y11.787 E14.9987
G1 X11.595 Y10.506 E15.0413
G1 X11.722 Y10.378 E15.0473
G1 X11.722 Y9.096 E15.0899
G1 X11.848 Y8.968 E15.0959
G1 X11.848 Y7.687 E15.1385
G1 X11.975 Y7.559 E15.1445
G1 X11.975 Y6.278 E15.1872
G1 X12.102 Y6.150 E15.1931
G1 X12.102 Y4.869 E15.2358
G1 X12.229 Y4.740 E15.2418
G1 X12.229 Y3.459 E15.2844
G1 X12.355 Y3.331 E15.2904
G1 X12.355 Y2.050 E15.3330
G1 X12.482 Y1.922 E15.3390
G1 X12.482 Y0.641 E15.3816
G1 X12.672 Y0.320 E15.3940
G1 X17.488 Y-4.548 E15.6217
G1 X17.678 Y-4.869 E15.6341
G1 X17.678 Y-5.125 E15.6426
G1 X20.339 Y-9.609 E15.8161
G1 X20.466 Y-9.993 E15.8295
G1 X20.719 Y-10.249 E15.8415
G1 X20.846 Y-10.634 E15.8550
G1 X21.099 Y-10.890 E15.8670
G1 X21.226 Y-11.274 E15.8804
G1 X22.937 Y-14.157 E15.9919
G1 X23.000 Y-14.606 E16.0070
G1 X23.000 Y-17.680 E16.1092
G1 X22.810 Y-18.000 E16.1216
G1 X16.601 Y-24.278 E16.4153
G1 X16.347 Y-24.278 E16.4237
G1 X15.334 Y-25.303 E16.4717
G1 X15.080 Y-25.303 E16.4801
G1 X14.193 Y-26.200 E16.5221
G1 X10.645 Y-26.200 E16.6401
G1 X10.391 Y-25.944 E16.6521
G1 X10.074 Y-26.136 E16.6644
G1 X9.314 Y-26.905 E16.7004
G1 X8.997 Y-27.097 E16.7127
G1 X-1.647 Y-27.097 E17.0667
G1 X-4.055 Y-24.663 E17.1806
G1 X-4.309 Y-24.663 E17.1890
G1 X-4.816 Y-25.175 E17.2130
G1 X-5.133 Y-25.367 E17.2254
G1 X-5.386 Y-25.624 E17.2373
G1 X-5.703 Y-25.816 E17.2497
G1 X-5.956 Y-26.072 E17.2616
G1 X-9.504 Y-26.072 E17.3797
G1 X-9.821 Y-25.880 E17.3920
G1 X-10.328 Y-25.367 E17.4159
G1 X-10.961 Y-24.983 E17.4406
G1 X-11.468 Y-24.471 E17.4646
G1 X-11.785 Y-24.278 E17.4769
G1 X-12.039 Y-24.278 E17.4853
G1 X-18.375 Y-17.872 E17.7850
G1 X-18.438 Y-17.424 E17.8001
G1 X-18.438 Y-14.349 E17.9023
G1 X-18.311 Y-13.965 E17.9158
G1 X-12.989 Y-4.997 E18.2627
G1 X-12.926 Y-4.548 E18.2777
G1 X-8.110 Y0.320 E18.5055
G1 X-7.793 Y0.769 E18.5237
G1 X-7.793 Y1.794 E18.5578
G1 X-7.667 Y2.178 E18.5713
G1 X-7.667 Y3.203 E18.6054
G1 X-7.540 Y3.331 E18.6114
G1 X-7.540 Y4.612 E18.6540
G1 X-7.413 Y4.740 E18.6600
G1 X-7.413 Y5.765 E18.6941
G1 X-7.286 Y6.150 E18.7075
G1 X-7.286 Y7.175 E18.7416
G1 X-7.160 Y7.303 E18.7476
G1 X-7.160 Y8.328 E18.7817
G1 X-7.033 Y8.712 E18.7952
G1 X-7.033 Y9.737 E18.8292
G1 X-6.906 Y9.865 E18.8352
G1 X-6.906 Y10.890 E18.8693
G1 X-6.779 Y11.274 E18.8828
G1 X-6.779 Y12.299 E18.9169
G1 X-6.653 Y12.428 E18.9229
G1 X-6.653 Y13.452 E18.9570
G1 X-6.526 Y13.837 E18.9704
G1 X-6.906 Y13.837 E18.9831
G0 F4800 E17.9831
G0 X-8.325 Y-13.422 F10800
G0 X-8.453 Y-15.900
G0 F4800 E18.9831
;segType:HShell
G1 X-8.021 Y-16.337 E19.0035 F1200
;segType:Loop
G0 X-7.333 Y-16.965 F10800
G1 X-6.311 Y-16.123 E19.0476 F1200
G1 X-6.091 Y-15.990 E19.0561
G1 X-2.500 Y-12.942 E19.2127
G1 X-1.850 Y-13.056 E19.2347
G1 X2.360 Y-12.443 E19.3762
G1 X6.565 Y-13.084 E19.5177
G1 X7.216 Y-12.976 E19.5396
G1 X10.785 Y-16.051 E19.6963
G1 X11.004 Y-16.186 E19.7049
G1 X12.093 Y-17.097 E19.7521
G1 X12.178 Y-16.606 E19.7687
G1 X13.239 Y-16.621 E19.8040
G1 X13.400 Y-15.696 E19.8352
G1 X14.104 Y-15.676 E19.8586
G1 X13.307 Y-14.296 E19.9116
G1 X13.138 Y-13.955 E19.9243
G1 X9.143 Y-7.086 E20.1886
G1 X9.090 Y-6.798 E20.1983
G1 X4.713 Y-4.288 E20.3662
G1 X3.637 Y-3.689 E20.4071
G1 X4.188 Y-3.157 E20.4326
G1 X2.836 Y11.726 E20.9296
G1 X2.060 Y11.728 E20.9554
G1 X0.599 Y-3.143 E21.4524
G1 X1.147 Y-3.679 E21.4779
G1 X0.067 Y-4.271 E21.5189
G1 X-4.328 Y-6.749 E21.6867
G1 X-4.384 Y-7.036 E21.6965
G1 X-8.429 Y-13.877 E21.9608
G1 X-8.600 Y-14.216 E21.9734
G1 X-9.408 Y-15.590 E22.0264
G1 X-8.705 Y-15.615 E22.0498
G1 X-8.546 Y-16.547 E22.0812
G1 X-7.489 Y-16.532 E22.1164
G1 X-7.422 Y-16.931 E22.1298
G0 F4800 E21.1298
G0 X-8.112 Y-16.373 F10800
G0 F4800 E22.1298
;segType:Perimeter
G1 X-7.817 Y-16.998 E22.1528 F719
G1 X-7.687 Y-17.779 E22.1791
G1 X-6.081 Y-16.455 E22.2484
G1 X-5.858 Y-16.320 E22.2570
G1 X-2.385 Y-13.373 E22.4086
G1 X-1.856 Y-13.465 E22.4264
G1 X2.358 Y-12.852 E22.5681
G1 X6.567 Y-13.493 E22.7097
G1 X7.098 Y-13.405 E22.7276
G1 X10.550 Y-16.380 E22.8791
G1 X10.771 Y-16.516 E22.8878
G1 X12.368 Y-17.852 E22.9570
G1 X12.513 Y-17.015 E22.9853
G1 X13.575 Y-17.030 E23.0206
G1 X13.737 Y-16.091 E23.0523
G1 X14.790 Y-16.061 E23.0873
G1 X13.659 Y-14.104 E23.1625
G1 X13.490 Y-13.762 E23.1752
G1 X9.524 Y-6.941 E23.4376
G1 X9.448 Y-6.539 E23.4512
G1 X4.908 Y-3.935 E23.6253
G1 X4.308 Y-3.601 E23.6482
G1 X4.604 Y-3.314 E23.6619
G1 X3.202 Y12.122 E24.1774
G1 X2.450 Y12.139 E24.2024
G1 X1.697 Y12.127 E24.2275
G1 X0.182 Y-3.298 E24.7430
G1 X0.477 Y-3.586 E24.7567
G1 X-0.126 Y-3.917 E24.7795
G1 X-4.685 Y-6.487 E24.9536
G1 X-4.763 Y-6.889 E24.9673
G1 X-8.780 Y-13.681 E25.2297
G1 X-8.951 Y-14.021 E25.2424
G1 X-10.096 Y-15.970 E25.3176
G1 X-9.044 Y-16.008 E25.3526
G1 X-8.881 Y-16.956 E25.3846
G1 X-7.884 Y-16.942 E25.4178
G1 X-7.222 Y-17.123
G0 F4800 E24.4178
G0 X-7.216 Y-16.608 F10800
G0 F4800 E25.4178
;segType:HShell
G1 X-7.285 Y-16.538 E25.4210 F1200
G1 X-7.490 Y-16.330
G1 X-8.820 Y-14.986 E25.4839
G1 X-8.619 Y-14.644
G1 X-6.919 Y-16.363 E25.5643
G1 X-6.623 Y-16.119
G1 X-8.419 Y-14.302 E25.6493
G1 X-8.236 Y-13.944
G1 X-6.312 Y-15.888 E25.7403
G1 X-6.006 Y-15.654
G1 X-8.035 Y-13.603 E25.8362
G1 X-7.833 Y-13.263
G1 X-5.714 Y-15.406 E25.9365
G1 X-5.421 Y-15.157
G1 X-7.632 Y-12.922 E26.0410
G1 X-7.430 Y-12.582
G1 X-5.128 Y-14.909 E26.1499
G1 X-4.836 Y-14.661
G1 X-7.229 Y-12.241 E26.2631
G1 X-7.028 Y-11.901
G1 X-4.543 Y-14.412 E26.3806
G1 X-4.251 Y-14.164
G1 X-6.826 Y-11.560 E26.5024
G1 X-6.625 Y-11.220
G1 X-3.958 Y-13.916 E26.6285
G1 X-3.666 Y-13.667
G1 X-6.424 Y-10.879 E26.7590
G1 X-6.222 Y-10.539
G1 X-3.373 Y-13.419 E26.8937
G1 X-3.080 Y-13.171
G1 X-6.021 Y-10.198 E27.0328
G1 X-5.819 Y-9.858
G1 X-2.788 Y-12.922 E27.1762
G1 X-2.419 Y-12.751
G1 X-5.618 Y-9.517 E27.3275
G1 X-5.417 Y-9.177
G1 X-1.791 Y-12.843 E27.4990
G1 X-1.320 Y-12.774
G1 X-5.215 Y-8.836 E27.6832
G1 X-5.014 Y-8.495
G1 X-0.850 Y-12.706 E27.8802
G1 X-0.379 Y-12.637
G1 X-4.813 Y-8.155 E28.0899
G1 X-4.611 Y-7.814
G1 X0.091 Y-12.569 E28.3123
G1 X0.562 Y-12.500
G1 X-4.410 Y-7.474 E28.5474
G1 X-4.208 Y-7.133
G1 X1.032 Y-12.432 E28.7953
G1 X1.503 Y-12.363
G1 X-4.003 Y-6.797 E29.0557
G1 X-3.658 Y-6.602
G1 X1.973 Y-12.295 E29.3220
G1 X2.472 Y-12.255
G1 X-3.312 Y-6.407 E29.5956
G1 X-2.967 Y-6.213
G1 X3.106 Y-12.352 E29.8828
G1 X3.740 Y-12.449
G1 X-2.621 Y-6.018 E30.1836
G1 X-2.276 Y-5.823
G1 X4.374 Y-12.545 E30.4981
G1 X5.008 Y-12.642
G1 X-1.930 Y-5.628 E30.8262
G1 X-1.585 Y-5.433
G1 X5.641 Y-12.739 E31.1680
G1 X6.275 Y-12.835
G1 X-1.239 Y-5.239 E31.5234
G1 X-0.894 Y-5.044
G1 X6.815 Y-12.837 E31.8880
G1 X7.292 Y-12.775
G1 X-0.548 Y-4.849 E32.2588
G1 X-0.203 Y-4.654
G1 X10.917 Y-15.896 E32.7847
G0 X12.002 Y-16.449 F10800
G1 X0.143 Y-4.459 E33.3456 F1200
G1 X0.492 Y-4.268
G1 X12.500 Y-16.409 E33.9135
G1 X13.046 Y-16.416
G1 X0.841 Y-4.077 E34.4908
G1 X1.190 Y-3.886
G1 X13.148 Y-15.976 E35.0564
G1 X13.229 Y-15.513
G1 X0.818 Y-2.965 E35.6434
G1 X0.866 Y-2.470
G1 X13.739 Y-15.484 E36.2522
G0 X13.064 Y-14.258 F10800
G1 X0.915 Y-1.975 E36.8268 F1200
G1 X0.963 Y-1.480
G1 X12.340 Y-12.982 E37.3649
G0 X9.269 Y-7.701 F10800
G1 X7.972 Y-6.390 E37.4262 F1200
G0 X10.037 Y-9.021 F10800
G1 X6.729 Y-5.677 E37.5827 F1200
G0 X5.485 Y-4.963 F10800
G1 X10.805 Y-10.342 E37.8343 F1200
G0 X11.573 Y-11.662 F10800
G1 X4.255 Y-4.264 E38.1804 F1200
G0 X2.710 Y10.900 F10800
G1 X2.227 Y11.389 E38.2032 F1200
G1 X2.179 Y10.894
G1 X2.765 Y10.301 E38.2310
G1 X2.819 Y9.702
G1 X2.130 Y10.399 E38.2636
G1 X2.082 Y9.904
G1 X2.874 Y9.103 E38.3010
G1 X2.928 Y8.504
G1 X2.033 Y9.409 E38.3434
G1 X1.984 Y8.914
G1 X2.983 Y7.905 E38.3906
G1 X3.037 Y7.306
G1 X1.936 Y8.419 E38.4427
G1 X1.887 Y7.924
G1 X3.091 Y6.706 E38.4997
G1 X3.146 Y6.107
G1 X1.838 Y7.429 E38.5615
G1 X1.790 Y6.934
G1 X3.200 Y5.508 E38.6282
G1 X3.255 Y4.909
G1 X1.741 Y6.439 E38.6998
G1 X1.693 Y5.944
G1 X3.309 Y4.310 E38.7762
G1 X3.364 Y3.711
G1 X1.644 Y5.449 E38.8576
G1 X1.595 Y4.954
G1 X3.418 Y3.112 E38.9438
G1 X3.472 Y2.513
G1 X1.547 Y4.459 E39.0348
G1 X1.498 Y3.964
G1 X3.527 Y1.913 E39.1308
G1 X3.581 Y1.314
G1 X1.450 Y3.469 E39.2316
G1 X1.401 Y2.974
G1 X3.636 Y0.715 E39.3373
G1 X3.690 Y0.116
G1 X1.352 Y2.480 E39.4479
G1 X1.304 Y1.985
G1 X3.745 Y-0.483 E39.5633
G1 X3.799 Y-1.082
G1 X1.255 Y1.490 E39.6836
G1 X1.207 Y0.995
G1 X3.853 Y-1.681 E39.8088
G1 X3.908 Y-2.281
G1 X1.158 Y0.500 E39.9389
G1 X1.109 Y0.005
G1 X3.962 Y-2.880 E40.0738
G1 X3.796 Y-3.256
G1 X1.061 Y-0.490 E40.2032
G1 X1.012 Y-0.985
G1 X3.521 Y-3.522 E40.3218
G0 X-9.020 Y-15.327 F10800
G1 X-8.944 Y-15.405 E40.3255 F1200
;segType:Support
G0 F4800 E39.3255
G0 X0.000 Y-17.500 F10800
G0 F4800 E40.3255
G1 X2.500 Y-17.500 E40.3962 F1800
G0 F4800 E39.3962
G0 X7.500 Y-22.500 F10800
G0 F4800 E40.3962
G1 X0.000 Y-22.500 E40.6082 F1800
G1 X0.000 Y-20.000 E40.6789
G1 X7.500 Y-20.000 E40.8909
G0 F4800 E39.8909
G0 X0.000 Y-15.000 F10800
G0 F4800 E40.8909
G1 X2.500 Y-15.000 E40.9616 F1800
; ------------------------------------
; Layer #1
; ------------------------------------
G21 ; mm
G90 ; abs
G92 E0 ; reset extr
M106 S0
;segType:Support
G0 F4800 E-1.0000
G0 F300 Z0.400
G0 X2.500 Y-15.000 F10800
G0 F4800 E0.0000
G1 X0.000 Y-15.000 E0.0707 F5400
;segType:HShell
G0 F4800 E-0.9293
G0 X4.322 Y-4.146 F10800
G0 F4800 E0.0707
G1 X-7.653 Y-16.253 E0.6370 F3600
;segType:Perimeter
G0 X-8.107 Y-16.295 F10800
G1 X-7.809 Y-16.919 E0.6600 F2159
G1 X-7.662 Y-17.708 E0.6867
G1 X-6.263 Y-16.556 E0.7470
G1 X-5.817 Y-16.286 E0.7643
G1 X-2.558 Y-13.519 E0.9065
G1 X-1.559 Y-13.693 E0.9402
G1 X2.358 Y-13.123 E1.0719
G1 X6.269 Y-13.720 E1.2035
G1 X7.269 Y-13.553 E1.2372
G1 X10.509 Y-16.345 E1.3795
G1 X10.953 Y-16.618 E1.3968
G1 X12.364 Y-17.759 E1.4572
G1 X12.507 Y-16.936 E1.4849
G1 X13.405 Y-16.955 E1.5148
G1 X13.519 Y-16.830 E1.5204
G1 X13.655 Y-16.043 E1.5470
G1 X14.581 Y-16.017 E1.5778
G1 X14.654 Y-15.930 E1.5816
G1 X13.755 Y-14.375 E1.6413
G1 X13.418 Y-13.691 E1.6667
G1 X9.698 Y-7.294 E1.9128
G1 X9.536 Y-6.432 E1.9420
G1 X5.134 Y-3.907 E2.1108
G1 X4.171 Y-3.370 E2.1475
G1 X4.637 Y-2.920 E2.1690
G1 X4.544 Y-1.909 E2.2027
G1 X3.259 Y12.247 E2.6755
G1 X2.450 Y12.265 E2.7024
G1 X1.641 Y12.253 E2.7293
G1 X0.252 Y-1.894 E3.2021
G1 X0.152 Y-2.903 E3.2358
G1 X0.615 Y-3.357 E3.2574
G1 X-0.352 Y-3.887 E3.2940
G1 X-4.773 Y-6.379 E3.4628
G1 X-4.940 Y-7.241 E3.4920
G1 X-8.707 Y-13.610 E3.7382
G1 X-9.049 Y-14.291 E3.7635
G1 X-9.960 Y-15.841 E3.8233
G1 X-9.887 Y-15.928 E3.8270
G1 X-8.961 Y-15.960 E3.8579
G1 X-8.831 Y-16.749 E3.8844
G1 X-8.718 Y-16.875 E3.8901
G1 X-7.877 Y-16.863 E3.9180
G1 X-7.213 Y-17.034
G0 F4800 E2.9180
G0 X-7.320 Y-16.904 F10800
G0 F4800 E3.9180
;segType:Loop
G1 X-6.493 Y-16.224 E3.9536 F3600
G1 X-6.050 Y-15.955 E3.9709
G1 X-2.673 Y-13.089 E4.1182
G1 X-1.554 Y-13.284 E4.1560
G1 X2.359 Y-12.714 E4.2875
G1 X6.267 Y-13.311 E4.4190
G1 X7.387 Y-13.124 E4.4568
G1 X10.744 Y-16.017 E4.6041
G1 X11.182 Y-16.286 E4.6213
G1 X12.087 Y-17.017 E4.6599
G1 X12.172 Y-16.525 E4.6765
G1 X13.162 Y-16.546 E4.7095
G1 X13.317 Y-15.648 E4.7398
G1 X14.016 Y-15.628 E4.7630
G1 X13.403 Y-14.567 E4.8038
G1 X13.066 Y-13.884 E4.8291
G1 X9.317 Y-7.439 E5.0771
G1 X9.178 Y-6.691 E5.1024
G1 X4.939 Y-4.259 E5.2650
G1 X3.501 Y-3.458 E5.3197
G1 X4.221 Y-2.762 E5.3530
G1 X4.146 Y-1.946 E5.3803
G1 X2.893 Y11.850 E5.8410
G1 X2.004 Y11.854 E5.8706
G1 X0.570 Y-2.749 E6.3586
G1 X1.284 Y-3.450 E6.3919
G1 X-0.159 Y-4.241 E6.4467
G1 X-4.416 Y-6.641 E6.6092
G1 X-4.561 Y-7.388 E6.6345
G1 X-8.357 Y-13.806 E6.8825
G1 X-8.699 Y-14.486 E6.9078
G1 X-9.319 Y-15.543 E6.9486
G1 X-8.621 Y-15.568 E6.9719
G1 X-8.472 Y-16.467 E7.0022
G1 X-7.489 Y-16.453 E7.0348
G1 X-7.411 Y-16.871 E7.0490
G0 F4800 E6.0490
G0 X-7.290 Y-16.430 F10800
G0 F4800 E7.0490
;segType:HShell
G1 X4.669 Y-4.340 E7.6146 F3600
G0 X4.079 Y-3.538 F10800
G0 X3.979 Y-2.316
G1 X-8.918 Y-15.355 E8.2245 F3600
G0 X-8.348 Y-14.235 F10800
G1 X3.933 Y-1.818 E8.8054 F3600
G1 X3.888 Y-1.320
G1 X-7.620 Y-12.955 E9.3497
G0 X-6.820 Y-11.602 F10800
G1 X0.698 Y-4.002 E9.7053 F3600
G0 X-2.926 Y-6.032 F10800
G1 X-4.419 Y-7.542 E9.7759 F3600
G1 X-4.142 Y-6.719
G1 X-4.248 Y-6.825 E9.7808
G0 X-5.219 Y-8.895 F10800
G1 X-1.709 Y-5.346 E9.9469 F3600
G0 X-0.492 Y-4.660 F10800
G1 X-6.019 Y-10.248 E10.2083 F3600
G0 X-5.872 Y-15.540 F10800
G1 X5.014 Y-4.535 E10.7231 F3600
G1 X5.357 Y-4.732
G1 X-2.701 Y-12.879 E11.1043
G1 X-2.242 Y-12.959
G1 X5.700 Y-4.929 E11.4799
G1 X6.044 Y-5.126
G1 X-1.783 Y-13.039 E11.8501
G1 X-1.240 Y-13.034
G1 X6.387 Y-5.323 E12.2108
G1 X6.731 Y-5.520
G1 X-0.611 Y-12.942 E12.5581
G1 X0.017 Y-12.851
G1 X7.074 Y-5.717 E12.8918
G1 X7.417 Y-5.914
G1 X0.646 Y-12.759 E13.2121
G1 X1.275 Y-12.668
G1 X7.761 Y-6.111 E13.5188
G1 X8.104 Y-6.308
G1 X1.904 Y-12.576 E13.8121
G1 X2.488 Y-12.529
G1 X8.447 Y-6.505 E14.0939
G1 X8.791 Y-6.701
G1 X2.956 Y-12.601 E14.3699
G1 X3.423 Y-12.672
G1 X9.032 Y-7.001 E14.6352
G1 X9.118 Y-7.459
G1 X3.891 Y-12.744 E14.8824
G1 X4.358 Y-12.815
G1 X9.304 Y-7.815 E15.1163
G1 X9.503 Y-8.157
G1 X4.826 Y-12.886 E15.3375
G1 X5.294 Y-12.958
G1 X9.703 Y-8.500 E15.5461
G1 X9.902 Y-8.843
G1 X5.761 Y-13.029 E15.7419
G1 X6.229 Y-13.100
G1 X10.101 Y-9.185 E15.9251
G1 X10.300 Y-9.528
G1 X6.860 Y-13.007 E16.0878
G1 X7.472 Y-12.931
G1 X10.500 Y-9.871 E16.2310
G1 X10.699 Y-10.213
G1 X7.763 Y-13.182 E16.3698
G1 X8.053 Y-13.432
G1 X10.898 Y-10.556 E16.5044
G1 X11.097 Y-10.899
G1 X8.344 Y-13.682 E16.6346
G1 X8.634 Y-13.933
G1 X11.297 Y-11.241 E16.7605
G1 X11.496 Y-11.584
G1 X8.925 Y-14.183 E16.8821
G1 X9.216 Y-14.434
G1 X11.695 Y-11.927 E16.9994
G1 X11.895 Y-12.269
G1 X9.506 Y-14.684 E17.1124
G1 X9.797 Y-14.934
G1 X12.094 Y-12.612 E17.2210
G1 X12.293 Y-12.955
G1 X10.087 Y-15.185 E17.3254
G1 X10.378 Y-15.435
G1 X12.492 Y-13.297 E17.4254
G1 X12.692 Y-13.640
G1 X10.668 Y-15.686 E17.5211
G1 X10.973 Y-15.921
G1 X12.891 Y-13.983 E17.6118
G1 X13.070 Y-14.345
G1 X11.307 Y-16.128 E17.6952
G1 X11.606 Y-16.370
G1 X13.252 Y-14.706 E17.7730
G1 X13.450 Y-15.049
G1 X12.190 Y-16.323 E17.8326
G1 X12.717 Y-16.334
G1 X13.054 Y-15.994 E17.8485
G0 X3.982 Y-3.395 F10800
G0 X2.126 Y11.045
G1 X2.712 Y11.637 E17.8763 F3600
G1 X2.757 Y11.139
G1 X2.066 Y10.441 E17.9089
G1 X2.007 Y9.837
G1 X2.802 Y10.640 E17.9465
G1 X2.847 Y10.142
G1 X1.948 Y9.232 E17.9891
G1 X1.888 Y8.628
G1 X2.893 Y9.644 E18.0366
G1 X2.938 Y9.145
G1 X1.829 Y8.024 E18.0890
G1 X1.770 Y7.420
G1 X2.983 Y8.647 E18.1464
G1 X3.028 Y8.149
G1 X1.710 Y6.816 E18.2088
G1 X1.651 Y6.212
G1 X3.074 Y7.650 E18.2761
G1 X3.119 Y7.152
G1 X1.592 Y5.608 E18.3483
G1 X1.532 Y5.004
G1 X3.164 Y6.654 E18.4255
G1 X3.209 Y6.155
G1 X1.473 Y4.400 E18.5076
G1 X1.414 Y3.796
G1 X3.255 Y5.657 E18.5947
G1 X3.300 Y5.159
G1 X1.354 Y3.192 E18.6867
G1 X1.295 Y2.587
G1 X3.345 Y4.660 E18.7837
G1 X3.390 Y4.162
G1 X1.236 Y1.983 E18.8856
G1 X1.176 Y1.379
G1 X3.436 Y3.664 E18.9925
G1 X3.481 Y3.165
G1 X1.117 Y0.775 E19.1043
G1 X1.058 Y0.171
G1 X3.526 Y2.667 E19.2210
G1 X3.571 Y2.168
G1 X0.998 Y-0.433 E19.3427
G1 X0.939 Y-1.037
G1 X3.617 Y1.670 E19.4694
G1 X3.662 Y1.172
G1 X0.880 Y-1.641 E19.6010
G1 X0.820 Y-2.245
G1 X3.707 Y0.673 E19.7375
G1 X3.752 Y0.175
G1 X0.858 Y-2.751 E19.8744
G1 X1.131 Y-3.019
G1 X3.798 Y-0.323 E20.0005
G1 X3.843 Y-0.822
G1 X1.405 Y-3.287 E20.1158
G0 X3.281 Y-3.566 F10800
G1 X-8.443 Y-15.419 E20.6703 F3600
G1 X-8.365 Y-15.885
G1 X3.628 Y-3.760 E21.2375
G1 X3.975 Y-3.953
G1 X-8.199 Y-16.261 E21.8133
;segType:Support
G0 F4800 E20.8133
G0 X0.000 Y-22.500 F10800
G0 F4800 E21.8133
G1 X7.500 Y-22.500 E22.0253 F5400
G1 X7.500 Y-20.000 E22.0960
G1 X0.000 Y-20.000 E22.3080
G1 X0.000 Y-17.500 E22.3787
G1 X2.500 Y-17.500 E22.4494
; ------------------------------------
; Layer #2
; ------------------------------------
G21 ; mm
G90 ; abs
G92 E0 ; reset extr
M106 S0
;segType:Support
G0 F4800 E-1.0000
G0 F300 Z0.600
G0 X2.500 Y-17.500 F10800
G0 F4800 E0.0000
G1 X0.000 Y-17.500 E0.0707 F5400
G1 X0.000 Y-20.000 E0.1414
G1 X7.500 Y-20.000 E0.3534
G1 X7.500 Y-22.500 E0.4241
G1 X0.000 Y-22.500 E0.6361
G0 F4800 E-0.3639
G0 X-4.797 Y-17.186 F10800
G0 X-6.396 Y-15.414
G0 X-7.995 Y-13.643
G0 F4800 E0.6361
;segType:HShell
G1 X-6.006 Y-15.654 E0.7302 F3600
G1 X-6.325 Y-15.876
G1 X-8.188 Y-13.992 E0.8183
G1 X-8.370 Y-14.353
G1 X-6.661 Y-16.080 E0.8991
G1 X-6.973 Y-16.309
G1 X-8.551 Y-14.713 E0.9738
G1 X-8.489 Y-15.320
G1 X-8.744 Y-15.062 E0.9859
G1 X-8.345 Y-15.466
G1 X-7.645 Y-16.174 E1.0190
;segType:Perimeter
G0 X-8.098 Y-16.214 F10800
G1 X-7.804 Y-16.840 E1.0419 F2159
G1 X-7.699 Y-17.469 E1.0632
G1 X-7.582 Y-17.593 E1.0688
G1 X-6.446 Y-16.656 E1.1178
G1 X-5.776 Y-16.251 E1.1438
G1 X-2.730 Y-13.666 E1.2767
G1 X-1.263 Y-13.922 E1.3263
G1 X2.357 Y-13.395 E1.4479
G1 X5.971 Y-13.946 E1.5695
G1 X7.441 Y-13.701 E1.6191
G1 X10.468 Y-16.310 E1.7520
G1 X11.134 Y-16.720 E1.7780
G1 X12.264 Y-17.665 E1.8270
G1 X12.382 Y-17.542 E1.8327
G1 X12.501 Y-16.857 E1.8558
G1 X13.241 Y-16.873 E1.8804
G1 X13.463 Y-16.630 E1.8914
G1 X13.573 Y-15.995 E1.9128
G1 X14.309 Y-15.974 E1.9373
G1 X14.493 Y-15.756 E1.9468
G1 X13.852 Y-14.645 E1.9894
G1 X13.345 Y-13.621 E2.0275
G1 X9.872 Y-7.647 E2.2573
G1 X9.625 Y-6.324 E2.3020
G1 X5.360 Y-3.878 E2.4656
G1 X4.034 Y-3.140 E2.5160
G1 X4.669 Y-2.526 E2.5454
G1 X4.526 Y-0.962 E2.5976
G1 X3.316 Y12.372 E3.0429
G1 X2.451 Y12.390 E3.0717
G1 X1.585 Y12.378 E3.1005
G1 X0.277 Y-0.946 E3.5458
G1 X0.122 Y-2.509 E3.5980
G1 X0.753 Y-3.128 E3.6274
G1 X-0.577 Y-3.857 E3.6779
G1 X-4.860 Y-6.272 E3.8414
G1 X-5.117 Y-7.592 E3.8862
G1 X-8.634 Y-13.540 E4.1160
G1 X-9.148 Y-14.561 E4.1540
G1 X-9.797 Y-15.667 E4.1967
G1 X-9.615 Y-15.887 E4.2062
G1 X-8.879 Y-15.913 E4.2307
G1 X-8.773 Y-16.549 E4.2521
G1 X-8.554 Y-16.793 E4.2630
G1 X-7.870 Y-16.784 E4.2858
G1 X-7.209 Y-16.964
G0 F4800 E3.2858
G0 X-7.313 Y-16.849 F10800
G0 F4800 E4.2858
;segType:Loop
G1 X-6.676 Y-16.324 E4.3132 F3600
G1 X-6.008 Y-15.920 E4.3392
G1 X-2.845 Y-13.235 E4.4772
G1 X-1.257 Y-13.512 E4.5308
G1 X2.358 Y-12.986 E4.6523
G1 X5.969 Y-13.537 E4.7738
G1 X7.559 Y-13.272 E4.8274
G1 X10.703 Y-15.982 E4.9654
G1 X11.367 Y-16.390 E4.9914
G1 X12.073 Y-16.981 E5.0220
G1 X12.166 Y-16.446 E5.0401
G1 X13.089 Y-16.443 E5.0707
G1 X13.235 Y-15.600 E5.0992
G1 X13.929 Y-15.581 E5.1223
G1 X13.500 Y-14.838 E5.1508
G1 X12.994 Y-13.814 E5.1888
G1 X9.491 Y-7.791 E5.4205
G1 X9.266 Y-6.583 E5.4614
G1 X5.164 Y-4.231 E5.6186
G1 X3.364 Y-3.228 E5.6872
G1 X4.253 Y-2.369 E5.7283
G1 X4.128 Y-0.999 E5.7741
G1 X2.950 Y11.975 E6.2074
G1 X2.449 Y11.986 E6.2240
G1 X1.948 Y11.979 E6.2407
G1 X0.675 Y-0.986 E6.6740
G1 X0.540 Y-2.355 E6.7197
G1 X1.423 Y-3.221 E6.7609
G1 X-0.384 Y-4.211 E6.8294
G1 X-4.503 Y-6.533 E6.9867
G1 X-4.738 Y-7.739 E7.0276
G1 X-8.284 Y-13.736 E7.2592
G1 X-8.797 Y-14.757 E7.2973
G1 X-9.232 Y-15.496 E7.3258
G1 X-8.538 Y-15.521 E7.3489
G1 X-8.379 Y-16.386 E7.3781
G1 X-7.475 Y-16.374 E7.4082
G1 X-7.402 Y-16.815 E7.4231
G0 F4800 E6.4231
G0 X-5.713 Y-15.406 F10800
G0 F4800 E7.4231
;segType:HShell
G1 X-7.794 Y-13.302 E7.5215 F3600
G1 X-7.593 Y-12.962
G1 X-5.421 Y-15.158 E7.6242
G1 X-5.128 Y-14.909
G1 X-7.391 Y-12.621 E7.7313
G1 X-7.190 Y-12.281
G1 X-4.836 Y-14.661 E7.8426
G1 X-4.543 Y-14.413
G1 X-6.989 Y-11.940 E7.9583
G1 X-6.787 Y-11.600
G1 X-4.250 Y-14.164 E8.0783
G1 X-3.958 Y-13.916
G1 X-6.586 Y-11.259 E8.2026
G1 X-6.385 Y-10.918
G1 X-3.665 Y-13.668 E8.3312
G1 X-3.373 Y-13.419
G1 X-6.183 Y-10.578 E8.4641
G1 X-5.982 Y-10.237
G1 X-3.080 Y-13.171 E8.6013
G1 X-2.647 Y-13.065
G1 X-5.780 Y-9.897 E8.7495
G1 X-5.579 Y-9.556
G1 X-1.997 Y-13.178 E8.9190
G0 X7.251 Y-5.660 F10800
G1 X9.271 Y-7.703 E9.0145 F3600
G0 X8.494 Y-6.373 F10800
G1 X9.146 Y-7.032 E9.0454 F3600
G0 X9.886 Y-8.869 F10800
G1 X6.007 Y-4.947 E9.2288 F3600
G0 X4.775 Y-4.245 F10800
G1 X10.654 Y-10.189 E9.5069 F3600
G0 X11.421 Y-11.509 F10800
G1 X3.575 Y-3.576 E9.8780 F3600
G0 X2.806 Y11.348 F10800
G1 X2.380 Y11.778 E9.8981 F3600
G1 X2.103 Y11.514
G1 X2.860 Y10.749 E9.9339
G1 X2.915 Y10.150
G1 X2.055 Y11.019 E9.9746
G1 X2.006 Y10.524
G1 X2.969 Y9.551 E10.0202
G1 X3.024 Y8.951
G1 X1.958 Y10.029 E10.0706
G1 X1.909 Y9.534
G1 X3.078 Y8.352 E10.1259
G1 X3.132 Y7.753
G1 X1.860 Y9.039 E10.1860
G1 X1.812 Y8.544
G1 X3.187 Y7.154 E10.2510
G1 X3.241 Y6.555
G1 X1.763 Y8.049 E10.3209
G1 X1.715 Y7.554
G1 X3.296 Y5.956 E10.3957
G1 X3.350 Y5.357
G1 X1.666 Y7.059 E10.4754
G1 X1.617 Y6.564
G1 X3.404 Y4.758 E10.5599
G1 X3.459 Y4.159
G1 X1.569 Y6.069 E10.6493
G1 X1.520 Y5.574
G1 X3.513 Y3.560 E10.7435
G1 X3.568 Y2.960
G1 X1.472 Y5.079 E10.8426
G1 X1.423 Y4.584
G1 X3.622 Y2.361 E10.9466
G1 X3.676 Y1.762
G1 X1.375 Y4.089 E11.0555
G1 X1.326 Y3.594
G1 X3.731 Y1.163 E11.1692
G1 X3.785 Y0.564
G1 X1.277 Y3.099 E11.2878
G1 X1.229 Y2.605
G1 X3.839 Y-0.035 E11.4113
G1 X3.894 Y-0.634
G1 X1.180 Y2.110 E11.5397
G1 X1.132 Y1.615
G1 X3.948 Y-1.233 E11.6729
G1 X4.003 Y-1.833
G1 X1.083 Y1.120 E11.8110
G1 X1.034 Y0.625
G1 X3.980 Y-2.353 E11.9504
G1 X3.705 Y-2.619
G1 X0.986 Y0.130 E12.0789
G1 X0.937 Y-0.365
G1 X3.429 Y-2.885 E12.1968
G1 X3.154 Y-3.151
G1 X0.889 Y-0.860 E12.3040
G1 X0.840 Y-1.355
G1 X12.189 Y-12.829 E12.8408
G0 X12.915 Y-14.107 F10800
G1 X0.791 Y-1.850 E13.4142 F3600
G0 X1.691 Y-3.304 F10800
G1 X13.505 Y-15.248 E13.9730 F3600
G1 X13.119 Y-15.402
G1 X1.342 Y-3.495 E14.5300
G1 X0.993 Y-3.686
G1 X12.994 Y-15.820 E15.0976
G1 X12.873 Y-16.241
G1 X0.644 Y-3.878 E15.6760
G1 X0.295 Y-4.069
G1 X12.337 Y-16.243 E16.2455
G1 X11.969 Y-16.415
G1 X-0.054 Y-4.260 E16.8141
G1 X-0.402 Y-4.453
G1 X10.868 Y-15.846 E17.3472
G0 X7.577 Y-13.064 F10800
G1 X-0.747 Y-4.647 E17.7409 F3600
G1 X-1.093 Y-4.842
G1 X7.115 Y-13.141 E18.1291
G1 X6.653 Y-13.218
G1 X-1.438 Y-5.037 E18.5118
G1 X-1.784 Y-5.232
G1 X6.191 Y-13.295 E18.8890
G1 X5.641 Y-13.283
G1 X-2.130 Y-5.427 E19.2566
G1 X-2.475 Y-5.621
G1 X5.007 Y-13.186 E19.6104
G1 X4.373 Y-13.089
G1 X-2.821 Y-5.816 E19.9507
G1 X-3.166 Y-6.011
G1 X3.739 Y-12.992 E20.2773
G1 X3.105 Y-12.896
G1 X-3.512 Y-6.206 E20.5902
G1 X-3.857 Y-6.401
G1 X2.472 Y-12.799 E20.8896
G1 X1.972 Y-12.838
G1 X-4.203 Y-6.595 E21.1816
G1 X-4.382 Y-6.958
G1 X1.502 Y-12.906 E21.4599
G1 X1.031 Y-12.975
G1 X-4.470 Y-7.413 E21.7201
G1 X-4.572 Y-7.854
G1 X0.561 Y-13.043 E21.9629
G1 X0.090 Y-13.112
G1 X-4.774 Y-8.194 E22.1929
G1 X-4.975 Y-8.535
G1 X-0.380 Y-13.180 E22.4102
G1 X-0.851 Y-13.249
G1 X-5.176 Y-8.875 E22.6148
G1 X-5.378 Y-9.216
G1 X-1.346 Y-13.292 E22.8055
;segType:Support
G0 F4800 E21.8055
G0 X0.000 Y-15.000 F10800
G0 F4800 E22.8055
G1 X2.500 Y-15.000 E22.8762 F5400
; ------------------------------------
; Layer #3
; ------------------------------------
G21 ; mm
G90 ; abs
G92 E0 ; reset extr
M106 S255
;segType:Support
G0 F4800 E-1.0000
G0 F300 Z0.800
G0 X2.500 Y-15.000 F10800
G0 F4800 E0.0000
G1 X0.000 Y-15.000 E0.0707 F5400
G0 F4800 E-0.9293
G0 X-5.464 Y-14.387 F10800
G0 X-8.195 Y-14.081
G0 F4800 E0.0707
;segType:HShell
G1 X-7.967 Y-13.850 E0.0815 F3600
;segType:Infill
G0 X-8.209 Y-14.331 F10800
G1 X-8.209 Y-15.115 E0.1076 F5400
;segType:HShell
G0 X-8.418 Y-14.849 F10800
G1 X-8.766 Y-15.202 E0.1241 F3600
G1 X-8.302 Y-15.277
G1 X-8.179 Y-15.153 E0.1299
G1 X-7.941 Y-15.456
G1 X-8.201 Y-15.718 E0.1421
;segType:Loop
G0 X-7.302 Y-16.791 F10800
G1 X-6.858 Y-16.425 E0.1613 F3600
G1 X-5.968 Y-15.886 E0.1959
G1 X-3.018 Y-13.382 E0.3246
G1 X-0.961 Y-13.741 E0.3940
G1 X2.357 Y-13.258 E0.5055
G1 X5.670 Y-13.763 E0.6170
G1 X7.730 Y-13.420 E0.6865
G1 X10.662 Y-15.947 E0.8152
G1 X11.549 Y-16.492 E0.8498
G1 X12.063 Y-16.923 E0.8721
G1 X12.160 Y-16.367 E0.8909
G1 X12.906 Y-16.382 E0.9157
G1 X13.033 Y-16.243 E0.9220
G1 X13.153 Y-15.552 E0.9453
G1 X13.841 Y-15.533 E0.9682
G1 X13.596 Y-15.108 E0.9845
G1 X12.921 Y-13.743 E1.0352
G1 X9.665 Y-8.144 E1.2506
G1 X9.354 Y-6.476 E1.3070
G1 X5.391 Y-4.203 E1.4590
G1 X3.227 Y-2.998 E1.5414
G1 X4.286 Y-1.975 E1.5903
G1 X4.110 Y-0.052 E1.6546
G1 X3.007 Y12.100 E2.0604
G1 X2.450 Y12.111 E2.0789
G1 X1.892 Y12.104 E2.0974
G1 X0.700 Y-0.039 E2.5033
G1 X0.510 Y-1.961 E2.5675
G1 X1.561 Y-2.992 E2.6165
G1 X-0.610 Y-4.181 E2.6988
G1 X-4.590 Y-6.425 E2.8508
G1 X-4.914 Y-8.091 E2.9072
G1 X-8.211 Y-13.665 E3.1226
G1 X-8.896 Y-15.027 E3.1733
G1 X-9.144 Y-15.449 E3.1896
G1 X-8.455 Y-15.474 E3.2125
G1 X-8.341 Y-16.165 E3.2358
G1 X-8.215 Y-16.305 E3.2421
G1 X-7.469 Y-16.295 E3.2669
G1 X-7.392 Y-16.757 E3.2825
G0 F4800 E2.2825
G0 X-8.091 Y-16.136 F10800
G0 F4800 E3.2825
;segType:Perimeter
G1 X-7.797 Y-16.761 E3.3055 F2159
G1 X-7.715 Y-17.252 E3.3220
G1 X-7.502 Y-17.477 E3.3323
G1 X-6.628 Y-16.757 E3.3700
G1 X-5.735 Y-16.217 E3.4047
G1 X-2.903 Y-13.813 E3.5283
G1 X-0.967 Y-14.150 E3.5936
G1 X2.356 Y-13.667 E3.7053
G1 X5.673 Y-14.173 E3.8169
G1 X7.612 Y-13.849 E3.8823
G1 X10.427 Y-16.275 E4.0059
G1 X11.316 Y-16.822 E4.0406
G1 X12.185 Y-17.549 E4.0783
G1 X12.400 Y-17.326 E4.0886
G1 X12.495 Y-16.778 E4.1071
G1 X13.078 Y-16.790 E4.1265
G1 X13.407 Y-16.430 E4.1427
G1 X13.490 Y-15.947 E4.1590
G1 X14.037 Y-15.932 E4.1772
G1 X14.332 Y-15.581 E4.1924
G1 X13.948 Y-14.916 E4.2180
G1 X13.273 Y-13.550 E4.2686
G1 X10.046 Y-8.000 E4.4822
G1 X9.713 Y-6.217 E4.5425
G1 X5.586 Y-3.850 E4.7007
G1 X3.897 Y-2.909 E4.7650
G1 X4.702 Y-2.132 E4.8022
G1 X4.508 Y-0.015 E4.8730
G1 X3.372 Y12.497 E5.2908
G1 X2.451 Y12.516 E5.3214
G1 X1.530 Y12.503 E5.3521
G1 X0.302 Y0.001 E5.7699
G1 X0.093 Y-2.115 E5.8407
G1 X0.892 Y-2.898 E5.8779
G1 X-0.803 Y-3.827 E5.9422
G1 X-4.947 Y-6.164 E6.1004
G1 X-5.293 Y-7.944 E6.1607
G1 X-8.561 Y-13.470 E6.3742
G1 X-9.246 Y-14.831 E6.4249
G1 X-9.635 Y-15.493 E6.4505
G1 X-9.342 Y-15.846 E6.4657
G1 X-8.796 Y-15.866 E6.4839
G1 X-8.716 Y-16.349 E6.5002
G1 X-8.390 Y-16.712 E6.5164
G1 X-7.863 Y-16.705 E6.5339
G1 X-7.202 Y-16.886
G0 F4800 E5.5339
G0 X-7.495 Y-16.093 F10800
G0 F4800 E6.5339
;segType:HShell
G1 X-7.337 Y-15.933 E6.5414 F3600
G1 X-7.703 Y-15.760
G1 X-8.041 Y-16.101 E6.5574
G0 X-7.465 Y-12.798 F10800
G1 X-7.232 Y-12.562 E6.5684 F3600
;segType:Infill
G0 X-6.811 Y-11.850 F10800
G1 X11.495 Y-11.850 E7.1772 F5400
G1 X11.820 Y-12.408 E7.1987
G1 X11.820 Y-16.393 E7.3312
G1 X11.019 Y-15.900 E7.3625
G1 X12.345 Y-15.900 E7.4066
;segType:HShell
G0 X12.355 Y-16.156 F10800
G1 X12.949 Y-15.556 E7.4347 F3600
G1 X13.379 Y-15.121
G1 X13.153 Y-15.350 E7.4454
G1 X13.125 Y-14.834
G1 X13.200 Y-14.758 E7.4489
G1 X13.020 Y-14.396
G1 X12.946 Y-14.471 E7.4525
G1 X12.766 Y-14.108
G1 X12.841 Y-14.033 E7.4560
G1 X12.652 Y-13.680
G1 X12.587 Y-13.745 E7.4591
;segType:Infill
G0 X7.814 Y-13.225 F10800
G1 X7.814 Y-6.299 E7.6894 F5400
G0 X3.808 Y-4.015 F10800
G1 X3.808 Y-12.459 E7.9703 F5400
;segType:HShell
G0 X7.086 Y-13.322 F10800
G1 X7.473 Y-12.931 E7.9886 F3600
G1 X7.069 Y-12.795
G1 X6.441 Y-13.430 E8.0183
G1 X5.797 Y-13.537
G1 X6.463 Y-12.864 E8.0498
G1 X5.995 Y-12.793
G1 X5.294 Y-13.501 E8.0829
G1 X4.826 Y-13.430
G1 X5.527 Y-12.721 E8.1161
G1 X5.060 Y-12.650
G1 X4.359 Y-13.359 E8.1492
G1 X3.891 Y-13.287
G1 X4.592 Y-12.579 E8.1824
G1 X4.124 Y-12.507
G1 X3.424 Y-13.216 E8.2155
G1 X2.956 Y-13.145
G1 X3.657 Y-12.436 E8.2487
G1 X3.189 Y-12.365
G1 X2.488 Y-13.073 E8.2818
G1 X1.905 Y-13.119
G1 X2.722 Y-12.293 E8.3205
G1 X2.217 Y-12.259
G1 X1.276 Y-13.211 E8.3650
G1 X0.647 Y-13.302
G1 X1.588 Y-12.351 E8.4095
G1 X0.960 Y-12.442
G1 X0.019 Y-13.394 E8.4540
G1 X-0.610 Y-13.485
G1 X0.331 Y-12.534 E8.4985
G1 X-0.298 Y-12.625
G1 X-1.163 Y-13.500 E8.5395
G1 X-1.622 Y-13.420
G1 X-0.926 Y-12.717 E8.5724
G1 X-1.555 Y-12.808
G1 X-2.081 Y-13.340 E8.5973
G1 X-2.540 Y-13.260
G1 X-2.093 Y-12.808 E8.6184
G1 X-2.552 Y-12.728
G1 X-2.999 Y-13.180 E8.6396
;segType:Infill
G0 X-0.197 Y-12.611 F10800
G1 X-0.197 Y-4.651 E8.9043 F5400
;segType:HShell
G0 X-1.007 Y-4.636 F10800
G1 X-2.060 Y-5.702 E8.9542 F3600
G0 X-3.440 Y-6.008 F10800
G1 X-4.517 Y-7.097 E9.0051 F3600
G1 X-4.419 Y-7.542
G1 X-4.649 Y-7.774 E9.0160
G0 X-6.664 Y-11.444 F10800
G1 X-6.432 Y-11.209 E9.0270 F3600
G0 X-5.864 Y-10.091 F10800
G1 X-5.631 Y-9.856 E9.0380 F3600
G0 X-5.064 Y-8.738 F10800
G1 X-4.986 Y-8.660 E9.0416 F3600
;segType:Infill
G0 X-4.546 Y-7.800 F10800
G1 X9.290 Y-7.800 E9.5018 F5400
;segType:HShell
G0 X9.385 Y-7.733 F10800
G1 X9.294 Y-7.825 E9.5061 F3600
G1 X9.118 Y-7.459
G1 X9.300 Y-7.275 E9.5147
G1 X9.214 Y-6.817
G1 X8.941 Y-7.093 E9.5276
G1 X8.691 Y-6.802
G1 X8.990 Y-6.500 E9.5417
G1 X8.647 Y-6.303
G1 X8.348 Y-6.605 E9.5559
G1 X8.004 Y-6.408
G1 X8.303 Y-6.106 E9.5700
G1 X7.960 Y-5.909
G1 X7.661 Y-6.211 E9.5841
G1 X7.318 Y-6.014
G1 X7.616 Y-5.712 E9.5983
G1 X7.273 Y-5.515
G1 X6.974 Y-5.817 E9.6124
G1 X6.631 Y-5.620
G1 X6.930 Y-5.318 E9.6265
G1 X6.586 Y-5.122
G1 X6.288 Y-5.424 E9.6407
G1 X5.944 Y-5.227
G1 X6.243 Y-4.925 E9.6548
G1 X5.899 Y-4.728
G1 X5.601 Y-5.030 E9.6689
G1 X5.257 Y-4.833
G1 X5.556 Y-4.531 E9.6830
G1 X5.212 Y-4.335
G1 X4.914 Y-4.636 E9.6971
G1 X4.570 Y-4.439
G1 X4.865 Y-4.141 E9.7111
G1 X4.518 Y-3.948
G1 X4.223 Y-4.246 E9.7250
G1 X3.876 Y-4.053
G1 X4.171 Y-3.754 E9.7390
G1 X3.824 Y-3.561
G1 X3.529 Y-3.859 E9.7529
G1 X3.281 Y-3.566
G1 X3.477 Y-3.368 E9.7622
G1 X3.130 Y-3.174
G1 X3.032 Y-3.274 E9.7669
G0 X2.138 Y-2.545 F10800
G1 X2.023 Y-2.661 E9.7723 F3600
G1 X1.955 Y-2.731
G1 X1.772 Y-2.916 E9.7810
G1 X1.498 Y-2.648
G1 X2.048 Y-2.092 E9.8070
G1 X1.775 Y-1.824
G1 X1.225 Y-2.380 E9.8330
G1 X0.952 Y-2.112
G1 X1.502 Y-1.556 E9.8590
G1 X1.228 Y-1.289
G1 X0.727 Y-1.795 E9.8827
G1 X0.787 Y-1.191
G1 X1.014 Y-0.961 E9.8934
G1 X1.074 Y-0.357
G1 X0.847 Y-0.586 E9.9042
G1 X0.907 Y0.018
G1 X1.133 Y0.247 E9.9149
G1 X1.192 Y0.852
G1 X0.966 Y0.622 E9.9256
G1 X1.025 Y1.227
G1 X1.252 Y1.456 E9.9363
G1 X1.311 Y2.060
G1 X1.084 Y1.831 E9.9470
G1 X1.144 Y2.435
G1 X1.370 Y2.664 E9.9578
G1 X1.430 Y3.268
G1 X1.203 Y3.039 E9.9685
G1 X1.262 Y3.643
G1 X1.489 Y3.872 E9.9792
G1 X1.548 Y4.476
G1 X1.322 Y4.247 E9.9899
G1 X1.381 Y4.851
G1 X1.608 Y5.080 E10.0007
G1 X1.667 Y5.684
G1 X1.440 Y5.455 E10.0114
G1 X1.500 Y6.059
G1 X1.726 Y6.288 E10.0221
G1 X1.786 Y6.892
G1 X1.559 Y6.663 E10.0328
G1 X1.618 Y7.267
G1 X1.845 Y7.496 E10.0436
G1 X1.904 Y8.101
G1 X1.678 Y7.871 E10.0543
G1 X1.737 Y8.475
G1 X1.964 Y8.705 E10.0650
G1 X2.023 Y9.309
G1 X1.796 Y9.079 E10.0757
G1 X1.856 Y9.683
G1 X2.082 Y9.913 E10.0865
G1 X2.142 Y10.517
G1 X1.915 Y10.288 E10.0972
G1 X1.974 Y10.892
G1 X2.201 Y11.121 E10.1079
G1 X2.033 Y11.496
G1 X2.436 Y11.903 E10.1270
G1 X2.836 Y11.763
G1 X2.600 Y11.524 E10.1382
G1 X2.695 Y11.076
G1 X2.882 Y11.265 E10.1470
G1 X2.927 Y10.767
G1 X2.740 Y10.577 E10.1559
G1 X2.785 Y10.079
G1 X2.972 Y10.268 E10.1647
G1 X3.017 Y9.770
G1 X2.830 Y9.581 E10.1736
G1 X2.876 Y9.082
G1 X3.063 Y9.272 E10.1824
G1 X3.108 Y8.773
G1 X2.921 Y8.584 E10.1913
G1 X2.966 Y8.086
G1 X3.153 Y8.275 E10.2001
G1 X3.198 Y7.776
G1 X3.011 Y7.587 E10.2089
G1 X3.057 Y7.089
G1 X3.244 Y7.278 E10.2178
G1 X3.289 Y6.780
G1 X3.102 Y6.591 E10.2266
G1 X3.147 Y6.092
G1 X3.334 Y6.281 E10.2355
G1 X3.379 Y5.783
G1 X3.192 Y5.594 E10.2443
G1 X3.238 Y5.096
G1 X3.425 Y5.285 E10.2531
G1 X3.470 Y4.786
G1 X3.283 Y4.597 E10.2620
G1 X3.328 Y4.099
G1 X3.515 Y4.288 E10.2708
G1 X3.560 Y3.790
G1 X3.374 Y3.601 E10.2796
G1 X3.419 Y3.102
G1 X3.606 Y3.291 E10.2885
G1 X3.651 Y2.793
G1 X3.464 Y2.604 E10.2973
G1 X3.509 Y2.106
G1 X3.696 Y2.295 E10.3062
G1 X3.741 Y1.796
G1 X3.555 Y1.607 E10.3150
G1 X3.600 Y1.109
G1 X3.787 Y1.298 E10.3238
G1 X3.832 Y0.800
G1 X3.645 Y0.611 E10.3326
G1 X3.690 Y0.112
G1 X3.877 Y0.301 E10.3415
G1 X3.923 Y-0.197
G1 X3.736 Y-0.386 E10.3503
G1 X3.781 Y-0.884
G1 X3.968 Y-0.695 E10.3592
G1 X4.014 Y-1.193
G1 X2.633 Y-2.589 E10.4245
G1 X2.882 Y-2.882
G1 X4.059 Y-1.691 E10.4802
;segType:Infill
G0 X2.938 Y8.399 F10800
G1 X1.934 Y8.399 E10.5135 F5400
G0 X1.536 Y4.349 F10800
G1 X3.306 Y4.349 E10.5724 F5400
G0 X3.673 Y0.299 F10800
G1 X1.138 Y0.299 E10.6567 F5400
;segType:HShell
G0 X1.360 Y-3.332 F10800
G1 X0.366 Y-4.337 E10.7037 F3600
;segType:Infill
G0 X3.334 Y-3.751 F10800
G1 X1.437 Y-3.751 E10.7668 F5400
;segType:HShell
G0 X0.185 Y-3.975 F10800
G1 X-0.843 Y-5.016 E10.8155 F3600
G0 X-2.223 Y-5.322 F10800
G1 X-3.277 Y-6.388 E10.8653 F3600
;segType:Infill
G0 X-4.203 Y-7.125 F10800
G1 X-4.203 Y-14.124 E11.0981 F5400
G0 X-6.412 Y-15.900 F10800
G1 X-7.593 Y-15.900 E11.1374 F5400
;segType:Support
G0 F4800 E10.1374
G0 X0.000 Y-22.500 F10800
G0 F4800 E11.1374
G1 X7.500 Y-22.500 E11.3494 F5400
G1 X7.500 Y-20.000 E11.4201
G1 X0.000 Y-20.000 E11.6321
G1 X0.000 Y-17.500 E11.7028
G1 X2.500 Y-17.500 E11.7735
; ------------------------------------
; Layer #4
; ------------------------------------
G21 ; mm
G90 ; abs
G92 E0 ; reset extr
M106 S255
;segType:Support
G0 F4800 E-1.0000
G0 F300 Z1.000
G0 X2.500 Y-17.500 F10800
G0 F4800 E0.0000
G1 X0.000 Y-17.500 E0.0707 F5400
G1 X0.000 Y-20.000 E0.1414
G1 X7.500 Y-20.000 E0.3534
G1 X7.500 Y-22.500 E0.4241
G1 X0.000 Y-22.500 E0.6361
G0 F4800 E-0.3639
G0 X-5.849 Y-17.639 F10800
G0 X-7.798 Y-16.018
G0 F4800 E0.6361
;segType:HShell
G1 X-8.127 Y-15.686 E0.6516 F3600
;segType:Loop
G0 X-7.292 Y-16.733 F10800
G1 X-7.041 Y-16.526 E0.6625 F3600
G1 X-5.926 Y-15.851 E0.7058
G1 X-3.190 Y-13.529 E0.8252
G1 X-0.664 Y-13.969 E0.9104
G1 X2.356 Y-13.529 E1.0120
G1 X5.372 Y-13.990 E1.1134
G1 X7.901 Y-13.568 E1.1987
G1 X10.621 Y-15.912 E1.3181
G1 X11.730 Y-16.594 E1.3615
G1 X12.054 Y-16.864 E1.3755
G1 X12.153 Y-16.287 E1.3950
G1 X12.743 Y-16.300 E1.4146
G1 X12.977 Y-16.043 E1.4261
G1 X13.071 Y-15.504 E1.4443
G1 X13.575 Y-15.490 E1.4611
G1 X13.684 Y-15.361 E1.4667
G1 X12.849 Y-13.672 E1.5294
G1 X9.839 Y-8.497 E1.7285
G1 X9.442 Y-6.369 E1.8005
G1 X5.616 Y-4.175 E1.9471
G1 X3.091 Y-2.767 E2.0433
G1 X4.319 Y-1.581 E2.1001
G1 X4.092 Y0.896 E2.1828
G1 X3.063 Y12.225 E2.5612
G1 X2.450 Y12.237 E2.5816
G1 X1.837 Y12.229 E2.6020
G1 X0.725 Y0.908 E2.9804
G1 X0.480 Y-1.566 E3.0631
G1 X1.700 Y-2.762 E3.1199
G1 X-0.836 Y-4.151 E3.2160
G1 X-4.678 Y-6.318 E3.3627
G1 X-5.091 Y-8.442 E3.4347
G1 X-8.138 Y-13.595 E3.6338
G1 X-8.985 Y-15.278 E3.6965
G1 X-8.877 Y-15.408 E3.7021
G1 X-8.373 Y-15.426 E3.7189
G1 X-8.283 Y-15.965 E3.7371
G1 X-8.051 Y-16.224 E3.7486
G1 X-7.462 Y-16.216 E3.7682
G1 X-7.382 Y-16.699 E3.7845
G0 F4800 E2.7845
G0 X-8.084 Y-16.057 F10800
G0 F4800 E3.7845
;segType:Perimeter
G1 X-7.790 Y-16.682 E3.8075 F2159
G1 X-7.731 Y-17.036 E3.8194
G1 X-7.423 Y-17.362 E3.8344
G1 X-6.810 Y-16.858 E3.8607
G1 X-5.694 Y-16.182 E3.9042
G1 X-3.075 Y-13.959 E4.0184
G1 X-0.670 Y-14.379 E4.0996
G1 X2.355 Y-13.938 E4.2013
G1 X5.375 Y-14.399 E4.3029
G1 X7.783 Y-13.997 E4.3841
G1 X10.386 Y-16.241 E4.4984
G1 X11.498 Y-16.924 E4.5418
G1 X12.106 Y-17.433 E4.5682
G1 X12.417 Y-17.109 E4.5831
G1 X12.488 Y-16.699 E4.5970
G1 X12.914 Y-16.708 E4.6111
G1 X13.351 Y-16.229 E4.6327
G1 X13.408 Y-15.899 E4.6438
G1 X13.764 Y-15.889 E4.6557
G1 X14.171 Y-15.406 E4.6767
G1 X14.045 Y-15.187 E4.6851
G1 X13.201 Y-13.479 E4.7485
G1 X10.220 Y-8.352 E4.9457
G1 X9.801 Y-6.110 E5.0216
G1 X5.812 Y-3.822 E5.1745
G1 X3.761 Y-2.679 E5.2526
G1 X4.735 Y-1.738 E5.2977
G1 X4.490 Y0.933 E5.3869
G1 X3.429 Y12.622 E5.7772
G1 X2.451 Y12.641 E5.8098
G1 X1.474 Y12.629 E5.8423
G1 X0.327 Y0.948 E6.2327
G1 X0.063 Y-1.721 E6.3219
G1 X1.030 Y-2.669 E6.3669
G1 X-1.029 Y-3.797 E6.4450
G1 X-5.035 Y-6.056 E6.5980
G1 X-5.470 Y-8.295 E6.6738
G1 X-8.488 Y-13.399 E6.8711
G1 X-9.345 Y-15.101 E6.9344
G1 X-9.473 Y-15.319 E6.9428
G1 X-9.070 Y-15.806 E6.9638
G1 X-8.713 Y-15.818 E6.9757
G1 X-8.659 Y-16.149 E6.9869
G1 X-8.226 Y-16.631 E7.0084
G1 X-7.857 Y-16.626 E7.0207
G1 X-7.196 Y-16.807
G0 F4800 E6.0207
G0 X-7.242 Y-15.900 F10800
G0 F4800 E7.0207
;segType:Infill
G1 X-6.445 Y-15.900 E7.0472 F5400
;segType:HShell
G0 X-7.010 Y-16.271 F10800
G1 X-8.501 Y-14.764 E7.1177 F3600
G1 X-8.320 Y-14.403
G1 X-8.246 Y-14.478 E7.1212
G1 X-8.064 Y-14.117
G1 X-8.139 Y-14.042 E7.1248
G1 X-7.956 Y-13.682
G1 X-7.883 Y-13.757 E7.1282
;segType:Infill
G0 X-6.779 Y-11.850 F10800
G1 X11.464 Y-11.850 E7.7350 F5400
;segType:HShell
G0 X11.270 Y-11.356 F10800
G1 X11.044 Y-11.128 E7.7457 F3600
G0 X12.038 Y-12.677 F10800
G1 X11.812 Y-12.448 E7.7564 F3600
G0 X12.543 Y-13.731 F10800
G1 X12.766 Y-13.957 E7.7670 F3600
G1 X12.955 Y-14.692
G1 X13.304 Y-15.045 E7.7835
G1 X13.022 Y-15.304
G1 X12.715 Y-14.993 E7.7980
G1 X12.474 Y-15.294
G1 X12.840 Y-15.664 E7.8153
G1 X12.691 Y-16.058
G1 X12.234 Y-15.596 E7.8369
G1 X11.994 Y-15.897
G1 X12.180 Y-16.085 E7.8457
G1 X11.934 Y-16.380
G1 X11.754 Y-16.198 E7.8542
G0 X10.744 Y-15.722 F10800
G1 X10.818 Y-15.796 E7.8577 F3600
;segType:Infill
G0 X11.035 Y-15.900 F10800
G1 X11.992 Y-15.900 E7.8896 F5400
G1 X11.820 Y-16.116 E7.8987
G1 X11.820 Y-12.462 E8.0202
G0 X3.808 Y-12.731 F10800
G1 X3.808 Y-3.860 E8.3153 F5400
;segType:HShell
G0 X3.914 Y-3.920 F10800
G1 X2.971 Y-2.966 E8.3599 F3600
G1 X2.094 Y-2.623
G1 X0.715 Y-1.229 E8.4251
G1 X0.763 Y-0.734
G1 X2.246 Y-2.233 E8.4952
;segType:Infill
G0 X3.808 Y-0.441 F10800
G1 X3.808 Y-0.707 E8.5041 F5400
G0 X3.741 Y0.299 F10800
G1 X1.070 Y0.299 E8.5929 F5400
G0 X1.866 Y8.399 F10800
G1 X3.006 Y8.399 E8.6308 F5400
G0 X3.373 Y4.349 F10800
G1 X1.468 Y4.349 E8.6942 F5400
;segType:HShell
G0 X0.999 Y-0.428 F10800
G1 X0.812 Y-0.239 E8.7030 F3600
G1 X0.861 Y0.255
G1 X1.047 Y0.067 E8.7118
G1 X1.096 Y0.562
G1 X0.910 Y0.750 E8.7206
G1 X0.959 Y1.245
G1 X1.145 Y1.057 E8.7294
G1 X1.193 Y1.552
G1 X1.008 Y1.740 E8.7382
G1 X1.056 Y2.235
G1 X1.242 Y2.047 E8.7469
G1 X1.290 Y2.542
G1 X1.105 Y2.730 E8.7557
G1 X1.153 Y3.225
G1 X1.339 Y3.037 E8.7645
G1 X1.388 Y3.532
G1 X1.202 Y3.720 E8.7733
G1 X1.251 Y4.215
G1 X1.436 Y4.027 E8.7821
G1 X1.485 Y4.522
G1 X1.299 Y4.710 E8.7909
G1 X1.348 Y5.205
G1 X1.534 Y5.017 E8.7997
G1 X1.582 Y5.512
G1 X1.396 Y5.700 E8.8084
G1 X1.445 Y6.195
G1 X1.631 Y6.007 E8.8172
G1 X1.679 Y6.502
G1 X1.494 Y6.690 E8.8260
G1 X1.542 Y7.185
G1 X1.728 Y6.997 E8.8348
G1 X1.777 Y7.492
G1 X1.591 Y7.680 E8.8436
G1 X1.639 Y8.175
G1 X1.825 Y7.987 E8.8524
G1 X1.874 Y8.482
G1 X1.688 Y8.669 E8.8612
G1 X1.737 Y9.164
G1 X1.922 Y8.977 E8.8700
G1 X1.971 Y9.471
G1 X1.785 Y9.659 E8.8788
G1 X1.834 Y10.154
G1 X2.020 Y9.966 E8.8875
G1 X2.068 Y10.461
G1 X1.882 Y10.649 E8.8963
G1 X1.931 Y11.144
G1 X2.117 Y10.956 E8.9051
G1 X2.166 Y11.451
G1 X1.980 Y11.639 E8.9139
G1 X2.132 Y12.029
G1 X2.507 Y11.650 E8.9317
G1 X2.901 Y11.795
G1 X2.672 Y12.027 E8.9425
G1 X2.956 Y11.196
G1 X2.731 Y11.424 E8.9531
G1 X2.785 Y10.825
G1 X3.010 Y10.597 E8.9638
G1 X3.065 Y9.998
G1 X2.840 Y10.226 E8.9744
G1 X2.894 Y9.626
G1 X3.119 Y9.399 E8.9850
G1 X3.173 Y8.800
G1 X2.949 Y9.027 E8.9957
G1 X3.003 Y8.428
G1 X3.228 Y8.201 E9.0063
G1 X3.282 Y7.602
G1 X3.057 Y7.829 E9.0170
G1 X3.112 Y7.230
G1 X3.337 Y7.003 E9.0276
G1 X3.391 Y6.404
G1 X3.166 Y6.631 E9.0382
G1 X3.221 Y6.032
G1 X3.445 Y5.804 E9.0489
G1 X3.500 Y5.205
G1 X3.275 Y5.433 E9.0595
G1 X3.329 Y4.834
G1 X3.554 Y4.606 E9.0701
G1 X3.609 Y4.007
G1 X3.384 Y4.234 E9.0808
G1 X3.438 Y3.635
G1 X3.663 Y3.408 E9.0914
G1 X3.717 Y2.809
G1 X3.493 Y3.036 E9.1020
G1 X3.547 Y2.437
G1 X3.772 Y2.210 E9.1127
G1 X3.826 Y1.611
G1 X3.601 Y1.838 E9.1233
G1 X3.656 Y1.239
G1 X3.881 Y1.012 E9.1339
G1 X3.935 Y0.412
G1 X3.710 Y0.640 E9.1446
G1 X3.765 Y0.041
G1 X3.990 Y-0.188 E9.1552
G1 X4.045 Y-0.787
G1 X3.819 Y-0.558 E9.1659
G1 X3.614 Y-0.895
G1 X4.100 Y-1.387 E9.1889
G1 X3.889 Y-1.717
G1 X3.339 Y-1.161 E9.2150
G1 X3.063 Y-1.427
G1 X3.613 Y-1.983 E9.2410
G1 X3.338 Y-2.249
G1 X2.788 Y-1.693 E9.2670
G1 X2.513 Y-1.959
G1 X3.063 Y-2.514 E9.2930
;segType:Infill
G0 X3.611 Y-3.751 F10800
G1 X1.156 Y-3.751 E9.3746 F5400
;segType:HShell
G0 X1.494 Y-3.105 F10800
G1 X1.691 Y-3.304 E9.3839 F3600
G1 X1.440 Y-3.595
G1 X1.145 Y-3.296 E9.3979
G1 X0.796 Y-3.487
G1 X1.091 Y-3.786 E9.4119
G1 X0.742 Y-3.977
G1 X0.447 Y-3.678 E9.4259
G1 X0.098 Y-3.870
G1 X0.393 Y-4.168 E9.4398
G1 X0.044 Y-4.360
G1 X-0.251 Y-4.061 E9.4538
G1 X-0.600 Y-4.252
G1 X-0.302 Y-4.553 E9.4679
G1 X-0.648 Y-4.748
G1 X-0.947 Y-4.445 E9.4821
G1 X-1.293 Y-4.640
G1 X-0.993 Y-4.943 E9.4962
G1 X-1.339 Y-5.138
G1 X-1.638 Y-4.835 E9.5104
G1 X-1.984 Y-5.030
G1 X-1.684 Y-5.332 E9.5245
G1 X-2.030 Y-5.527
G1 X-2.329 Y-5.225 E9.5387
G1 X-2.675 Y-5.420
G1 X-2.375 Y-5.722 E9.5529
G1 X-2.721 Y-5.917
G1 X-3.020 Y-5.614 E9.5670
G1 X-3.366 Y-5.809
G1 X-3.066 Y-6.112 E9.5812
G1 X-3.412 Y-6.307
G1 X-3.711 Y-6.004 E9.5953
G1 X-4.057 Y-6.199
G1 X-3.757 Y-6.501 E9.6095
G1 X-4.103 Y-6.696
G1 X-4.402 Y-6.394 E9.6236
G1 X-4.563 Y-6.775
G1 X-4.291 Y-7.050 E9.6365
G1 X-4.390 Y-7.494
G1 X-4.651 Y-7.230 E9.6488
G1 X-4.740 Y-7.685
G1 X-4.572 Y-7.854 E9.6567
G1 X-4.754 Y-8.214
G1 X-4.828 Y-8.139 E9.6602
;segType:Infill
G0 X-4.546 Y-7.800 F10800
G1 X9.290 Y-7.800 E10.1204 F5400
;segType:HShell
G0 X10.503 Y-10.036 F10800
G1 X10.277 Y-9.808 E10.1311 F3600
G0 X9.538 Y-7.973 F10800
G1 X9.193 Y-7.624 E10.1474 F3600
G1 X9.413 Y-7.302
G1 X9.013 Y-6.898 E10.1663
G1 X9.017 Y-6.358
G1 X9.288 Y-6.631 E10.1791
G1 X8.856 Y-6.739
G1 X7.774 Y-5.645 E10.2302
G0 X6.368 Y-5.312 F10800
G1 X5.295 Y-4.227 E10.2810 F3600
G1 X5.124 Y-4.598
G1 X4.095 Y-3.558 E10.3297
G0 X6.530 Y-4.932 F10800
G1 X7.612 Y-6.025 E10.3808 F3600
;segType:Infill
G0 X7.814 Y-6.141 F10800
G1 X7.814 Y-13.226 E10.6164 F5400
;segType:HShell
G0 X7.877 Y-13.367 F10800
G1 X7.427 Y-12.912 E10.6377 F3600
G1 X6.965 Y-12.989
G1 X7.415 Y-13.444 E10.6590
G1 X6.953 Y-13.521
G1 X6.503 Y-13.066 E10.6803
G1 X5.958 Y-13.059
G1 X6.491 Y-13.598 E10.7055
G1 X6.029 Y-13.675
G1 X5.324 Y-12.962 E10.7389
G1 X4.690 Y-12.866
G1 X5.567 Y-13.752 E10.7803
G1 X5.007 Y-13.729
G1 X4.056 Y-12.769 E10.8253
G1 X3.423 Y-12.672
G1 X4.373 Y-13.633 E10.8702
G1 X3.739 Y-13.536
G1 X2.789 Y-12.575 E10.9152
G1 X2.208 Y-12.532
G1 X3.105 Y-13.439 E10.9576
G1 X2.471 Y-13.342
G1 X1.737 Y-12.600 E10.9923
G1 X1.267 Y-12.669
G1 X1.971 Y-13.381 E11.0256
G1 X1.501 Y-13.450
G1 X0.796 Y-12.737 E11.0589
G1 X0.326 Y-12.806
G1 X1.030 Y-13.518 E11.0922
G1 X0.560 Y-13.587
G1 X-0.145 Y-12.874 E11.1255
G1 X-0.615 Y-12.943
G1 X0.089 Y-13.655 E11.1589
G1 X-0.381 Y-13.724
G1 X-1.085 Y-13.011 E11.1922
G1 X-1.558 Y-13.078
G1 X-0.924 Y-13.719 E11.2222
G1 X-1.574 Y-13.605
G1 X-2.208 Y-12.965 E11.2521
G1 X-2.788 Y-12.923
G1 X-2.224 Y-13.492 E11.2788
G1 X-2.875 Y-13.379
G1 X-3.080 Y-13.171 E11.2885
;segType:Infill
G0 X-0.197 Y-12.882 F10800
G1 X-0.197 Y-4.494 E11.5675 F5400
G0 X-4.203 Y-6.753 F10800
G1 X-4.203 Y-14.124 E11.8127 F5400
G0 X-8.209 Y-14.405 F10800
G1 X-8.209 Y-14.667 E11.8214 F5400
;segType:HShell
G0 X-8.683 Y-15.124 F10800
G1 X-8.592 Y-15.216 E11.8257 F3600
;segType:Support
G0 F4800 E10.8257
G0 X0.674 Y-15.000 F10800
G0 F4800 E11.8257
G1 X2.500 Y-15.000 E11.8773 F5400
; ------------------------------------
; Layer #5
; ------------------------------------
G21 ; mm
G90 ; abs
G92 E0 ; reset extr
M106 S255
;segType:Support
G0 F4800 E-1.0000
G0 F300 Z1.200
G0 X2.500 Y-17.500 F10800
G0 F4800 E0.0000
G1 X0.000 Y-17.500 E0.0707 F5400
G1 X0.000 Y-20.000 E0.1414
G1 X7.500 Y-20.000 E0.3534
G1 X7.500 Y-22.500 E0.4241
G1 X0.000 Y-22.500 E0.6361
G0 F4800 E-0.3639
G0 X-6.450 Y-16.901 F10800
G0 X-8.600 Y-15.034
G0 F4800 E0.6361
;segType:HShell
G1 X-8.026 Y-14.453 E0.6633 F3600
G1 X-7.788 Y-14.757
G1 X-8.365 Y-15.340 E0.6906
G1 X-8.094 Y-15.611
G1 X-7.550 Y-15.060 E0.7163
G1 X-7.312 Y-15.364
G1 X-7.838 Y-15.896 E0.7413
;segType:Loop
G0 X-7.236 Y-16.637 F10800
G1 X-7.223 Y-16.626 E0.7418 F3600
G1 X-5.885 Y-15.817 E0.7938
G1 X-3.363 Y-13.676 E0.9039
G1 X-0.368 Y-14.198 E1.0050
G1 X2.355 Y-13.801 E1.0965
G1 X5.074 Y-14.216 E1.1880
G1 X8.073 Y-13.716 E1.2891
G1 X10.580 Y-15.877 E1.3992
G1 X11.912 Y-16.696 E1.4512
G1 X11.998 Y-16.768 E1.4549
G1 X12.062 Y-16.701 E1.4580
G1 X12.147 Y-16.208 E1.4746
G1 X12.579 Y-16.217 E1.4890
G1 X13.082 Y-15.666 E1.5138
G1 X13.175 Y-15.599 E1.5176
G1 X13.543 Y-15.152 E1.5369
G1 X12.777 Y-13.601 E1.5944
G1 X10.014 Y-8.849 E1.7772
G1 X9.531 Y-6.262 E1.8648
G1 X5.842 Y-4.147 E2.0062
G1 X2.954 Y-2.537 E2.1162
G1 X4.352 Y-1.187 E2.1808
G1 X4.074 Y1.843 E2.2820
G1 X3.120 Y12.350 E2.6329
G1 X2.450 Y12.363 E2.6552
G1 X1.781 Y12.355 E2.6775
G1 X0.750 Y1.855 E3.0283
G1 X0.450 Y-1.172 E3.1295
G1 X1.838 Y-2.533 E3.1942
G1 X-1.062 Y-4.122 E3.3041
G1 X-4.765 Y-6.210 E3.4455
G1 X-5.267 Y-8.794 E3.5331
G1 X-8.065 Y-13.525 E3.7159
G1 X-8.843 Y-15.070 E3.7734
G1 X-8.477 Y-15.520 E3.7927
G1 X-8.385 Y-15.588 E3.7965
G1 X-7.887 Y-16.143 E3.8213
G1 X-7.455 Y-16.137 E3.8357
G1 X-7.373 Y-16.630 E3.8523
G1 X-7.373 Y-16.630
;segType:Perimeter
G0 X-8.078 Y-15.978 F10800
G1 X-7.784 Y-16.603 E3.8753 F2159
G1 X-7.747 Y-16.820 E3.8826
G1 X-7.343 Y-17.247 E3.9022
G1 X-6.993 Y-16.958 E3.9172
G1 X-5.653 Y-16.147 E3.9694
G1 X-3.248 Y-14.106 E4.0743
G1 X-0.373 Y-14.607 E4.1713
G1 X2.354 Y-14.210 E4.2630
G1 X5.077 Y-14.626 E4.3546
G1 X7.955 Y-14.145 E4.4516
G1 X10.345 Y-16.206 E4.5566
G1 X11.680 Y-17.026 E4.6087
G1 X12.028 Y-17.317 E4.6238
G1 X12.435 Y-16.893 E4.6434
G1 X12.482 Y-16.620 E4.6526
G1 X12.751 Y-16.625 E4.6615
G1 X13.349 Y-15.970 E4.6910
G1 X13.449 Y-15.897 E4.6952
G1 X14.018 Y-15.208 E4.7249
G1 X13.129 Y-13.408 E4.7916
G1 X10.394 Y-8.705 E4.9726
G1 X9.889 Y-6.003 E5.0640
G1 X6.037 Y-3.794 E5.2117
G1 X3.624 Y-2.449 E5.3036
G1 X4.768 Y-1.344 E5.3565
G1 X4.472 Y1.880 E5.4642
G1 X3.486 Y12.747 E5.8271
G1 X2.452 Y12.767 E5.8615
G1 X1.418 Y12.754 E5.8959
G1 X0.352 Y1.896 E6.2588
G1 X0.033 Y-1.326 E6.3665
G1 X1.168 Y-2.440 E6.4194
G1 X-1.255 Y-3.767 E6.5112
G1 X-5.122 Y-5.948 E6.6589
G1 X-5.646 Y-8.647 E6.7504
G1 X-8.415 Y-13.329 E6.9313
G1 X-9.318 Y-15.122 E6.9981
G1 X-8.754 Y-15.816 E7.0278
G1 X-8.654 Y-15.890 E7.0319
G1 X-8.062 Y-16.550 E7.0614
G1 X-7.850 Y-16.547 E7.0685
G1 X-7.189 Y-16.728
G0 F4800 E6.0685
G0 X-7.216 Y-16.355 F10800
G0 F4800 E7.0685
;segType:HShell
G1 X-6.836 Y-15.970 E7.0865 F3600
G1 X-7.074 Y-15.667
G1 X-7.337 Y-15.933 E7.0989
G0 X-7.815 Y-13.696 F10800
G1 X-8.043 Y-13.927 E7.1097 F3600
G0 X-7.309 Y-12.641 F10800
G1 X-7.077 Y-12.406 E7.1207 F3600
G0 X-6.509 Y-11.287 F10800
G1 X-6.276 Y-11.052 E7.1317 F3600
G0 X-5.554 Y-9.777 F10800
G1 X-5.708 Y-9.934 E7.1391 F3600
;segType:Infill
G0 X-6.748 Y-11.850 F10800
G1 X11.434 Y-11.850 E7.7438 F5400
G1 X11.820 Y-12.515 E7.7694
G1 X11.820 Y-15.672 E7.8744
G1 X11.051 Y-15.900 E7.9011
G1 X11.639 Y-15.900 E7.9206
;segType:HShell
G0 X11.667 Y-16.308 F10800
G1 X13.150 Y-14.809 E7.9908 F3600
G0 X12.079 Y-15.348 F10800
G1 X12.971 Y-14.446 E8.0329 F3600
G1 X12.791 Y-14.083
G1 X12.717 Y-14.158 E8.0365
G1 X12.538 Y-13.795
G1 X12.612 Y-13.720 E8.0400
G0 X8.053 Y-13.432 F10800
G1 X7.956 Y-13.530 E8.0446 F3600
G1 X7.312 Y-13.638
G1 X7.763 Y-13.182 E8.0659
G1 X7.295 Y-13.111
G1 X6.667 Y-13.745 E8.0956
G1 X6.023 Y-13.853
G1 X6.650 Y-13.218 E8.1253
G1 X6.006 Y-13.326
G1 X5.378 Y-13.961 E8.1550
G1 X4.827 Y-13.974
G1 X5.528 Y-13.265 E8.1881
G1 X5.060 Y-13.194
G1 X4.359 Y-13.902 E8.2213
G1 X3.892 Y-13.831
G1 X4.592 Y-13.123 E8.2544
G1 X4.125 Y-13.051
G1 X3.424 Y-13.760 E8.2876
G1 X2.956 Y-13.688
G1 X3.657 Y-12.980 E8.3207
G1 X3.190 Y-12.908
G1 X2.489 Y-13.617 E8.3539
G1 X1.906 Y-13.662
G1 X2.722 Y-12.837 E8.3925
G1 X2.218 Y-12.802
G1 X1.277 Y-13.754 E8.4370
G1 X0.648 Y-13.845
G1 X1.590 Y-12.894 E8.4815
G1 X0.961 Y-12.985
G1 X0.020 Y-13.937 E8.5260
G1 X-0.543 Y-13.962
G1 X0.332 Y-13.077 E8.5675
G1 X-0.296 Y-13.168
G1 X-1.002 Y-13.882 E8.6008
G1 X-1.461 Y-13.802
G1 X-0.925 Y-13.260 E8.6262
G1 X-1.473 Y-13.269
G1 X-1.920 Y-13.722 E8.6474
G1 X-2.379 Y-13.642
G1 X-1.932 Y-13.189 E8.6685
G1 X-2.391 Y-13.109
G1 X-2.839 Y-13.562 E8.6897
G1 X-3.298 Y-13.482
G1 X-2.850 Y-13.029 E8.7109
;segType:Infill
G0 X-0.197 Y-13.154 F10800
G1 X-0.197 Y-4.339 E9.0041 F5400
;segType:HShell
G0 X-0.146 Y-4.311 F10800
G1 X0.849 Y-3.305 E9.0511 F3600
G0 X1.955 Y-2.731 F10800
G1 X1.029 Y-3.667 E9.0949 F3600
;segType:Infill
G0 X0.876 Y-3.751 F10800
G1 X3.887 Y-3.751 E9.1951 F5400
G1 X3.808 Y-3.706 E9.1981
G1 X3.808 Y-13.003 E9.5073
G0 X7.814 Y-13.226 F10800
G1 X7.814 Y-5.983 E9.7482 F5400
G0 X3.436 Y-2.474 F10800
G0 X4.140 Y-1.066
;segType:HShell
G1 X3.115 Y-2.102 E9.7966 F3600
G1 X2.483 Y-2.197
G1 X4.094 Y-0.568 E9.8728
G1 X4.048 Y-0.070
G1 X3.860 Y-0.260 E9.8818
G1 X3.815 Y0.238
G1 X4.003 Y0.428 E9.8907
G1 X3.957 Y0.926
G1 X3.769 Y0.736 E9.8995
G1 X3.724 Y1.235
G1 X3.912 Y1.424 E9.9084
G1 X3.866 Y1.922
G1 X3.679 Y1.733 E9.9173
G1 X3.634 Y2.231
G1 X3.821 Y2.421 E9.9261
G1 X3.776 Y2.919
G1 X3.588 Y2.730 E9.9350
G1 X3.543 Y3.228
G1 X3.730 Y3.417 E9.9438
G1 X3.685 Y3.916
G1 X3.498 Y3.727 E9.9527
G1 X3.453 Y4.225
G1 X3.640 Y4.414 E9.9615
G1 X3.595 Y4.912
G1 X3.407 Y4.723 E9.9704
G1 X3.362 Y5.222
G1 X3.549 Y5.411 E9.9792
G1 X3.504 Y5.909
G1 X3.317 Y5.720 E9.9881
G1 X3.272 Y6.218
G1 X3.459 Y6.408 E9.9969
G1 X3.414 Y6.906
G1 X3.227 Y6.717 E10.0058
G1 X3.181 Y7.215
G1 X3.368 Y7.404 E10.0146
G1 X3.323 Y7.903
G1 X3.136 Y7.713 E10.0235
G1 X3.091 Y8.212
G1 X3.278 Y8.401 E10.0323
G1 X3.233 Y8.899
G1 X3.046 Y8.710 E10.0412
G1 X3.000 Y9.209
G1 X3.187 Y9.398 E10.0500
G1 X3.142 Y9.896
G1 X2.955 Y9.707 E10.0589
G1 X2.910 Y10.205
G1 X3.097 Y10.394 E10.0677
G1 X3.052 Y10.893
G1 X2.865 Y10.704 E10.0766
G1 X2.819 Y11.202
G1 X3.006 Y11.391 E10.0854
G1 X2.961 Y11.890
G1 X2.774 Y11.700 E10.0943
G1 X2.313 Y11.778
G1 X2.686 Y12.156 E10.1119
G1 X2.149 Y12.157
G1 X1.941 Y11.947 E10.1218
G1 X2.109 Y11.572
G1 X1.882 Y11.343 E10.1325
G1 X1.823 Y10.739
G1 X2.050 Y10.968 E10.1432
G1 X1.991 Y10.364
G1 X1.764 Y10.135 E10.1540
G1 X1.704 Y9.531
G1 X1.931 Y9.760 E10.1647
G1 X1.872 Y9.156
G1 X1.645 Y8.927 E10.1754
G1 X1.586 Y8.322
G1 X1.813 Y8.552 E10.1862
G1 X1.753 Y7.948
G1 X1.526 Y7.718 E10.1969
G1 X1.467 Y7.114
G1 X1.694 Y7.344 E10.2076
G1 X1.635 Y6.740
G1 X1.408 Y6.510 E10.2184
G1 X1.349 Y5.906
G1 X1.575 Y6.136 E10.2291
G1 X1.516 Y5.532
G1 X1.289 Y5.302 E10.2398
G1 X1.230 Y4.698
G1 X1.457 Y4.928 E10.2505
G1 X1.397 Y4.323
G1 X1.171 Y4.094 E10.2613
G1 X1.111 Y3.490
G1 X1.338 Y3.719 E10.2720
G1 X1.279 Y3.115
G1 X1.052 Y2.886 E10.2827
G1 X0.993 Y2.282
G1 X1.220 Y2.511 E10.2935
G1 X1.160 Y1.907
G1 X0.933 Y1.678 E10.3042
G1 X0.873 Y1.073
G1 X1.101 Y1.303 E10.3149
G1 X1.042 Y0.699
G1 X0.814 Y0.469 E10.3257
G1 X0.754 Y-0.136
G1 X0.982 Y0.095 E10.3365
G1 X1.048 Y-0.383
G1 X0.694 Y-0.741 E10.3533
G1 X0.772 Y-1.206
G1 X1.321 Y-0.650 E10.3793
G1 X1.595 Y-0.918
G1 X1.045 Y-1.474 E10.4053
G1 X1.318 Y-1.742
G1 X1.868 Y-1.186 E10.4313
G1 X2.141 Y-1.454
G1 X1.592 Y-2.010 E10.4572
G1 X1.865 Y-2.277
G1 X3.089 Y-1.040 E10.5151
;segType:Infill
G0 X3.441 Y4.349 F10800
G1 X1.400 Y4.349 E10.5830 F5400
G0 X1.798 Y8.399 F10800
G1 X3.074 Y8.399 E10.6255 F5400
G0 X1.002 Y0.299 F10800
G1 X3.809 Y0.299 E10.7188 F5400
G1 X3.808 Y0.307 E10.7191
G1 X3.808 Y-0.345 E10.7408
;segType:HShell
G0 X2.980 Y-2.782 F10800
G1 X2.882 Y-2.882 E10.7454 F3600
G1 X3.032 Y-3.274
G1 X3.327 Y-2.976 E10.7594
G1 X3.674 Y-3.169
G1 X3.379 Y-3.467 E10.7733
G1 X3.726 Y-3.660
G1 X4.021 Y-3.362 E10.7873
G1 X4.368 Y-3.556
G1 X4.073 Y-3.854 E10.8012
G1 X4.420 Y-4.047
G1 X4.715 Y-3.749 E10.8152
G1 X5.061 Y-3.943
G1 X4.767 Y-4.241 E10.8291
G1 X5.113 Y-4.434
G1 X5.408 Y-4.136 E10.8431
G1 X5.755 Y-4.330
G1 X5.457 Y-4.631 E10.8572
G1 X5.800 Y-4.828
G1 X6.098 Y-4.526 E10.8713
G1 X6.442 Y-4.723
G1 X6.143 Y-5.025 E10.8854
G1 X6.487 Y-5.222
G1 X6.785 Y-4.920 E10.8995
G1 X7.129 Y-5.117
G1 X6.830 Y-5.419 E10.9137
G1 X7.174 Y-5.616
G1 X7.472 Y-5.314 E10.9278
G1 X7.815 Y-5.511
G1 X7.517 Y-5.813 E10.9419
G1 X7.860 Y-6.010
G1 X8.159 Y-5.708 E10.9560
G1 X8.502 Y-5.905
G1 X8.204 Y-6.207 E10.9701
G1 X8.547 Y-6.404
G1 X8.846 Y-6.102 E10.9843
G1 X9.189 Y-6.299
G1 X8.891 Y-6.601 E10.9984
G1 X9.123 Y-6.909
G1 X9.396 Y-6.633 E11.0113
G1 X9.482 Y-7.091
G1 X9.209 Y-7.367 E11.0242
G1 X9.294 Y-7.825
G1 X9.567 Y-7.549 E11.0371
G1 X9.653 Y-8.006
G1 X9.471 Y-8.191 E11.0457
G1 X9.647 Y-8.556
G1 X9.738 Y-8.464 E11.0501
;segType:Infill
G0 X9.290 Y-7.800 F10800
G1 X-4.546 Y-7.800 E11.5102 F5400
;segType:HShell
G0 X-4.986 Y-8.660 F10800
G1 X-5.050 Y-8.724 E11.5132 F3600
G1 X-4.918 Y-8.047
G1 X-4.514 Y-7.639 E11.5323
G1 X-4.787 Y-7.370
G1 X-4.383 Y-6.961 E11.5514
G1 X-4.655 Y-6.693
G1 X-3.954 Y-5.984 E11.5846
G0 X-2.574 Y-5.677 F10800
G1 X-1.520 Y-4.612 E11.6344 F3600
G0 X-0.326 Y-3.948 F10800
G1 X-1.358 Y-4.991 E11.6832 F3600
G0 X-2.737 Y-5.298 F10800
G1 X-3.791 Y-6.363 E11.7331 F3600
;segType:Infill
G0 X-4.203 Y-6.596 F10800
G1 X-4.203 Y-14.124 E11.9835 F5400
G0 X-6.461 Y-15.900 F10800
G1 X-6.891 Y-15.900 E11.9978 F5400
; ------------------------------------
; Layer #6
; ------------------------------------
G21 ; mm
G90 ; abs
G92 E0 ; reset extr
M106 S255
;segType:Support
G0 F4800 E-1.0000
G0 F300 Z1.400
G0 X0.000 Y-20.000 F10800
G0 F4800 E0.0000
G1 X7.500 Y-20.000 E0.2120 F5400
G0 F4800 E-0.7880
G0 X0.000 Y-22.500 F10800
G0 F4800 E0.2120
G1 X7.500 Y-22.500 E0.4241 F5400
G0 F4800 E-0.5759
G0 X0.121 Y-17.379 F10800
G0 F4800 E0.4241
G1 X2.379 Y-17.379 E0.4879 F5400
;segType:Loop
G0 F4800 E-0.5121
G0 X0.577 Y-3.070 F10800
G0 F4800 E0.4879
G1 X-1.288 Y-4.092 E0.5586 F3600
G1 X-4.852 Y-6.102 E0.6948
G1 X-5.444 Y-9.145 E0.7979
G1 X-7.993 Y-13.454 E0.9644
G1 X-8.686 Y-14.833 E1.0157
G1 X-7.729 Y-16.053 E1.0673
G1 X-7.528 Y-16.244 E1.0765
G1 X-7.200 Y-16.602 E1.0927
G1 X-5.844 Y-15.782 E1.1453
G1 X-3.535 Y-13.823 E1.2461
G1 X-0.072 Y-14.426 E1.3630
G1 X2.354 Y-14.073 E1.4445
G1 X4.776 Y-14.442 E1.5260
G1 X8.244 Y-13.864 E1.6430
G1 X10.539 Y-15.842 E1.7437
G1 X11.889 Y-16.672 E1.7964
G1 X12.220 Y-16.316 E1.8126
G1 X12.422 Y-16.126 E1.8218
G1 X13.388 Y-14.913 E1.8734
G1 X12.705 Y-13.531 E1.9247
G1 X10.188 Y-9.202 E2.0912
G1 X9.619 Y-6.155 E2.1943
G1 X6.068 Y-4.118 E2.3305
G1 X2.817 Y-2.307 E2.4543
G1 X4.385 Y-0.793 E2.5267
G1 X4.056 Y2.791 E2.6464
G1 X3.177 Y12.475 E2.9698
G1 X2.451 Y12.488 E2.9940
G1 X1.725 Y12.480 E3.0181
G1 X0.775 Y2.803 E3.3415
G1 X0.420 Y-0.778 E3.4612
G1 X1.976 Y-2.304 E3.5337
G1 X0.745 Y-2.978 E3.5804
;segType:Perimeter
G0 X1.557 Y-1.616 F10800
G1 X1.257 Y-2.238 E3.6034 F2159
G1 X-1.480 Y-3.737 E3.7072
G1 X-5.209 Y-5.840 E3.8496
G1 X-5.823 Y-8.998 E3.9566
G1 X-8.343 Y-13.259 E4.1212
G1 X-9.159 Y-14.881 E4.1816
G1 X-8.024 Y-16.327 E4.2427
G1 X-7.813 Y-16.529 E4.2525
G1 X-7.261 Y-17.130 E4.2796
G1 X-7.175 Y-17.059 E4.2833
G1 X-5.611 Y-16.113 E4.3441
G1 X-3.420 Y-14.253 E4.4397
G1 X-0.077 Y-14.835 E4.5525
G1 X2.353 Y-14.482 E4.6342
G1 X4.779 Y-14.852 E4.7158
G1 X8.126 Y-14.293 E4.8287
G1 X10.304 Y-16.171 E4.9243
G1 X11.861 Y-17.128 E4.9851
G1 X11.947 Y-17.200 E4.9888
G1 X12.503 Y-16.603 E5.0160
G1 X12.716 Y-16.402 E5.0257
G1 X13.860 Y-14.965 E5.0868
G1 X13.056 Y-13.337 E5.1472
G1 X10.568 Y-9.058 E5.3118
G1 X9.977 Y-5.896 E5.4188
G1 X6.263 Y-3.765 E5.5612
G1 X3.488 Y-2.219 E5.6669
G1 X4.801 Y-0.950 E5.7277
G1 X4.454 Y2.828 E5.8538
G1 X3.542 Y12.872 E6.1893
G1 X2.452 Y12.893 E6.2255
G1 X1.362 Y12.880 E6.2618
G1 X0.377 Y2.843 E6.5973
G1 X0.003 Y-0.932 E6.7234
G1 X1.266 Y-2.170 E6.7822
G1 X1.388 Y-2.852
;segType:Infill
G0 X0.596 Y-3.751 F10800
G1 X4.164 Y-3.751 E6.9009 F5400
;segType:HShell
G0 X4.435 Y-3.901 F10800
G1 X3.415 Y-2.871 E6.9491 F3600
G1 X2.971 Y-2.966
G1 X3.235 Y-3.233 E6.9616
G1 X2.895 Y-2.889
G1 X2.788 Y-2.780 E6.9667
;segType:Infill
G0 X3.808 Y-3.552 F10800
G1 X3.808 Y-13.275 E7.2901 F5400
G0 X7.814 Y-13.226 F10800
G1 X7.814 Y-5.826 E7.5362 F5400
;segType:HShell
G0 X6.890 Y-5.296 F10800
G1 X5.813 Y-4.207 E7.5872 F3600
G0 X4.614 Y-3.539 F10800
G1 X5.647 Y-4.583 E7.6360 F3600
G0 X7.052 Y-4.915 F10800
G1 X8.134 Y-6.009 E7.6872 F3600
G1 X8.296 Y-5.629
G1 X9.554 Y-6.901 E7.7467
G1 X9.280 Y-7.167
G1 X9.680 Y-7.572 E7.7656
G0 X11.120 Y-11.204 F10800
G1 X10.894 Y-10.976 E7.7763 F3600
G0 X10.352 Y-9.884 F10800
G1 X10.277 Y-9.808 E7.7799 F3600
G1 X9.930 Y-8.913
G1 X9.735 Y-8.716 E7.7891
G1 X9.805 Y-8.243
G1 X9.405 Y-7.838 E7.8080
;segType:Infill
G1 X-4.654 Y-7.800 E8.2754 F5400
G0 X-4.203 Y-6.439 F10800
G1 X-4.203 Y-14.125 E8.5310 F5400
G0 X-6.477 Y-15.900 F10800
G1 X-6.539 Y-15.900 E8.5331 F5400
;segType:HShell
G0 X-6.685 Y-16.056 F10800
G1 X-8.270 Y-14.453 E8.6081 F3600
G1 X-8.421 Y-14.844
G1 X-7.022 Y-16.259 E8.6742
G0 X-7.452 Y-14.736 F10800
G1 X-8.089 Y-14.092 E8.7044 F3600
G1 X-7.908 Y-13.732
G1 X-7.833 Y-13.807 E8.7079
G1 X-7.652 Y-13.446
G1 X-7.716 Y-13.381 E8.7109
;segType:Infill
G0 X-6.717 Y-11.850 F10800
G1 X11.402 Y-11.850 E9.3136 F5400
;segType:HShell
G0 X11.662 Y-12.296 F10800
G1 X11.887 Y-12.524 E9.3243 F3600
;segType:Infill
G0 X11.820 Y-12.569 F10800
G1 X11.820 Y-15.229 E9.4128 F5400
;segType:HShell
G0 X12.394 Y-13.581 F10800
G1 X12.617 Y-13.806 E9.4233 F3600
G1 X12.563 Y-14.296
G1 X13.150 Y-14.889 E9.4511
G1 X12.910 Y-15.191
G1 X12.323 Y-14.597 E9.4788
G1 X12.083 Y-14.899
G1 X12.670 Y-15.492 E9.5066
G1 X12.430 Y-15.793
G1 X11.843 Y-15.200 E9.5344
G1 X11.603 Y-15.502
G1 X12.180 Y-16.084 E9.5616
G1 X11.911 Y-16.357
G1 X11.363 Y-15.803 E9.5875
;segType:Infill
G0 X11.286 Y-15.900 F10800
G1 X11.066 Y-15.900 E9.5948 F5400
;segType:HShell
G0 X10.769 Y-15.746 F10800
G1 X10.695 Y-15.672 E9.5983 F3600
G0 X8.177 Y-13.670 F10800
G1 X7.727 Y-13.215 E9.6196 F3600
G1 X7.265 Y-13.292
G1 X7.715 Y-13.747 E9.6409
G1 X7.253 Y-13.824
G1 X6.803 Y-13.369 E9.6621
G1 X6.341 Y-13.446
G1 X6.791 Y-13.901 E9.6834
G1 X6.329 Y-13.978
G1 X5.879 Y-13.523 E9.7047
G1 X5.324 Y-13.506
G1 X5.867 Y-14.055 E9.7304
G1 X5.405 Y-14.133
G1 X4.690 Y-13.409 E9.7643
G1 X4.056 Y-13.312
G1 X4.943 Y-14.210 E9.8062
G1 X4.372 Y-14.176
G1 X3.422 Y-13.216 E9.8512
G1 X2.788 Y-13.119
G1 X3.738 Y-14.079 E9.8961
G1 X3.104 Y-13.983
G1 X2.207 Y-13.075 E9.9385
G1 X1.736 Y-13.144
G1 X2.471 Y-13.886 E9.9733
G1 X1.970 Y-13.924
G1 X1.266 Y-13.212 E10.0066
G1 X0.796 Y-13.281
G1 X1.500 Y-13.993 E10.0399
G1 X1.029 Y-14.061
G1 X0.325 Y-13.349 E10.0732
G1 X-0.145 Y-13.418
G1 X0.559 Y-14.130 E10.1065
G1 X0.089 Y-14.198
G1 X-0.616 Y-13.486 E10.1398
G1 X-1.135 Y-13.505
G1 X-0.502 Y-14.146 E10.1698
G1 X-1.152 Y-14.033
G1 X-1.785 Y-13.392 E10.1998
G0 X-3.102 Y-13.693 F10800
G1 X-3.373 Y-13.420 E10.2125 F3600
G1 X-3.080 Y-13.171
G1 X-2.452 Y-13.806 E10.2422
G1 X-2.436 Y-13.279
G1 X-1.802 Y-13.919 E10.2722
;segType:Infill
G0 X-0.197 Y-13.425 F10800
G1 X-0.197 Y-4.185 E10.5795 F5400
;segType:HShell
G0 X-5.118 Y-8.935 F10800
G1 X-5.186 Y-8.866 E10.5828 F3600
G1 X-5.097 Y-8.411
G1 X-4.936 Y-8.574 E10.5904
G1 X-4.754 Y-8.214
G1 X-5.009 Y-7.956 E10.6025
G1 X-4.921 Y-7.502
G1 X-4.649 Y-7.776 E10.6153
G1 X-4.561 Y-7.322
G1 X-4.832 Y-7.047 E10.6282
G1 X-4.744 Y-6.592
G1 X-4.472 Y-6.867 E10.6410
G1 X-4.302 Y-6.495
G1 X-4.602 Y-6.192 E10.6552
G1 X-4.256 Y-5.997
G1 X-3.957 Y-6.300 E10.6693
G1 X-3.611 Y-6.105
G1 X-3.911 Y-5.802 E10.6835
G1 X-3.565 Y-5.608
G1 X-3.266 Y-5.910 E10.6976
G1 X-2.920 Y-5.715
G1 X-3.220 Y-5.413 E10.7118
G1 X-2.874 Y-5.218
G1 X-2.575 Y-5.521 E10.7260
G1 X-2.229 Y-5.326
G1 X-2.529 Y-5.023 E10.7401
G1 X-2.183 Y-4.828
G1 X-1.884 Y-5.131 E10.7543
G1 X-1.538 Y-4.936
G1 X-1.838 Y-4.633 E10.7684
G1 X-1.492 Y-4.439
G1 X-1.193 Y-4.741 E10.7826
G1 X-0.847 Y-4.547
G1 X-1.146 Y-4.244 E10.7967
G1 X-0.797 Y-4.053
G1 X-0.502 Y-4.352 E10.8107
G1 X-0.153 Y-4.161
G1 X-0.448 Y-3.862 E10.8247
G1 X-0.099 Y-3.671
G1 X0.196 Y-3.969 E10.8387
G1 X0.545 Y-3.778
G1 X0.250 Y-3.479 E10.8526
G1 X0.599 Y-3.288
G1 X0.895 Y-3.587 E10.8666
G1 X1.244 Y-3.396
G1 X0.948 Y-3.097 E10.8806
G1 X1.297 Y-2.906
G1 X1.593 Y-3.204 E10.8946
G1 X1.843 Y-2.914
G1 X1.646 Y-2.715 E10.9039
G1 X1.995 Y-2.523
G1 X2.094 Y-2.623 E10.9085
G1 X2.246 Y-2.233
G1 X0.638 Y-0.607 E10.9846
G1 X0.687 Y-0.113
G1 X2.696 Y-2.144 E11.0796
G1 X2.972 Y-1.878
G1 X2.422 Y-1.322 E11.1056
G1 X2.697 Y-1.056
G1 X3.247 Y-1.612 E11.1316
G1 X3.522 Y-1.346
G1 X2.972 Y-0.791 E11.1576
G1 X3.247 Y-0.525
G1 X3.797 Y-1.080 E11.1836
G1 X4.072 Y-0.815
G1 X3.523 Y-0.259 E11.2096
G1 X3.798 Y0.007
G1 X4.142 Y-0.341 E11.2259
G1 X4.087 Y0.259
G1 X3.860 Y0.488 E11.2366
G1 X3.806 Y1.087
G1 X4.032 Y0.858 E11.2473
G1 X3.977 Y1.458
G1 X3.751 Y1.686 E11.2580
G1 X3.697 Y2.285
G1 X3.922 Y2.058 E11.2687
G1 X3.867 Y2.657
G1 X3.643 Y2.885 E11.2793
G1 X3.588 Y3.484
G1 X3.813 Y3.256 E11.2900
G1 X3.759 Y3.856
G1 X3.534 Y4.083 E11.3006
G1 X3.479 Y4.682
G1 X3.704 Y4.455 E11.3112
G1 X3.650 Y5.054
G1 X3.425 Y5.281 E11.3219
G1 X3.371 Y5.880
G1 X3.595 Y5.653 E11.3325
G1 X3.541 Y6.252
G1 X3.316 Y6.479 E11.3431
G1 X3.262 Y7.078
G1 X3.487 Y6.851 E11.3538
G1 X3.432 Y7.450
G1 X3.207 Y7.677 E11.3644
G1 X3.153 Y8.277
G1 X3.378 Y8.049 E11.3750
G1 X3.323 Y8.648
G1 X3.099 Y8.876 E11.3857
G1 X3.044 Y9.475
G1 X3.269 Y9.247 E11.3963
G1 X3.215 Y9.846
G1 X2.990 Y10.074 E11.4069
G1 X2.935 Y10.673
G1 X3.160 Y10.446 E11.4176
G1 X3.106 Y11.045
G1 X2.881 Y11.272 E11.4282
G1 X2.827 Y11.871
G1 X3.051 Y11.644 E11.4389
G1 X2.796 Y11.902
G1 X2.417 Y12.286 E11.4568
G1 X1.904 Y12.260
G1 X2.256 Y11.904 E11.4735
G1 X2.041 Y11.577
G1 X1.856 Y11.765 E11.4823
G1 X1.807 Y11.270
G1 X1.993 Y11.082 E11.4911
G1 X1.944 Y10.587
G1 X1.758 Y10.775 E11.4998
G1 X1.710 Y10.280
G1 X1.896 Y10.092 E11.5086
G1 X1.847 Y9.597
G1 X1.661 Y9.785 E11.5174
G1 X1.613 Y9.290
G1 X1.798 Y9.102 E11.5262
G1 X1.750 Y8.607
G1 X1.564 Y8.795 E11.5350
G1 X1.515 Y8.300
G1 X1.701 Y8.112 E11.5438
G1 X1.653 Y7.617
G1 X1.467 Y7.805 E11.5526
G1 X1.418 Y7.310
G1 X1.604 Y7.122 E11.5613
G1 X1.555 Y6.627
G1 X1.370 Y6.815 E11.5701
G1 X1.321 Y6.320
G1 X1.507 Y6.132 E11.5789
G1 X1.458 Y5.637
G1 X1.272 Y5.825 E11.5877
G1 X1.224 Y5.330
G1 X1.410 Y5.142 E11.5965
G1 X1.361 Y4.647
G1 X1.175 Y4.835 E11.6053
G1 X1.127 Y4.340
G1 X1.312 Y4.152 E11.6141
G1 X1.264 Y3.657
G1 X1.078 Y3.845 E11.6229
G1 X1.029 Y3.350
G1 X1.215 Y3.162 E11.6316
G1 X1.167 Y2.667
G1 X0.981 Y2.855 E11.6404
G1 X0.932 Y2.360
G1 X1.118 Y2.172 E11.6492
G1 X1.069 Y1.677
G1 X0.883 Y1.866 E11.6581
G1 X0.834 Y1.371
G1 X1.021 Y1.182 E11.6669
G1 X0.972 Y0.687
G1 X0.785 Y0.877 E11.6758
G1 X0.736 Y0.382
G1 X0.924 Y0.192 E11.6846
;segType:Infill
G0 X0.934 Y0.299 F10800
G1 X3.877 Y0.299 E11.7825 F5400
G1 X3.808 Y0.017 E11.7922
G1 X3.808 Y1.058 E11.8268
G0 X3.510 Y4.349 F10800
G1 X1.332 Y4.349 E11.8992 F5400
G0 X1.729 Y8.399 F10800
G1 X3.142 Y8.399 E11.9462 F5400
; ------------------------------------
; Layer #7
; ------------------------------------
G21 ; mm
G90 ; abs
G92 E0 ; reset extr
M106 S255
;segType:HShell
G0 F4800 E-1.0000
G0 F300 Z1.600
G0 X2.231 Y-1.907 F10800
G0 F4800 E0.0000
G1 X4.174 Y0.058 E0.0919 F3600
G1 X4.129 Y0.556
G1 X1.958 Y-1.639 E0.1946
G1 X1.685 Y-1.371
G1 X2.234 Y-0.816 E0.2206
G1 X1.961 Y-0.548
G1 X1.412 Y-1.103 E0.2466
;segType:Loop
G0 X0.716 Y-2.841 F10800
G1 X-1.513 Y-4.062 E0.3311 F3600
G1 X-4.940 Y-5.994 E0.4619
G1 X-5.621 Y-9.497 E0.5806
G1 X-7.920 Y-13.384 E0.7308
G1 X-8.526 Y-14.589 E0.7757
G1 X-7.033 Y-16.492 E0.8561
G1 X-5.803 Y-15.748 E0.9039
G1 X-3.708 Y-13.969 E0.9953
G1 X0.225 Y-14.654 E1.1281
G1 X2.353 Y-14.345 E1.1996
G1 X4.478 Y-14.669 E1.2711
G1 X8.416 Y-14.012 E1.4039
G1 X10.499 Y-15.807 E1.4954
G1 X11.723 Y-16.560 E1.5432
G1 X13.230 Y-14.669 E1.6236
G1 X12.632 Y-13.460 E1.6685
G1 X10.362 Y-9.555 E1.8187
G1 X9.707 Y-6.048 E1.9374
G1 X6.294 Y-4.090 E2.0682
G1 X2.681 Y-2.076 E2.2058
G1 X4.417 Y-0.399 E2.2861
G1 X4.038 Y3.738 E2.4243
G1 X3.234 Y12.599 E2.7202
G1 X2.451 Y12.614 E2.7462
G1 X1.669 Y12.605 E2.7723
G1 X0.800 Y3.750 E3.0682
G1 X0.391 Y-0.384 E3.2064
G1 X2.115 Y-2.074 E3.2867
G1 X0.883 Y-2.749 E3.3334
;segType:Perimeter
G0 X1.695 Y-1.386 F10800
G1 X1.395 Y-2.009 E3.3564 F2159
G1 X-1.706 Y-3.707 E3.4740
G1 X-5.297 Y-5.732 E3.6111
G1 X-6.000 Y-9.350 E3.7336
G1 X-8.270 Y-13.188 E3.8820
G1 X-8.999 Y-14.637 E3.9359
G1 X-7.128 Y-17.021 E4.0367
G1 X-5.570 Y-16.078 E4.0973
G1 X-3.593 Y-14.400 E4.1835
G1 X0.219 Y-15.064 E4.3122
G1 X2.352 Y-14.753 E4.3839
G1 X4.481 Y-15.078 E4.4555
G1 X8.298 Y-14.442 E4.5842
G1 X10.263 Y-16.136 E4.6705
G1 X11.814 Y-17.090 E4.7311
G1 X13.702 Y-14.720 E4.8319
G1 X12.984 Y-13.267 E4.8858
G1 X10.742 Y-9.410 E5.0342
G1 X10.065 Y-5.788 E5.1567
G1 X6.489 Y-3.737 E5.2938
G1 X3.351 Y-1.988 E5.4133
G1 X4.833 Y-0.556 E5.4819
G1 X4.436 Y3.775 E5.6266
G1 X3.599 Y12.997 E5.9345
G1 X2.453 Y13.018 E5.9727
G1 X1.306 Y13.006 E6.0108
G1 X0.402 Y3.790 E6.3188
G1 X-0.027 Y-0.538 E6.4634
G1 X1.404 Y-1.941 E6.5301
G1 X1.527 Y-2.622
;segType:HShell
G1 X0.517 Y-3.640 E6.5771 F3600
;segType:Infill
G0 X0.315 Y-3.751 F10800
G1 X4.440 Y-3.751 E6.7143 F5400
G1 X3.808 Y-3.398 E6.7384
G1 X3.808 Y-13.546 E7.0759
G0 X-0.197 Y-13.697 F10800
G1 X-0.197 Y-4.031 E7.3974 F5400
;segType:HShell
G0 X-0.657 Y-4.283 F10800
G1 X0.336 Y-3.279 E7.4444 F3600
G0 X-1.871 Y-4.966 F10800
G1 X-0.838 Y-3.922 E7.4932 F3600
G0 X-2.035 Y-4.587 F10800
G1 X-3.088 Y-5.653 E7.5431 F3600
G1 X-3.251 Y-5.274
G1 X-4.305 Y-6.339 E7.5929
G1 X-4.925 Y-6.965
G1 X-4.520 Y-6.557 E7.6121
G1 X-4.468 Y-5.960
G1 X-4.793 Y-6.288 E7.6274
;segType:Infill
G0 X-4.203 Y-6.282 F10800
G1 X-4.203 Y-14.125 E7.8883 F5400
;segType:HShell
G0 X-3.596 Y-13.783 F10800
G1 X-3.148 Y-13.331 E7.9095 F3600
G1 X-2.689 Y-13.411
G1 X-3.137 Y-13.863 E7.9306
G1 X-2.678 Y-13.943
G1 X-2.230 Y-13.491 E7.9518
G1 X-1.771 Y-13.571
G1 X-2.219 Y-14.023 E7.9729
G1 X-1.760 Y-14.103
G1 X-1.312 Y-13.651 E7.9941
G1 X-0.853 Y-13.731
G1 X-1.301 Y-14.183 E8.0153
G1 X-0.842 Y-14.263
G1 X-0.295 Y-13.711 E8.0411
G1 X0.333 Y-13.620
G1 X-0.382 Y-14.343 E8.0750
G1 X0.077 Y-14.423
G1 X0.962 Y-13.528 E8.1168
G1 X1.591 Y-13.436
G1 X0.650 Y-14.388 E8.1614
G1 X1.278 Y-14.297
G1 X2.220 Y-13.345 E8.2059
G1 X2.722 Y-13.381
G1 X1.907 Y-14.205 E8.2445
G1 X2.489 Y-14.161
G1 X3.190 Y-13.452 E8.2776
G1 X3.658 Y-13.523
G1 X2.957 Y-14.232 E8.3108
G1 X3.424 Y-14.303
G1 X4.125 Y-13.595 E8.3439
G1 X4.593 Y-13.666
G1 X3.892 Y-14.375 E8.3771
G1 X4.359 Y-14.446
G1 X5.060 Y-13.738 E8.4102
G1 X5.587 Y-13.749
G1 X4.959 Y-14.384 E8.4399
G1 X5.604 Y-14.276
G1 X6.232 Y-13.641 E8.4696
G1 X6.876 Y-13.534
G1 X6.249 Y-14.169 E8.4993
G1 X6.893 Y-14.061
G1 X7.521 Y-13.426 E8.5290
G1 X8.053 Y-13.433
G1 X7.538 Y-13.954 E8.5534
G1 X8.182 Y-13.846
G1 X8.343 Y-13.683 E8.5610
;segType:Infill
G0 X7.814 Y-13.378 F10800
G1 X7.814 Y-5.668 E8.8174 F5400
G0 X9.506 Y-7.800 F10800
G1 X-4.762 Y-7.800 E9.2920 F5400
;segType:HShell
G0 X-4.652 Y-7.234 F10800
G1 X-5.056 Y-7.643 E9.3111 F3600
G1 X-4.784 Y-7.911
G1 X-5.188 Y-8.320 E9.3302
G0 X-6.121 Y-10.895 F10800
G1 X-6.354 Y-11.131 E9.3413 F3600
G0 X-4.986 Y-8.660 F10800
G1 X-5.320 Y-8.997 E9.3570 F3600
G0 X-6.444 Y-15.575 F10800
G1 X-7.031 Y-16.168 E9.3848 F3600
G1 X-7.269 Y-15.865
G1 X-6.682 Y-15.271 E9.4126
G1 X-6.920 Y-14.967
G1 X-7.507 Y-15.562 E9.4404
G1 X-7.745 Y-15.258
G1 X-7.158 Y-14.664 E9.4682
G1 X-7.396 Y-14.360
G1 X-7.983 Y-14.955 E9.4960
G1 X-8.221 Y-14.651
G1 X-7.634 Y-14.057 E9.5238
G1 X-7.662 Y-13.542
G1 X-7.891 Y-13.773 E9.5346
G0 X-7.154 Y-12.484 F10800
G1 X-6.921 Y-12.248 E9.5457 F3600
;segType:Infill
G0 X-6.686 Y-11.850 F10800
G1 X11.371 Y-11.850 E10.1462 F5400
G1 X11.820 Y-12.622 E10.1759
G1 X11.820 Y-14.785 E10.2479
;segType:HShell
G0 X12.921 Y-14.496 F10800
G1 X11.344 Y-16.090 E10.3225 F3600
G1 X11.009 Y-15.885
G1 X12.742 Y-14.133 E10.4044
G1 X12.562 Y-13.771
G1 X12.488 Y-13.846 E10.4079
G1 X12.309 Y-13.483
G1 X12.375 Y-13.416 E10.4110
G0 X10.091 Y-9.196 F10800
G1 X10.003 Y-9.284 E10.4152 F3600
G1 X9.824 Y-8.922
G1 X10.006 Y-8.738 E10.4238
G1 X9.920 Y-8.280
G1 X9.647 Y-8.556 E10.4367
G1 X9.562 Y-8.099
G1 X9.835 Y-7.823 E10.4496
G1 X9.749 Y-7.365
G1 X9.476 Y-7.641 E10.4625
G1 X9.391 Y-7.183
G1 X9.664 Y-6.907 E10.4754
G1 X9.578 Y-6.449
G1 X9.305 Y-6.726 E10.4883
G1 X9.089 Y-6.399
G1 X9.388 Y-6.097 E10.5025
G1 X9.045 Y-5.900
G1 X8.746 Y-6.203 E10.5166
G1 X8.403 Y-6.006
G1 X8.701 Y-5.704 E10.5307
G1 X8.358 Y-5.507
G1 X8.059 Y-5.809 E10.5449
G1 X7.716 Y-5.612
G1 X8.015 Y-5.310 E10.5590
G1 X7.671 Y-5.113
G1 X7.373 Y-5.415 E10.5731
G1 X7.029 Y-5.218
G1 X7.328 Y-4.916 E10.5873
G1 X6.985 Y-4.719
G1 X6.686 Y-5.021 E10.6014
G1 X6.342 Y-4.824
G1 X6.641 Y-4.522 E10.6155
G1 X6.298 Y-4.325
G1 X5.999 Y-4.627 E10.6297
G1 X5.656 Y-4.430
G1 X5.952 Y-4.130 E10.6437
G1 X5.605 Y-3.937
G1 X5.310 Y-4.235 E10.6577
G1 X4.963 Y-4.042
G1 X5.258 Y-3.744 E10.6716
G1 X4.911 Y-3.550
G1 X4.616 Y-3.849 E10.6856
G1 X4.269 Y-3.655
G1 X4.564 Y-3.357 E10.6995
G1 X4.217 Y-3.164
G1 X3.923 Y-3.462 E10.7135
G1 X3.576 Y-3.268
G1 X3.871 Y-2.970 E10.7274
G1 X3.524 Y-2.777
G1 X3.229 Y-3.075 E10.7414
G1 X2.882 Y-2.882
G1 X3.177 Y-2.583 E10.7553
G1 X2.830 Y-2.390
G1 X2.633 Y-2.589 E10.7646
G1 X2.138 Y-2.545
G1 X2.023 Y-2.661 E10.7700
G1 X1.692 Y-2.997
G1 X1.955 Y-2.731 E10.7825
;segType:Infill
G0 X1.097 Y0.299 F10800
G1 X3.725 Y0.299 E10.8699 F5400
G1 X3.808 Y0.380 E10.8737
G1 X3.808 Y1.807 E10.9212
G0 X3.578 Y4.349 F10800
G1 X1.264 Y4.349 E10.9982 F5400
;segType:HShell
G0 X3.894 Y0.862 F10800
G1 X4.083 Y1.054 E11.0071 F3600
G1 X4.038 Y1.552
G1 X3.849 Y1.361 E11.0160
G1 X3.804 Y1.859
G1 X3.992 Y2.049 E11.0249
G1 X3.946 Y2.547
G1 X3.758 Y2.358 E11.0338
G1 X3.713 Y2.856
G1 X3.901 Y3.045 E11.0427
G1 X3.855 Y3.543
G1 X3.668 Y3.354 E11.0515
G1 X3.623 Y3.853
G1 X3.810 Y4.042 E11.0604
G1 X3.764 Y4.540
G1 X3.577 Y4.351 E11.0692
G1 X3.532 Y4.849
G1 X3.719 Y5.038 E11.0781
G1 X3.674 Y5.537
G1 X3.487 Y5.348 E11.0869
G1 X3.442 Y5.846
G1 X3.629 Y6.035 E11.0957
G1 X3.583 Y6.533
G1 X3.396 Y6.344 E11.1046
G1 X3.351 Y6.843
G1 X3.538 Y7.032 E11.1134
G1 X3.493 Y7.530
G1 X3.306 Y7.341 E11.1223
G1 X3.261 Y7.839
G1 X3.448 Y8.029 E11.1311
G1 X3.402 Y8.527
G1 X3.215 Y8.338 E11.1400
G1 X3.170 Y8.836
G1 X3.357 Y9.025 E11.1488
G1 X3.312 Y9.524
G1 X3.125 Y9.335 E11.1577
G1 X3.080 Y9.833
G1 X3.267 Y10.022 E11.1665
G1 X3.221 Y10.520
G1 X3.034 Y10.331 E11.1754
G1 X2.989 Y10.830
G1 X3.176 Y11.019 E11.1842
G1 X3.131 Y11.517
G1 X2.944 Y11.328 E11.1931
G1 X2.899 Y11.826
G1 X3.086 Y12.015 E11.2019
G1 X2.931 Y12.403
G1 X2.559 Y12.027 E11.2195
G1 X2.023 Y12.029
G1 X2.401 Y12.411 E11.2373
;segType:Infill
G0 X3.210 Y8.399 F10800
G1 X1.661 Y8.399 E11.2889 F5400
;segType:HShell
G0 X2.017 Y12.023 F10800
G1 X1.790 Y11.794 E11.2996 F3600
G1 X1.731 Y11.190
G1 X1.958 Y11.419 E11.3103
G1 X1.899 Y10.815
G1 X1.672 Y10.586 E11.3211
G1 X1.612 Y9.982
G1 X1.839 Y10.211 E11.3318
G1 X1.780 Y9.607
G1 X1.553 Y9.378 E11.3425
G1 X1.494 Y8.774
G1 X1.721 Y9.003 E11.3533
G1 X1.661 Y8.399
G1 X1.434 Y8.170 E11.3640
G1 X1.375 Y7.566
G1 X1.602 Y7.795 E11.3747
G1 X1.543 Y7.191
G1 X1.316 Y6.962 E11.3854
G1 X1.257 Y6.357
G1 X1.483 Y6.587 E11.3962
G1 X1.424 Y5.983
G1 X1.197 Y5.753 E11.4069
G1 X1.138 Y5.149
G1 X1.365 Y5.379 E11.4176
G1 X1.306 Y4.775
G1 X1.079 Y4.545 E11.4284
G1 X1.019 Y3.941
G1 X1.246 Y4.171 E11.4391
G1 X1.187 Y3.566
G1 X0.960 Y3.337 E11.4498
G1 X0.900 Y2.732
G1 X1.128 Y2.962 E11.4606
G1 X1.068 Y2.358
G1 X0.840 Y2.128 E11.4714
G1 X0.780 Y1.523
G1 X1.009 Y1.754 E11.4822
G1 X0.950 Y1.150
G1 X0.720 Y0.918 E11.4930
G1 X0.661 Y0.314
G1 X0.890 Y0.546 E11.5039
G1 X1.142 Y0.256
G1 X0.601 Y-0.291 E11.5295
G1 X0.865 Y-0.568
G1 X1.415 Y-0.012 E11.5555
G1 X1.688 Y-0.280
G1 X1.138 Y-0.835 E11.5815
;segType:Support
G0 F4800 E10.5815
G0 X2.179 Y-17.179 F10800
G0 F4800 E11.5815
G1 X0.321 Y-17.179 E11.6340 F5400
G0 F4800 E10.6340
G0 X7.500 Y-22.500 F10800
G0 F4800 E11.6340
G1 X0.000 Y-22.500 E11.8460 F5400
G0 F4800 E10.8460
G0 X7.500 Y-20.000 F10800
G0 F4800 E11.8460
G1 X0.000 Y-20.000 E12.0581 F5400
; ------------------------------------
; Layer #8
; ------------------------------------
G21 ; mm
G90 ; abs
G92 E0 ; reset extr
M106 S255
;segType:Support
G0 F4800 E-1.0000
G0 F300 Z1.800
G0 X0.000 Y-20.000 F10800
G0 F4800 E0.0000
G1 X7.500 Y-20.000 E0.2120 F5400
G1 X7.500 Y-22.500 E0.2827
G1 X0.000 Y-22.500 E0.4947
G0 F4800 E-0.5053
G0 X1.979 Y-16.979 F10800
G0 F4800 E0.4947
G1 X0.521 Y-16.979 E0.5360 F5400
G1 X1.540 Y-15.960 E0.5767
;segType:Loop
G0 F4800 E-0.4233
G0 X0.853 Y-2.612 F10800
G0 F4800 E0.5767
G1 X-1.739 Y-4.032 E0.6750 F3600
G1 X-5.027 Y-5.886 E0.8006
G1 X-5.797 Y-9.848 E0.9348
G1 X-7.847 Y-13.314 E1.0687
G1 X-8.366 Y-14.345 E1.1071
G1 X-6.800 Y-16.341 E1.1915
G1 X-5.762 Y-15.713 E1.2319
G1 X-3.880 Y-14.116 E1.3140
G1 X0.521 Y-14.883 E1.4626
G1 X2.352 Y-14.616 E1.5241
G1 X4.180 Y-14.895 E1.5856
G1 X8.587 Y-14.160 E1.7342
G1 X10.458 Y-15.772 E1.8163
G1 X11.491 Y-16.408 E1.8567
G1 X13.072 Y-14.424 E1.9411
G1 X12.560 Y-13.389 E1.9794
G1 X10.536 Y-9.907 E2.1134
G1 X9.795 Y-5.940 E2.2476
G1 X6.520 Y-4.062 E2.3732
G1 X2.544 Y-1.846 E2.5246
G1 X4.450 Y-0.005 E2.6127
G1 X4.020 Y4.686 E2.7694
G1 X3.290 Y12.724 E3.0378
G1 X2.452 Y12.740 E3.0657
G1 X1.613 Y12.731 E3.0936
G1 X0.824 Y4.697 E3.3621
G1 X0.361 Y0.010 E3.5187
G1 X2.253 Y-1.845 E3.6069
G1 X1.021 Y-2.520 E3.6536
;segType:Perimeter
G0 X1.833 Y-1.157 F10800
G1 X1.533 Y-1.780 E3.6766 F2159
G1 X-1.932 Y-3.678 E3.8080
G1 X-5.384 Y-5.624 E3.9398
G1 X-6.176 Y-9.701 E4.0779
G1 X-8.197 Y-13.118 E4.2100
G1 X-8.838 Y-14.393 E4.2574
G1 X-6.896 Y-16.870 E4.3621
G1 X-5.529 Y-16.044 E4.4153
G1 X-3.765 Y-14.546 E4.4922
G1 X0.516 Y-15.292 E4.6368
G1 X2.351 Y-15.025 E4.6984
G1 X4.183 Y-15.305 E4.7601
G1 X8.469 Y-14.590 E4.9046
G1 X10.223 Y-16.101 E4.9816
G1 X11.583 Y-16.938 E5.0347
G1 X13.544 Y-14.475 E5.1394
G1 X12.912 Y-13.196 E5.1869
G1 X10.916 Y-9.763 E5.3189
G1 X10.153 Y-5.681 E5.4571
G1 X6.715 Y-3.709 E5.5889
G1 X3.214 Y-1.758 E5.7222
G1 X4.866 Y-0.162 E5.7986
G1 X4.418 Y4.723 E5.9617
G1 X3.656 Y13.122 E6.2422
G1 X2.453 Y13.144 E6.2822
G1 X1.251 Y13.131 E6.3222
G1 X0.426 Y4.737 E6.6028
G1 X-0.057 Y-0.144 E6.7659
G1 X1.542 Y-1.712 E6.8404
G1 X1.665 Y-2.393
;segType:HShell
G0 X2.605 Y-1.507 F10800
G1 X0.611 Y0.509 E6.9347 F3600
G1 X0.660 Y1.003
G1 X2.880 Y-1.242 E7.0397
G1 X3.155 Y-0.976
G1 X2.606 Y-0.420 E7.0657
G1 X2.881 Y-0.154
G1 X3.431 Y-0.710 E7.0917
G1 X3.706 Y-0.444
G1 X3.156 Y0.112 E7.1177
G1 X3.431 Y0.378
G1 X3.981 Y-0.178 E7.1437
G1 X4.239 Y0.105
G1 X3.706 Y0.644 E7.1689
G1 X3.956 Y0.935
G1 X4.184 Y0.705 E7.1796
G1 X4.129 Y1.305
G1 X3.902 Y1.535 E7.1904
G1 X3.847 Y2.134
G1 X4.074 Y1.904 E7.2012
G1 X4.019 Y2.504
G1 X3.793 Y2.733 E7.2119
G1 X3.738 Y3.332
G1 X3.964 Y3.103 E7.2226
G1 X3.909 Y3.703
G1 X3.684 Y3.931 E7.2332
G1 X3.629 Y4.530
G1 X3.854 Y4.303 E7.2439
G1 X3.800 Y4.902
G1 X3.575 Y5.129 E7.2545
G1 X3.521 Y5.729
G1 X3.745 Y5.501 E7.2651
G1 X3.691 Y6.100
G1 X3.466 Y6.328 E7.2758
G1 X3.412 Y6.927
G1 X3.636 Y6.700 E7.2864
G1 X3.582 Y7.299
G1 X3.357 Y7.526 E7.2970
G1 X3.303 Y8.125
G1 X3.528 Y7.898 E7.3077
G1 X3.473 Y8.497
G1 X3.249 Y8.724 E7.3183
G1 X3.194 Y9.323
G1 X3.419 Y9.096 E7.3289
G1 X3.364 Y9.695
G1 X3.140 Y9.922 E7.3395
G1 X3.085 Y10.521
G1 X3.310 Y10.294 E7.3502
G1 X3.256 Y10.893
G1 X3.031 Y11.120 E7.3608
G1 X2.977 Y11.719
G1 X3.201 Y11.492 E7.3714
G0 X2.711 Y12.533 F10800
G1 X3.147 Y12.091 E7.3921 F3600
G1 X2.542 Y12.159
G1 X2.171 Y12.534 E7.4096
G1 X1.780 Y12.385
G1 X2.008 Y12.155 E7.4204
G1 X1.917 Y11.702
G1 X1.732 Y11.890 E7.4292
G1 X1.683 Y11.395
G1 X1.869 Y11.207 E7.4380
G1 X1.820 Y10.712
G1 X1.634 Y10.900 E7.4467
G1 X1.586 Y10.405
G1 X1.772 Y10.217 E7.4555
G1 X1.723 Y9.722
G1 X1.537 Y9.910 E7.4643
G1 X1.489 Y9.415
G1 X1.675 Y9.227 E7.4731
G1 X1.626 Y8.732
G1 X1.440 Y8.920 E7.4819
G1 X1.391 Y8.425
G1 X1.577 Y8.237 E7.4907
G1 X1.529 Y7.742
G1 X1.343 Y7.930 E7.4995
G1 X1.294 Y7.435
G1 X1.480 Y7.247 E7.5083
G1 X1.432 Y6.752
G1 X1.246 Y6.940 E7.5171
G1 X1.197 Y6.445
G1 X1.383 Y6.257 E7.5259
G1 X1.334 Y5.762
G1 X1.148 Y5.950 E7.5347
G1 X1.100 Y5.455
G1 X1.286 Y5.267 E7.5435
G1 X1.237 Y4.772
G1 X1.051 Y4.960 E7.5523
G1 X1.002 Y4.466
G1 X1.189 Y4.277 E7.5611
G1 X1.140 Y3.782
G1 X0.954 Y3.971 E7.5699
G1 X0.905 Y3.476
G1 X1.091 Y3.287 E7.5787
G1 X1.043 Y2.792
G1 X0.856 Y2.982 E7.5876
G1 X0.807 Y2.487
G1 X0.994 Y2.297 E7.5965
G1 X0.946 Y1.802
G1 X0.758 Y1.992 E7.6053
G1 X0.709 Y1.498
G1 X0.897 Y1.308 E7.6142
;segType:Infill
G0 X3.278 Y8.399 F10800
G1 X1.593 Y8.399 E7.6703 F5400
G0 X1.196 Y4.349 F10800
G1 X3.646 Y4.349 E7.7518 F5400
G0 X3.808 Y2.558 F10800
G1 X3.808 Y0.742 E7.8122 F5400
G1 X3.350 Y0.299 E7.8334
G1 X1.470 Y0.299 E7.8959
;segType:HShell
G0 X3.935 Y-2.852 F10800
G1 X4.955 Y-3.883 E7.9441 F3600
G1 X5.135 Y-3.521
G1 X6.170 Y-4.567 E7.9931
G0 X7.575 Y-4.900 F10800
G1 X8.657 Y-5.994 E8.0442 F3600
G0 X9.421 Y-6.766 F10800
G1 X9.821 Y-7.171 E8.0632 F3600
G1 X9.696 Y-6.500
G1 X8.819 Y-5.613 E8.1046
G0 X6.335 Y-4.190 F10800
G1 X7.413 Y-5.280 E8.1556 F3600
;segType:Infill
G0 X7.814 Y-5.510 F10800
G1 X7.814 Y-13.554 E8.4232 F5400
;segType:HShell
G0 X8.027 Y-13.519 F10800
G1 X8.477 Y-13.974 E8.4445 F3600
G1 X8.015 Y-14.051
G1 X7.565 Y-13.596 E8.4657
G1 X7.103 Y-13.673
G1 X7.553 Y-14.128 E8.4870
G1 X7.091 Y-14.205
G1 X6.641 Y-13.750 E8.5083
G1 X6.179 Y-13.827
G1 X6.629 Y-14.282 E8.5296
G1 X6.167 Y-14.359
G1 X5.717 Y-13.904 E8.5509
G1 X5.255 Y-13.981
G1 X5.705 Y-14.436 E8.5722
G1 X5.244 Y-14.513
G1 X4.690 Y-13.953 E8.5984
G1 X4.056 Y-13.856
G1 X4.782 Y-14.590 E8.6327
G1 X4.320 Y-14.667
G1 X3.422 Y-13.759 E8.6752
G1 X2.788 Y-13.663
G1 X3.738 Y-14.623 E8.7201
G1 X3.104 Y-14.526
G1 X2.206 Y-13.618 E8.7626
G1 X1.736 Y-13.687
G1 X2.470 Y-14.429 E8.7973
G1 X1.969 Y-14.467
G1 X1.265 Y-13.755 E8.8306
G1 X0.795 Y-13.824
G1 X1.499 Y-14.536 E8.8640
G1 X1.029 Y-14.605
G1 X0.324 Y-13.893 E8.8973
G1 X-0.146 Y-13.961
G1 X0.558 Y-14.673 E8.9306
G1 X-0.079 Y-14.573
G1 X-0.713 Y-13.932 E8.9605
G1 X-0.729 Y-14.460
G1 X-1.363 Y-13.819 E8.9905
G1 X-1.379 Y-14.346
G1 X-2.013 Y-13.706 E9.0205
G1 X-2.663 Y-13.592
G1 X-2.030 Y-14.233 E9.0505
G1 X-2.680 Y-14.120
G1 X-3.314 Y-13.479 E9.0804
G1 X-3.665 Y-13.668
G1 X-3.330 Y-14.006 E9.0963
;segType:Infill
G0 X-4.203 Y-14.125 F10800
G1 X-4.203 Y-6.124 E9.3624 F5400
G0 X-4.870 Y-7.800 F10800
G1 X9.614 Y-7.800 E9.8441 F5400
;segType:HShell
G0 X9.546 Y-7.437 F10800
G1 X9.946 Y-7.841 E9.8630 F3600
G1 X9.672 Y-8.108
G1 X10.072 Y-8.512 E9.8819
G1 X9.797 Y-8.778
G1 X10.197 Y-9.183 E9.9009
G0 X10.819 Y-10.900 F10800
G1 X10.969 Y-11.052 E9.9080 F3600
G0 X10.646 Y-15.622 F10800
G1 X10.720 Y-15.696 E9.9114 F3600
G1 X11.559 Y-16.001
G1 X10.972 Y-15.407 E9.9392
G1 X11.212 Y-15.106
G1 X11.799 Y-15.699 E9.9670
G1 X12.039 Y-15.398
G1 X11.452 Y-14.804 E9.9947
G1 X11.692 Y-14.503
G1 X12.279 Y-15.096 E10.0225
G1 X12.519 Y-14.795
G1 X11.932 Y-14.201 E10.0503
G1 X12.171 Y-13.900
G1 X12.759 Y-14.494 E10.0781
G1 X12.469 Y-13.656
G1 X12.245 Y-13.430 E10.0887
;segType:Infill
G0 X11.820 Y-14.341 F10800
G1 X11.820 Y-12.675 E10.1441 F5400
;segType:HShell
G0 X11.737 Y-12.373 F10800
G1 X11.511 Y-12.143 E10.1548 F3600
;segType:Infill
G0 X11.340 Y-11.850 F10800
G1 X-6.655 Y-11.850 E10.7533 F5400
;segType:HShell
G0 X-6.697 Y-16.043 F10800
G1 X-7.089 Y-15.648 E10.7718 F3600
G0 X-8.039 Y-14.142 F10800
G1 X-6.361 Y-15.840 E10.8512 F3600
G1 X-6.124 Y-15.535
G1 X-7.858 Y-13.782 E10.9332
G1 X-7.676 Y-13.421
G1 X-7.602 Y-13.496 E10.9368
G0 X-5.455 Y-9.138 F10800
G1 X-5.299 Y-9.295 E10.9441 F3600
G1 X-5.117 Y-8.935
G1 X-5.367 Y-8.683 E10.9559
G1 X-5.278 Y-8.228
G1 X-5.007 Y-8.503 E10.9688
G1 X-4.918 Y-8.048
G1 X-5.190 Y-7.773 E10.9816
G1 X-5.102 Y-7.319
G1 X-4.830 Y-7.593 E10.9945
G1 X-4.742 Y-7.138
G1 X-5.013 Y-6.864 E11.0073
G1 X-4.925 Y-6.409
G1 X-4.653 Y-6.684 E11.0201
G1 X-4.502 Y-6.293
G1 X-4.801 Y-5.990 E11.0343
G1 X-4.456 Y-5.795
G1 X-4.156 Y-6.098 E11.0485
G1 X-3.811 Y-5.903
G1 X-4.110 Y-5.601 E11.0626
G1 X-3.765 Y-5.406
G1 X-3.465 Y-5.708 E11.0768
G1 X-3.120 Y-5.514
G1 X-3.419 Y-5.211 E11.0909
G1 X-3.074 Y-5.016
G1 X-2.774 Y-5.319 E11.1051
G1 X-2.429 Y-5.124
G1 X-2.728 Y-4.821 E11.1192
G1 X-2.383 Y-4.626
G1 X-2.083 Y-4.929 E11.1334
G1 X-1.738 Y-4.734
G1 X-2.037 Y-4.432 E11.1476
G1 X-1.692 Y-4.237
G1 X-1.392 Y-4.539 E11.1617
G1 X-1.047 Y-4.345
G1 X-1.343 Y-4.045 E11.1757
G1 X-0.994 Y-3.854
G1 X-0.699 Y-4.153 E11.1897
G1 X-0.350 Y-3.961
G1 X-0.645 Y-3.663 E11.2037
G1 X-0.296 Y-3.471
G1 X-0.001 Y-3.770 E11.2177
G1 X0.348 Y-3.579
G1 X0.053 Y-3.280 E11.2316
G1 X0.402 Y-3.089
G1 X0.697 Y-3.388 E11.2456
G1 X1.047 Y-3.196
G1 X0.751 Y-2.898 E11.2596
G1 X1.100 Y-2.706
G1 X1.396 Y-3.005 E11.2736
G1 X1.745 Y-2.814
G1 X1.449 Y-2.515 E11.2875
G1 X1.798 Y-2.324
G1 X2.094 Y-2.623 E11.3015
G1 X2.246 Y-2.233
G1 X2.147 Y-2.133 E11.3062
G1 X2.736 Y-2.184
G1 X3.755 Y-3.214 E11.3544
;segType:Infill
G0 X3.808 Y-3.244 F10800
G1 X3.808 Y-13.818 E11.7061 F5400
G0 X-0.197 Y-13.969 F10800
G1 X-0.197 Y-3.878 E12.0417 F5400
G1 X0.035 Y-3.751 E12.0505
G1 X4.717 Y-3.751 E12.2062
; ------------------------------------
; Layer #9
; ------------------------------------
G21 ; mm
G90 ; abs
G92 E0 ; reset extr
M106 S255
G0 F4800 E-1.0000
G0 F300 Z2.000
G0 X2.511 Y-1.603 F10800
G0 X2.975 Y0.299
G0 F4800 E0.0000
;segType:Infill
G1 X1.842 Y0.299 E0.0377 F5400
;segType:HShell
G0 X1.781 Y0.359 F10800
G1 X1.232 Y-0.197 E0.0637 F3600
G1 X1.505 Y-0.465
G1 X2.055 Y0.091 E0.0897
G1 X2.328 Y-0.177
G1 X1.778 Y-0.733 E0.1157
;segType:Loop
G0 X0.992 Y-2.382 F10800
G1 X-1.964 Y-4.002 E0.2278 F3600
G1 X-5.115 Y-5.778 E0.3481
G1 X-5.974 Y-10.199 E0.4979
G1 X-7.774 Y-13.244 E0.6155
G1 X-8.206 Y-14.101 E0.6475
G1 X-6.567 Y-16.190 E0.7358
G1 X-5.721 Y-15.679 E0.7687
G1 X-4.052 Y-14.262 E0.8414
G1 X0.818 Y-15.111 E1.0059
G1 X2.351 Y-14.888 E1.0574
G1 X3.882 Y-15.121 E1.1089
G1 X8.759 Y-14.308 E1.2734
G1 X10.417 Y-15.737 E1.3462
G1 X11.259 Y-16.256 E1.3791
G1 X12.913 Y-14.179 E1.4674
G1 X12.488 Y-13.318 E1.4993
G1 X10.710 Y-10.260 E1.6170
G1 X9.883 Y-5.833 E1.7667
G1 X6.746 Y-4.034 E1.8870
G1 X3.786 Y-2.382 E1.9998
G1 X2.406 Y-1.617 E2.0522
G1 X4.483 Y0.389 E2.1483
G1 X4.002 Y5.633 E2.3234
G1 X3.347 Y12.849 E2.5644
G1 X2.452 Y12.865 E2.5942
G1 X1.558 Y12.856 E2.6240
G1 X0.849 Y5.645 E2.8650
G1 X0.331 Y0.405 E3.0401
G1 X2.391 Y-1.616 E3.1361
G1 X1.159 Y-2.291 E3.1828
;segType:Perimeter
G0 X1.971 Y-0.928 F10800
G1 X1.671 Y-1.550 E3.2058 F2159
G1 X-2.157 Y-3.648 E3.3510
G1 X-5.471 Y-5.517 E3.4775
G1 X-6.353 Y-10.052 E3.6312
G1 X-8.124 Y-13.048 E3.7470
G1 X-8.678 Y-14.149 E3.7880
G1 X-6.663 Y-16.720 E3.8966
G1 X-5.488 Y-16.009 E3.9423
G1 X-3.937 Y-14.693 E4.0099
G1 X0.812 Y-15.521 E4.1703
G1 X2.350 Y-15.297 E4.2219
G1 X3.885 Y-15.531 E4.2736
G1 X8.640 Y-14.738 E4.4340
G1 X10.181 Y-16.066 E4.5016
G1 X11.351 Y-16.785 E4.5473
G1 X13.386 Y-14.230 E4.6559
G1 X12.840 Y-13.125 E4.6969
G1 X11.090 Y-10.116 E4.8127
G1 X10.242 Y-5.574 E4.9664
G1 X6.941 Y-3.681 E5.0929
G1 X3.979 Y-2.028 E5.2058
G1 X3.077 Y-1.528 E5.2400
G1 X4.899 Y0.232 E5.3243
G1 X4.400 Y5.670 E5.5059
G1 X3.712 Y13.247 E5.7590
G1 X2.454 Y13.270 E5.8009
G1 X1.195 Y13.257 E5.8427
G1 X0.451 Y5.685 E6.0958
G1 X-0.087 Y0.250 E6.2774
G1 X1.681 Y-1.482 E6.3597
G1 X1.803 Y-2.164
;segType:HShell
G0 X1.000 Y-2.608 F10800
G1 X0.005 Y-3.614 E6.4068 F3600
G1 X-0.175 Y-3.252
G1 X-1.170 Y-4.257 E6.4538
;segType:Infill
G0 X-0.245 Y-3.751 F10800
G1 X4.994 Y-3.751 E6.6281 F5400
G0 X3.808 Y-3.090 F10800
G1 X3.808 Y-14.090 E6.9939 F5400
;segType:HShell
G0 X-6.121 Y-10.895 F10800
G1 X-6.199 Y-10.974 E6.9976 F3600
G0 X-5.721 Y-9.947 F10800
G1 X-5.554 Y-9.777 E7.0056 F3600
G1 X-5.589 Y-9.269
G1 X-5.185 Y-8.860 E7.0247
G1 X-5.053 Y-8.183
G1 X-5.458 Y-8.592 E7.0438
G1 X-5.326 Y-7.915
G1 X-4.921 Y-7.506 E7.0630
G1 X-4.790 Y-6.829
G1 X-5.195 Y-7.238 E7.0821
;segType:Infill
G0 X-4.979 Y-7.800 F10800
G1 X9.722 Y-7.800 E7.5711 F5400
G0 X7.814 Y-5.352 F10800
G1 X7.814 Y-13.731 E7.8497 F5400
;segType:HShell
G0 X8.634 Y-13.934 F10800
G1 X8.408 Y-14.162 E7.8604 F3600
G1 X7.764 Y-14.269
G1 X8.343 Y-13.683 E7.8878
G1 X7.747 Y-13.742
G1 X7.119 Y-14.377 E7.9175
G1 X6.475 Y-14.484
G1 X7.102 Y-13.849 E7.9472
G1 X6.458 Y-13.957
G1 X5.830 Y-14.592 E7.9769
G1 X5.186 Y-14.699
G1 X5.813 Y-14.064 E8.0066
G1 X5.169 Y-14.172
G1 X4.541 Y-14.807 E8.0362
G1 X3.897 Y-14.914
G1 X4.593 Y-14.210 E8.0692
G1 X4.126 Y-14.139
G1 X3.425 Y-14.847 E8.1023
G1 X2.957 Y-14.776
G1 X3.658 Y-14.067 E8.1355
G1 X3.190 Y-13.996
G1 X2.490 Y-14.704 E8.1686
G1 X1.908 Y-14.748
G1 X2.723 Y-13.924 E8.2072
G1 X2.221 Y-13.888
G1 X1.279 Y-14.840 E8.2517
G1 X0.696 Y-14.885
G1 X1.592 Y-13.979 E8.2941
G1 X0.963 Y-14.071
G1 X0.237 Y-14.805 E8.3284
G1 X-0.222 Y-14.725
G1 X0.335 Y-14.162 E8.3547
G1 X-0.233 Y-14.193
G1 X-0.681 Y-14.645 E8.3759
G1 X-1.140 Y-14.565
G1 X-0.692 Y-14.113 E8.3970
G1 X-1.151 Y-14.033
G1 X-1.599 Y-14.485 E8.4182
G1 X-2.058 Y-14.405
G1 X-1.611 Y-13.953 E8.4393
G1 X-2.070 Y-13.873
G1 X-2.517 Y-14.325 E8.4605
G1 X-2.976 Y-14.245
G1 X-2.529 Y-13.793 E8.4817
G1 X-2.988 Y-13.713
G1 X-3.435 Y-14.165 E8.5028
G1 X-3.894 Y-14.085
G1 X-3.447 Y-13.633 E8.5240
;segType:Infill
G0 X-0.197 Y-14.199 F10800
G1 X-0.197 Y-3.724 E8.8723 F5400
;segType:HShell
G0 X-1.350 Y-3.895 F10800
G1 X-2.386 Y-4.943 E8.9213 F3600
G1 X-2.548 Y-4.563
G1 X-3.603 Y-5.629 E8.9712
G1 X-3.765 Y-5.249
G1 X-5.063 Y-6.561 E9.0326
;segType:Infill
G0 X-4.203 Y-5.967 F10800
G1 X-4.203 Y-14.126 E9.3039 F5400
;segType:HShell
G0 X-5.785 Y-15.453 F10800
G1 X-5.857 Y-15.526 E9.3074 F3600
G1 X-6.639 Y-15.772
G1 X-6.052 Y-15.179 E9.3351
G1 X-6.290 Y-14.875
G1 X-6.877 Y-15.469 E9.3629
G1 X-7.115 Y-15.165
G1 X-6.528 Y-14.571 E9.3907
G1 X-6.766 Y-14.268
G1 X-7.354 Y-14.862 E9.4185
G1 X-7.592 Y-14.558
G1 X-7.004 Y-13.964 E9.4463
G1 X-7.242 Y-13.661
G1 X-7.830 Y-14.255 E9.4741
G1 X-7.739 Y-13.619
G1 X-7.480 Y-13.357 E9.4864
G0 X-6.999 Y-12.327 F10800
G1 X-6.766 Y-12.091 E9.4974 F3600
;segType:Infill
G0 X-6.623 Y-11.850 F10800
G1 X11.309 Y-11.850 E10.0938 F5400
G0 X11.820 Y-12.729 F10800
G1 X11.820 Y-13.898 E10.1327 F5400
;segType:HShell
G0 X12.490 Y-14.388 F10800
G1 X11.021 Y-15.873 E10.2022 F3600
G1 X10.687 Y-15.667
G1 X12.513 Y-13.821 E10.2885
G1 X12.333 Y-13.458
G1 X11.498 Y-14.303 E10.3280
G0 X10.444 Y-9.927 F10800
G1 X10.363 Y-10.009 E10.3319 F3600
G1 X10.183 Y-9.647
G1 X10.359 Y-9.469 E10.3402
G1 X10.273 Y-9.011
G1 X10.003 Y-9.284 E10.3530
G1 X9.915 Y-8.830
G1 X10.188 Y-8.554 E10.3659
G1 X10.102 Y-8.096
G1 X9.829 Y-8.372 E10.3788
G1 X9.744 Y-7.914
G1 X10.017 Y-7.638 E10.3917
G1 X9.931 Y-7.181
G1 X9.658 Y-7.457 E10.4046
G1 X9.573 Y-6.999
G1 X9.846 Y-6.723 E10.4175
G1 X9.760 Y-6.265
G1 X9.487 Y-6.541 E10.4305
G1 X9.289 Y-6.198
G1 X9.587 Y-5.896 E10.4446
G1 X9.244 Y-5.699
G1 X8.945 Y-6.001 E10.4587
G1 X8.602 Y-5.804
G1 X8.901 Y-5.502 E10.4728
G1 X8.557 Y-5.305
G1 X8.259 Y-5.607 E10.4870
G1 X7.915 Y-5.410
G1 X8.214 Y-5.108 E10.5011
G1 X7.871 Y-4.911
G1 X7.572 Y-5.213 E10.5152
G1 X7.228 Y-5.016
G1 X7.527 Y-4.714 E10.5294
G1 X7.184 Y-4.517
G1 X6.885 Y-4.819 E10.5435
G1 X6.542 Y-4.622
G1 X6.840 Y-4.320 E10.5576
G1 X6.496 Y-4.125
G1 X6.198 Y-4.425 E10.5717
G1 X5.854 Y-4.230
G1 X6.149 Y-3.932 E10.5856
G1 X5.802 Y-3.738
G1 X5.507 Y-4.036 E10.5996
G1 X5.160 Y-3.843
G1 X5.455 Y-3.544 E10.6135
G1 X5.108 Y-3.351
G1 X4.813 Y-3.650 E10.6275
G1 X4.466 Y-3.456
G1 X4.762 Y-3.157 E10.6415
G1 X4.415 Y-2.964
G1 X4.119 Y-3.263 E10.6555
G1 X3.772 Y-3.070
G1 X4.068 Y-2.770 E10.6695
G1 X3.721 Y-2.577
G1 X3.425 Y-2.876 E10.6835
G1 X3.078 Y-2.683
G1 X3.374 Y-2.384 E10.6975
G1 X3.026 Y-2.192
G1 X2.731 Y-2.490 E10.7114
G1 X2.483 Y-2.197
G1 X2.678 Y-1.999 E10.7207
G1 X2.174 Y-1.965
G1 X1.180 Y-2.970 E10.7677
;segType:Infill
G0 X3.808 Y1.105 F10800
G1 X3.808 Y3.307 E10.8410 F5400
G0 X1.525 Y8.399 F10800
G1 X3.346 Y8.399 E10.9015 F5400
G0 X3.714 Y4.349 F10800
G1 X1.128 Y4.349 E10.9875 F5400
;segType:HShell
G0 X0.958 Y0.071 F10800
G1 X1.508 Y0.627 E11.0135 F3600
G1 X1.235 Y0.894
G1 X0.685 Y0.339 E11.0395
G1 X0.567 Y0.763
G1 X0.962 Y1.162 E11.0582
G1 X0.857 Y1.600
G1 X0.627 Y1.368 E11.0691
G1 X0.687 Y1.973
G1 X0.917 Y2.205 E11.0799
G1 X0.976 Y2.809
G1 X0.747 Y2.577 E11.0908
G1 X0.807 Y3.182
G1 X1.036 Y3.414 E11.1016
G1 X1.095 Y4.018
G1 X0.866 Y3.787 E11.1124
G1 X0.926 Y4.391
G1 X1.154 Y4.622 E11.1232
G1 X1.214 Y5.226
G1 X0.986 Y4.996 E11.1340
G1 X1.046 Y5.600
G1 X1.273 Y5.830 E11.1447
G1 X1.332 Y6.434
G1 X1.105 Y6.205 E11.1554
G1 X1.165 Y6.809
G1 X1.392 Y7.038 E11.1661
G1 X1.451 Y7.642
G1 X1.224 Y7.413 E11.1769
G1 X1.283 Y8.017
G1 X1.510 Y8.246 E11.1876
G1 X1.569 Y8.850
G1 X1.343 Y8.621 E11.1983
G1 X1.402 Y9.225
G1 X1.629 Y9.454 E11.2090
G1 X1.688 Y10.058
G1 X1.461 Y9.829 E11.2198
G1 X1.521 Y10.433
G1 X1.747 Y10.662 E11.2305
G1 X1.807 Y11.266
G1 X1.580 Y11.037 E11.2412
G1 X1.639 Y11.641
G1 X1.866 Y11.870 E11.2519
G1 X1.699 Y12.245
G1 X2.108 Y12.659 E11.2713
G1 X2.646 Y12.660
G1 X2.275 Y12.284 E11.2889
G1 X2.809 Y12.279
G1 X3.165 Y12.640 E11.3058
G1 X3.210 Y12.141
G1 X3.023 Y11.952 E11.3146
G1 X3.069 Y11.454
G1 X3.256 Y11.643 E11.3234
G1 X3.301 Y11.145
G1 X3.114 Y10.956 E11.3323
G1 X3.159 Y10.457
G1 X3.346 Y10.646 E11.3411
G1 X3.391 Y10.148
G1 X3.204 Y9.959 E11.3500
G1 X3.250 Y9.461
G1 X3.437 Y9.650 E11.3588
G1 X3.482 Y9.151
G1 X3.295 Y8.962 E11.3676
G1 X3.340 Y8.464
G1 X3.527 Y8.653 E11.3765
G1 X3.572 Y8.155
G1 X3.385 Y7.966 E11.3853
G1 X3.431 Y7.467
G1 X3.618 Y7.656 E11.3942
G1 X3.663 Y7.158
G1 X3.476 Y6.969 E11.4030
G1 X3.521 Y6.471
G1 X3.708 Y6.659 E11.4118
G1 X3.753 Y6.161
G1 X3.566 Y5.972 E11.4207
G1 X3.612 Y5.474
G1 X3.799 Y5.663 E11.4295
G1 X3.844 Y5.165
G1 X3.657 Y4.975 E11.4384
G1 X3.702 Y4.477
G1 X3.890 Y4.667 E11.4473
G1 X3.935 Y4.169
G1 X3.747 Y3.979 E11.4562
G1 X3.793 Y3.480
G1 X3.981 Y3.671 E11.4651
G1 X4.027 Y3.173
G1 X3.838 Y2.982 E11.4740
G1 X3.883 Y2.484
G1 X4.072 Y2.675 E11.4829
G1 X4.118 Y2.177
G1 X3.929 Y1.986 E11.4919
G1 X3.975 Y1.488
G1 X4.164 Y1.679 E11.5008
G1 X4.209 Y1.181
G1 X2.051 Y-1.001 E11.6029
G1 X2.324 Y-1.269
G1 X4.255 Y0.683 E11.6942
;segType:Support
G0 F4800 E10.6942
G0 X1.222 Y-16.278 F10800
G0 F4800 E11.6942
G1 X0.721 Y-16.779 E11.7142 F5400
G1 X1.779 Y-16.779 E11.7442
G0 F4800 E10.7442
G0 X7.500 Y-22.500 F10800
G0 F4800 E11.7442
G1 X0.000 Y-22.500 E11.9562 F5400
G1 X0.000 Y-20.000 E12.0269
G1 X7.500 Y-20.000 E12.2389
; ------------------------------------
; Layer #10
; ------------------------------------
G21 ; mm
G90 ; abs
G92 E0 ; reset extr
M106 S255
;segType:Support
G0 F4800 E-1.0000
G0 F300 Z2.200
G0 X7.500 Y-20.000 F10800
G0 F4800 E0.0000
G1 X0.000 Y-20.000 E0.2120 F5400
G1 X0.000 Y-22.500 E0.2827
G1 X7.500 Y-22.500 E0.4947
G0 F4800 E-0.5053
G0 X1.579 Y-16.579 F10800
G0 F4800 E0.4947
G1 X1.508 Y-16.508 E0.4976 F5400
G0 F4800 E-0.5024
G0 X3.633 Y-2.340 F10800
G0 X4.281 Y1.151
G0 F4800 E0.4976
;segType:HShell
G1 X3.890 Y1.546 E0.5161 F3600
G1 X3.615 Y1.280
G1 X4.165 Y0.724 E0.5421
G1 X3.890 Y0.458
G1 X3.340 Y1.014 E0.5681
G1 X3.065 Y0.748
G1 X3.614 Y0.193 E0.5941
G1 X3.339 Y-0.073
G1 X2.790 Y0.482 E0.6201
G1 X2.514 Y0.217
G1 X3.064 Y-0.339 E0.6461
G1 X2.789 Y-0.605
G1 X0.584 Y1.624 E0.7504
G1 X0.535 Y1.130
G1 X2.514 Y-0.871 E0.8440
;segType:Perimeter
G0 X2.111 Y-0.699 F10800
G1 X1.810 Y-1.321 E0.8670 F2159
G1 X0.888 Y-1.823 E0.9019
G1 X-2.383 Y-3.618 E1.0260
G1 X-5.559 Y-5.409 E1.1472
G1 X-6.529 Y-10.404 E1.3165
G1 X-8.051 Y-12.978 E1.4159
G1 X-8.518 Y-13.905 E1.4505
G1 X-6.430 Y-16.569 E1.5631
G1 X-5.447 Y-15.975 E1.6013
G1 X-4.110 Y-14.840 E1.6596
G1 X1.109 Y-15.749 E1.8358
G1 X2.349 Y-15.568 E1.8774
G1 X3.587 Y-15.757 E1.9191
G1 X8.812 Y-14.886 E2.0953
G1 X10.141 Y-16.031 E2.1536
G1 X11.119 Y-16.633 E2.1919
G1 X13.227 Y-13.985 E2.3044
G1 X12.767 Y-13.054 E2.3390
G1 X11.264 Y-10.469 E2.4384
G1 X10.330 Y-5.467 E2.6077
G1 X7.167 Y-3.653 E2.7290
G1 X3.909 Y-1.834 E2.8531
G1 X2.941 Y-1.298 E2.8899
G1 X4.932 Y0.626 E2.9820
G1 X4.383 Y6.618 E3.1821
G1 X3.769 Y13.372 E3.4077
G1 X2.454 Y13.395 E3.4514
G1 X1.139 Y13.382 E3.4952
G1 X0.476 Y6.632 E3.7207
G1 X-0.116 Y0.644 E3.9209
G1 X1.820 Y-1.254 E4.0110
G1 X1.941 Y-1.936
;segType:Loop
G0 X1.129 Y-2.152 F10800
G1 X1.079 Y-2.179 E4.0129 F3600
G1 X-2.190 Y-3.972 E4.1369
G1 X-5.202 Y-5.670 E4.2519
G1 X-6.150 Y-10.551 E4.4173
G1 X-7.701 Y-13.173 E4.5186
G1 X-8.045 Y-13.857 E4.5441
G1 X-6.334 Y-16.040 E4.6364
G1 X-5.680 Y-15.644 E4.6618
G1 X-4.225 Y-14.409 E4.7253
G1 X1.114 Y-15.339 E4.9055
G1 X2.350 Y-15.160 E4.9471
G1 X3.584 Y-15.348 E4.9886
G1 X8.930 Y-14.456 E5.1688
G1 X10.376 Y-15.702 E5.2323
G1 X11.028 Y-16.103 E5.2578
G1 X12.755 Y-13.934 E5.3500
G1 X12.416 Y-13.247 E5.3755
G1 X10.884 Y-10.613 E5.4768
G1 X9.971 Y-5.726 E5.6422
G1 X6.972 Y-4.005 E5.7572
G1 X3.716 Y-2.189 E5.8812
G1 X2.400 Y-1.459 E5.9312
G1 X1.296 Y-2.061 E5.9730
G0 X0.979 Y-1.993 F10800
G0 X2.049 Y-1.320
G0 X2.001 Y-0.869
G1 X2.401 Y-1.260 E5.9916 F3600
G1 X4.515 Y0.783 E6.0895
G1 X3.984 Y6.581 E6.2831
G1 X3.404 Y12.974 E6.4966
G1 X2.453 Y12.991 E6.5282
G1 X1.502 Y12.981 E6.5599
G1 X0.874 Y6.592 E6.7734
G1 X0.301 Y0.799 E6.9670
G1 X1.865 Y-0.735 E7.0399
;segType:Infill
G0 X2.214 Y0.299 F10800
G1 X2.600 Y0.299 E7.0527 F5400
G0 X3.808 Y1.467 F10800
G1 X3.808 Y4.055 E7.1388 F5400
;segType:HShell
G0 X4.226 Y1.751 F10800
G1 X3.998 Y1.981 E7.1496 F3600
G1 X3.943 Y2.581
G1 X4.171 Y2.350 E7.1604
G1 X4.116 Y2.950
G1 X3.888 Y3.180 E7.1711
G1 X3.833 Y3.780
G1 X4.061 Y3.550 E7.1819
G1 X4.006 Y4.149
G1 X3.779 Y4.379 E7.1926
G1 X3.725 Y4.978
G1 X3.951 Y4.749 E7.2034
G1 X3.896 Y5.349
G1 X3.670 Y5.577 E7.2141
G1 X3.616 Y6.176
G1 X3.841 Y5.948 E7.2247
G1 X3.786 Y6.548
G1 X3.561 Y6.775 E7.2354
G1 X3.507 Y7.374
G1 X3.732 Y7.147 E7.2460
G1 X3.678 Y7.746
G1 X3.453 Y7.974 E7.2566
G1 X3.398 Y8.573
G1 X3.623 Y8.345 E7.2673
G1 X3.569 Y8.944
G1 X3.344 Y9.172 E7.2779
G1 X3.290 Y9.771
G1 X3.514 Y9.544 E7.2886
G1 X3.460 Y10.143
G1 X3.235 Y10.370 E7.2992
G1 X3.181 Y10.969
G1 X3.406 Y10.742 E7.3098
G1 X3.351 Y11.341
G1 X3.126 Y11.568 E7.3204
G1 X3.072 Y12.167
G1 X3.297 Y11.940 E7.3311
G1 X3.242 Y12.539
G1 X3.005 Y12.779 E7.3423
;segType:Infill
G0 X1.059 Y4.349 F10800
