; GCode generated by CraftWare

G28 X0 Y0
G28 Z0

M190 S60 ;set bed temp (wait)
M109 S205 ;set head temp (wait)
; ------------------------------------
; Layer #0
; ------------------------------------
G21 ; mm
G90 ; abs
G92 E0 ; reset extr
M106 S0
;segType:Skirt
G0 F4800 E-1.0000
G0 F2400 Z0.200
G0 X-2.344 Y13.324 F10800
G0 F4800 E0.0000
G1 X-0.190 Y15.502 E0.1019 F600
G1 X0.000 Y15.694 E0.1109
G1 X0.444 Y16.143 E0.1319
G1 X0.887 Y16.207 E0.1468
G1 X3.928 Y16.207 E0.2479
G1 X4.372 Y16.143 E0.2628
G1 X7.160 Y13.324 E0.3947
G1 X7.160 Y12.556 E0.4202
G1 X7.286 Y12.428 E0.4262
G1 X7.286 Y11.146 E0.4688
G1 X7.413 Y11.018 E0.4748
G1 X7.413 Y9.737 E0.5174
G1 X7.540 Y9.609 E0.5234
G1 X7.540 Y8.328 E0.5661
G1 X7.667 Y8.200 E0.5720
G1 X7.667 Y6.918 E0.6147
G1 X7.793 Y6.790 E0.6207
G1 X7.793 Y5.509 E0.6633
G1 X7.920 Y5.381 E0.6693
G1 X7.920 Y4.100 E0.7119
G1 X8.047 Y3.972 E0.7179
G1 X8.047 Y2.690 E0.7605
G1 X8.173 Y2.562 E0.7665
G1 X8.173 Y1.281 E0.8091
G1 X8.300 Y1.153 E0.8151
G1 X8.300 Y-0.128 E0.8577
G1 X8.427 Y-0.256 E0.8637
G1 X8.427 Y-1.281 E0.8978
G1 X9.378 Y-1.858 E0.9348
G1 X9.758 Y-1.986 E0.9481
G1 X10.011 Y-2.242 E0.9601
G1 X10.391 Y-2.370 E0.9734
G1 X13.179 Y-5.189 E1.1053
G1 X13.496 Y-5.637 E1.1235
G1 X13.496 Y-5.893 E1.1321
G1 X16.157 Y-10.378 E1.3055
G1 X16.284 Y-10.762 E1.3190
G1 X16.537 Y-11.018 E1.3309
G1 X16.664 Y-11.403 E1.3444
G1 X16.917 Y-11.659 E1.3564
G1 X17.044 Y-12.043 E1.3698
G1 X18.755 Y-14.926 E1.4813
G1 X18.818 Y-15.374 E1.4964
G1 X18.818 Y-16.912 E1.5475
G1 X18.628 Y-17.232 E1.5599
G1 X15.840 Y-20.050 E1.6918
G1 X15.587 Y-20.050 E1.7002
G1 X14.573 Y-21.075 E1.7482
G1 X14.320 Y-21.075 E1.7566
G1 X13.433 Y-21.972 E1.7985
G1 X11.405 Y-21.972 E1.8660
G1 X11.152 Y-21.716 E1.8780
G1 X10.835 Y-21.524 E1.8903
G1 X10.582 Y-21.268 E1.9023
G1 X10.265 Y-21.075 E1.9146
G1 X10.011 Y-20.819 E1.9266
G1 X9.441 Y-20.499 E1.9483
G1 X9.441 Y-23.318 E2.0421
G1 X8.427 Y-24.343 E2.0900
G1 X7.984 Y-24.406 E2.1049
G1 X4.435 Y-24.406 E2.2229
G1 X3.992 Y-24.343 E2.2378
G1 X3.675 Y-24.150 E2.2502
G1 X3.422 Y-24.406 E2.2622
G1 X-0.887 Y-24.406 E2.4055
G1 X-1.901 Y-23.381 E2.4534
G1 X-1.964 Y-22.933 E2.4685
G1 X-1.964 Y-19.346 E2.5878
G1 X-1.901 Y-18.898 E2.6028
G1 X-1.711 Y-18.577 E2.6152
G1 X-1.964 Y-18.321 E2.6272
G1 X-1.964 Y-18.065 E2.6357
G1 X-2.154 Y-18.000 E2.6424
G1 X-2.661 Y-18.513 E2.6664
G1 X-2.978 Y-18.705 E2.6787
G1 X-3.485 Y-19.218 E2.7027
G1 X-3.802 Y-19.410 E2.7150
G1 X-4.309 Y-19.922 E2.7390
G1 X-4.626 Y-20.115 E2.7513
G1 X-4.879 Y-20.371 E2.7633
G1 X-5.196 Y-20.563 E2.7756
G1 X-5.449 Y-20.819 E2.7876
G1 X-5.766 Y-21.011 E2.8000
G1 X-6.020 Y-21.268 E2.8119
G1 X-6.336 Y-21.460 E2.8243
G1 X-6.716 Y-21.844 E2.8422
G1 X-8.744 Y-21.844 E2.9097
G1 X-9.060 Y-21.652 E2.9220
G1 X-9.567 Y-21.140 E2.9460
G1 X-10.201 Y-20.755 E2.9706
G1 X-10.708 Y-20.243 E2.9946
G1 X-11.025 Y-20.050 E3.0069
G1 X-11.278 Y-20.050 E3.0154
G1 X-14.066 Y-17.232 E3.1472
G1 X-14.256 Y-16.912 E3.1596
G1 X-14.256 Y-15.374 E3.2107
G1 X-14.193 Y-14.926 E3.2258
G1 X-12.862 Y-12.684 E3.3125
G1 X-12.735 Y-12.299 E3.3260
G1 X-8.934 Y-5.893 E3.5737
G1 X-8.807 Y-5.765 E3.5797
G1 X-8.744 Y-5.317 E3.5948
G1 X-5.703 Y-2.242 E3.7386
G1 X-5.322 Y-2.114 E3.7520
G1 X-3.738 Y-1.153 E3.8136
G1 X-3.738 Y-0.128 E3.8477
G1 X-3.611 Y0.000 E3.8537
G1 X-3.611 Y1.025 E3.8878
G1 X-3.485 Y1.409 E3.9012
G1 X-3.485 Y2.434 E3.9353
G1 X-3.358 Y2.562 E3.9413
G1 X-3.358 Y3.844 E3.9839
G1 X-3.231 Y3.972 E3.9899
G1 X-3.231 Y4.997 E4.0240
G1 X-3.104 Y5.381 E4.0375
G1 X-3.104 Y6.406 E4.0716
G1 X-2.978 Y6.534 E4.0775
G1 X-2.978 Y7.559 E4.1116
G1 X-2.851 Y7.943 E4.1251
G1 X-2.851 Y8.968 E4.1592
G1 X-2.724 Y9.096 E4.1652
G1 X-2.724 Y10.121 E4.1993
G1 X-2.598 Y10.506 E4.2127
G1 X-2.598 Y11.531 E4.2468
G1 X-2.471 Y11.659 E4.2528
G1 X-2.471 Y12.684 E4.2869
G1 X-2.344 Y13.068 E4.3004
G1 X-2.344 Y13.324 E4.3089
G0 F4800 E3.3089
G0 X4.435 Y-17.360 F10800
G0 F4800 E4.3089
G1 X4.372 Y-17.680 E4.3198 F600
G1 X4.372 Y-17.937 E4.3283
G1 X4.816 Y-18.001 E4.3432
G1 X6.336 Y-18.001 E4.3938
G1 X6.527 Y-17.937 E4.4005
G1 X6.273 Y-17.680 E4.4124
G1 X5.956 Y-17.488 E4.4248
G1 X4.942 Y-17.488 E4.4585
G1 X4.816 Y-17.360 E4.4645
G1 X4.435 Y-17.360 E4.4771
G0 F4800 E3.4771
G0 X9.884 Y-21.075 F10800
G0 F4800 E4.4771
G1 X9.821 Y-21.524 E4.4922 F600
G1 X9.821 Y-23.318 E4.5519
G1 X8.554 Y-24.599 E4.6118
G1 X8.237 Y-24.791 E4.6241
G1 X4.182 Y-24.791 E4.7590
G1 X3.675 Y-24.534 E4.7779
G1 X3.422 Y-24.791 E4.7899
G1 X-0.887 Y-24.791 E4.9332
G1 X-2.154 Y-23.510 E4.9931
G1 X-2.344 Y-23.189 E5.0055
G1 X-2.344 Y-19.090 E5.1418
G1 X-2.091 Y-18.577 E5.1609
G1 X-2.281 Y-18.513 E5.1675
G1 X-2.788 Y-19.025 E5.1915
G1 X-3.105 Y-19.218 E5.2039
G1 X-3.612 Y-19.730 E5.2278
G1 X-3.928 Y-19.922 E5.2401
G1 X-4.435 Y-20.435 E5.2641
G1 X-5.069 Y-20.819 E5.2888
G1 X-5.576 Y-21.331 E5.3127
G1 X-5.893 Y-21.524 E5.3251
G1 X-6.146 Y-21.780 E5.3371
G1 X-6.463 Y-21.972 E5.3494
G1 X-6.716 Y-22.228 E5.3614
G1 X-8.744 Y-22.228 E5.4288
G1 X-9.060 Y-22.036 E5.4411
G1 X-9.567 Y-21.524 E5.4651
G1 X-10.201 Y-21.140 E5.4897
G1 X-10.708 Y-20.627 E5.5137
G1 X-11.025 Y-20.435 E5.5260
G1 X-11.278 Y-20.435 E5.5345
G1 X-14.573 Y-17.104 E5.6903
G1 X-14.636 Y-16.655 E5.7054
G1 X-14.636 Y-15.118 E5.7565
G1 X-14.510 Y-14.734 E5.7700
G1 X-9.187 Y-5.765 E6.1168
G1 X-9.124 Y-5.317 E6.1319
G1 X-5.829 Y-1.986 E6.2877
G1 X-5.196 Y-1.602 E6.3124
G1 X-4.816 Y-1.474 E6.3257
G1 X-4.182 Y-1.089 E6.3503
G1 X-4.118 Y-0.641 E6.3654
G1 X-4.118 Y-0.128 E6.3825
G1 X-3.992 Y0.000 E6.3885
G1 X-3.992 Y1.025 E6.4225
G1 X-3.865 Y1.409 E6.4360
G1 X-3.865 Y2.434 E6.4701
G1 X-3.738 Y2.562 E6.4761
G1 X-3.738 Y3.844 E6.5187
G1 X-3.611 Y3.972 E6.5247
G1 X-3.611 Y4.997 E6.5588
G1 X-3.485 Y5.381 E6.5722
G1 X-3.485 Y6.406 E6.6063
G1 X-3.358 Y6.534 E6.6123
G1 X-3.358 Y7.559 E6.6464
G1 X-3.231 Y7.943 E6.6599
G1 X-3.231 Y8.968 E6.6940
G1 X-3.104 Y9.096 E6.7000
G1 X-3.104 Y10.121 E6.7341
G1 X-2.978 Y10.506 E6.7475
G1 X-2.978 Y11.531 E6.7816
G1 X-2.851 Y11.659 E6.7876
G1 X-2.851 Y12.684 E6.8217
G1 X-2.724 Y13.068 E6.8351
G1 X-2.724 Y13.324 E6.8437
G1 X0.317 Y16.399 E6.9875
G1 X0.507 Y16.591 E6.9965
G1 X3.928 Y16.591 E7.1103
G1 X4.372 Y16.527 E7.1252
G1 X7.540 Y13.324 E7.2750
G1 X7.540 Y12.556 E7.3006
G1 X7.667 Y12.428 E7.3066
G1 X7.667 Y11.146 E7.3492
G1 X7.793 Y11.018 E7.3552
G1 X7.793 Y9.737 E7.3978
G1 X7.920 Y9.609 E7.4038
G1 X7.920 Y8.328 E7.4464
G1 X8.047 Y8.200 E7.4524
G1 X8.047 Y6.918 E7.4950
G1 X8.173 Y6.790 E7.5010
G1 X8.173 Y5.509 E7.5436
G1 X8.300 Y5.381 E7.5496
G1 X8.300 Y4.100 E7.5922
G1 X8.427 Y3.972 E7.5982
G1 X8.427 Y2.690 E7.6408
G1 X8.554 Y2.562 E7.6468
G1 X8.554 Y1.281 E7.6894
G1 X8.680 Y1.153 E7.6954
G1 X8.680 Y-0.128 E7.7381
G1 X8.807 Y-0.256 E7.7440
G1 X8.807 Y-1.025 E7.7696
G1 X9.060 Y-1.281 E7.7816
G1 X9.378 Y-1.474 E7.7939
G1 X9.758 Y-1.602 E7.8073
G1 X10.011 Y-1.858 E7.8193
G1 X10.391 Y-1.986 E7.8326
G1 X13.686 Y-5.317 E7.9884
G1 X13.876 Y-5.637 E8.0008
G1 X13.876 Y-5.893 E8.0093
G1 X16.537 Y-10.378 E8.1828
G1 X16.664 Y-10.762 E8.1962
G1 X16.917 Y-11.018 E8.2082
G1 X17.044 Y-11.403 E8.2217
G1 X17.298 Y-11.659 E8.2337
G1 X17.424 Y-12.043 E8.2471
G1 X19.135 Y-14.926 E8.3586
G1 X19.198 Y-15.374 E8.3737
G1 X19.198 Y-16.912 E8.4248
G1 X19.009 Y-17.232 E8.4372
G1 X15.840 Y-20.435 E8.5870
G1 X15.587 Y-20.435 E8.5955
G1 X14.573 Y-21.460 E8.6434
G1 X14.320 Y-21.460 E8.6518
G1 X13.433 Y-22.356 E8.6938
G1 X11.405 Y-22.356 E8.7612
G1 X11.152 Y-22.100 E8.7732
G1 X10.835 Y-21.908 E8.7855
G1 X10.582 Y-21.652 E8.7975
G1 X10.265 Y-21.460 E8.8099
G1 X9.884 Y-21.075 E8.8278
G1 X10.265 Y-21.844 E8.8564
G1 X10.201 Y-22.293 E8.8714
G1 X10.201 Y-23.318 E8.9055
G1 X8.427 Y-25.111 E8.9894
G1 X7.984 Y-25.175 E9.0043
G1 X4.435 Y-25.175 E9.1223
G1 X3.992 Y-25.111 E9.1372
G1 X3.675 Y-24.919 E9.1496
G1 X3.422 Y-25.175 E9.1616
G1 X-0.887 Y-25.175 E9.3049
G1 X-2.661 Y-23.381 E9.3888
G1 X-2.724 Y-22.933 E9.4038
G1 X-2.724 Y-19.858 E9.5061
G1 X-2.788 Y-19.410 E9.5212
G1 X-3.105 Y-19.602 E9.5335
G1 X-3.612 Y-20.115 E9.5575
G1 X-3.879 Y-20.277 E9.5679
;segType:Support
G0 F4800 E8.5679
G0 X0.000 Y-22.500 F10800
G0 F4800 E9.5679
G1 X7.500 Y-22.500 E9.7799 F900
G1 X7.500 Y-20.000 E9.8506
G1 X0.000 Y-20.000 E10.0626
G1 X2.500 Y-17.500 E10.1626
G1 X0.000 Y-17.500 E10.2333
G1 X0.000 Y-15.000 E10.3039
G1 X2.500 Y-15.000 E10.3746
G0 F4800 E9.3746
G0 X-5.459 Y-16.030 F10800
G0 X-8.112 Y-16.373
G0 F4800 E10.3746
;segType:Perimeter
G1 X-7.817 Y-16.998 E10.3976 F359
G1 X-7.687 Y-17.779 E10.4239
G1 X-6.081 Y-16.455 E10.4932
G1 X-5.858 Y-16.320 E10.5018
G1 X-2.385 Y-13.373 E10.6533
G1 X-1.856 Y-13.465 E10.6712
G1 X2.358 Y-12.852 E10.8128
G1 X6.567 Y-13.493 E10.9544
G1 X7.098 Y-13.405 E10.9723
G1 X10.550 Y-16.380 E11.1239
G1 X10.771 Y-16.516 E11.1325
G1 X12.368 Y-17.852 E11.2018
G1 X12.513 Y-17.015 E11.2300
G1 X13.575 Y-17.030 E11.2653
G1 X13.737 Y-16.091 E11.2970
G1 X14.790 Y-16.061 E11.3321
G1 X13.659 Y-14.104 E11.4073
G1 X13.490 Y-13.762 E11.4199
G1 X9.524 Y-6.941 E11.6824
G1 X9.448 Y-6.539 E11.6960
G1 X4.908 Y-3.935 E11.8701
G1 X4.308 Y-3.601 E11.8929
G1 X4.604 Y-3.314 E11.9067
G1 X3.202 Y12.122 E12.4222
G1 X2.450 Y12.139 E12.4472
G1 X1.697 Y12.127 E12.4722
G1 X0.182 Y-3.298 E12.9877
G1 X0.477 Y-3.586 E13.0014
G1 X-0.126 Y-3.917 E13.0243
G1 X-4.685 Y-6.487 E13.1984
G1 X-4.763 Y-6.889 E13.2120
G1 X-8.780 Y-13.681 E13.4745
G1 X-8.951 Y-14.021 E13.4871
G1 X-10.096 Y-15.970 E13.5623
G1 X-9.044 Y-16.008 E13.5973
G1 X-8.881 Y-16.956 E13.6293
G1 X-7.884 Y-16.942 E13.6625
G1 X-7.222 Y-17.123
G0 F4800 E12.6625
G0 X-7.333 Y-16.965 F10800
G0 F4800 E13.6625
;segType:Loop
G1 X-6.311 Y-16.123 E13.7066 F600
G1 X-6.091 Y-15.990 E13.7151
G1 X-2.500 Y-12.942 E13.8718
G1 X-1.850 Y-13.056 E13.8937
G1 X2.360 Y-12.443 E14.0352
G1 X6.565 Y-13.084 E14.1767
G1 X7.216 Y-12.976 E14.1986
G1 X10.785 Y-16.051 E14.3553
G1 X11.004 Y-16.186 E14.3639
G1 X12.093 Y-17.097 E14.4111
G1 X12.178 Y-16.606 E14.4277
G1 X13.239 Y-16.621 E14.4630
G1 X13.400 Y-15.696 E14.4942
G1 X14.104 Y-15.676 E14.5177
G1 X13.307 Y-14.296 E14.5707
G1 X13.138 Y-13.955 E14.5833
G1 X9.143 Y-7.086 E14.8476
G1 X9.090 Y-6.798 E14.8574
G1 X4.713 Y-4.288 E15.0252
G1 X3.637 Y-3.689 E15.0661
G1 X4.188 Y-3.157 E15.0916
G1 X2.836 Y11.726 E15.5886
G1 X2.060 Y11.728 E15.6144
G1 X0.599 Y-3.143 E16.1115
G1 X1.147 Y-3.679 E16.1370
G1 X0.067 Y-4.271 E16.1779
G1 X-4.328 Y-6.749 E16.3457
G1 X-4.384 Y-7.036 E16.3555
G1 X-8.429 Y-13.877 E16.6198
G1 X-8.600 Y-14.216 E16.6324
G1 X-9.408 Y-15.590 E16.6854
G1 X-8.705 Y-15.615 E16.7088
G1 X-8.546 Y-16.547 E16.7402
G1 X-7.489 Y-16.532 E16.7754
G1 X-7.422 Y-16.931 E16.7888
G0 F4800 E15.7888
G0 X-6.768 Y-15.991 F10800
G0 F4800 E16.7888
;segType:HShell
G1 X-6.535 Y-15.799 E16.7989 F300
G1 X-6.318 Y-15.667 E16.8073
G1 X-2.612 Y-12.522 E16.9690
G1 X-1.845 Y-12.656 E16.9949
G1 X2.361 Y-12.044 E17.1363
G1 X6.562 Y-12.685 E17.2776
G1 X7.331 Y-12.556 E17.3036
G1 X11.014 Y-15.731 E17.4653
G1 X11.231 Y-15.864 E17.4737
G1 X11.824 Y-16.360 E17.4995
G1 X11.851 Y-16.207 E17.5046
G1 X12.912 Y-16.222 E17.5399
G1 X13.070 Y-15.311 E17.5707
G1 X13.435 Y-15.300 E17.5828
G1 X12.963 Y-14.484 E17.6142
G1 X12.795 Y-14.144 E17.6268
G1 X8.772 Y-7.226 E17.8930
G1 X8.740 Y-7.051 E17.8989
G1 X4.522 Y-4.632 E18.0606
G1 X2.983 Y-3.775 E18.1192
G1 X3.782 Y-3.003 E18.1562
G1 X2.480 Y11.332 E18.6349
G1 X2.413 Y11.333 E18.6371
G1 X1.006 Y-2.993 E19.1159
G1 X1.801 Y-3.770 E19.1529
G1 X0.255 Y-4.617 E19.2115
G1 X-3.980 Y-7.005 E19.3732
G1 X-4.014 Y-7.180 E19.3791
G1 X-8.088 Y-14.068 E19.6453
G1 X-8.258 Y-14.407 E19.6579
G1 X-8.736 Y-15.220 E19.6893
G1 X-8.375 Y-15.233 E19.7013
G1 X-8.218 Y-16.147 E19.7322
G1 X-7.159 Y-16.133 E19.7674
G1 X-7.133 Y-16.291 E19.7727
G1 X-6.916 Y-16.112 E19.7821
G0 X-6.185 Y-15.053 F10800
G1 X-2.722 Y-12.113 E19.9332 F300
G1 X-1.839 Y-12.267 E19.9630
G1 X2.362 Y-11.655 E20.1042
G1 X6.559 Y-12.295 E20.2454
G1 X7.444 Y-12.148 E20.2752
G1 X11.238 Y-15.418 E20.4418
G1 X11.452 Y-15.549 E20.4502
G1 X11.777 Y-15.821 E20.4642
G1 X12.594 Y-15.833 E20.4914
G1 X12.782 Y-14.934 E20.5220
G1 X12.628 Y-14.668 E20.5322
G1 X12.461 Y-14.328 E20.5448
G1 X8.411 Y-7.364 E20.8127
G1 X8.398 Y-7.298 E20.8150
G1 X4.337 Y-4.968 E20.9707
G1 X2.391 Y-3.884 E21.0448
G1 X0.438 Y-4.954 E21.1188
G1 X-3.641 Y-7.254 E21.2746
G1 X-3.653 Y-7.319 E21.2768
G1 X-7.754 Y-14.254 E21.5448
G1 X-8.053 Y-14.859 E21.5672
G1 X-7.898 Y-15.758 E21.5976
G1 X-7.075 Y-15.747 E21.6250
G1 X-6.754 Y-15.483 E21.6388
G1 X-6.539 Y-15.353 E21.6471
G1 X-6.331 Y-15.176 E21.6562
G0 X-5.628 Y-14.078 F10800
G1 X-2.831 Y-11.704 E21.7782 F300
G1 X-1.834 Y-11.877 E21.8119
G1 X2.364 Y-11.266 E21.9530
G1 X6.556 Y-11.906 E22.0941
G1 X7.556 Y-11.739 E22.1278
G1 X11.462 Y-15.105 E22.2992
G1 X11.673 Y-15.235 E22.3075
G1 X11.916 Y-15.438 E22.3180
G1 X12.286 Y-15.444 E22.3304
G1 X12.379 Y-15.000 E22.3454
G1 X12.126 Y-14.511 E22.3637
G1 X8.083 Y-7.559 E22.6312
G1 X4.151 Y-5.304 E22.7820
G1 X2.390 Y-4.323 E22.8491
G1 X0.621 Y-5.291 E22.9161
G1 X-3.327 Y-7.517 E23.0669
G1 X-7.420 Y-14.439 E23.3343
G1 X-7.657 Y-14.918 E23.3521
G1 X-7.579 Y-15.369 E23.3673
G1 X-7.212 Y-15.364 E23.3795
G1 X-6.974 Y-15.168 E23.3898
G1 X-6.761 Y-15.039 E23.3981
G1 X-5.774 Y-14.201 E23.4411
G0 X-5.071 Y-13.103 F10800
G1 X-2.941 Y-11.294 E23.5341 F300
G1 X-1.829 Y-11.488 E23.5716
G1 X2.365 Y-10.877 E23.7126
G1 X6.554 Y-11.516 E23.8535
G1 X7.669 Y-11.330 E23.8911
G1 X11.685 Y-14.792 E24.0674
G1 X11.920 Y-14.942 E24.0767
G1 X11.793 Y-14.698 E24.0858
G1 X7.807 Y-7.843 E24.3496
G1 X3.965 Y-5.640 E24.4969
G1 X2.388 Y-4.761 E24.5569
G1 X0.805 Y-5.628 E24.6170
G1 X-3.053 Y-7.803 E24.7643
G1 X-7.086 Y-14.624 E25.0278
G1 X-7.193 Y-14.852 E25.0362
G1 X-6.982 Y-14.725 E25.0443
G1 X-5.217 Y-13.226 E25.1214
G0 X-0.300 Y-8.933 F10800
G1 X2.372 Y-8.544 E25.2112 F300
G1 X5.136 Y-8.965 E25.3042
G1 X2.851 Y-7.655 E25.3918
G1 X2.379 Y-7.392 E25.4098
G1 X1.904 Y-7.652 E25.4278
G1 X-0.312 Y-8.900 E25.5124
G0 X1.684 Y-8.256 F10800
G1 X2.374 Y-8.155 E25.5356 F300
G1 X3.163 Y-8.276 E25.5621
G1 X2.377 Y-7.830 E25.5921
G1 X1.673 Y-8.223 E25.6190
G0 X1.564 Y-6.088 F10800
G1 X1.171 Y-6.303 E25.6339 F300
G1 X-2.504 Y-8.374 E25.7742
G1 X-4.337 Y-11.475 E25.8940
G1 X-3.159 Y-10.475 E25.9454
G1 X-1.818 Y-10.709 E25.9907
G1 X2.367 Y-10.100 E26.1314
G1 X6.549 Y-10.737 E26.2720
G1 X7.893 Y-10.513 E26.3174
G1 X9.063 Y-11.521 E26.3687
G1 X7.254 Y-8.411 E26.4884
G1 X3.594 Y-6.311 E26.6287
G1 X2.385 Y-5.638 E26.6748
G1 X1.731 Y-5.996 E26.6996
G0 X2.303 Y-5.245 F10800
G1 X0.988 Y-5.965 E26.7494 F300
G1 X-2.778 Y-8.089 E26.8932
G1 X-5.824 Y-13.239 E27.0922
G1 X-3.050 Y-10.885 E27.2132
G1 X-1.824 Y-11.099 E27.2546
G1 X2.366 Y-10.488 E27.3954
G1 X6.552 Y-11.127 E27.5363
G1 X7.781 Y-10.922 E27.5777
G1 X10.537 Y-13.297 E27.6987
G1 X7.530 Y-8.127 E27.8977
G1 X3.780 Y-5.976 E28.0415
G1 X2.470 Y-5.246 E28.0913
G0 X2.461 Y-3.748 F10800
G1 X3.387 Y-2.853 E28.1342 F300
G1 X2.433 Y7.644 E28.4847
G1 X1.403 Y-2.846 E28.8353
G1 X2.324 Y-3.747 E28.8782
G0 X2.955 Y-2.739 F10800
G1 X2.991 Y-2.704 E28.8798 F300
G1 X2.418 Y3.599 E29.0903
G1 X1.800 Y-2.699 E29.3008
G1 X2.394 Y-3.280 E29.3285
G1 X2.817 Y-2.871 E29.3480
G0 X2.521 Y-1.736 F10800
G1 X2.404 Y-0.445 E29.3911 F300
G1 X2.197 Y-2.552 E29.4615
G1 X2.396 Y-2.746 E29.4708
G1 X2.595 Y-2.554 E29.4800
G1 X2.538 Y-1.927 E29.5009
G0 X0.832 Y-6.934 F10800
G1 X-2.230 Y-8.660 E29.6179 F300
G1 X-3.080 Y-10.099 E29.6734
G1 X-1.813 Y-10.320 E29.7162
G1 X2.369 Y-9.711 E29.8568
G1 X6.546 Y-10.348 E29.9973
G1 X7.816 Y-10.136 E30.0401
G1 X6.977 Y-8.694 E30.0956
G1 X3.408 Y-6.647 E30.2325
G1 X2.383 Y-6.076 E30.2715
G1 X1.355 Y-6.640 E30.3105
G1 X0.999 Y-6.841 E30.3241
G0 X0.104 Y-7.785 F10800
G1 X-1.956 Y-8.946 E30.4027 F300
G1 X-2.469 Y-9.815 E30.4363
G1 X-1.808 Y-9.930 E30.4586
G1 X2.370 Y-9.322 E30.5990
G1 X6.544 Y-9.958 E30.7394
G1 X7.207 Y-9.848 E30.7618
G1 X6.701 Y-8.978 E30.7953
G1 X3.223 Y-6.983 E30.9286
G1 X2.382 Y-6.515 E30.9606
G1 X1.538 Y-6.977 E30.9926
G1 X0.270 Y-7.692 E31.0410
G0 X-0.625 Y-8.637 F10800
G1 X-1.681 Y-9.232 E31.0814 F300
G1 X-1.858 Y-9.531 E31.0929
G1 X-1.802 Y-9.541 E31.0948
G1 X2.371 Y-8.933 E31.2351
G1 X6.541 Y-9.569 E31.3754
G1 X6.597 Y-9.559 E31.3773
G1 X6.424 Y-9.262 E31.3887
G1 X3.037 Y-7.319 E31.5186
G1 X2.380 Y-6.953 E31.5436
G1 X1.721 Y-7.314 E31.5686
G1 X-0.459 Y-8.543 E31.6518
; ------------------------------------
; Layer #1
; ------------------------------------
G21 ; mm
G90 ; abs
G92 E0 ; reset extr
M106 S0
;segType:Support
G0 F4800 E-1.0000
G0 F2400 Z0.400
G0 X0.000 Y-15.000 F10800
G0 F4800 E0.0000
G1 X2.500 Y-15.000 E0.0707 F5400
G1 X2.500 Y-17.500 E0.1414
G1 X0.000 Y-17.500 E0.2120
G1 X0.000 Y-20.000 E0.2827
G1 X7.500 Y-20.000 E0.4947
G1 X7.500 Y-22.500 E0.5654
G1 X0.000 Y-22.500 E0.7775
G0 F4800 E-0.2225
G0 X-6.080 Y-17.846 F10800
G0 X-8.107 Y-16.295
G0 F4800 E0.7775
;segType:Perimeter
G1 X-7.809 Y-16.919 E0.8004 F2159
G1 X-7.662 Y-17.708 E0.8272
G1 X-6.263 Y-16.556 E0.8874
G1 X-5.817 Y-16.286 E0.9048
G1 X-2.558 Y-13.519 E1.0470
G1 X-1.559 Y-13.693 E1.0807
G1 X2.358 Y-13.123 E1.2123
G1 X6.269 Y-13.720 E1.3439
G1 X7.269 Y-13.553 E1.3777
G1 X10.509 Y-16.345 E1.5199
G1 X10.953 Y-16.618 E1.5372
G1 X12.364 Y-17.759 E1.5976
G1 X12.507 Y-16.936 E1.6253
G1 X13.405 Y-16.955 E1.6552
G1 X13.519 Y-16.830 E1.6608
G1 X13.655 Y-16.043 E1.6874
G1 X14.581 Y-16.017 E1.7182
G1 X14.654 Y-15.930 E1.7220
G1 X13.755 Y-14.375 E1.7817
G1 X13.418 Y-13.691 E1.8071
G1 X9.698 Y-7.294 E2.0532
G1 X9.536 Y-6.432 E2.0824
G1 X5.134 Y-3.907 E2.2512
G1 X4.171 Y-3.370 E2.2879
G1 X4.637 Y-2.920 E2.3094
G1 X4.544 Y-1.909 E2.3432
G1 X3.259 Y12.247 E2.8159
G1 X2.450 Y12.265 E2.8428
G1 X1.641 Y12.253 E2.8697
G1 X0.252 Y-1.894 E3.3425
G1 X0.152 Y-2.903 E3.3763
G1 X0.615 Y-3.357 E3.3978
G1 X-0.352 Y-3.887 E3.4345
G1 X-4.773 Y-6.379 E3.6033
G1 X-4.940 Y-7.241 E3.6325
G1 X-8.707 Y-13.610 E3.8786
G1 X-9.049 Y-14.291 E3.9039
G1 X-9.960 Y-15.841 E3.9637
G1 X-9.887 Y-15.928 E3.9675
G1 X-8.961 Y-15.960 E3.9983
G1 X-8.831 Y-16.749 E4.0249
G1 X-8.718 Y-16.875 E4.0305
G1 X-7.877 Y-16.863 E4.0585
G1 X-7.213 Y-17.034
G0 F4800 E3.0585
G0 X-7.320 Y-16.904 F10800
G0 F4800 E4.0585
;segType:Loop
G1 X-6.493 Y-16.224 E4.0941 F3600
G1 X-6.050 Y-15.955 E4.1113
G1 X-2.673 Y-13.089 E4.2586
G1 X-1.554 Y-13.284 E4.2964
G1 X2.359 Y-12.714 E4.4279
G1 X6.267 Y-13.311 E4.5594
G1 X7.387 Y-13.124 E4.5972
G1 X10.744 Y-16.017 E4.7446
G1 X11.182 Y-16.286 E4.7617
G1 X12.087 Y-17.017 E4.8004
G1 X12.172 Y-16.525 E4.8170
G1 X13.162 Y-16.546 E4.8499
G1 X13.317 Y-15.648 E4.8802
G1 X14.016 Y-15.628 E4.9034
G1 X13.403 Y-14.567 E4.9442
G1 X13.066 Y-13.884 E4.9695
G1 X9.317 Y-7.439 E5.2175
G1 X9.178 Y-6.691 E5.2428
G1 X4.939 Y-4.259 E5.4054
G1 X3.501 Y-3.458 E5.4601
G1 X4.221 Y-2.762 E5.4934
G1 X4.146 Y-1.946 E5.5207
G1 X2.893 Y11.850 E5.9815
G1 X2.004 Y11.854 E6.0110
G1 X0.570 Y-2.749 E6.4991
G1 X1.284 Y-3.450 E6.5324
G1 X-0.159 Y-4.241 E6.5871
G1 X-4.416 Y-6.641 E6.7496
G1 X-4.561 Y-7.388 E6.7749
G1 X-8.357 Y-13.806 E7.0229
G1 X-8.699 Y-14.486 E7.0483
G1 X-9.319 Y-15.543 E7.0890
G1 X-8.621 Y-15.568 E7.1123
G1 X-8.472 Y-16.467 E7.1426
G1 X-7.489 Y-16.453 E7.1753
G1 X-7.411 Y-16.871 E7.1894
G0 F4800 E6.1894
G0 X-6.755 Y-15.930 F10800
G0 F4800 E7.1894
;segType:HShell
G1 X-6.718 Y-15.900 E7.1910 F1800
G1 X-6.277 Y-15.633 E7.2082
G1 X-2.785 Y-12.669 E7.3605
G1 X-1.548 Y-12.884 E7.4022
G1 X2.360 Y-12.315 E7.5336
G1 X6.264 Y-12.911 E7.6650
G1 X7.503 Y-12.705 E7.7067
G1 X10.973 Y-15.696 E7.8591
G1 X11.407 Y-15.962 E7.8760
G1 X11.816 Y-16.293 E7.8935
G1 X11.845 Y-16.123 E7.8993
G1 X12.835 Y-16.144 E7.9322
G1 X12.988 Y-15.263 E7.9619
G1 X13.348 Y-15.253 E7.9739
G1 X13.060 Y-14.755 E7.9930
G1 X12.723 Y-14.073 E8.0183
G1 X8.946 Y-7.579 E8.2682
G1 X8.828 Y-6.944 E8.2897
G1 X4.748 Y-4.604 E8.4461
G1 X2.847 Y-3.544 E8.5185
G1 X3.815 Y-2.609 E8.5633
G1 X3.757 Y-1.983 E8.5842
G1 X2.537 Y11.457 E9.0330
G1 X2.357 Y11.458 E9.0390
G1 X0.977 Y-2.599 E9.5088
G1 X1.937 Y-3.541 E9.5535
G1 X0.029 Y-4.587 E9.6259
G1 X-4.068 Y-6.897 E9.7823
G1 X-4.191 Y-7.532 E9.8038
G1 X-8.015 Y-13.997 E10.0537
G1 X-8.357 Y-14.677 E10.0790
G1 X-8.648 Y-15.172 E10.0981
G1 X-8.289 Y-15.185 E10.1100
G1 X-8.142 Y-16.067 E10.1398
G1 X-7.166 Y-16.053 E10.1722
G1 X-7.131 Y-16.240 E10.1786
G1 X-6.902 Y-16.052 E10.1885
G0 X-6.150 Y-15.023 F10800
G1 X-2.894 Y-12.260 E10.3305 F1800
G1 X-1.543 Y-12.495 E10.3761
G1 X2.362 Y-11.927 E10.5074
G1 X6.261 Y-12.522 E10.6386
G1 X7.615 Y-12.296 E10.6842
G1 X11.197 Y-15.383 E10.8415
G1 X11.625 Y-15.646 E10.8582
G1 X11.736 Y-15.736 E10.8630
G1 X12.517 Y-15.753 E10.8889
G1 X12.699 Y-14.886 E10.9184
G1 X12.388 Y-14.256 E10.9417
G1 X8.585 Y-7.716 E11.1934
G1 X8.487 Y-7.190 E11.2112
G1 X4.562 Y-4.940 E11.3616
G1 X2.392 Y-3.730 E11.4443
G1 X0.212 Y-4.924 E11.5269
G1 X-3.728 Y-7.146 E11.6774
G1 X-3.830 Y-7.672 E11.6952
G1 X-7.681 Y-14.183 E11.9468
G1 X-7.965 Y-14.811 E11.9697
G1 X-7.821 Y-15.678 E11.9990
G1 X-7.037 Y-15.667 E12.0250
G1 X-6.937 Y-15.584 E12.0293
G1 X-6.498 Y-15.319 E12.0464
G1 X-6.296 Y-15.147 E12.0552
G0 X-5.593 Y-14.048 F10800
G1 X-3.004 Y-11.850 E12.1682 F1800
G1 X-1.538 Y-12.106 E12.2177
G1 X2.363 Y-11.538 E12.3488
G1 X6.258 Y-12.132 E12.4799
G1 X7.727 Y-11.887 E12.5294
G1 X11.421 Y-15.070 E12.6916
G1 X11.873 Y-15.354 E12.7093
G1 X12.210 Y-15.361 E12.7205
G1 X12.299 Y-14.938 E12.7349
G1 X12.053 Y-14.440 E12.7534
G1 X8.223 Y-7.854 E13.0068
G1 X8.145 Y-7.437 E13.0209
G1 X4.376 Y-5.275 E13.1654
G1 X2.390 Y-4.168 E13.2411
G1 X0.396 Y-5.261 E13.3167
G1 X-3.389 Y-7.395 E13.4612
G1 X-3.470 Y-7.811 E13.4753
G1 X-7.344 Y-14.362 E13.7284
G1 X-7.570 Y-14.864 E13.7467
G1 X-7.500 Y-15.288 E13.7611
G1 X-7.156 Y-15.268 E13.7725
G1 X-6.720 Y-15.004 E13.7895
G1 X-5.739 Y-14.172 E13.8322
G0 X0.658 Y-8.677 F10800
G1 X2.373 Y-8.427 E13.8899 F1800
G1 X4.182 Y-8.703 E13.9507
G1 X2.890 Y-7.962 E14.0003
G1 X2.377 Y-7.676 E14.0198
G1 X1.863 Y-7.957 E14.0393
G1 X0.647 Y-8.643 E14.0858
G0 X0.832 Y-6.777 F10800
G1 X-2.043 Y-8.398 E14.1955 F1800
G1 X-3.146 Y-10.264 E14.2676
G1 X-1.516 Y-10.548 E14.3227
G1 X2.368 Y-9.982 E14.4532
G1 X6.248 Y-10.574 E14.5838
G1 X7.881 Y-10.302 E14.6388
G1 X6.793 Y-8.431 E14.7108
G1 X3.633 Y-6.619 E14.8320
G1 X2.383 Y-5.922 E14.8796
G1 X1.129 Y-6.609 E14.9271
G1 X0.998 Y-6.683 E14.9321
G0 X1.564 Y-5.933 F10800
G1 X0.946 Y-6.272 E14.9556 F1800
G1 X-2.370 Y-8.142 E15.0822
G1 X-2.388 Y-8.231 E15.0852
G1 X-4.275 Y-11.422 E15.2085
G1 X-3.332 Y-10.622 E15.2497
G1 X-1.522 Y-10.937 E15.3108
G1 X2.367 Y-10.371 E15.4415
G1 X6.251 Y-10.963 E15.5721
G1 X8.065 Y-10.661 E15.6333
G1 X9.001 Y-11.468 E15.6744
G1 X7.138 Y-8.265 E15.7976
G1 X7.122 Y-8.177 E15.8006
G1 X3.819 Y-6.283 E15.9273
G1 X2.385 Y-5.483 E15.9819
G1 X1.732 Y-5.842 E16.0066
G0 X2.303 Y-5.091 F10800
G1 X0.763 Y-5.935 E16.0651 F1800
G1 X-2.710 Y-7.893 E16.1977
G1 X-2.748 Y-8.091 E16.2044
G1 X-5.762 Y-13.186 E16.4013
G1 X-3.223 Y-11.031 E16.5120
G1 X-1.527 Y-11.327 E16.5693
G1 X2.365 Y-10.760 E16.7001
G1 X6.253 Y-11.353 E16.8309
G1 X7.952 Y-11.070 E16.8882
G1 X10.475 Y-13.244 E16.9989
G1 X7.500 Y-8.128 E17.1958
G1 X7.463 Y-7.930 E17.2024
G1 X4.005 Y-5.947 E17.3350
G1 X2.470 Y-5.092 E17.3935
G0 X2.461 Y-3.385 F10800
G1 X3.419 Y-2.459 E17.4378 F1800
G1 X2.436 Y8.363 E17.7992
G1 X1.374 Y-2.452 E18.1607
G1 X2.324 Y-3.385 E18.2049
G0 X2.954 Y-2.376 F10800
G1 X3.023 Y-2.310 E18.2081 F1800
G1 X2.421 Y4.319 E18.4295
G1 X1.770 Y-2.306 E18.6508
G1 X2.394 Y-2.917 E18.6799
G1 X2.817 Y-2.509 E18.6995
G0 X2.557 Y-1.387 F10800
G1 X2.406 Y0.274 E18.7549 F1800
G1 X2.167 Y-2.159 E18.8362
G1 X2.396 Y-2.383 E18.8469
G1 X2.627 Y-2.160 E18.8576
G1 X2.574 Y-1.578 E18.8770
G0 X0.103 Y-7.628 F10800
G1 X-1.769 Y-8.684 E18.9485 F1800
G1 X-2.535 Y-9.980 E18.9986
G1 X-1.511 Y-10.159 E19.0332
G1 X2.369 Y-9.593 E19.1636
G1 X6.245 Y-10.184 E19.2940
G1 X7.272 Y-10.014 E19.3286
G1 X6.517 Y-8.715 E19.3786
G1 X3.448 Y-6.954 E19.4963
G1 X2.382 Y-6.360 E19.5368
G1 X1.313 Y-6.946 E19.5774
G1 X0.269 Y-7.535 E19.6172
G0 X-0.626 Y-8.480 F10800
G1 X-1.495 Y-8.970 E19.6504 F1800
G1 X-1.924 Y-9.696 E19.6785
G1 X-1.506 Y-9.769 E19.6926
G1 X2.370 Y-9.205 E19.8229
G1 X6.243 Y-9.795 E19.9532
G1 X6.663 Y-9.725 E19.9673
G1 X6.240 Y-8.999 E19.9953
G1 X3.262 Y-7.290 E20.1095
G1 X2.380 Y-6.799 E20.1431
G1 X1.496 Y-7.283 E20.1766
G1 X-0.459 Y-8.386 E20.2513
G0 X-1.269 Y-9.338 F10800
G1 X-1.274 Y-9.347 E20.2516 F1800
G1 X2.372 Y-8.816 E20.3741
G1 X6.016 Y-9.371 E20.4967
G1 X5.964 Y-9.282 E20.5001
G1 X3.076 Y-7.626 E20.6109
G1 X2.379 Y-7.237 E20.6374
G1 X1.680 Y-7.620 E20.6639
G1 X-1.137 Y-9.209 E20.7715
G0 X-6.007 Y-12.851 F10800
G1 X-7.006 Y-14.541 E20.8368 F1800
G1 X-7.123 Y-14.800 E20.8462
G1 X-6.941 Y-14.690 E20.8533
G1 X-3.113 Y-11.441 E21.0203
G1 X-1.532 Y-11.716 E21.0737
G1 X2.364 Y-11.149 E21.2046
G1 X6.256 Y-11.742 E21.3356
G1 X7.840 Y-11.479 E21.3890
G1 X11.646 Y-14.759 E21.5561
G1 X11.848 Y-14.886 E21.5640
G1 X11.719 Y-14.624 E21.5737
G1 X7.862 Y-7.991 E21.8289
G1 X7.804 Y-7.684 E21.8393
G1 X4.191 Y-5.611 E21.9779
G1 X2.388 Y-4.607 E22.0465
G1 X0.579 Y-5.598 E22.1151
G1 X-3.049 Y-7.644 E22.2537
G1 X-3.109 Y-7.951 E22.2641
G1 X-5.909 Y-12.686 E22.4471
; ------------------------------------
; Layer #2
; ------------------------------------
G21 ; mm
G90 ; abs
G92 E0 ; reset extr
M106 S0
;segType:Perimeter
G0 F4800 E-1.0000
G0 F2400 Z0.600
G0 X-8.098 Y-16.214 F10800
G0 F4800 E0.0000
G1 X-7.804 Y-16.840 E0.0230 F2159
G1 X-7.699 Y-17.469 E0.0442
G1 X-7.582 Y-17.593 E0.0499
G1 X-6.446 Y-16.656 E0.0989
G1 X-5.776 Y-16.251 E0.1249
G1 X-2.730 Y-13.666 E0.2578
G1 X-1.263 Y-13.922 E0.3073
G1 X2.357 Y-13.395 E0.4290
G1 X5.971 Y-13.946 E0.5506
G1 X7.441 Y-13.701 E0.6001
G1 X10.468 Y-16.310 E0.7330
G1 X11.134 Y-16.720 E0.7591
G1 X12.264 Y-17.665 E0.8080
G1 X12.382 Y-17.542 E0.8137
G1 X12.501 Y-16.857 E0.8368
G1 X13.241 Y-16.873 E0.8615
G1 X13.463 Y-16.630 E0.8724
G1 X13.573 Y-15.995 E0.8938
G1 X14.309 Y-15.974 E0.9183
G1 X14.493 Y-15.756 E0.9278
G1 X13.852 Y-14.645 E0.9705
G1 X13.345 Y-13.621 E1.0085
G1 X9.872 Y-7.647 E1.2383
G1 X9.625 Y-6.324 E1.2831
G1 X5.360 Y-3.878 E1.4466
G1 X4.034 Y-3.140 E1.4971
G1 X4.669 Y-2.526 E1.5264
G1 X4.526 Y-0.962 E1.5787
G1 X3.316 Y12.372 E2.0240
G1 X2.451 Y12.390 E2.0528
G1 X1.585 Y12.378 E2.0816
G1 X0.277 Y-0.946 E2.5269
G1 X0.122 Y-2.509 E2.5791
G1 X0.753 Y-3.128 E2.6085
G1 X-0.577 Y-3.857 E2.6589
G1 X-4.860 Y-6.272 E2.8225
G1 X-5.117 Y-7.592 E2.8672
G1 X-8.634 Y-13.540 E3.0970
G1 X-9.148 Y-14.561 E3.1351
G1 X-9.797 Y-15.667 E3.1777
G1 X-9.615 Y-15.887 E3.1872
G1 X-8.879 Y-15.913 E3.2117
G1 X-8.773 Y-16.549 E3.2331
G1 X-8.554 Y-16.793 E3.2441
G1 X-7.870 Y-16.784 E3.2668
G1 X-7.209 Y-16.964
G0 F4800 E2.2668
G0 X-7.313 Y-16.849 F10800
G0 F4800 E3.2668
;segType:Loop
G1 X-6.676 Y-16.324 E3.2943 F3600
G1 X-6.008 Y-15.920 E3.3202
G1 X-2.845 Y-13.235 E3.4582
G1 X-1.257 Y-13.512 E3.5118
G1 X2.358 Y-12.986 E3.6333
G1 X5.969 Y-13.537 E3.7548
G1 X7.559 Y-13.272 E3.8084
G1 X10.703 Y-15.982 E3.9465
G1 X11.367 Y-16.390 E3.9724
G1 X12.073 Y-16.981 E4.0030
G1 X12.166 Y-16.446 E4.0211
G1 X13.089 Y-16.443 E4.0518
G1 X13.235 Y-15.600 E4.0802
G1 X13.929 Y-15.581 E4.1033
G1 X13.500 Y-14.838 E4.1319
G1 X12.994 Y-13.814 E4.1698
G1 X9.491 Y-7.791 E4.4016
G1 X9.266 Y-6.583 E4.4424
G1 X5.164 Y-4.231 E4.5997
G1 X3.364 Y-3.228 E4.6682
G1 X4.253 Y-2.369 E4.7094
G1 X4.128 Y-0.999 E4.7551
G1 X2.950 Y11.975 E5.1884
G1 X2.449 Y11.986 E5.2051
G1 X1.948 Y11.979 E5.2217
G1 X0.675 Y-0.986 E5.6550
G1 X0.540 Y-2.355 E5.7008
G1 X1.423 Y-3.221 E5.7419
G1 X-0.384 Y-4.211 E5.8105
G1 X-4.503 Y-6.533 E5.9677
G1 X-4.738 Y-7.739 E6.0086
G1 X-8.284 Y-13.736 E6.2403
G1 X-8.797 Y-14.757 E6.2783
G1 X-9.232 Y-15.496 E6.3068
G1 X-8.538 Y-15.521 E6.3299
G1 X-8.379 Y-16.386 E6.3592
G1 X-7.475 Y-16.374 E6.3892
G1 X-7.402 Y-16.815 E6.4041
G0 F4800 E5.4041
G0 X-6.819 Y-15.951 F10800
G0 F4800 E6.4041
;segType:HShell
G1 X-6.235 Y-15.598 E6.4268 F1800
G1 X-2.957 Y-12.816 E6.5698
G1 X-1.252 Y-13.113 E6.6274
G1 X2.359 Y-12.587 E6.7488
G1 X5.966 Y-13.138 E6.8701
G1 X7.674 Y-12.852 E6.9277
G1 X10.932 Y-15.661 E7.0708
G1 X11.594 Y-16.068 E7.0966
G1 X11.805 Y-16.244 E7.1058
G1 X11.838 Y-16.052 E7.1122
G1 X12.761 Y-16.049 E7.1429
G1 X12.906 Y-15.215 E7.1711
G1 X13.260 Y-15.205 E7.1829
G1 X13.156 Y-15.026 E7.1898
G1 X12.650 Y-14.002 E7.2277
G1 X9.120 Y-7.932 E7.4613
G1 X8.916 Y-6.836 E7.4984
G1 X4.974 Y-4.576 E7.6495
G1 X2.710 Y-3.314 E7.7357
G1 X3.847 Y-2.215 E7.7883
G1 X3.739 Y-1.035 E7.8277
G1 X2.593 Y11.585 E8.2492
G1 X2.302 Y11.586 E8.2589
G1 X1.064 Y-1.025 E8.6804
G1 X0.947 Y-2.204 E8.7198
G1 X2.077 Y-3.312 E8.7724
G1 X-0.196 Y-4.557 E8.8586
G1 X-4.155 Y-6.789 E9.0097
G1 X-4.368 Y-7.883 E9.0468
G1 X-7.942 Y-13.927 E9.2803
G1 X-8.455 Y-14.947 E9.3183
G1 X-8.560 Y-15.125 E9.3252
G1 X-8.212 Y-15.138 E9.3368
G1 X-8.055 Y-15.987 E9.3655
G1 X-7.146 Y-15.974 E9.3958
G1 X-7.113 Y-16.175 E9.4026
G1 X-7.113 Y-16.175
G0 X-6.199 Y-15.065 F10800
G1 X-3.067 Y-12.406 E9.5392 F1800
G1 X-1.246 Y-12.724 E9.6007
G1 X2.361 Y-12.198 E9.7219
G1 X5.963 Y-12.748 E9.8431
G1 X7.786 Y-12.444 E9.9046
G1 X11.156 Y-15.348 E10.0525
G1 X11.677 Y-15.668 E10.0729
G1 X12.441 Y-15.666 E10.0983
G1 X12.585 Y-14.839 E10.1262
G1 X12.638 Y-14.838 E10.1280
G1 X12.316 Y-14.186 E10.1522
G1 X8.759 Y-8.069 E10.3875
G1 X8.575 Y-7.083 E10.4209
G1 X4.788 Y-4.912 E10.5661
G1 X2.392 Y-3.576 E10.6573
G1 X-0.013 Y-4.894 E10.7485
G1 X-3.816 Y-7.038 E10.8937
G1 X-4.007 Y-8.023 E10.9271
G1 X-7.608 Y-14.113 E11.1624
G1 X-7.893 Y-14.764 E11.1861
G1 X-7.740 Y-15.598 E11.2142
G1 X-6.958 Y-15.587 E11.2403
G1 X-6.457 Y-15.284 E11.2597
G1 X-6.345 Y-15.189 E11.2646
G0 X-5.643 Y-14.090 F10800
G1 X-3.176 Y-11.997 E11.3722 F1800
G1 X-1.241 Y-12.334 E11.4376
G1 X2.362 Y-11.809 E11.5586
G1 X5.960 Y-12.358 E11.6797
G1 X7.899 Y-12.035 E11.7451
G1 X11.380 Y-15.035 E11.8979
G1 X11.783 Y-15.283 E11.9137
G1 X12.121 Y-15.282 E11.9249
G1 X12.202 Y-14.816 E11.9406
G1 X11.981 Y-14.370 E11.9572
G1 X8.397 Y-8.206 E12.1944
G1 X8.233 Y-7.330 E12.2240
G1 X4.602 Y-5.247 E12.3632
G1 X2.391 Y-4.015 E12.4474
G1 X0.171 Y-5.231 E12.5316
G1 X-3.476 Y-7.287 E12.6709
G1 X-3.647 Y-8.163 E12.7006
G1 X-7.270 Y-14.290 E12.9373
G1 X-7.497 Y-14.811 E12.9562
G1 X-7.424 Y-15.209 E12.9697
G1 X-7.065 Y-15.204 E12.9816
G1 X-6.678 Y-14.969 E12.9966
G1 X-5.788 Y-14.214 E13.0355
G0 X-1.119 Y-9.126 F10800
G1 X-1.122 Y-9.142 E13.0360 F1800
G1 X-1.380 Y-9.577 E13.0528
G1 X-1.204 Y-9.608 E13.0588
G1 X2.371 Y-9.087 E13.1789
G1 X5.941 Y-9.632 E13.2991
G1 X6.119 Y-9.602 E13.3050
G1 X5.866 Y-9.166 E13.3218
G1 X5.845 Y-9.056 E13.3255
G1 X3.302 Y-7.598 E13.4230
G1 X2.379 Y-7.084 E13.4582
G1 X1.454 Y-7.591 E13.4933
G1 X-1.018 Y-8.985 E13.5877
G0 X-0.366 Y-9.097 F10800
G1 X2.372 Y-8.699 E13.6797 F1800
G1 X5.202 Y-9.130 E13.7749
G1 X3.116 Y-7.934 E13.8549
G1 X2.378 Y-7.522 E13.8830
G1 X1.637 Y-7.928 E13.9111
G1 X-0.377 Y-9.064 E13.9880
G0 X1.617 Y-8.420 F10800
G1 X2.373 Y-8.310 E14.0134 F1800
G1 X3.227 Y-8.440 E14.0421
G1 X2.376 Y-7.961 E14.0746
G1 X1.606 Y-8.387 E14.1039
G0 X2.304 Y-4.937 F10800
G1 X0.537 Y-5.905 E14.1709 F1800
G1 X-2.798 Y-7.786 E14.2982
G1 X-2.925 Y-8.443 E14.3205
G1 X-5.699 Y-13.133 E14.5017
G1 X-3.395 Y-11.178 E14.6022
G1 X-1.230 Y-11.555 E14.6753
G1 X2.364 Y-11.032 E14.7961
G1 X5.955 Y-11.579 E14.9169
G1 X8.123 Y-11.218 E14.9901
G1 X10.413 Y-13.191 E15.0906
G1 X7.674 Y-8.480 E15.2718
G1 X7.551 Y-7.823 E15.2941
G1 X4.231 Y-5.919 E15.4214
G1 X2.471 Y-4.938 E15.4884
G0 X2.957 Y-2.012 F10800
G1 X3.056 Y-1.916 E15.4929 F1800
G1 X2.424 Y5.038 E15.7252
G1 X1.741 Y-1.911 E15.9574
G1 X2.396 Y-2.553 E15.9879
G1 X2.819 Y-2.144 E16.0075
G0 X2.593 Y-1.035 F10800
G1 X2.409 Y0.996 E16.0753 F1800
G1 X2.138 Y-1.764 E16.1676
G1 X2.398 Y-2.019 E16.1797
G1 X2.660 Y-1.766 E16.1918
G1 X2.611 Y-1.227 E16.2098
G0 X2.463 Y-3.021 F10800
G1 X3.452 Y-2.065 E16.2555 F1800
G1 X3.360 Y-1.070 E16.2888
G1 X2.438 Y9.083 E16.6278
G1 X1.344 Y-2.058 E17.0002
G1 X2.326 Y-3.020 E17.0459
G0 X1.565 Y-5.780 F10800
G1 X0.720 Y-6.243 E17.0779 F1800
G1 X-2.458 Y-8.035 E17.1993
G1 X-2.565 Y-8.582 E17.2178
G1 X-4.213 Y-11.370 E17.3256
G1 X-3.504 Y-10.769 E17.3565
G1 X-1.225 Y-11.166 E17.4334
G1 X2.366 Y-10.643 E17.5541
G1 X5.952 Y-11.190 E17.6748
G1 X8.236 Y-10.809 E17.7518
G1 X8.939 Y-11.415 E17.7827
G1 X7.312 Y-8.617 E17.8903
G1 X7.210 Y-8.069 E17.9088
G1 X4.045 Y-6.255 E18.0302
G1 X2.386 Y-5.330 E18.0934
G1 X1.732 Y-5.688 E18.1181
G0 X0.821 Y-6.627 F10800
G1 X-2.119 Y-8.284 E18.2304 F1800
G1 X-2.204 Y-8.722 E18.2452
G1 X-3.213 Y-10.429 E18.3112
G1 X-1.220 Y-10.776 E18.3785
G1 X2.367 Y-10.254 E18.4990
G1 X5.950 Y-10.800 E18.6196
G1 X7.947 Y-10.468 E18.6869
G1 X6.951 Y-8.755 E18.7528
G1 X6.869 Y-8.316 E18.7676
G1 X3.859 Y-6.591 E18.8830
G1 X2.384 Y-5.768 E18.9392
G1 X0.987 Y-6.534 E18.9922
G0 X0.092 Y-7.478 F10800
G1 X-1.780 Y-8.533 E19.0636 F1800
G1 X-1.843 Y-8.862 E19.0748
G1 X-2.602 Y-10.145 E19.1244
G1 X-1.215 Y-10.387 E19.1712
G1 X2.368 Y-9.865 E19.2916
G1 X5.947 Y-10.411 E19.4120
G1 X7.337 Y-10.179 E19.4589
G1 X6.589 Y-8.892 E19.5084
G1 X6.528 Y-8.563 E19.5196
G1 X3.673 Y-6.926 E19.6290
G1 X2.383 Y-6.207 E19.6781
G1 X1.087 Y-6.917 E19.7273
G1 X0.258 Y-7.384 E19.7589
G0 X-0.637 Y-8.329 F10800
G1 X-1.440 Y-8.783 E19.7896 F1800
G1 X-1.483 Y-9.002 E19.7970
G1 X-1.991 Y-9.861 E19.8302
G1 X-1.210 Y-9.998 E19.8566
G1 X2.369 Y-9.476 E19.9769
G1 X5.944 Y-10.021 E20.0972
G1 X6.728 Y-9.890 E20.1236
G1 X6.228 Y-9.029 E20.1568
G1 X6.186 Y-8.810 E20.1642
G1 X3.488 Y-7.262 E20.2677
G1 X2.381 Y-6.645 E20.3098
G1 X1.270 Y-7.254 E20.3519
G1 X-0.470 Y-8.236 E20.4184
G0 X-6.015 Y-12.918 F10800
G1 X-6.931 Y-14.467 E20.4783 F1800
G1 X-7.054 Y-14.748 E20.4885
G1 X-6.900 Y-14.655 E20.4944
G1 X-3.286 Y-11.587 E20.6521
G1 X-1.236 Y-11.945 E20.7213
G1 X2.363 Y-11.421 E20.8423
G1 X5.958 Y-11.969 E20.9632
G1 X8.011 Y-11.627 E21.0325
G1 X11.603 Y-14.722 E21.1902
G1 X11.785 Y-14.834 E21.1973
G1 X11.646 Y-14.553 E21.2077
G1 X8.036 Y-8.343 E21.4467
G1 X7.892 Y-7.576 E21.4726
G1 X4.417 Y-5.583 E21.6059
G1 X2.389 Y-4.453 E21.6831
G1 X0.354 Y-5.568 E21.7603
G1 X-3.137 Y-7.536 E21.8935
G1 X-3.286 Y-8.303 E21.9195
G1 X-5.918 Y-12.753 E22.0915
;segType:Support
G0 F4800 E21.0915
G0 X0.000 Y-22.500 F10800
G0 F4800 E22.0915
G1 X7.500 Y-22.500 E22.3035 F5400
G1 X7.500 Y-20.000 E22.3742
G1 X0.000 Y-20.000 E22.5862
G1 X0.000 Y-17.500 E22.6569
G1 X2.500 Y-17.500 E22.7276
G1 X2.500 Y-15.000 E22.7982
G1 X0.000 Y-15.000 E22.8689
; ------------------------------------
; Layer #3
; ------------------------------------
G21 ; mm
G90 ; abs
G92 E0 ; reset extr
M106 S255
;segType:Support
G0 F4800 E-1.0000
G0 F2400 Z0.800
G0 X0.000 Y-15.000 F10800
G0 F4800 E0.0000
G1 X2.500 Y-15.000 E0.0707 F5400
G1 X2.500 Y-17.500 E0.1414
G1 X0.000 Y-17.500 E0.2120
G1 X0.000 Y-20.000 E0.2827
G1 X7.500 Y-20.000 E0.4947
G1 X7.500 Y-22.500 E0.5654
G1 X0.000 Y-22.500 E0.7775
G0 F4800 E-0.2225
G0 X-6.068 Y-17.727 F10800
G0 X-8.091 Y-16.136
G0 F4800 E0.7775
;segType:Perimeter
G1 X-7.797 Y-16.761 E0.8004 F2159
G1 X-7.715 Y-17.252 E0.8170
G1 X-7.502 Y-17.477 E0.8273
G1 X-6.628 Y-16.757 E0.8650
G1 X-5.735 Y-16.217 E0.8997
G1 X-2.903 Y-13.813 E1.0233
G1 X-0.967 Y-14.150 E1.0886
G1 X2.356 Y-13.667 E1.2003
G1 X5.673 Y-14.173 E1.3119
G1 X7.612 Y-13.849 E1.3773
G1 X10.427 Y-16.275 E1.5009
G1 X11.316 Y-16.822 E1.5356
G1 X12.185 Y-17.549 E1.5733
G1 X12.400 Y-17.326 E1.5836
G1 X12.495 Y-16.778 E1.6021
G1 X13.078 Y-16.790 E1.6215
G1 X13.407 Y-16.430 E1.6377
G1 X13.490 Y-15.947 E1.6540
G1 X14.037 Y-15.932 E1.6722
G1 X14.332 Y-15.581 E1.6874
G1 X13.948 Y-14.916 E1.7130
G1 X13.273 Y-13.550 E1.7636
G1 X10.046 Y-8.000 E1.9772
G1 X9.713 Y-6.217 E2.0375
G1 X5.586 Y-3.850 E2.1957
G1 X3.897 Y-2.909 E2.2600
G1 X4.702 Y-2.132 E2.2972
G1 X4.508 Y-0.015 E2.3680
G1 X3.372 Y12.497 E2.7858
G1 X2.451 Y12.516 E2.8164
G1 X1.530 Y12.503 E2.8471
G1 X0.302 Y0.001 E3.2649
G1 X0.093 Y-2.115 E3.3356
G1 X0.892 Y-2.898 E3.3729
G1 X-0.803 Y-3.827 E3.4371
G1 X-4.947 Y-6.164 E3.5954
G1 X-5.293 Y-7.944 E3.6557
G1 X-8.561 Y-13.470 E3.8692
G1 X-9.246 Y-14.831 E3.9199
G1 X-9.635 Y-15.493 E3.9455
G1 X-9.342 Y-15.846 E3.9607
G1 X-8.796 Y-15.866 E3.9789
G1 X-8.716 Y-16.349 E3.9952
G1 X-8.390 Y-16.712 E4.0114
G1 X-7.863 Y-16.705 E4.0289
G1 X-7.202 Y-16.886
G0 F4800 E3.0289
G0 X-7.302 Y-16.791 F10800
G0 F4800 E4.0289
;segType:Loop
G1 X-6.858 Y-16.425 E4.0481 F3600
G1 X-5.968 Y-15.886 E4.0827
G1 X-3.018 Y-13.382 E4.2114
G1 X-0.961 Y-13.741 E4.2808
G1 X2.357 Y-13.258 E4.3923
G1 X5.670 Y-13.763 E4.5038
G1 X7.730 Y-13.420 E4.5733
G1 X10.662 Y-15.947 E4.7020
G1 X11.549 Y-16.492 E4.7366
G1 X12.063 Y-16.923 E4.7589
G1 X12.160 Y-16.367 E4.7777
G1 X12.906 Y-16.382 E4.8025
G1 X13.033 Y-16.243 E4.8088
G1 X13.153 Y-15.552 E4.8321
G1 X13.841 Y-15.533 E4.8550
G1 X13.596 Y-15.108 E4.8713
G1 X12.921 Y-13.743 E4.9220
G1 X9.665 Y-8.144 E5.1374
G1 X9.354 Y-6.476 E5.1938
G1 X5.391 Y-4.203 E5.3458
G1 X3.227 Y-2.998 E5.4281
G1 X4.286 Y-1.975 E5.4771
G1 X4.110 Y-0.052 E5.5413
G1 X3.007 Y12.100 E5.9472
G1 X2.450 Y12.111 E5.9657
G1 X1.892 Y12.104 E5.9842
G1 X0.700 Y-0.039 E6.3901
G1 X0.510 Y-1.961 E6.4543
G1 X1.561 Y-2.992 E6.5033
G1 X-0.610 Y-4.181 E6.5856
G1 X-4.590 Y-6.425 E6.7376
G1 X-4.914 Y-8.091 E6.7940
G1 X-8.211 Y-13.665 E7.0094
G1 X-8.896 Y-15.027 E7.0601
G1 X-9.144 Y-15.449 E7.0764
G1 X-8.455 Y-15.474 E7.0993
G1 X-8.341 Y-16.165 E7.1226
G1 X-8.215 Y-16.305 E7.1289
G1 X-7.469 Y-16.295 E7.1537
G1 X-7.392 Y-16.757 E7.1693
G0 F4800 E6.1693
G0 X-6.412 Y-15.900 F10800
G0 F4800 E7.1693
;segType:Infill
G1 X-7.593 Y-15.900 E7.2085 F5400
;segType:HShell
G0 X-7.891 Y-15.830 F10800
G1 X-8.016 Y-15.671 E7.2153 F1800
G1 X-7.970 Y-15.907 E7.2233
G1 X-7.927 Y-15.907 E7.2247
;segType:Infill
G0 X-8.209 Y-15.115 F10800
G1 X-8.209 Y-14.331 E7.2508 F5400
G0 X-6.811 Y-11.850 F10800
G1 X11.495 Y-11.850 E7.8597 F5400
G0 X11.820 Y-12.408 F10800
G1 X11.820 Y-16.393 E7.9922 F5400
;segType:HShell
G0 X12.636 Y-15.960 F10800
G1 X12.686 Y-15.959 E7.9939 F1800
G1 X12.726 Y-15.729 E8.0016
G1 X12.600 Y-15.886 E8.0084
;segType:Infill
G0 X12.345 Y-15.900 F10800
G1 X11.019 Y-15.900 E8.0525 F5400
G0 X7.814 Y-13.225 F10800
G1 X7.814 Y-6.299 E8.2828 F5400
G0 X9.290 Y-7.800 F10800
G1 X-4.546 Y-7.800 E8.7430 F5400
G0 X-0.197 Y-12.611 F10800
G1 X-0.197 Y-4.651 E9.0077 F5400
G0 X1.437 Y-3.751 F10800
G1 X3.334 Y-3.751 E9.0708 F5400
;segType:HShell
G0 X3.021 Y-2.585 F10800
G1 X3.064 Y-2.609 E9.0725 F1800
G1 X3.880 Y-1.821 E9.1102
G1 X3.834 Y-1.311 E9.1272
G1 X2.801 Y-2.309 E9.1750
G1 X3.039 Y-2.441 E9.1840
G1 X3.007 Y-2.473 E9.1855
;segType:Infill
G0 X2.938 Y8.399 F10800
G1 X1.934 Y8.399 E9.2189 F5400
G0 X1.536 Y4.349 F10800
G1 X3.306 Y4.349 E9.2778 F5400
G0 X3.673 Y0.299 F10800
G1 X1.138 Y0.299 E9.3621 F5400
;segType:HShell
G0 X1.811 Y-2.559 F10800
G1 X1.854 Y-2.535 E9.3637 F1800
G1 X1.754 Y-2.437 E9.3684
G1 X1.993 Y-2.306 E9.3775
G1 X0.967 Y-1.301 E9.4252
G1 X0.917 Y-1.810 E9.4422
G1 X1.659 Y-2.538 E9.4768
;segType:Infill
G0 X3.808 Y-4.015 F10800
G1 X3.808 Y-12.459 E9.7577 F5400
G0 X-4.203 Y-7.125 F10800
G1 X-4.203 Y-14.124 E9.9905 F5400
;segType:HShell
G0 X-2.546 Y-13.064 F10800
G1 X-0.955 Y-13.341 E10.0442 F1800
G1 X2.358 Y-12.859 E10.1555
G1 X5.668 Y-13.364 E10.2669
G1 X7.355 Y-13.082 E10.3238
G1 X7.219 Y-12.965 E10.3297
G1 X6.564 Y-13.074 E10.3518
G1 X2.360 Y-12.433 E10.4933
G1 X-1.850 Y-13.046 E10.6348
G1 X-2.503 Y-12.932 E10.6568
G1 X-2.567 Y-12.986 E10.6596
; ------------------------------------
; Layer #4
; ------------------------------------
G21 ; mm
G90 ; abs
G92 E0 ; reset extr
M106 S255
;segType:Support
G0 F4800 E-1.0000
G0 F2400 Z1.000
G0 X0.674 Y-15.000 F10800
G0 F4800 E0.0000
G1 X2.500 Y-15.000 E0.0516 F5400
G1 X2.500 Y-17.500 E0.1223
G1 X0.000 Y-17.500 E0.1930
G1 X0.000 Y-20.000 E0.2637
G1 X7.500 Y-20.000 E0.4757
G1 X7.500 Y-22.500 E0.5464
G1 X0.000 Y-22.500 E0.7584
G0 F4800 E-0.2416
G0 X-6.063 Y-17.667 F10800
G0 X-8.084 Y-16.057
G0 F4800 E0.7584
;segType:Perimeter
G1 X-7.790 Y-16.682 E0.7814 F2159
G1 X-7.731 Y-17.036 E0.7933
G1 X-7.423 Y-17.362 E0.8083
G1 X-6.810 Y-16.858 E0.8346
G1 X-5.694 Y-16.182 E0.8781
G1 X-3.075 Y-13.959 E0.9923
G1 X-0.670 Y-14.379 E1.0735
G1 X2.355 Y-13.938 E1.1752
G1 X5.375 Y-14.399 E1.2768
G1 X7.783 Y-13.997 E1.3580
G1 X10.386 Y-16.241 E1.4723
G1 X11.498 Y-16.924 E1.5157
G1 X12.106 Y-17.433 E1.5421
G1 X12.417 Y-17.109 E1.5570
G1 X12.488 Y-16.699 E1.5709
G1 X12.914 Y-16.708 E1.5850
G1 X13.351 Y-16.229 E1.6066
G1 X13.408 Y-15.899 E1.6177
G1 X13.764 Y-15.889 E1.6296
G1 X14.171 Y-15.406 E1.6506
G1 X14.045 Y-15.187 E1.6590
G1 X13.201 Y-13.479 E1.7224
G1 X10.220 Y-8.352 E1.9196
G1 X9.801 Y-6.110 E1.9955
G1 X5.812 Y-3.822 E2.1484
G1 X3.761 Y-2.679 E2.2265
G1 X4.735 Y-1.738 E2.2716
G1 X4.490 Y0.933 E2.3608
G1 X3.429 Y12.622 E2.7511
G1 X2.451 Y12.641 E2.7837
G1 X1.474 Y12.629 E2.8162
G1 X0.327 Y0.948 E3.2066
G1 X0.063 Y-1.721 E3.2958
G1 X1.030 Y-2.669 E3.3408
G1 X-1.029 Y-3.797 E3.4189
G1 X-5.035 Y-6.056 E3.5719
G1 X-5.470 Y-8.295 E3.6477
G1 X-8.488 Y-13.399 E3.8450
G1 X-9.345 Y-15.101 E3.9083
G1 X-9.473 Y-15.319 E3.9167
G1 X-9.070 Y-15.806 E3.9377
G1 X-8.713 Y-15.818 E3.9496
G1 X-8.659 Y-16.149 E3.9608
G1 X-8.226 Y-16.631 E3.9823
G1 X-7.857 Y-16.626 E3.9946
G1 X-7.196 Y-16.807
G0 F4800 E2.9946
G0 X-7.292 Y-16.733 F10800
G0 F4800 E3.9946
;segType:Loop
G1 X-7.041 Y-16.526 E4.0054 F3600
G1 X-5.926 Y-15.851 E4.0487
G1 X-3.190 Y-13.529 E4.1681
G1 X-0.664 Y-13.969 E4.2534
G1 X2.356 Y-13.529 E4.3549
G1 X5.372 Y-13.990 E4.4564
G1 X7.901 Y-13.568 E4.5417
G1 X10.621 Y-15.912 E4.6611
G1 X11.730 Y-16.594 E4.7044
G1 X12.054 Y-16.864 E4.7184
G1 X12.153 Y-16.287 E4.7379
G1 X12.743 Y-16.300 E4.7575
G1 X12.977 Y-16.043 E4.7691
G1 X13.071 Y-15.504 E4.7872
G1 X13.575 Y-15.490 E4.8040
G1 X13.684 Y-15.361 E4.8096
G1 X12.849 Y-13.672 E4.8723
G1 X9.839 Y-8.497 E5.0714
G1 X9.442 Y-6.369 E5.1434
G1 X5.616 Y-4.175 E5.2901
G1 X3.091 Y-2.767 E5.3863
G1 X4.319 Y-1.581 E5.4431
G1 X4.092 Y0.896 E5.5258
G1 X3.063 Y12.225 E5.9041
G1 X2.450 Y12.237 E5.9245
G1 X1.837 Y12.229 E5.9449
G1 X0.725 Y0.908 E6.3233
G1 X0.480 Y-1.566 E6.4060
G1 X1.700 Y-2.762 E6.4628
G1 X-0.836 Y-4.151 E6.5590
G1 X-4.678 Y-6.318 E6.7057
G1 X-5.091 Y-8.442 E6.7776
G1 X-8.138 Y-13.595 E6.9768
G1 X-8.985 Y-15.278 E7.0394
G1 X-8.877 Y-15.408 E7.0450
G1 X-8.373 Y-15.426 E7.0618
G1 X-8.283 Y-15.965 E7.0800
G1 X-8.051 Y-16.224 E7.0916
G1 X-7.462 Y-16.216 E7.1112
G1 X-7.382 Y-16.699 E7.1274
G0 F4800 E6.1274
G0 X-7.605 Y-15.747 F10800
G0 F4800 E7.1274
;segType:HShell
G1 X-8.009 Y-15.231 E7.1492 F1800
G1 X-7.918 Y-15.785 E7.1679
G1 X-7.880 Y-15.827 E7.1698
G1 X-7.641 Y-15.824 E7.1778
G0 X-8.219 Y-14.963 F10800
G1 X-8.322 Y-14.832 E7.1833 F1800
G1 X-8.422 Y-15.029 E7.1907
G1 X-8.255 Y-15.035 E7.1962
;segType:Infill
G0 X-8.209 Y-14.667 F10800
G1 X-8.209 Y-14.405 E7.2049 F5400
G0 X-6.779 Y-11.850 F10800
G1 X11.464 Y-11.850 E7.8117 F5400
G0 X11.820 Y-12.462 F10800
G1 X11.820 Y-16.116 E7.9332 F5400
G0 X11.035 Y-15.900 F10800
G1 X11.992 Y-15.900 E7.9651 F5400
;segType:HShell
G0 X12.336 Y-15.896 F10800
G1 X12.575 Y-15.901 E7.9730 F1800
G1 X12.612 Y-15.860 E7.9749
G1 X12.709 Y-15.306 E7.9936
G1 X12.301 Y-15.819 E8.0154
G0 X12.956 Y-15.113 F10800
G1 X13.123 Y-15.108 E8.0209 F1800
G1 X13.025 Y-14.910 E8.0282
G1 X12.921 Y-15.041 E8.0338
;segType:Infill
G0 X7.814 Y-13.226 F10800
G1 X7.814 Y-6.141 E8.2694 F5400
G0 X3.808 Y-3.860 F10800
G1 X3.808 Y-12.731 E8.5644 F5400
G0 X-0.197 Y-12.882 F10800
G1 X-0.197 Y-4.494 E8.8434 F5400
G0 X1.219 Y-2.695 F10800
G0 X1.070 Y0.299
G1 X3.741 Y0.299 E8.9323 F5400
G0 X3.373 Y4.349 F10800
G1 X1.468 Y4.349 E8.9956 F5400
G0 X1.866 Y8.399 F10800
G1 X3.006 Y8.399 E9.0336 F5400
G0 X3.808 Y-0.441 F10800
G1 X3.808 Y-0.707 E9.0424 F5400
;segType:HShell
G0 X2.885 Y-2.355 F10800
G1 X2.927 Y-2.379 E9.0440 F1800
G1 X3.913 Y-1.427 E9.0896
G1 X3.866 Y-0.918 E9.1066
G1 X2.664 Y-2.078 E9.1622
G1 X2.903 Y-2.211 E9.1713
G1 X2.870 Y-2.242 E9.1728
G0 X1.949 Y-2.330 F10800
G1 X1.993 Y-2.306 E9.1744 F1800
G1 X1.892 Y-2.208 E9.1791
G1 X2.131 Y-2.077 E9.1882
G1 X0.938 Y-0.907 E9.2437
G1 X0.887 Y-1.416 E9.2608
G1 X1.798 Y-2.308 E9.3032
;segType:Infill
G0 X1.156 Y-3.751 F10800
G1 X3.611 Y-3.751 E9.3848 F5400
G0 X9.290 Y-7.800 F10800
G1 X-4.546 Y-7.800 E9.8450 F5400
;segType:HShell
G0 X-2.719 Y-13.211 F10800
G1 X-0.659 Y-13.570 E9.9145 F1800
G1 X2.358 Y-13.130 E10.0159
G1 X5.370 Y-13.590 E10.1173
G1 X7.526 Y-13.231 E10.1900
G1 X7.390 Y-13.113 E10.1959
G1 X6.266 Y-13.301 E10.2338
G1 X2.359 Y-12.704 E10.3653
G1 X-1.554 Y-13.274 E10.4968
G1 X-2.676 Y-13.078 E10.5347
G1 X-2.739 Y-13.133 E10.5375
;segType:Infill
G0 X-4.203 Y-6.753 F10800
G1 X-4.203 Y-14.124 E10.7826 F5400
G0 X-7.242 Y-15.900 F10800
G1 X-6.445 Y-15.900 E10.8092 F5400
; ------------------------------------
; Layer #5
; ------------------------------------
G21 ; mm
G90 ; abs
G92 E0 ; reset extr
M106 S255
;segType:Perimeter
G0 F4800 E-1.0000
G0 F2400 Z1.200
G0 X-8.078 Y-15.978 F10800
G0 F4800 E0.0000
G1 X-7.784 Y-16.603 E0.0230 F2159
G1 X-7.747 Y-16.820 E0.0303
G1 X-7.343 Y-17.247 E0.0499
G1 X-6.993 Y-16.958 E0.0649
G1 X-5.653 Y-16.147 E0.1171
G1 X-3.248 Y-14.106 E0.2220
G1 X-0.373 Y-14.607 E0.3190
G1 X2.354 Y-14.210 E0.4107
G1 X5.077 Y-14.626 E0.5023
G1 X7.955 Y-14.145 E0.5993
G1 X10.345 Y-16.206 E0.7043
G1 X11.680 Y-17.026 E0.7564
G1 X12.028 Y-17.317 E0.7715
G1 X12.435 Y-16.893 E0.7911
G1 X12.482 Y-16.620 E0.8003
G1 X12.751 Y-16.625 E0.8092
G1 X13.349 Y-15.970 E0.8387
G1 X13.449 Y-15.897 E0.8429
G1 X14.018 Y-15.208 E0.8726
G1 X13.129 Y-13.408 E0.9393
G1 X10.394 Y-8.705 E1.1203
G1 X9.889 Y-6.003 E1.2117
G1 X6.037 Y-3.794 E1.3594
G1 X3.624 Y-2.449 E1.4513
G1 X4.768 Y-1.344 E1.5042
G1 X4.472 Y1.880 E1.6119
G1 X3.486 Y12.747 E1.9748
G1 X2.452 Y12.767 E2.0092
G1 X1.418 Y12.754 E2.0436
G1 X0.352 Y1.896 E2.4065
G1 X0.033 Y-1.326 E2.5142
G1 X1.168 Y-2.440 E2.5670
G1 X-1.255 Y-3.767 E2.6589
G1 X-5.122 Y-5.948 E2.8066
G1 X-5.646 Y-8.647 E2.8981
G1 X-8.415 Y-13.329 E3.0790
G1 X-9.318 Y-15.122 E3.1458
G1 X-8.754 Y-15.816 E3.1755
G1 X-8.654 Y-15.890 E3.1796
G1 X-8.062 Y-16.550 E3.2091
G1 X-7.850 Y-16.547 E3.2161
G1 X-7.189 Y-16.728
G0 F4800 E2.2161
G0 X-7.236 Y-16.637 F10800
G0 F4800 E3.2161
;segType:Loop
G1 X-7.223 Y-16.626 E3.2167 F3600
G1 X-5.885 Y-15.817 E3.2687
G1 X-3.363 Y-13.676 E3.3788
G1 X-0.368 Y-14.198 E3.4799
G1 X2.355 Y-13.801 E3.5714
G1 X5.074 Y-14.216 E3.6629
G1 X8.073 Y-13.716 E3.7640
G1 X10.580 Y-15.877 E3.8741
G1 X11.912 Y-16.696 E3.9261
G1 X11.998 Y-16.768 E3.9298
G1 X12.062 Y-16.701 E3.9329
G1 X12.147 Y-16.208 E3.9495
G1 X12.579 Y-16.217 E3.9639
G1 X13.082 Y-15.666 E3.9887
G1 X13.175 Y-15.599 E3.9925
G1 X13.543 Y-15.152 E4.0118
G1 X12.777 Y-13.601 E4.0693
G1 X10.014 Y-8.849 E4.2521
G1 X9.531 Y-6.262 E4.3397
G1 X5.842 Y-4.147 E4.4811
G1 X2.954 Y-2.537 E4.5911
G1 X4.352 Y-1.187 E4.6557
G1 X4.074 Y1.843 E4.7569
G1 X3.120 Y12.350 E5.1078
G1 X2.450 Y12.363 E5.1301
G1 X1.781 Y12.355 E5.1524
G1 X0.750 Y1.855 E5.5032
G1 X0.450 Y-1.172 E5.6044
G1 X1.838 Y-2.533 E5.6691
G1 X-1.062 Y-4.122 E5.7790
G1 X-4.765 Y-6.210 E5.9204
G1 X-5.267 Y-8.794 E6.0080
G1 X-8.065 Y-13.525 E6.1908
G1 X-8.843 Y-15.070 E6.2483
G1 X-8.477 Y-15.520 E6.2676
G1 X-8.385 Y-15.588 E6.2714
G1 X-7.887 Y-16.143 E6.2962
G1 X-7.455 Y-16.137 E6.3106
G1 X-7.373 Y-16.630 E6.3272
G1 X-7.373 Y-16.630
;segType:Infill
G0 X-6.891 Y-15.900 F10800
G1 X-6.461 Y-15.900 E6.3415 F5400
G0 X-4.203 Y-14.124 F10800
G1 X-4.203 Y-6.596 E6.5919 F5400
G0 X-4.546 Y-7.800 F10800
G1 X9.290 Y-7.800 E7.0521 F5400
G0 X3.808 Y-13.003 F10800
G1 X3.808 Y-3.706 E7.3613 F5400
;segType:HShell
G0 X2.088 Y-2.100 F10800
G1 X2.369 Y-1.946 E7.3719 F1800
G1 X0.908 Y-0.513 E7.4400
G1 X0.857 Y-1.022 E7.4570
G1 X1.936 Y-2.079 E7.5073
G0 X2.510 Y-1.992 F10800
G1 X2.791 Y-2.149 E7.5180 F1800
G1 X3.946 Y-1.033 E7.5714
G1 X3.899 Y-0.523 E7.5884
G1 X2.495 Y-1.879 E7.6533
;segType:Infill
G0 X3.808 Y-0.345 F10800
G1 X3.808 Y0.307 E7.6750 F5400
G0 X1.400 Y4.349 F10800
G1 X3.441 Y4.349 E7.7429 F5400
G0 X3.074 Y8.399 F10800
G1 X1.798 Y8.399 E7.7853 F5400
G0 X3.809 Y0.299 F10800
G1 X1.002 Y0.299 E7.8787 F5400
G0 X0.240 Y-3.167 F10800
G0 X-0.197 Y-4.339
G1 X-0.197 Y-13.154 E8.1719 F5400
;segType:HShell
G0 X-2.891 Y-13.358 F10800
G1 X-0.362 Y-13.798 E8.2573 F1800
G1 X2.357 Y-13.402 E8.3486
G1 X5.072 Y-13.817 E8.4400
G1 X7.698 Y-13.378 E8.5285
G1 X7.562 Y-13.261 E8.5345
G1 X5.968 Y-13.527 E8.5882
G1 X2.358 Y-12.976 E8.7097
G1 X-1.257 Y-13.502 E8.8312
G1 X-2.848 Y-13.225 E8.8849
G1 X-2.912 Y-13.279 E8.8877
;segType:Infill
G0 X0.876 Y-3.751 F10800
G1 X3.887 Y-3.751 E8.9879 F5400
G0 X7.814 Y-5.983 F10800
G1 X7.814 Y-13.226 E9.2288 F5400
G0 X11.820 Y-12.515 F10800
G1 X11.820 Y-15.672 E9.3338 F5400
;segType:HShell
G0 X12.050 Y-15.811 F10800
G1 X12.412 Y-15.819 E9.3458 F1800
G1 X13.080 Y-15.097 E9.3785
G1 X12.866 Y-14.665 E9.3946
G1 X12.015 Y-15.735 E9.4400
;segType:Infill
G0 X11.639 Y-15.900 F10800
G1 X11.051 Y-15.900 E9.4596 F5400
G0 X11.434 Y-11.850 F10800
G1 X-6.748 Y-11.850 E10.0643 F5400
;segType:HShell
G0 X-7.318 Y-15.665 F10800
G1 X-8.163 Y-14.588 E10.1098 F1800
G1 X-8.379 Y-15.019 E10.1258
G1 X-7.716 Y-15.746 E10.1586
G1 X-7.354 Y-15.741 E10.1706
;segType:Support
G0 F4800 E9.1706
G0 X0.000 Y-22.500 F10800
G0 F4800 E10.1706
G1 X7.500 Y-22.500 E10.3826 F5400
G1 X7.500 Y-20.000 E10.4533
G1 X0.000 Y-20.000 E10.6654
G1 X2.500 Y-17.500 E10.7653
G1 X0.000 Y-17.500 E10.8360
; ------------------------------------
; Layer #6
; ------------------------------------
G21 ; mm
G90 ; abs
G92 E0 ; reset extr
M106 S255
;segType:Support
G0 F4800 E-1.0000
G0 F2400 Z1.400
G0 X0.121 Y-17.379 F10800
G0 F4800 E0.0000
G1 X2.379 Y-17.379 E0.0638 F5400
G0 F4800 E-0.9362
G0 X0.000 Y-22.500 F10800
G0 F4800 E0.0638
G1 X7.500 Y-22.500 E0.2759 F5400
G0 F4800 E-0.7241
G0 X0.000 Y-20.000 F10800
G0 F4800 E0.2759
G1 X7.500 Y-20.000 E0.4879 F5400
;segType:Perimeter
G0 F4800 E-0.5121
G0 X1.557 Y-1.616 F10800
G0 F4800 E0.4879
G1 X1.257 Y-2.238 E0.5109 F2159
G1 X-1.480 Y-3.737 E0.6147
G1 X-5.209 Y-5.840 E0.7571
G1 X-5.823 Y-8.998 E0.8641
G1 X-8.343 Y-13.259 E1.0287
G1 X-9.159 Y-14.881 E1.0891
G1 X-8.024 Y-16.327 E1.1502
G1 X-7.813 Y-16.529 E1.1600
G1 X-7.261 Y-17.130 E1.1871
G1 X-7.175 Y-17.059 E1.1908
G1 X-5.611 Y-16.113 E1.2516
G1 X-3.420 Y-14.253 E1.3472
G1 X-0.077 Y-14.835 E1.4600
G1 X2.353 Y-14.482 E1.5417
G1 X4.779 Y-14.852 E1.6233
G1 X8.126 Y-14.293 E1.7362
G1 X10.304 Y-16.171 E1.8318
G1 X11.861 Y-17.128 E1.8926
G1 X11.947 Y-17.200 E1.8963
G1 X12.503 Y-16.603 E1.9235
G1 X12.716 Y-16.402 E1.9332
G1 X13.860 Y-14.965 E1.9943
G1 X13.056 Y-13.337 E2.0547
G1 X10.568 Y-9.058 E2.2194
G1 X9.977 Y-5.896 E2.3264
G1 X6.263 Y-3.765 E2.4687
G1 X3.488 Y-2.219 E2.5744
G1 X4.801 Y-0.950 E2.6352
G1 X4.454 Y2.828 E2.7613
G1 X3.542 Y12.872 E3.0968
G1 X2.452 Y12.893 E3.1330
G1 X1.362 Y12.880 E3.1693
G1 X0.377 Y2.843 E3.5048
G1 X0.003 Y-0.932 E3.6309
G1 X1.266 Y-2.170 E3.6897
G1 X1.388 Y-2.852
;segType:Loop
G0 X0.577 Y-3.070 F10800
G1 X-1.288 Y-4.092 E3.7605 F3600
G1 X-4.852 Y-6.102 E3.8966
G1 X-5.444 Y-9.145 E3.9997
G1 X-7.993 Y-13.454 E4.1662
G1 X-8.686 Y-14.833 E4.2175
G1 X-7.729 Y-16.053 E4.2691
G1 X-7.528 Y-16.244 E4.2783
G1 X-7.200 Y-16.602 E4.2945
G1 X-5.844 Y-15.782 E4.3472
G1 X-3.535 Y-13.823 E4.4479
G1 X-0.072 Y-14.426 E4.5649
G1 X2.354 Y-14.073 E4.6464
G1 X4.776 Y-14.442 E4.7279
G1 X8.244 Y-13.864 E4.8448
G1 X10.539 Y-15.842 E4.9456
G1 X11.889 Y-16.672 E4.9983
G1 X12.220 Y-16.316 E5.0144
G1 X12.422 Y-16.126 E5.0237
G1 X13.388 Y-14.913 E5.0752
G1 X12.705 Y-13.531 E5.1265
G1 X10.188 Y-9.202 E5.2931
G1 X9.619 Y-6.155 E5.3962
G1 X6.068 Y-4.118 E5.5323
G1 X2.817 Y-2.307 E5.6561
G1 X4.385 Y-0.793 E5.7286
G1 X4.056 Y2.791 E5.8483
G1 X3.177 Y12.475 E6.1717
G1 X2.451 Y12.488 E6.1958
G1 X1.725 Y12.480 E6.2200
G1 X0.775 Y2.803 E6.5434
G1 X0.420 Y-0.778 E6.6630
G1 X1.976 Y-2.304 E6.7355
G1 X0.745 Y-2.978 E6.7822
;segType:Infill
G0 X-0.197 Y-4.185 F10800
G1 X-0.197 Y-13.425 E7.0896 F5400
G0 X-4.203 Y-14.125 F10800
G1 X-4.203 Y-6.439 E7.3452 F5400
G0 X-4.654 Y-7.800 F10800
G1 X9.398 Y-7.800 E7.8126 F5400
G0 X7.814 Y-5.826 F10800
G1 X7.814 Y-13.226 E8.0587 F5400
G0 X11.066 Y-15.900 F10800
G1 X11.286 Y-15.900 E8.0660 F5400
;segType:HShell
G0 X12.648 Y-14.495 F10800
G1 X11.482 Y-15.960 E8.1283 F1800
G1 X11.825 Y-16.171 E8.1417
G1 X12.133 Y-15.859 E8.1562
G1 X12.927 Y-14.863 E8.1986
G1 X12.751 Y-14.507 E8.2118
;segType:Infill
G0 X11.820 Y-15.229 F10800
G1 X11.820 Y-12.569 E8.3003 F5400
G0 X11.402 Y-11.850 F10800
G1 X-6.717 Y-11.850 E8.9030 F5400
;segType:HShell
G0 X-8.045 Y-14.430 F10800
G1 X-8.224 Y-14.786 E8.9162 F1800
G1 X-7.438 Y-15.788 E8.9586
G1 X-7.133 Y-16.102 E8.9732
G1 X-6.788 Y-15.893 E8.9866
G1 X-7.943 Y-14.420 E9.0489
;segType:Infill
G0 X-6.477 Y-15.900 F10800
G1 X-6.539 Y-15.900 E9.0509 F5400
G0 X-3.470 Y-14.067 F10800
G0 X1.056 Y-13.437
;segType:HShell
G1 X-0.961 Y-13.731 E9.1187 F1800
G1 X-3.021 Y-13.372 E9.1883
G1 X-3.157 Y-13.488 E9.1942
G1 X-0.066 Y-14.026 E9.2986
G1 X2.356 Y-13.674 E9.3800
G1 X4.774 Y-14.043 E9.4613
G1 X7.869 Y-13.527 E9.5657
G1 X7.733 Y-13.409 E9.5717
G1 X5.670 Y-13.753 E9.6412
G1 X2.357 Y-13.248 E9.7527
G1 X1.244 Y-13.410 E9.7901
;segType:Infill
G0 X3.808 Y-13.275 F10800
G1 X3.808 Y-3.552 E10.1135 F5400
G0 X4.164 Y-3.751 F10800
G1 X0.596 Y-3.751 E10.2322 F5400
;segType:HShell
G0 X1.770 Y-1.551 F10800
G1 X2.243 Y-2.015 E10.2542 F1800
G1 X2.399 Y-1.930 E10.2601
G1 X2.553 Y-2.016 E10.2660
G1 X3.979 Y-0.639 E10.3319
G1 X3.932 Y-0.130 E10.3489
G1 X2.400 Y-1.610 E10.4198
G1 X0.878 Y-0.118 E10.4907
G1 X0.827 Y-0.628 E10.5077
G1 X1.633 Y-1.417 E10.5452
;segType:Infill
G0 X3.808 Y1.058 F10800
G1 X3.808 Y0.017 E10.5798 F5400
G0 X3.877 Y0.299 F10800
G1 X0.934 Y0.299 E10.6777 F5400
G0 X1.332 Y4.349 F10800
G1 X3.510 Y4.349 E10.7502 F5400
G0 X3.142 Y8.399 F10800
G1 X1.729 Y8.399 E10.7972 F5400
; ------------------------------------
; Layer #7
; ------------------------------------
G21 ; mm
G90 ; abs
G92 E0 ; reset extr
M106 S255
;segType:Perimeter
G0 F4800 E-1.0000
G0 F2400 Z1.600
G0 X1.695 Y-1.386 F10800
G0 F4800 E0.0000
G1 X1.395 Y-2.009 E0.0230 F2159
G1 X-1.706 Y-3.707 E0.1406
G1 X-5.297 Y-5.732 E0.2777
G1 X-6.000 Y-9.350 E0.4003
G1 X-8.270 Y-13.188 E0.5486
G1 X-8.999 Y-14.637 E0.6025
G1 X-7.128 Y-17.021 E0.7033
G1 X-5.570 Y-16.078 E0.7639
G1 X-3.593 Y-14.400 E0.8501
G1 X0.219 Y-15.064 E0.9788
G1 X2.352 Y-14.753 E1.0505
G1 X4.481 Y-15.078 E1.1222
G1 X8.298 Y-14.442 E1.2508
G1 X10.263 Y-16.136 E1.3372
G1 X11.814 Y-17.090 E1.3977
G1 X13.702 Y-14.720 E1.4985
G1 X12.984 Y-13.267 E1.5524
G1 X10.742 Y-9.410 E1.7008
G1 X10.065 Y-5.788 E1.8233
G1 X6.489 Y-3.737 E1.9604
G1 X3.351 Y-1.988 E2.0800
G1 X4.833 Y-0.556 E2.1485
G1 X4.436 Y3.775 E2.2932
G1 X3.599 Y12.997 E2.6011
G1 X2.453 Y13.018 E2.6393
G1 X1.306 Y13.006 E2.6774
G1 X0.402 Y3.790 E2.9854
G1 X-0.027 Y-0.538 E3.1301
G1 X1.404 Y-1.941 E3.1967
G1 X1.527 Y-2.622
;segType:Loop
G0 X0.716 Y-2.841 F10800
G1 X-1.513 Y-4.062 E3.2812 F3600
G1 X-4.940 Y-5.994 E3.4121
G1 X-5.621 Y-9.497 E3.5308
G1 X-7.920 Y-13.384 E3.6810
G1 X-8.526 Y-14.589 E3.7258
G1 X-7.033 Y-16.492 E3.8063
G1 X-5.803 Y-15.748 E3.8541
G1 X-3.708 Y-13.969 E3.9455
G1 X0.225 Y-14.654 E4.0783
G1 X2.353 Y-14.345 E4.1498
G1 X4.478 Y-14.669 E4.2213
G1 X8.416 Y-14.012 E4.3541
G1 X10.499 Y-15.807 E4.4455
G1 X11.723 Y-16.560 E4.4933
G1 X13.230 Y-14.669 E4.5738
G1 X12.632 Y-13.460 E4.6186
G1 X10.362 Y-9.555 E4.7688
G1 X9.707 Y-6.048 E4.8875
G1 X6.294 Y-4.090 E5.0184
G1 X2.681 Y-2.076 E5.1559
G1 X4.417 Y-0.399 E5.2362
G1 X4.038 Y3.738 E5.3744
G1 X3.234 Y12.599 E5.6704
G1 X2.451 Y12.614 E5.6964
G1 X1.669 Y12.605 E5.7224
G1 X0.800 Y3.750 E6.0183
G1 X0.391 Y-0.384 E6.1565
G1 X2.115 Y-2.074 E6.2368
G1 X0.883 Y-2.749 E6.2835
;segType:Infill
G0 X0.315 Y-3.751 F10800
G1 X4.440 Y-3.751 E6.4207 F5400
G0 X7.814 Y-5.668 F10800
G1 X7.814 Y-13.378 E6.6772 F5400
;segType:HShell
G0 X12.490 Y-14.250 F10800
G1 X11.251 Y-15.808 E6.7434 F1800
G1 X11.634 Y-16.043 E6.7583
G1 X12.769 Y-14.618 E6.8189
G1 X12.592 Y-14.262 E6.8321
;segType:Infill
G0 X11.820 Y-14.785 F10800
G1 X11.820 Y-12.622 E6.9041 F5400
G0 X11.371 Y-11.850 F10800
G1 X-6.686 Y-11.850 E7.5047 F5400
;segType:HShell
G0 X-7.885 Y-14.186 F10800
G1 X-8.064 Y-14.542 E7.5179 F1800
G1 X-6.940 Y-15.976 E7.5785
G1 X-6.555 Y-15.743 E7.5935
G1 X-7.783 Y-14.176 E7.6597
;segType:Infill
G0 X-4.203 Y-14.125 F10800
G1 X-4.203 Y-6.282 E7.9206 F5400
G0 X-0.197 Y-4.031 F10800
G1 X-0.197 Y-13.697 E8.2421 F5400
G0 X-4.762 Y-7.800 F10800
G1 X9.506 Y-7.800 E8.7166 F5400
;segType:HShell
G0 X1.262 Y-13.679 F10800
G1 X-0.664 Y-13.959 E8.7814 F1800
G1 X-3.193 Y-13.519 E8.8668
G1 X-3.330 Y-13.635 E8.8727
G1 X0.230 Y-14.255 E8.9929
G1 X2.355 Y-13.946 E9.0643
G1 X4.476 Y-14.269 E9.1357
G1 X8.040 Y-13.675 E9.2559
G1 X7.904 Y-13.558 E9.2618
G1 X5.372 Y-13.980 E9.3472
G1 X2.356 Y-13.519 E9.4487
G1 X1.450 Y-13.651 E9.4791
;segType:Infill
G0 X3.808 Y-13.546 F10800
G1 X3.808 Y-3.398 E9.8167 F5400
G0 X3.162 Y-2.013 F10800
G0 X3.808 Y0.380
G1 X3.808 Y1.807 E9.8641 F5400
G0 X1.661 Y8.399 F10800
G1 X3.210 Y8.399 E9.9156 F5400
G0 X3.578 Y4.349 F10800
G1 X1.264 Y4.349 E9.9926 F5400
G0 X1.097 Y0.299 F10800
G1 X3.725 Y0.299 E10.0800 F5400
;segType:HShell
G0 X1.900 Y-1.295 F10800
G1 X2.399 Y-1.776 E10.1031 F1800
G1 X4.011 Y-0.245 E10.1770
G1 X3.964 Y0.265 E10.1940
G1 X2.401 Y-1.246 E10.2664
G1 X0.848 Y0.276 E10.3387
G1 X0.798 Y-0.233 E10.3557
G1 X1.762 Y-1.162 E10.4002
;segType:Support
G0 F4800 E9.4002
G0 X2.179 Y-17.179 F10800
G0 F4800 E10.4002
G1 X0.321 Y-17.179 E10.4528 F5400
G0 F4800 E9.4528
G0 X7.500 Y-22.500 F10800
G0 F4800 E10.4528
G1 X0.000 Y-22.500 E10.6648 F5400
G0 F4800 E9.6648
G0 X7.500 Y-20.000 F10800
G0 F4800 E10.6648
G1 X0.000 Y-20.000 E10.8768 F5400
; ------------------------------------
; Layer #8
; ------------------------------------
G21 ; mm
G90 ; abs
G92 E0 ; reset extr
M106 S255
;segType:Support
G0 F4800 E-1.0000
G0 F2400 Z1.800
G0 X0.000 Y-20.000 F10800
G0 F4800 E0.0000
G1 X7.500 Y-20.000 E0.2120 F5400
G1 X7.500 Y-22.500 E0.2827
G1 X0.000 Y-22.500 E0.4947
G0 F4800 E-0.5053
G0 X1.979 Y-16.979 F10800
G0 F4800 E0.4947
G1 X0.521 Y-16.979 E0.5360 F5400
G1 X1.540 Y-15.960 E0.5767
G0 F4800 E-0.4233
G0 X1.784 Y-3.624 F10800
G0 X1.833 Y-1.157
G0 F4800 E0.5767
;segType:Perimeter
G1 X1.533 Y-1.780 E0.5997 F2159
G1 X-1.932 Y-3.678 E0.7311
G1 X-5.384 Y-5.624 E0.8629
G1 X-6.176 Y-9.701 E1.0010
G1 X-8.197 Y-13.118 E1.1331
G1 X-8.838 Y-14.393 E1.1805
G1 X-6.896 Y-16.870 E1.2853
G1 X-5.529 Y-16.044 E1.3384
G1 X-3.765 Y-14.546 E1.4153
G1 X0.516 Y-15.292 E1.5599
G1 X2.351 Y-15.025 E1.6215
G1 X4.183 Y-15.305 E1.6832
G1 X8.469 Y-14.590 E1.8277
G1 X10.223 Y-16.101 E1.9047
G1 X11.583 Y-16.938 E1.9578
G1 X13.544 Y-14.475 E2.0625
G1 X12.912 Y-13.196 E2.1100
G1 X10.916 Y-9.763 E2.2420
G1 X10.153 Y-5.681 E2.3802
G1 X6.715 Y-3.709 E2.5120
G1 X3.214 Y-1.758 E2.6453
G1 X4.866 Y-0.162 E2.7217
G1 X4.418 Y4.723 E2.8848
G1 X3.656 Y13.122 E3.1653
G1 X2.453 Y13.144 E3.2053
G1 X1.251 Y13.131 E3.2453
G1 X0.426 Y4.737 E3.5259
G1 X-0.057 Y-0.144 E3.6890
G1 X1.542 Y-1.712 E3.7635
G1 X1.665 Y-2.393
;segType:Loop
G0 X0.853 Y-2.612 F10800
G1 X-1.739 Y-4.032 E3.8618 F3600
G1 X-5.027 Y-5.886 E3.9874
G1 X-5.797 Y-9.848 E4.1216
G1 X-7.847 Y-13.314 E4.2555
G1 X-8.366 Y-14.345 E4.2939
G1 X-6.800 Y-16.341 E4.3783
G1 X-5.762 Y-15.713 E4.4187
G1 X-3.880 Y-14.116 E4.5007
G1 X0.521 Y-14.883 E4.6494
G1 X2.352 Y-14.616 E4.7109
G1 X4.180 Y-14.895 E4.7724
G1 X8.587 Y-14.160 E4.9210
G1 X10.458 Y-15.772 E5.0031
G1 X11.491 Y-16.408 E5.0435
G1 X13.072 Y-14.424 E5.1278
G1 X12.560 Y-13.389 E5.1662
G1 X10.536 Y-9.907 E5.3002
G1 X9.795 Y-5.940 E5.4344
G1 X6.520 Y-4.062 E5.5600
G1 X2.544 Y-1.846 E5.7114
G1 X4.450 Y-0.005 E5.7995
G1 X4.020 Y4.686 E5.9562
G1 X3.290 Y12.724 E6.2246
G1 X2.452 Y12.740 E6.2525
G1 X1.613 Y12.731 E6.2804
G1 X0.824 Y4.697 E6.5489
G1 X0.361 Y0.010 E6.7055
G1 X2.253 Y-1.845 E6.7937
G1 X1.021 Y-2.520 E6.8404
;segType:Infill
G0 X0.035 Y-3.751 F10800
G1 X4.717 Y-3.751 E6.9961 F5400
G0 X9.614 Y-7.800 F10800
G1 X-4.870 Y-7.800 E7.4779 F5400
G0 X-4.203 Y-6.124 F10800
G1 X-4.203 Y-14.125 E7.7440 F5400
;segType:HShell
G0 X-7.725 Y-13.942 F10800
G1 X-7.904 Y-14.298 E7.7572 F1800
G1 X-6.707 Y-15.825 E7.8218
G1 X-6.322 Y-15.592 E7.8367
G1 X-7.623 Y-13.932 E7.9069
;segType:Infill
G0 X-6.655 Y-11.850 F10800
G1 X11.340 Y-11.850 E8.5054 F5400
;segType:HShell
G0 X12.332 Y-14.005 F10800
G1 X11.018 Y-15.655 E8.5755 F1800
G1 X11.402 Y-15.891 E8.5905
G1 X12.610 Y-14.373 E8.6550
G1 X12.434 Y-14.016 E8.6683
;segType:Infill
G0 X11.820 Y-12.675 F10800
G1 X11.820 Y-14.341 E8.7237 F5400
G0 X7.814 Y-13.554 F10800
G1 X7.814 Y-5.510 E8.9912 F5400
G0 X3.026 Y-1.783 F10800
G0 X3.646 Y4.349
G1 X1.196 Y4.349 E9.0727 F5400
G0 X3.278 Y8.399 F10800
G1 X1.593 Y8.399 E9.1288 F5400
G0 X3.808 Y2.558 F10800
G1 X3.808 Y0.742 E9.1892 F5400
G0 X3.350 Y0.299 F10800
G1 X1.470 Y0.299 E9.2517 F5400
;segType:HShell
G0 X2.046 Y-1.093 F10800
G1 X2.400 Y-1.440 E9.2682 F1800
G1 X4.044 Y0.149 E9.3442
G1 X3.997 Y0.658 E9.3612
G1 X2.402 Y-0.883 E9.4350
G1 X0.818 Y0.670 E9.5088
G1 X0.768 Y0.160 E9.5258
G1 X1.910 Y-0.959 E9.5790
;segType:Infill
G0 X3.808 Y-3.244 F10800
G1 X3.808 Y-13.818 E9.9307 F5400
;segType:HShell
G0 X1.467 Y-13.920 F10800
G1 X-0.368 Y-14.188 E9.9924 F1800
G1 X-3.365 Y-13.665 E10.0936
G1 X-3.502 Y-13.781 E10.0996
G1 X0.527 Y-14.483 E10.2356
G1 X2.354 Y-14.217 E10.2970
G1 X4.178 Y-14.496 E10.3584
G1 X8.212 Y-13.823 E10.4944
G1 X8.076 Y-13.705 E10.5004
G1 X5.074 Y-14.206 E10.6016
G1 X2.355 Y-13.791 E10.6931
G1 X1.656 Y-13.893 E10.7166
;segType:Infill
G0 X-0.197 Y-13.969 F10800
G1 X-0.197 Y-3.878 E11.0522 F5400
; ------------------------------------
; Layer #9
; ------------------------------------
G21 ; mm
G90 ; abs
G92 E0 ; reset extr
M106 S255
G0 F4800 E-1.0000
G0 F2400 Z2.000
G0 X1.994 Y-2.030 F10800
G0 X1.971 Y-0.928
G0 F4800 E0.0000
;segType:Perimeter
G1 X1.671 Y-1.550 E0.0230 F2159
G1 X-2.157 Y-3.648 E0.1682
G1 X-5.471 Y-5.517 E0.2947
G1 X-6.353 Y-10.052 E0.4484
G1 X-8.124 Y-13.048 E0.5642
G1 X-8.678 Y-14.149 E0.6052
G1 X-6.663 Y-16.720 E0.7138
G1 X-5.488 Y-16.009 E0.7595
G1 X-3.937 Y-14.693 E0.8271
G1 X0.812 Y-15.521 E0.9875
G1 X2.350 Y-15.297 E1.0391
G1 X3.885 Y-15.531 E1.0908
G1 X8.640 Y-14.738 E1.2512
G1 X10.181 Y-16.066 E1.3188
G1 X11.351 Y-16.785 E1.3645
G1 X13.386 Y-14.230 E1.4731
G1 X12.840 Y-13.125 E1.5141
G1 X11.090 Y-10.116 E1.6299
G1 X10.242 Y-5.574 E1.7836
G1 X6.941 Y-3.681 E1.9101
G1 X3.979 Y-2.028 E2.0230
G1 X3.077 Y-1.528 E2.0572
G1 X4.899 Y0.232 E2.1415
G1 X4.400 Y5.670 E2.3231
G1 X3.712 Y13.247 E2.5762
G1 X2.454 Y13.270 E2.6181
G1 X1.195 Y13.257 E2.6599
G1 X0.451 Y5.685 E2.9130
G1 X-0.087 Y0.250 E3.0946
G1 X1.681 Y-1.482 E3.1769
G1 X1.803 Y-2.164
;segType:Loop
G0 X0.992 Y-2.382 F10800
G1 X-1.964 Y-4.002 E3.2891 F3600
G1 X-5.115 Y-5.778 E3.4093
G1 X-5.974 Y-10.199 E3.5591
G1 X-7.774 Y-13.244 E3.6768
G1 X-8.206 Y-14.101 E3.7087
G1 X-6.567 Y-16.190 E3.7970
G1 X-5.721 Y-15.679 E3.8299
G1 X-4.052 Y-14.262 E3.9027
G1 X0.818 Y-15.111 E4.0671
G1 X2.351 Y-14.888 E4.1186
G1 X3.882 Y-15.121 E4.1702
G1 X8.759 Y-14.308 E4.3346
G1 X10.417 Y-15.737 E4.4074
G1 X11.259 Y-16.256 E4.4403
G1 X12.913 Y-14.179 E4.5286
G1 X12.488 Y-13.318 E4.5605
G1 X10.710 Y-10.260 E4.6782
G1 X9.883 Y-5.833 E4.8280
G1 X6.746 Y-4.034 E4.9483
G1 X3.786 Y-2.382 E5.0610
G1 X2.406 Y-1.617 E5.1135
G1 X4.483 Y0.389 E5.2095
G1 X4.002 Y5.633 E5.3847
G1 X3.347 Y12.849 E5.6257
G1 X2.452 Y12.865 E5.6554
G1 X1.558 Y12.856 E5.6852
G1 X0.849 Y5.645 E5.9262
G1 X0.331 Y0.405 E6.1013
G1 X2.391 Y-1.616 E6.1973
G1 X1.159 Y-2.291 E6.2440
;segType:HShell
G0 X2.185 Y-0.863 F10800
G1 X2.401 Y-1.076 E6.2541 F1800
G1 X4.077 Y0.543 E6.3316
G1 X4.030 Y1.053 E6.3487
G1 X2.404 Y-0.519 E6.4239
G1 X0.788 Y1.064 E6.4991
G1 X0.738 Y0.555 E6.5162
G1 X2.048 Y-0.730 E6.5772
;segType:Infill
G0 X1.842 Y0.299 F10800
G1 X2.975 Y0.299 E6.6149 F5400
G0 X3.346 Y8.399 F10800
G1 X1.525 Y8.399 E6.6754 F5400
G0 X1.128 Y4.349 F10800
G1 X3.714 Y4.349 E6.7615 F5400
G0 X3.808 Y1.105 F10800
G1 X3.808 Y3.307 E6.8347 F5400
G0 X2.889 Y-1.553 F10800
G0 X4.994 Y-3.751
G1 X-0.245 Y-3.751 E7.0089 F5400
G1 X-0.197 Y-3.724 E7.0107
G1 X-0.197 Y-14.199 E7.3591
G0 X-4.203 Y-14.126 F10800
G1 X-4.203 Y-5.967 E7.6305 F5400
G0 X-4.979 Y-7.800 F10800
G1 X9.722 Y-7.800 E8.1194 F5400
G0 X7.814 Y-5.352 F10800
G1 X7.814 Y-13.731 E8.3981 F5400
;segType:HShell
G0 X12.173 Y-13.760 F10800
G1 X10.787 Y-15.503 E8.4722 F1800
G1 X11.170 Y-15.739 E8.4871
G1 X12.452 Y-14.128 E8.5556
G1 X12.276 Y-13.771 E8.5689
;segType:Infill
G0 X11.820 Y-13.898 F10800
G1 X11.820 Y-12.729 E8.6077 F5400
G0 X11.309 Y-11.850 F10800
G1 X-6.623 Y-11.850 E9.2042 F5400
;segType:HShell
G0 X-7.565 Y-13.698 F10800
G1 X-7.744 Y-14.054 E9.2174 F1800
G1 X-6.473 Y-15.674 E9.2859
G1 X-6.089 Y-15.442 E9.3008
G1 X-7.463 Y-13.688 E9.3749
G0 X1.672 Y-14.162 F10800
G1 X-0.072 Y-14.416 E9.4335 F1800
G1 X-3.538 Y-13.812 E9.5506
G1 X-3.674 Y-13.928 E9.5565
G1 X0.823 Y-14.712 E9.7084
G1 X2.352 Y-14.489 E9.7598
G1 X3.880 Y-14.722 E9.8112
G1 X8.383 Y-13.971 E9.9630
G1 X8.247 Y-13.854 E9.9690
G1 X4.776 Y-14.432 E10.0860
G1 X2.354 Y-14.063 E10.1675
G1 X1.860 Y-14.135 E10.1841
;segType:Infill
G0 X3.808 Y-14.090 F10800
G1 X3.808 Y-3.090 E10.5500 F5400
;segType:Support
G0 F4800 E9.5500
G0 X7.500 Y-20.000 F10800
G0 F4800 E10.5500
G1 X0.000 Y-20.000 E10.7620 F5400
G1 X0.000 Y-22.500 E10.8327
G1 X7.500 Y-22.500 E11.0447
G0 F4800 E10.0447
G0 X1.779 Y-16.779 F10800
G0 F4800 E11.0447
G1 X0.721 Y-16.779 E11.0747 F5400
G1 X1.222 Y-16.278 E11.0947
; ------------------------------------
; Layer #10
; ------------------------------------
G21 ; mm
G90 ; abs
G92 E0 ; reset extr
M106 S255
;segType:Support
G0 F4800 E-1.0000
G0 F2400 Z2.200
G0 X1.508 Y-16.508 F10800
G0 F4800 E0.0000
G1 X1.579 Y-16.579 E0.0028 F5400
G0 F4800 E-0.9972
G0 X0.000 Y-22.500 F10800
G0 F4800 E0.0028
G1 X7.500 Y-22.500 E0.2149 F5400
G1 X7.500 Y-20.000 E0.2856
G1 X0.000 Y-20.000 E0.4976
G0 F4800 E-0.5024
G0 X1.847 Y-3.112 F10800
G0 X2.111 Y-0.699
G0 F4800 E0.4976
;segType:Perimeter
G1 X1.810 Y-1.321 E0.5206 F2159
G1 X0.888 Y-1.823 E0.5555
G1 X-2.383 Y-3.618 E0.6796
G1 X-5.559 Y-5.409 E0.8009
G1 X-6.529 Y-10.404 E0.9701
G1 X-8.051 Y-12.978 E1.0696
G1 X-8.518 Y-13.905 E1.1041
G1 X-6.430 Y-16.569 E1.2167
G1 X-5.447 Y-15.975 E1.2549
G1 X-4.110 Y-14.840 E1.3132
G1 X1.109 Y-15.749 E1.4894
G1 X2.349 Y-15.568 E1.5311
G1 X3.587 Y-15.757 E1.5727
G1 X8.812 Y-14.886 E1.7489
G1 X10.141 Y-16.031 E1.8073
G1 X11.119 Y-16.633 E1.8455
G1 X13.227 Y-13.985 E1.9581
G1 X12.767 Y-13.054 E1.9926
G1 X11.264 Y-10.469 E2.0921
G1 X10.330 Y-5.467 E2.2613
G1 X7.167 Y-3.653 E2.3826
G1 X3.909 Y-1.834 E2.5067
G1 X2.941 Y-1.298 E2.5435
G1 X4.932 Y0.626 E2.6356
G1 X4.383 Y6.618 E2.8357
G1 X3.769 Y13.372 E3.0613
G1 X2.454 Y13.395 E3.1050
G1 X1.139 Y13.382 E3.1488
G1 X0.476 Y6.632 E3.3744
G1 X-0.116 Y0.644 E3.5745
G1 X1.820 Y-1.254 E3.6647
G1 X1.941 Y-1.936
;segType:Loop
G0 X1.129 Y-2.152 F10800
G1 X1.079 Y-2.179 E3.6666 F3600
G1 X-2.190 Y-3.972 E3.7906
G1 X-5.202 Y-5.670 E3.9056
G1 X-6.150 Y-10.551 E4.0709
G1 X-7.701 Y-13.173 E4.1723
G1 X-8.045 Y-13.857 E4.1977
G1 X-6.334 Y-16.040 E4.2900
G1 X-5.680 Y-15.644 E4.3154
G1 X-4.225 Y-14.409 E4.3789
G1 X1.114 Y-15.339 E4.5591
G1 X2.350 Y-15.160 E4.6007
G1 X3.584 Y-15.348 E4.6422
G1 X8.930 Y-14.456 E4.8225
G1 X10.376 Y-15.702 E4.8859
G1 X11.028 Y-16.103 E4.9114
G1 X12.755 Y-13.934 E5.0036
G1 X12.416 Y-13.247 E5.0291
G1 X10.884 Y-10.613 E5.1305
G1 X9.971 Y-5.726 E5.2958
G1 X6.972 Y-4.005 E5.4108
G1 X3.716 Y-2.189 E5.5348
G1 X2.400 Y-1.459 E5.5849
G1 X1.296 Y-2.061 E5.6267
G0 X0.979 Y-1.993 F10800
G0 X2.049 Y-1.320
G0 X2.001 Y-0.869
G1 X2.401 Y-1.260 E5.6453 F3600
G1 X4.515 Y0.783 E5.7431
G1 X3.984 Y6.581 E5.9367
G1 X3.404 Y12.974 E6.1502
G1 X2.453 Y12.991 E6.1819
G1 X1.502 Y12.981 E6.2135
G1 X0.874 Y6.592 E6.4270
G1 X0.301 Y0.799 E6.6207
G1 X1.865 Y-0.735 E6.6935
;segType:HShell
G0 X2.471 Y-0.646 F10800
G1 X4.110 Y0.937 E6.7693 F1800
G1 X4.063 Y1.447 E6.7863
G1 X2.405 Y-0.156 E6.8630
G1 X0.759 Y1.458 E6.9397
G1 X0.708 Y0.949 E6.9567
G1 X2.334 Y-0.646 E7.0324
;segType:Infill
G0 X2.214 Y0.299 F10800
G1 X2.600 Y0.299 E7.0453 F5400
G0 X3.808 Y1.467 F10800
G1 X3.808 Y4.055 E7.1314 F5400
G0 X3.782 Y4.349 F10800
G1 X1.059 Y4.349 E7.2219 F5400
G0 X3.414 Y8.399 F10800
G1 X1.457 Y8.399 E7.2870 F5400
G0 X2.049 Y-1.320 F10800
G0 X-4.203 Y-5.810
G1 X-4.203 Y-14.126 E7.5636 F5400
;segType:HShell
G0 X-7.405 Y-13.455 F10800
G1 X-7.584 Y-13.810 E7.5768 F1800
G1 X-6.241 Y-15.524 E7.6492
G1 X-5.862 Y-15.284 E7.6642
G1 X-7.303 Y-13.444 E7.7419
;segType:Infill
G0 X-6.592 Y-11.850 F10800
G1 X11.278 Y-11.850 E8.3362 F5400
G0 X11.820 Y-13.394 F10800
G1 X11.820 Y-12.782 E8.3566 F5400
;segType:HShell
G0 X11.996 Y-13.480 F10800
G1 X10.559 Y-15.342 E8.4348 F1800
G1 X10.938 Y-15.586 E8.4498
G1 X12.294 Y-13.883 E8.5222
G1 X12.097 Y-13.490 E8.5369
;segType:Infill
G0 X7.814 Y-13.907 F10800
G1 X7.814 Y-5.195 E8.8266 F5400
G0 X9.831 Y-7.800 F10800
G1 X-5.087 Y-7.800 E9.3228 F5400
G0 X-0.525 Y-3.751 F10800
G1 X5.271 Y-3.751 E9.5156 F5400
G0 X3.808 Y-2.936 F10800
G1 X3.808 Y-14.362 E9.8956 F5400
;segType:HShell
G0 X1.876 Y-14.404 F10800
G1 X0.225 Y-14.644 E9.9511 F1800
G1 X-3.710 Y-13.959 E10.0840
G1 X-3.847 Y-14.075 E10.0899
G1 X1.120 Y-14.940 E10.2576
G1 X2.352 Y-14.761 E10.2990
G1 X3.582 Y-14.949 E10.3404
G1 X8.555 Y-14.119 E10.5081
G1 X8.419 Y-14.002 E10.5141
G1 X4.478 Y-14.659 E10.6469
G1 X2.353 Y-14.335 E10.7184
G1 X2.065 Y-14.377 E10.7281
;segType:Infill
G0 X-0.197 Y-14.376 F10800
G1 X-0.197 Y-3.571 E11.0875 F5400
; ------------------------------------
; Layer #11
; ------------------------------------
G21 ; mm
G90 ; abs
G92 E0 ; reset extr
M106 S255
G0 F4800 E-1.0000
G0 F2400 Z2.400
G0 X2.269 Y-1.573 F10800
G0 X2.249 Y-0.470
G0 F4800 E0.0000
;segType:Perimeter
G1 X1.948 Y-1.092 E0.0230 F2159
G1 X0.960 Y-1.631 E0.0604
G1 X-2.608 Y-3.588 E0.1958
G1 X-5.646 Y-5.301 E0.3118
G1 X-6.706 Y-10.755 E0.4966
G1 X-7.979 Y-12.907 E0.5797
G1 X-8.358 Y-13.661 E0.6078
G1 X-6.197 Y-16.418 E0.7243
G1 X-5.406 Y-15.940 E0.7551
G1 X-4.282 Y-14.986 E0.8041
G1 X1.405 Y-15.977 E0.9961
G1 X2.348 Y-15.840 E1.0278
G1 X3.289 Y-15.984 E1.0595
G1 X8.983 Y-15.034 E1.2515
G1 X10.100 Y-15.996 E1.3005
G1 X10.887 Y-16.481 E1.3313
G1 X13.069 Y-13.740 E1.4478
G1 X12.695 Y-12.983 E1.4758
G1 X11.438 Y-10.822 E1.5590
G1 X10.418 Y-5.359 E1.7438
G1 X7.393 Y-3.624 E1.8598
G1 X3.838 Y-1.641 E1.9952
G1 X2.804 Y-1.067 E2.0345
G1 X4.964 Y1.020 E2.1344
G1 X4.365 Y7.565 E2.3531
G1 X3.826 Y13.498 E2.5512
G1 X2.455 Y13.521 E2.5968
G1 X1.083 Y13.508 E2.6424
G1 X0.501 Y7.579 E2.8405
G1 X-0.146 Y1.039 E3.0591
G1 X1.958 Y-1.025 E3.1571
G1 X2.079 Y-1.706
;segType:Loop
G0 X1.267 Y-1.923 F10800
G1 X1.151 Y-1.986 E3.1616 F3600
G1 X-2.416 Y-3.942 E3.2968
G1 X-5.289 Y-5.563 E3.4066
G1 X-6.327 Y-10.902 E3.5875
G1 X-7.628 Y-13.103 E3.6725
G1 X-7.885 Y-13.613 E3.6915
G1 X-6.101 Y-15.889 E3.7877
G1 X-5.638 Y-15.609 E3.8057
G1 X-4.397 Y-14.556 E3.8598
G1 X1.411 Y-15.568 E4.0559
G1 X2.349 Y-15.431 E4.0875
G1 X3.286 Y-15.574 E4.1190
G1 X9.101 Y-14.604 E4.3151
G1 X10.335 Y-15.667 E4.3693
G1 X10.796 Y-15.951 E4.3872
G1 X12.596 Y-13.689 E4.4834
G1 X12.343 Y-13.176 E4.5024
G1 X11.058 Y-10.966 E4.5875
G1 X10.059 Y-5.619 E4.7684
G1 X7.198 Y-3.977 E4.8781
G1 X3.646 Y-1.995 E5.0134
G1 X2.401 Y-1.305 E5.0608
G1 X1.435 Y-1.832 E5.0973
G0 X1.051 Y-1.800 F10800
G0 X2.187 Y-1.091
G0 X2.140 Y-0.639
G1 X2.402 Y-0.897 E5.1096 F3600
G1 X4.548 Y1.177 E5.2088
G1 X3.966 Y7.528 E5.4209
G1 X3.460 Y13.099 E5.6070
G1 X2.453 Y13.117 E5.6405
G1 X1.446 Y13.107 E5.6740
G1 X0.899 Y7.539 E5.8601
G1 X0.271 Y1.193 E6.0722
G1 X2.003 Y-0.506 E6.1529
;segType:HShell
G0 X2.625 Y-0.136 F10800
G1 X4.142 Y1.331 E6.2230 F1800
G1 X4.096 Y1.840 E6.2401
G1 X2.406 Y0.208 E6.3182
G1 X0.729 Y1.853 E6.3963
G1 X0.678 Y1.343 E6.4134
G1 X2.404 Y-0.349 E6.4938
G1 X2.487 Y-0.269 E6.4976
;segType:Infill
G0 X3.808 Y1.829 F10800
G1 X3.808 Y4.806 E6.5966 F5400
G0 X3.482 Y8.399 F10800
G1 X1.389 Y8.399 E6.6663 F5400
G0 X1.787 Y12.449 F10800
G1 X3.114 Y12.449 E6.7104 F5400
G0 X0.991 Y4.349 F10800
G1 X3.850 Y4.349 E6.8055 F5400
G0 X2.615 Y-1.093 F10800
G0 X7.814 Y-5.037
G1 X7.814 Y-14.084 E7.1064 F5400
;segType:HShell
G0 X11.848 Y-13.281 F10800
G1 X10.351 Y-15.163 E7.1864 F1800
G1 X10.564 Y-15.347 E7.1958
G1 X10.706 Y-15.434 E7.2013
G1 X12.135 Y-13.638 E7.2776
G1 X11.953 Y-13.291 E7.2907
;segType:Infill
G0 X11.820 Y-13.010 F10800
G1 X11.820 Y-12.836 E7.2965 F5400
G0 X11.278 Y-11.850 F10800
G1 X-6.592 Y-11.850 E7.8908 F5400
;segType:HShell
G0 X-7.239 Y-13.220 F10800
G1 X-7.424 Y-13.566 E7.9039 F1800
G1 X-6.008 Y-15.373 E7.9802
G1 X-5.865 Y-15.287 E7.9858
G1 X-5.651 Y-15.105 E7.9951
G1 X-7.134 Y-13.211 E8.0751
;segType:Infill
G0 X-4.203 Y-14.126 F10800
G1 X-4.203 Y-5.653 E8.3569 F5400
G0 X-5.195 Y-7.800 F10800
G1 X9.939 Y-7.800 E8.8603 F5400
G0 X5.546 Y-3.751 F10800
G1 X-0.806 Y-3.751 E9.0715 F5400
G0 X-0.197 Y-3.417 F10800
G1 X-0.197 Y-14.552 E9.4419 F5400
;segType:HShell
G0 X2.083 Y-14.645 F10800
G1 X0.521 Y-14.873 E9.4944 F1800
G1 X-3.883 Y-14.105 E9.6431
G1 X-4.020 Y-14.221 E9.6491
G1 X1.416 Y-15.169 E9.8326
G1 X2.351 Y-15.032 E9.8640
G1 X3.283 Y-15.175 E9.8954
G1 X8.726 Y-14.267 E10.0789
G1 X8.590 Y-14.150 E10.0849
G1 X4.180 Y-14.885 E10.2336
G1 X2.352 Y-14.606 E10.2951
G1 X2.271 Y-14.618 E10.2978
;segType:Infill
G0 X3.808 Y-14.634 F10800
G1 X3.808 Y-2.782 E10.6920 F5400
;segType:Support
G0 F4800 E9.6920
G0 X0.000 Y-22.500 F10800
G0 F4800 E10.6920
G1 X7.500 Y-22.500 E10.9040 F5400
G1 X7.500 Y-20.000 E10.9747
G1 X0.000 Y-20.000 E11.1867
; ------------------------------------
; Layer #12
; ------------------------------------
G21 ; mm
G90 ; abs
G92 E0 ; reset extr
M106 S255
;segType:Support
G0 F4800 E-1.0000
G0 F2400 Z2.600
G0 X0.000 Y-20.000 F10800
G0 F4800 E0.0000
G1 X7.500 Y-20.000 E0.2120 F5400
G1 X7.500 Y-22.500 E0.2827
G1 X0.000 Y-22.500 E0.4947
G0 F4800 E-0.5053
G0 X2.122 Y-2.714 F10800
G0 X2.388 Y-0.240
G0 F4800 E0.4947
;segType:Perimeter
G1 X2.087 Y-0.863 E0.5177 F2159
G1 X1.032 Y-1.437 E0.5577
G1 X-2.834 Y-3.558 E0.7043
G1 X-5.734 Y-5.193 E0.8151
G1 X-6.883 Y-11.107 E1.0154
G1 X-7.906 Y-12.837 E1.0823
G1 X-8.198 Y-13.417 E1.1039
G1 X-5.964 Y-16.268 E1.2243
G1 X-5.365 Y-15.905 E1.2476
G1 X-4.455 Y-15.133 E1.2873
G1 X1.701 Y-16.206 E1.4952
G1 X2.347 Y-16.112 E1.5169
G1 X2.991 Y-16.210 E1.5385
G1 X9.155 Y-15.182 E1.7464
G1 X10.059 Y-15.961 E1.7861
G1 X10.656 Y-16.328 E1.8094
G1 X12.911 Y-13.495 E1.9298
G1 X12.623 Y-12.912 E1.9514
G1 X11.612 Y-11.174 E2.0183
G1 X10.506 Y-5.252 E2.2187
G1 X7.619 Y-3.596 E2.3294
G1 X3.768 Y-1.447 E2.4761
G1 X2.667 Y-0.837 E2.5179
G1 X4.997 Y1.414 E2.6257
G1 X4.346 Y8.513 E2.8628
G1 X3.882 Y13.623 E3.0334
G1 X2.455 Y13.647 E3.0809
G1 X1.027 Y13.633 E3.1284
G1 X0.526 Y8.527 E3.2990
G1 X-0.176 Y1.433 E3.5361
G1 X2.096 Y-0.795 E3.6420
G1 X2.218 Y-1.477
;segType:Loop
G0 X1.406 Y-1.693 F10800
G1 X1.222 Y-1.793 E3.6489 F3600
G1 X-2.641 Y-3.912 E3.7955
G1 X-5.377 Y-5.455 E3.8999
G1 X-6.504 Y-11.254 E4.0964
G1 X-7.556 Y-13.033 E4.1652
G1 X-7.725 Y-13.369 E4.1777
G1 X-5.868 Y-15.739 E4.2778
G1 X-5.597 Y-15.575 E4.2884
G1 X-4.570 Y-14.703 E4.3332
G1 X1.707 Y-15.796 E4.5451
G1 X2.348 Y-15.703 E4.5666
G1 X2.988 Y-15.801 E4.5882
G1 X9.273 Y-14.752 E4.8001
G1 X10.294 Y-15.632 E4.8449
G1 X10.564 Y-15.799 E4.8555
G1 X12.438 Y-13.444 E4.9556
G1 X12.271 Y-13.106 E4.9681
G1 X11.232 Y-11.318 E5.0369
G1 X10.148 Y-5.512 E5.2334
G1 X7.423 Y-3.949 E5.3378
G1 X3.575 Y-1.802 E5.4844
G1 X2.401 Y-1.151 E5.5290
G1 X1.573 Y-1.602 E5.5604
G0 X1.123 Y-1.607 F10800
G0 X2.326 Y-0.862
G0 X2.278 Y-0.410
G1 X2.403 Y-0.533 E5.5662 F3600
G1 X4.581 Y1.571 E5.6669
G1 X3.948 Y8.476 E5.8975
G1 X3.517 Y13.224 E6.0561
G1 X2.454 Y13.242 E6.0915
G1 X1.390 Y13.232 E6.1269
G1 X0.924 Y8.487 E6.2855
G1 X0.241 Y1.587 E6.5161
G1 X2.141 Y-0.276 E6.6046
;segType:HShell
G0 X2.764 Y0.361 F10800
G1 X4.175 Y1.725 E6.6698 F1800
G1 X4.128 Y2.234 E6.6869
G1 X2.408 Y0.572 E6.7665
G1 X0.699 Y2.247 E6.8461
G1 X0.648 Y1.738 E6.8631
G1 X2.405 Y0.015 E6.9449
G1 X2.626 Y0.228 E6.9551
;segType:Infill
G0 X3.919 Y4.349 F10800
G1 X0.922 Y4.349 E7.0548 F5400
G0 X3.182 Y12.449 F10800
G1 X1.719 Y12.449 E7.1035 F5400
G0 X1.321 Y8.399 F10800
G1 X3.550 Y8.399 E7.1777 F5400
G0 X3.808 Y5.555 F10800
G1 X3.808 Y2.192 E7.2895 F5400
G0 X2.479 Y-0.862 F10800
G0 X5.824 Y-3.751
G1 X-1.086 Y-3.751 E7.5194 F5400
G0 X-0.197 Y-3.264 F10800
G1 X-0.197 Y-14.729 E7.9007 F5400
G0 X-4.203 Y-14.127 F10800
G1 X-4.203 Y-5.496 E8.1878 F5400
G0 X-5.304 Y-7.800 F10800
G1 X10.047 Y-7.800 E8.6983 F5400
G0 X7.814 Y-4.879 F10800
G1 X7.814 Y-14.261 E9.0104 F5400
;segType:HShell
G0 X11.681 Y-13.048 F10800
G1 X10.142 Y-14.983 E9.0926 F1800
G1 X10.480 Y-15.274 E9.1075
G1 X11.977 Y-13.394 E9.1874
G1 X11.788 Y-13.056 E9.2003
;segType:Infill
G0 X11.278 Y-11.850 F10800
G1 X-6.592 Y-11.850 E9.7946 F5400
;segType:HShell
G0 X-7.069 Y-12.981 F10800
G1 X-7.264 Y-13.323 E9.8077 F1800
G1 X-5.781 Y-15.215 E9.8877
G1 X-5.411 Y-14.901 E9.9038
G1 X-6.961 Y-12.973 E9.9861
G0 X2.257 Y-14.891 F10800
G1 X0.818 Y-15.101 E10.0345 F1800
G1 X-4.055 Y-14.252 E10.1990
G1 X-4.192 Y-14.368 E10.2049
G1 X1.712 Y-15.397 E10.4043
G1 X2.349 Y-15.304 E10.4257
G1 X2.985 Y-15.401 E10.4471
G1 X8.898 Y-14.415 E10.6465
G1 X8.762 Y-14.298 E10.6524
G1 X3.882 Y-15.111 E10.8170
G1 X2.445 Y-14.892 E10.8653
;segType:Infill
G0 X3.808 Y-14.906 F10800
G1 X3.808 Y-2.625 E11.2738 F5400
; ------------------------------------
; Layer #13
; ------------------------------------
G21 ; mm
G90 ; abs
G92 E0 ; reset extr
M106 S255
G0 F4800 E-1.0000
G0 F2400 Z2.800
G0 X2.256 Y-1.113 F10800
G0 X2.525 Y-0.011
G0 F4800 E0.0000
;segType:Perimeter
G1 X2.225 Y-0.633 E0.0230 F2159
G1 X1.104 Y-1.244 E0.0655
G1 X-3.060 Y-3.528 E0.2234
G1 X-5.821 Y-5.085 E0.3288
G1 X-7.059 Y-11.458 E0.5448
G1 X-7.833 Y-12.767 E0.5953
G1 X-8.038 Y-13.173 E0.6105
G1 X-5.731 Y-16.117 E0.7349
G1 X-5.323 Y-15.871 E0.7507
G1 X-4.627 Y-15.280 E0.7811
G1 X1.998 Y-16.434 E1.0048
G1 X2.346 Y-16.383 E1.0165
G1 X2.693 Y-16.436 E1.0281
G1 X9.326 Y-15.330 E1.2518
G1 X10.018 Y-15.926 E1.2822
G1 X10.424 Y-16.176 E1.2980
G1 X12.752 Y-13.250 E1.4224
G1 X12.551 Y-12.842 E1.4376
G1 X11.786 Y-11.527 E1.4882
G1 X10.594 Y-5.145 E1.7041
G1 X7.844 Y-3.568 E1.8095
G1 X3.698 Y-1.254 E1.9675
G1 X2.531 Y-0.607 E2.0118
G1 X5.030 Y1.808 E2.1274
G1 X4.329 Y9.460 E2.3830
G1 X3.939 Y13.748 E2.5262
G1 X2.456 Y13.772 E2.5756
G1 X0.972 Y13.759 E2.6249
G1 X0.551 Y9.474 E2.7681
G1 X-0.206 Y1.827 E3.0237
G1 X2.234 Y-0.566 E3.1374
G1 X2.356 Y-1.248
;segType:Loop
G0 X1.544 Y-1.464 F10800
G1 X1.294 Y-1.600 E3.1468 F3600
G1 X-2.867 Y-3.883 E3.3047
G1 X-5.464 Y-5.347 E3.4038
G1 X-6.680 Y-11.605 E3.6159
G1 X-7.483 Y-12.962 E3.6683
G1 X-7.565 Y-13.125 E3.6744
G1 X-5.635 Y-15.588 E3.7785
G1 X-5.556 Y-15.540 E3.7816
G1 X-4.742 Y-14.849 E3.8170
G1 X2.003 Y-16.025 E4.0448
G1 X2.347 Y-15.975 E4.0564
G1 X2.690 Y-16.027 E4.0679
G1 X9.444 Y-14.900 E4.2956
G1 X10.253 Y-15.598 E4.3312
G1 X10.332 Y-15.646 E4.3343
G1 X12.280 Y-13.199 E4.4383
G1 X12.199 Y-13.035 E4.4444
G1 X11.406 Y-11.671 E4.4968
G1 X10.236 Y-5.404 E4.7089
G1 X7.649 Y-3.921 E4.8081
G1 X3.505 Y-1.608 E4.9659
G1 X2.402 Y-0.997 E5.0078
G1 X1.711 Y-1.373 E5.0340
G0 X1.194 Y-1.414 F10800
G0 X2.464 Y-0.633
G0 X2.214 Y-0.278
G0 X2.416 Y-0.158
G1 X4.614 Y1.965 E5.1356 F3600
G1 X3.930 Y9.423 E5.3847
G1 X3.574 Y13.349 E5.5159
G1 X2.454 Y13.368 E5.5531
G1 X1.334 Y13.358 E5.5903
G1 X0.949 Y9.434 E5.7215
G1 X0.211 Y1.981 E5.9706
G1 X2.280 Y-0.047 E6.0669
G0 X2.342 Y-0.632 F10800
G0 X2.903 Y0.858
;segType:HShell
G1 X4.208 Y2.119 E6.1272 F1800
G1 X4.161 Y2.628 E6.1443
G1 X2.409 Y0.935 E6.2253
G1 X0.669 Y2.641 E6.3063
G1 X0.619 Y2.131 E6.3234
G1 X2.406 Y0.378 E6.4067
G1 X2.766 Y0.725 E6.4233
;segType:Infill
G0 X0.853 Y4.349 F10800
G1 X3.988 Y4.349 E6.5275 F5400
G0 X3.250 Y12.449 F10800
G1 X1.650 Y12.449 E6.5808 F5400
G0 X1.253 Y8.399 F10800
G1 X3.618 Y8.399 E6.6594 F5400
G0 X3.808 Y6.308 F10800
G1 X3.808 Y2.554 E6.7843 F5400
G0 X1.820 Y0.108 F10800
G0 X2.464 Y-0.633
G0 X-1.367 Y-3.751
G1 X6.101 Y-3.751 E7.0327 F5400
G0 X7.814 Y-4.721 F10800
G1 X7.814 Y-14.437 E7.3558 F5400
;segType:HShell
G0 X11.511 Y-12.808 F10800
G1 X9.933 Y-14.803 E7.4405 F1800
G1 X10.268 Y-15.092 E7.4552
G1 X11.793 Y-13.116 E7.5382
G1 X11.619 Y-12.816 E7.5498
;segType:Infill
G0 X11.278 Y-11.850 F10800
G1 X-6.623 Y-11.850 E8.1452 F5400
;segType:HShell
G0 X-6.902 Y-12.753 F10800
G1 X-7.098 Y-13.086 E8.1580 F1800
G1 X-5.570 Y-15.037 E8.2405
G1 X-5.230 Y-14.748 E8.2553
G1 X-6.794 Y-12.746 E8.3398
;segType:Infill
G0 X-4.203 Y-14.208 F10800
G1 X-4.203 Y-5.339 E8.6348 F5400
G0 X-5.412 Y-7.800 F10800
G1 X10.155 Y-7.800 E9.1526 F5400
G0 X3.808 Y-2.471 F10800
G1 X3.808 Y-15.106 E9.5728 F5400
;segType:HShell
G0 X2.256 Y-15.163 F10800
G1 X1.114 Y-15.329 E9.6111 F1800
G1 X-4.228 Y-14.399 E9.7915
G1 X-4.364 Y-14.515 E9.7975
G1 X2.009 Y-15.625 E10.0126
G1 X2.349 Y-15.576 E10.0240
G1 X2.688 Y-15.628 E10.0355
G1 X9.069 Y-14.563 E10.2506
G1 X8.933 Y-14.446 E10.2566
G1 X3.584 Y-15.338 E10.4370
G1 X2.444 Y-15.164 E10.4753
;segType:Infill
G0 X-0.197 Y-14.906 F10800
G1 X-0.197 Y-3.109 E10.8677 F5400
;segType:Support
G0 F4800 E9.8677
G0 X7.500 Y-22.500 F10800
G0 F4800 E10.8677
G1 X0.000 Y-22.500 E11.0797 F5400
G1 X0.000 Y-20.000 E11.1504
G1 X7.500 Y-20.000 E11.3624
; ------------------------------------
; Layer #14
; ------------------------------------
G21 ; mm
G90 ; abs
G92 E0 ; reset extr
M106 S255
;segType:Support
G0 F4800 E-1.0000
G0 F2400 Z3.000
G0 X7.500 Y-20.000 F10800
G0 F4800 E0.0000
G1 X0.000 Y-20.000 E0.2120 F5400
G0 F4800 E-0.7880
G0 X-5.601 Y-16.534 F10800
G0 X-8.446 Y-12.987
G0 X-6.370 Y-4.638
G0 X2.179 Y0.311
G0 F4800 E0.2120
;segType:Perimeter
G1 X2.445 Y-0.327 E0.2350 F2159
G1 X5.063 Y2.202 E0.3561
G1 X4.311 Y10.408 E0.6302
G1 X3.996 Y13.873 E0.7459
G1 X2.456 Y13.898 E0.7971
G1 X0.916 Y13.884 E0.8483
G1 X0.576 Y10.421 E0.9641
G1 X-0.236 Y2.221 E1.2381
G1 X2.363 Y-0.327 E1.3592
G1 X2.633 Y0.309
;segType:Loop
G0 X2.884 Y0.656 F10800
G1 X4.646 Y2.359 E1.4407 F3600
G1 X3.912 Y10.371 E1.7083
G1 X3.630 Y13.475 E1.8119
G1 X2.455 Y13.493 E1.8510
G1 X1.279 Y13.483 E1.8902
G1 X0.974 Y10.381 E1.9938
G1 X0.181 Y2.376 E2.2614
G1 X2.406 Y0.194 E2.3650
G1 X2.747 Y0.523 E2.3808
;segType:HShell
G0 X2.959 Y1.830 F10800
G1 X2.410 Y1.299 E2.4062 F1800
G1 X0.639 Y3.035 E2.4887
G1 X0.589 Y2.526 E2.5057
G1 X2.408 Y0.742 E2.5905
G1 X4.240 Y2.512 E2.6752
G1 X4.194 Y3.022 E2.6922
G1 X3.097 Y1.963 E2.7430
;segType:Infill
G0 X4.057 Y4.349 F10800
G1 X0.784 Y4.349 E2.8518 F5400
G0 X3.319 Y12.449 F10800
G1 X1.582 Y12.449 E2.9095 F5400
G0 X1.185 Y8.399 F10800
G1 X3.686 Y8.399 E2.9928 F5400
G0 X3.808 Y7.058 F10800
G1 X3.808 Y2.916 E3.1305 F5400
G0 F4800 E2.1305
G0 X2.630 Y0.644 F10800
G0 X1.453 Y-1.629
G0 X-5.615 Y-15.265
G0 F4800 E3.1305
;segType:Perimeter
G1 X-5.449 Y-15.937 E3.1535 F2159
G1 X-5.282 Y-15.836 E3.1600
G1 X-4.800 Y-15.427 E3.1811
G1 X2.309 Y-16.665 E3.4211
G1 X2.381 Y-16.665 E3.4235
G1 X9.497 Y-15.478 E3.6634
G1 X9.977 Y-15.892 E3.6845
G1 X10.192 Y-16.024 E3.6929
G1 X12.594 Y-13.005 E3.8212
G1 X12.478 Y-12.771 E3.8299
G1 X11.960 Y-11.880 E3.8642
G1 X10.682 Y-5.038 E4.0957
G1 X8.070 Y-3.540 E4.1958
G1 X3.627 Y-1.060 E4.3651
G1 X2.404 Y-0.382 E4.4116
G1 X1.176 Y-1.051 E4.4581
G1 X-3.286 Y-3.498 E4.6274
G1 X-5.908 Y-4.977 E4.7275
G1 X-7.236 Y-11.810 E4.9590
G1 X-7.760 Y-12.696 E4.9933
G1 X-7.878 Y-12.929 E5.0019
G1 X-5.534 Y-15.922 E5.1284
G1 X-5.143 Y-15.352
;segType:Loop
G0 X-4.570 Y-15.056 F10800
G1 X2.349 Y-16.261 E5.3619 F3600
G1 X9.615 Y-15.048 E5.6070
G1 X10.114 Y-15.478 E5.6288
G1 X12.121 Y-12.954 E5.7361
G1 X11.580 Y-12.024 E5.7719
G1 X10.324 Y-5.297 E5.9995
G1 X7.875 Y-3.893 E6.0934
G1 X3.434 Y-1.415 E6.2625
G1 X2.402 Y-0.842 E6.3018
G1 X1.366 Y-1.407 E6.3410
G1 X-3.093 Y-3.853 E6.5102
G1 X-5.551 Y-5.239 E6.6040
G1 X-6.857 Y-11.957 E6.8316
G1 X-7.404 Y-12.882 E6.8674
G1 X-5.416 Y-15.421 E6.9747
G1 X-4.915 Y-14.996 E6.9965
G1 X-4.757 Y-15.024 E7.0018
;segType:HShell
G0 X-5.289 Y-14.673 F10800
G1 X-6.837 Y-12.691 E7.0855 F1800
G1 X-6.931 Y-12.851 E7.0916
G1 X-5.359 Y-14.858 E7.1764
G1 X-5.303 Y-14.810 E7.1789
;segType:Infill
G0 X-6.592 Y-11.850 F10800
G1 X11.278 Y-11.850 E7.7732 F5400
;segType:HShell
G0 X10.005 Y-14.866 F10800
G1 X10.061 Y-14.914 E7.7757 F1800
G1 X11.648 Y-12.919 E7.8605
G1 X11.553 Y-12.755 E7.8668
G1 X9.992 Y-14.728 E7.9505
;segType:Infill
G0 X7.814 Y-14.614 F10800
G1 X7.814 Y-4.563 E8.2848 F5400
G0 X6.378 Y-3.751 F10800
G1 X-1.646 Y-3.751 E8.5516 F5400
G0 X-0.197 Y-2.956 F10800
G1 X-0.197 Y-15.083 E8.9550 F5400
;segType:HShell
G0 X-3.636 Y-14.679 F10800
G1 X-4.400 Y-14.546 E8.9808 F1800
G1 X-4.537 Y-14.662 E8.9867
G1 X2.351 Y-15.861 E9.2193
G1 X9.240 Y-14.711 E9.4516
G1 X9.104 Y-14.594 E9.4575
G1 X3.286 Y-15.564 E9.6537
G1 X2.349 Y-15.421 E9.6853
G1 X1.411 Y-15.558 E9.7168
G1 X-3.449 Y-14.711 E9.8809
;segType:Infill
G0 X3.808 Y-15.282 F10800
G1 X3.808 Y-2.317 E10.3121 F5400
G0 X10.263 Y-7.800 F10800
G1 X-5.520 Y-7.800 E10.8371 F5400
G0 X-4.203 Y-5.182 F10800
G1 X-4.203 Y-14.385 E11.1431 F5400
;segType:Support
G0 F4800 E10.1431
G0 X0.000 Y-22.500 F10800
G0 F4800 E11.1431
G1 X7.500 Y-22.500 E11.3552 F5400
; ------------------------------------
; Layer #15
; ------------------------------------
G21 ; mm
G90 ; abs
G92 E0 ; reset extr
M106 S255
;segType:Support
G0 F4800 E-1.0000
G0 F2400 Z3.200
G0 X7.500 Y-20.000 F10800
G0 F4800 E0.0000
G1 X0.000 Y-20.000 E0.2120 F5400
G0 F4800 E-0.7880
G0 X-3.595 Y-16.734 F10800
G0 X-5.393 Y-15.101
G0 F4800 E0.2120
;segType:Perimeter
G1 X-5.198 Y-15.765 E0.2350 F2159
G1 X-4.972 Y-15.573 E0.2449
G1 X2.344 Y-16.848 E0.4919
G1 X9.669 Y-15.626 E0.7389
G1 X9.961 Y-15.872 E0.7516
G1 X12.432 Y-12.766 E0.8836
G1 X12.134 Y-12.230 E0.9039
G1 X10.770 Y-4.931 E1.1509
G1 X8.296 Y-3.511 E1.2458
G1 X3.557 Y-0.867 E1.4263
G1 X2.404 Y-0.228 E1.4701
G1 X1.247 Y-0.858 E1.5140
G1 X-3.511 Y-3.468 E1.6945
G1 X-5.996 Y-4.869 E1.7893
G1 X-7.412 Y-12.159 E2.0363
G1 X-7.713 Y-12.691 E2.0566
G1 X-5.277 Y-15.757 E2.1869
G1 X-4.958 Y-15.144
;segType:Loop
G0 X-4.219 Y-15.294 F10800
G1 X2.346 Y-16.437 E2.4085 F3600
G1 X9.784 Y-15.197 E2.6593
G1 X9.904 Y-15.298 E2.6646
G1 X11.950 Y-12.725 E2.7739
G1 X11.753 Y-12.371 E2.7874
G1 X10.412 Y-5.190 E3.0303
G1 X8.101 Y-3.864 E3.1190
G1 X3.364 Y-1.221 E3.2994
G1 X2.403 Y-0.688 E3.3359
G1 X1.438 Y-1.214 E3.3725
G1 X-3.319 Y-3.823 E3.5529
G1 X-5.639 Y-5.131 E3.6415
G1 X-7.032 Y-12.302 E3.8845
G1 X-7.231 Y-12.652 E3.8979
G1 X-5.185 Y-15.226 E4.0072
G1 X-5.087 Y-15.143 E4.0115
G1 X-4.407 Y-15.261 E4.0345
;segType:Infill
G0 X-4.203 Y-14.561 F10800
G1 X-4.203 Y-5.025 E4.3516 F5400
G0 X-1.927 Y-3.751 F10800
G1 X6.653 Y-3.751 E4.6370 F5400
G0 X7.814 Y-4.406 F10800
G1 X7.814 Y-14.791 E4.9824 F5400
G0 X11.278 Y-11.850 F10800
G1 X-6.592 Y-11.850 E5.5767 F5400
G0 X-5.629 Y-7.800 F10800
G1 X10.371 Y-7.800 E6.1089 F5400
G0 X3.808 Y-15.459 F10800
G1 X3.808 Y-2.163 E6.5511 F5400
G0 X-0.197 Y-2.802 F10800
G1 X-0.197 Y-15.259 E6.9655 F5400
;segType:HShell
G0 X-3.286 Y-14.916 F10800
G1 X-4.573 Y-14.692 E7.0089 F1800
G1 X-4.709 Y-14.808 E7.0149
G1 X2.347 Y-16.038 E7.2531
G1 X9.443 Y-14.886 E7.4922
G1 X9.276 Y-14.742 E7.4995
G1 X2.988 Y-15.791 E7.7116
G1 X2.348 Y-15.693 E7.7331
G1 X1.707 Y-15.786 E7.7546
G1 X-3.098 Y-14.949 E7.9169
;segType:Perimeter
G0 F4800 E6.9169
G0 X2.181 Y0.675 F10800
G0 F4800 E7.9169
G1 X2.447 Y0.037 E7.9399 F2159
G1 X5.095 Y2.596 E8.0624
G1 X4.293 Y11.355 E8.3549
G1 X4.053 Y13.998 E8.4432
G1 X2.457 Y14.023 E8.4963
G1 X0.860 Y14.010 E8.5494
G1 X0.601 Y11.369 E8.6377
G1 X-0.266 Y2.616 E8.9302
G1 X2.364 Y0.037 E9.0527
G1 X2.635 Y0.673
;segType:Loop
G0 X2.886 Y1.020 F10800
G1 X4.679 Y2.753 E9.1357 F3600
G1 X3.894 Y11.318 E9.4217
G1 X3.687 Y13.600 E9.4979
G1 X2.455 Y13.619 E9.5389
G1 X1.223 Y13.608 E9.5799
G1 X0.999 Y11.328 E9.6561
G1 X0.151 Y2.770 E9.9422
G1 X2.407 Y0.558 E10.0472
G1 X2.748 Y0.887 E10.0630
;segType:HShell
G0 X2.961 Y2.193 F10800
G1 X2.673 Y1.916 E10.0763 F1800
G1 X2.412 Y1.958 E10.0851
G1 X2.151 Y1.917 E10.0939
G1 X0.609 Y3.429 E10.1657
G1 X0.559 Y2.920 E10.1827
G1 X2.409 Y1.106 E10.2689
G1 X4.273 Y2.907 E10.3551
G1 X4.226 Y3.416 E10.3721
G1 X3.098 Y2.326 E10.4243
;segType:Infill
G0 X4.125 Y4.349 F10800
G1 X0.715 Y4.349 E10.5377 F5400
G0 X3.387 Y12.449 F10800
G1 X1.514 Y12.449 E10.6000 F5400
G0 X1.116 Y8.399 F10800
G1 X3.754 Y8.399 E10.6877 F5400
G0 X3.808 Y7.809 F10800
G1 X3.808 Y3.278 E10.8384 F5400
G0 F4800 E9.8384
G0 X11.235 Y-4.595 F10800
G0 X13.000 Y-12.813
G0 X7.500 Y-22.500
G0 F4800 E10.8384
;segType:Support
G1 X0.000 Y-22.500 E11.0505 F5400
; ------------------------------------
; Layer #16
; ------------------------------------
G21 ; mm
G90 ; abs
G92 E0 ; reset extr
M106 S255
;segType:Support
G0 F4800 E-1.0000
G0 F2400 Z3.400
G0 X0.000 Y-22.500 F10800
G0 F4800 E0.0000
G1 X7.500 Y-22.500 E0.2120 F5400
;segType:Perimeter
G0 F4800 E-0.7880
G0 X2.703 Y-0.697 F10800
G0 F4800 E0.2120
G1 X2.355 Y-0.101 E0.2350 F2159
G1 X1.319 Y-0.665 E0.2742
G1 X-3.737 Y-3.439 E0.4660
G1 X-6.083 Y-4.762 E0.5556
G1 X-7.577 Y-12.417 E0.8150
G1 X-5.666 Y-14.857 E0.9181
G1 X-4.975 Y-15.750 E0.9557
G1 X2.343 Y-17.024 E1.2027
G1 X9.671 Y-15.802 E1.4498
G1 X10.283 Y-15.023 E1.4827
G1 X12.296 Y-12.479 E1.5907
G1 X10.859 Y-4.823 E1.8497
G1 X8.522 Y-3.483 E1.9393
G1 X3.486 Y-0.673 E2.1311
G1 X2.455 Y-0.101 E2.1704
G1 X2.103 Y-0.695
;segType:Loop
G0 X1.674 Y-0.932 F10800
G1 X1.510 Y-1.021 E2.1766 F3600
G1 X-3.544 Y-3.793 E2.3683
G1 X-5.727 Y-5.024 E2.4516
G1 X-7.148 Y-12.312 E2.6986
G1 X-5.352 Y-14.607 E2.7955
G1 X-4.755 Y-15.377 E2.8279
G1 X2.345 Y-16.614 E3.0677
G1 X9.454 Y-15.429 E3.3074
G1 X9.970 Y-14.771 E3.3351
G1 X11.869 Y-12.372 E3.4369
G1 X10.500 Y-5.083 E3.6836
G1 X8.326 Y-3.836 E3.7669
G1 X3.294 Y-1.027 E3.9586
G1 X2.404 Y-0.534 E3.9925
G1 X1.841 Y-0.840 E4.0138
;segType:Infill
G0 X-0.197 Y-2.648 F10800
G1 X-0.197 Y-15.436 E4.4391 F5400
;segType:HShell
G0 X-1.644 Y-15.379 F10800
G1 X-4.666 Y-14.853 E4.5412 F1800
G1 X-4.541 Y-15.014 E4.5479
G1 X2.346 Y-16.214 E4.7805
G1 X9.242 Y-15.064 E5.0130
G1 X9.368 Y-14.903 E5.0198
G1 X2.690 Y-16.017 E5.2449
G1 X2.347 Y-15.965 E5.2565
G1 X2.004 Y-16.015 E5.2680
G1 X-1.456 Y-15.412 E5.3848
;segType:Infill
G0 X-5.737 Y-7.800 F10800
G1 X10.480 Y-7.800 E5.9242 F5400
G0 X11.278 Y-11.850 F10800
G1 X-6.592 Y-11.850 E6.5185 F5400
G0 X-4.203 Y-14.738 F10800
G1 X-4.203 Y-4.868 E6.8468 F5400
G0 X-2.207 Y-3.751 F10800
G1 X6.930 Y-3.751 E7.1507 F5400
G0 X3.808 Y-2.009 F10800
G1 X3.808 Y-15.636 E7.6040 F5400
G0 X7.814 Y-14.967 F10800
G1 X7.814 Y-4.248 E7.9605 F5400
G0 F4800 E6.9605
G0 X4.059 Y-0.724 F10800
G0 X2.182 Y1.038
G0 F4800 E7.9605
;segType:Perimeter
G1 X2.448 Y0.400 E7.9835 F2159
G1 X5.128 Y2.990 E8.1074
G1 X4.275 Y12.302 E8.4185
G1 X4.109 Y14.123 E8.4793
G1 X2.457 Y14.149 E8.5343
G1 X0.804 Y14.135 E8.5892
G1 X0.626 Y12.316 E8.6500
G1 X-0.296 Y3.010 E8.9611
G1 X2.365 Y0.400 E9.0850
G1 X2.636 Y1.037
;segType:Loop
G0 X2.887 Y1.384 F10800
G1 X4.712 Y3.147 E9.1694 F3600
G1 X3.876 Y12.265 E9.4740
G1 X3.744 Y13.724 E9.5227
G1 X2.456 Y13.745 E9.5656
G1 X1.167 Y13.734 E9.6084
G1 X1.024 Y12.276 E9.6572
G1 X0.121 Y3.164 E9.9617
G1 X2.409 Y0.922 E10.0682
G1 X2.749 Y1.251 E10.0840
;segType:HShell
G0 X2.962 Y2.557 F10800
G1 X2.961 Y2.556 E10.0840 F1800
G1 X2.415 Y2.644 E10.1024
G1 X1.868 Y2.560 E10.1208
G1 X0.579 Y3.824 E10.1809
G1 X0.529 Y3.315 E10.1979
G1 X2.411 Y1.469 E10.2855
G1 X4.306 Y3.300 E10.3732
G1 X4.259 Y3.810 E10.3902
G1 X3.100 Y2.690 E10.4439
;segType:Infill
G0 X3.808 Y3.641 F10800
G1 X3.808 Y8.562 E10.6075 F5400
G0 X3.455 Y12.449 F10800
G1 X1.446 Y12.449 E10.6743 F5400
G0 X1.048 Y8.399 F10800
G1 X3.823 Y8.399 E10.7667 F5400
G0 X4.194 Y4.349 F10800
G1 X0.647 Y4.349 E10.8847 F5400
G0 F4800 E9.8847
G0 X11.323 Y-4.487 F10800
G0 X12.850 Y-12.618
G0 X7.500 Y-20.000
G0 F4800 E10.8847
;segType:Support
G1 X0.000 Y-20.000 E11.0967 F5400
; ------------------------------------
; Layer #17
; ------------------------------------
G21 ; mm
G90 ; abs
G92 E0 ; reset extr
M106 S255
;segType:Support
G0 F4800 E-1.0000
G0 F2400 Z3.600
G0 X0.000 Y-20.000 F10800
G0 F4800 E0.0000
G1 X7.500 Y-20.000 E0.2120 F5400
G1 X7.500 Y-22.500 E0.2827
G1 X0.000 Y-22.500 E0.4947
G0 F4800 E-0.5053
G0 X-7.171 Y-7.081 F10800
G0 X-6.632 Y-4.315
G0 X3.888 Y13.593
G0 F4800 E0.4947
;segType:Perimeter
G1 X4.109 Y14.249 E0.5178 F2159
G1 X2.457 Y14.275 E0.5727
G1 X0.749 Y14.261 E0.6295
G1 X-0.326 Y3.404 E0.9924
G1 X2.295 Y0.834 E1.1145
G1 X2.522 Y0.834 E1.1220
G1 X5.161 Y3.384 E1.2441
G1 X4.257 Y13.250 E1.5736
G1 X4.171 Y14.191 E1.6050
G1 X3.541 Y13.919
;segType:Loop
G0 X3.114 Y13.860 F10800
G1 X2.456 Y13.870 E1.6269 F3600
G1 X1.111 Y13.859 E1.6716
G1 X0.092 Y3.558 E2.0159
G1 X2.410 Y1.285 E2.1239
G1 X4.745 Y3.541 E2.2319
G1 X3.801 Y13.849 E2.5762
G1 X3.304 Y13.857 E2.5927
;segType:Infill
G0 X3.523 Y12.449 F10800
G1 X1.378 Y12.449 E2.6640 F5400
G0 X0.979 Y8.399 F10800
G1 X3.892 Y8.399 E2.7609 F5400
G0 X4.167 Y4.349 F10800
G1 X0.689 Y4.349 E2.8766 F5400
;segType:HShell
G0 X0.540 Y4.122 F10800
G1 X0.499 Y3.708 E2.8904 F1800
G1 X2.412 Y1.833 E2.9795
G1 X4.339 Y3.695 E3.0687
G1 X4.292 Y4.204 E3.0857
G1 X3.249 Y3.196 E3.1339
G1 X2.417 Y3.330 E3.1619
G1 X1.585 Y3.203 E3.1900
G1 X0.618 Y4.151 E3.2350
G0 X1.976 Y2.796 F10800
G1 X2.414 Y2.367 E3.2554 F1800
G1 X2.923 Y2.859 E3.2790
G1 X2.416 Y2.940 E3.2960
G1 X2.002 Y2.877 E3.3100
;segType:Infill
G0 X3.808 Y4.003 F10800
G1 X3.808 Y9.312 E3.4865 F5400
G0 F4800 E2.4865
G0 X2.979 Y1.921 F10800
G0 X2.703 Y-0.543
G0 F4800 E3.4865
;segType:Perimeter
G1 X2.355 Y0.053 E3.5095 F2159
G1 X1.391 Y-0.472 E3.5460
G1 X-3.963 Y-3.409 E3.7491
G1 X-6.170 Y-4.654 E3.8334
G1 X-7.692 Y-12.481 E4.0986
G1 X-5.037 Y-15.915 E4.2430
G1 X2.343 Y-17.200 E4.4921
G1 X9.731 Y-15.969 E4.7413
G1 X12.411 Y-12.555 E4.8856
G1 X10.947 Y-4.716 E5.1509
G1 X8.748 Y-3.455 E5.2352
G1 X3.416 Y-0.479 E5.4383
G1 X2.455 Y0.053 E5.4748
G1 X2.103 Y-0.541
;segType:Loop
G0 X1.674 Y-0.777 F10800
G1 X1.581 Y-0.828 E5.4783 F3600
G1 X-3.770 Y-3.763 E5.6813
G1 X-5.814 Y-4.916 E5.7593
G1 X-7.264 Y-12.378 E6.0122
G1 X-4.817 Y-15.543 E6.1452
G1 X2.344 Y-16.790 E6.3870
G1 X9.514 Y-15.595 E6.6288
G1 X11.984 Y-12.449 E6.7618
G1 X10.588 Y-4.976 E7.0147
G1 X8.553 Y-3.808 E7.0927
G1 X3.223 Y-0.834 E7.2957
G1 X2.404 Y-0.380 E7.3269
G1 X1.842 Y-0.686 E7.3482
;segType:Infill
G0 X3.808 Y-1.854 F10800
G1 X3.808 Y-15.812 E7.8124 F5400
G0 X3.283 Y-15.900 F10800
G1 X1.456 Y-15.900 E7.8732 F5400
G0 X10.588 Y-7.800 F10800
G1 X-5.845 Y-7.800 E8.4197 F5400
G0 X-6.632 Y-11.850 F10800
G1 X11.344 Y-11.850 E9.0176 F5400
G0 X7.814 Y-15.144 F10800
G1 X7.814 Y-4.090 E9.3853 F5400
G0 X7.206 Y-3.751 F10800
G1 X-2.487 Y-3.751 E9.7077 F5400
G0 X-4.203 Y-4.710 F10800
G1 X-4.203 Y-14.915 E10.0471 F5400
;segType:HShell
G0 X-1.697 Y-15.547 F10800
G1 X-4.727 Y-15.019 E10.1494 F1800
G1 X-4.603 Y-15.180 E10.1561
G1 X2.346 Y-16.390 E10.3907
G1 X9.302 Y-15.230 E10.6253
G1 X9.428 Y-15.070 E10.6321
G1 X2.349 Y-16.251 E10.8708
G1 X-1.509 Y-15.579 E11.0010
;segType:Infill
G0 X-0.197 Y-15.612 F10800
G1 X-0.197 Y-2.495 E11.4373 F5400
; ------------------------------------
; Layer #18
; ------------------------------------
G21 ; mm
G90 ; abs
G92 E0 ; reset extr
M106 S255
;segType:Perimeter
G0 F4800 E-1.0000
G0 F2400 Z3.800
G0 X2.704 Y-0.389 F10800
G0 F4800 E0.0000
G1 X2.356 Y0.207 E0.0230 F2159
G1 X1.463 Y-0.279 E0.0568
G1 X-4.188 Y-3.379 E0.2712
G1 X-6.258 Y-4.546 E0.3502
G1 X-7.817 Y-12.563 E0.6218
G1 X-5.496 Y-15.563 E0.7480
G1 X-5.098 Y-16.081 E0.7697
G1 X2.342 Y-17.376 E1.0209
G1 X9.791 Y-16.135 E1.2721
G1 X10.192 Y-15.621 E1.2937
G1 X12.535 Y-12.638 E1.4199
G1 X11.035 Y-4.609 E1.6916
G1 X8.974 Y-3.427 E1.7706
G1 X3.346 Y-0.286 E1.9850
G1 X2.456 Y0.207 E2.0188
G1 X2.104 Y-0.387
;segType:Loop
G0 X1.675 Y-0.623 F10800
G1 X1.653 Y-0.635 E2.0196 F3600
G1 X-3.995 Y-3.733 E2.2339
G1 X-5.901 Y-4.808 E2.3067
G1 X-7.389 Y-12.460 E2.5659
G1 X-4.877 Y-15.709 E2.7025
G1 X2.343 Y-16.966 E2.9463
G1 X9.573 Y-15.762 E3.1901
G1 X12.108 Y-12.531 E3.3267
G1 X10.677 Y-4.868 E3.5859
G1 X8.779 Y-3.780 E3.6587
G1 X3.153 Y-0.640 E3.8730
G1 X2.404 Y-0.225 E3.9014
G1 X1.842 Y-0.532 E3.9227
;segType:Infill
G0 X3.808 Y-1.700 F10800
G1 X3.808 Y-15.995 E4.3982 F5400
G0 X0.439 Y-15.900 F10800
G1 X4.394 Y-15.900 E4.5298 F5400
G0 X7.814 Y-15.345 F10800
G1 X7.814 Y-3.935 E4.9093 F5400
G0 X7.483 Y-3.751 F10800
G1 X-2.767 Y-3.751 E5.2502 F5400
G0 X-4.203 Y-4.553 F10800
G1 X-4.203 Y-15.092 E5.6007 F5400
G0 X-6.741 Y-11.850 F10800
G1 X11.453 Y-11.850 E6.2058 F5400
G0 X10.696 Y-7.800 F10800
G1 X-5.954 Y-7.800 E6.7596 F5400
;segType:HShell
G0 X-1.752 Y-15.714 F10800
G1 X-4.787 Y-15.185 E6.8621 F1800
G1 X-4.663 Y-15.346 E6.8688
G1 X2.345 Y-16.566 E7.1054
G1 X9.361 Y-15.397 E7.3420
G1 X9.458 Y-15.273 E7.3472
G1 X2.345 Y-16.427 E7.5869
G1 X-1.564 Y-15.747 E7.7189
;segType:Infill
G0 X-0.197 Y-15.789 F10800
G1 X-0.197 Y-2.341 E8.1662 F5400
G0 F4800 E7.1662
G0 X1.882 Y5.685 F10800
G0 X3.962 Y13.710
G0 F4800 E8.1662
;segType:Perimeter
G1 X4.156 Y14.375 E8.1892 F2159
G1 X2.458 Y14.400 E8.2456
G1 X0.692 Y14.386 E8.3044
G1 X-0.355 Y3.798 E8.6583
G1 X2.012 Y1.477 E8.7685
G1 X2.411 Y1.538 E8.7820
G1 X2.810 Y1.474 E8.7954
G1 X5.193 Y3.778 E8.9056
G1 X4.239 Y14.192 E9.2535
G1 X4.221 Y14.317 E9.2577
G1 X3.595 Y14.036
;segType:Loop
G0 X3.160 Y13.985 F10800
G1 X2.456 Y13.996 E9.2811 F3600
G1 X1.055 Y13.985 E9.3277
G1 X0.062 Y3.952 E9.6630
G1 X2.148 Y1.907 E9.7602
G1 X2.412 Y1.948 E9.7691
G1 X2.677 Y1.905 E9.7780
G1 X4.777 Y3.935 E9.8752
G1 X3.858 Y13.975 E10.2105
G1 X3.351 Y13.982 E10.2273
;segType:Infill
G0 X3.591 Y12.449 F10800
G1 X1.310 Y12.449 E10.3032 F5400
G0 X3.961 Y8.399 F10800
G1 X0.910 Y8.399 E10.4047 F5400
;segType:HShell
G0 X0.510 Y4.516 F10800
G1 X0.469 Y4.103 E10.4185 F1800
G1 X2.280 Y2.326 E10.5029
G1 X2.547 Y2.325 E10.5118
G1 X4.371 Y4.088 E10.5961
G1 X4.325 Y4.598 E10.6132
G1 X3.537 Y3.837 E10.6496
G1 X2.420 Y4.016 E10.6872
G1 X1.302 Y3.845 E10.7249
G1 X0.588 Y4.545 E10.7581
G0 X1.693 Y3.439 F10800
G1 X2.415 Y2.730 E10.7918 F1800
G1 X3.212 Y3.500 E10.8286
G1 X2.418 Y3.627 E10.8553
G1 X1.718 Y3.520 E10.8789
;segType:Infill
G0 X1.061 Y4.349 F10800
G1 X3.792 Y4.349 E10.9697 F5400
G1 X3.808 Y4.366 E10.9705
G1 X3.808 Y10.062 E11.1600
G0 F4800 E10.1600
G0 X11.499 Y-4.273 F10800
G0 X13.089 Y-12.776
G0 X7.500 Y-20.000
G0 F4800 E11.1600
;segType:Support
G1 X0.000 Y-20.000 E11.3720 F5400
G1 X0.000 Y-22.500 E11.4427
G1 X7.500 Y-22.500 E11.6547
; ------------------------------------
; Layer #19
; ------------------------------------
G21 ; mm
G90 ; abs
G92 E0 ; reset extr
M106 S255
;segType:Support
G0 F4800 E-1.0000
G0 F2400 Z4.000
G0 X7.500 Y-22.500 F10800
G0 F4800 E0.0000
G1 X0.000 Y-22.500 E0.2120 F5400
G1 X0.000 Y-20.000 E0.2827
G1 X7.500 Y-20.000 E0.4947
G0 F4800 E-0.5053
G0 X13.214 Y-12.859 F10800
G0 X11.588 Y-4.166
G0 X5.261 Y3.985
G0 X4.349 Y11.284
G0 X4.046 Y13.717
G0 F4800 E0.4947
;segType:Perimeter
G1 X4.198 Y14.393 E0.5178 F2159
G1 X2.615 Y14.523 E0.5706
G1 X2.301 Y14.525 E0.5810
G1 X0.660 Y14.401 E0.6358
G1 X0.604 Y14.186 E0.6432
G1 X-0.385 Y4.193 E0.9772
G1 X1.729 Y2.120 E1.0756
G1 X2.413 Y2.225 E1.0987
G1 X3.097 Y2.115 E1.1217
G1 X5.226 Y4.172 E1.2202
G1 X4.310 Y14.172 E1.5542
G1 X4.269 Y14.332 E1.5597
G1 X3.637 Y14.066
;segType:Loop
G0 X3.179 Y14.071 F10800
G1 X2.598 Y14.119 E1.5791 F3600
G1 X2.315 Y14.120 E1.5885
G1 X0.990 Y14.020 E1.6327
G1 X0.032 Y4.347 E1.9560
G1 X1.865 Y2.550 E2.0414
G1 X2.415 Y2.634 E2.0599
G1 X2.964 Y2.545 E2.0784
G1 X4.810 Y4.329 E2.1638
G1 X3.923 Y14.009 E2.4871
G1 X3.369 Y14.055 E2.5056
;segType:Infill
G0 X1.242 Y12.449 F10800
G1 X3.659 Y12.449 E2.5860 F5400
G0 X3.808 Y10.815 F10800
G1 X3.808 Y4.728 E2.7885 F5400
;segType:HShell
G0 X0.480 Y4.911 F10800
G1 X0.439 Y4.497 E2.8023 F1800
G1 X1.998 Y2.969 E2.8749
G1 X2.416 Y3.033 E2.8890
G1 X2.834 Y2.966 E2.9030
G1 X4.404 Y4.483 E2.9756
G1 X4.358 Y4.993 E2.9927
G1 X3.825 Y4.478 E3.0173
G1 X2.422 Y4.703 E3.0646
G1 X1.018 Y4.488 E3.1118
G1 X0.558 Y4.940 E3.1332
;segType:Infill
G0 X0.841 Y8.399 F10800
G1 X4.030 Y8.399 E3.2393 F5400
G0 F4800 E2.2393
G0 X3.146 Y2.643 F10800
G0 X2.704 Y-0.235
G0 F4800 E3.2393
;segType:Perimeter
G1 X2.356 Y0.362 E3.2623 F2159
G1 X1.535 Y-0.086 E3.2934
G1 X-4.414 Y-3.349 E3.5191
G1 X-6.345 Y-4.438 E3.5928
G1 X-7.941 Y-12.645 E3.8709
G1 X-5.778 Y-15.442 E3.9885
G1 X-5.160 Y-16.246 E4.0222
G1 X2.341 Y-17.552 E4.2755
G1 X9.852 Y-16.301 E4.5287
G1 X10.475 Y-15.501 E4.5624
G1 X12.660 Y-12.721 E4.6800
G1 X12.323 Y-10.928 E4.7407
G1 X11.123 Y-4.502 E4.9581
G1 X9.200 Y-3.399 E5.0319
G1 X3.275 Y-0.092 E5.2576
G1 X2.456 Y0.361 E5.2887
G1 X2.104 Y-0.233
;segType:Loop
G0 X1.641 Y-0.488 F10800
G1 X-4.221 Y-3.703 E5.5111 F3600
G1 X-5.989 Y-4.700 E5.5786
G1 X-7.514 Y-12.542 E5.8443
G1 X-5.462 Y-15.193 E5.9558
G1 X-4.939 Y-15.874 E5.9843
G1 X2.343 Y-17.142 E6.2302
G1 X9.633 Y-15.928 E6.4760
G1 X10.161 Y-15.250 E6.5046
G1 X12.232 Y-12.614 E6.6161
G1 X10.765 Y-4.761 E6.8818
G1 X9.005 Y-3.752 E6.9493
G1 X3.082 Y-0.447 E7.1748
G1 X2.405 Y-0.071 E7.2006
G1 X1.809 Y-0.396 E7.2232
;segType:Infill
G0 X3.808 Y-1.545 F10800
G1 X3.808 Y-16.165 E7.7094 F5400
G0 X-6.064 Y-7.800 F10800
G1 X10.807 Y-7.800 E8.2706 F5400
G0 X11.568 Y-11.850 F10800
G1 X-6.855 Y-11.850 E8.8833 F5400
;segType:HShell
G0 X-7.077 Y-12.466 F10800
G1 X-5.155 Y-14.950 E8.9878 F1800
G1 X-4.724 Y-15.512 E9.0113
