; GCode generated by CraftWare

G28 X0 Y0
G28 Z0

M190 S60 ;set bed temp (wait)
M109 S205 ;set head temp (wait)
; ------------------------------------
; Layer #0
; ------------------------------------
G21 ; mm
G90 ; abs
G92 E0 ; reset extr
M106 S0
;segType:Skirt
G0 F4800 E-1.0000
G0 F2400 Z0.200
G0 X123.854 Y114.221 F10800
G0 F4800 E0.0000
G1 X129.430 Y119.858 E0.2637 F600
G1 X129.620 Y120.050 E0.2727
G1 X135.069 Y120.050 E0.4539
G1 X135.386 Y119.858 E0.4662
G1 X140.961 Y114.221 E0.7300
G1 X140.961 Y113.452 E0.7555
G1 X141.088 Y113.324 E0.7615
G1 X141.088 Y112.043 E0.8041
G1 X141.215 Y111.915 E0.8101
G1 X141.215 Y110.634 E0.8527
G1 X141.342 Y110.506 E0.8587
G1 X141.342 Y109.225 E0.9014
G1 X141.468 Y109.096 E0.9073
G1 X141.468 Y107.815 E0.9500
G1 X141.595 Y107.687 E0.9560
G1 X141.595 Y106.406 E0.9986
G1 X141.722 Y106.278 E1.0046
G1 X141.722 Y104.997 E1.0472
G1 X141.848 Y104.869 E1.0532
G1 X141.848 Y103.587 E1.0958
G1 X141.975 Y103.459 E1.1018
G1 X141.975 Y102.178 E1.1444
G1 X142.102 Y102.050 E1.1504
G1 X142.102 Y100.769 E1.1930
G1 X142.292 Y100.448 E1.2054
G1 X147.108 Y95.580 E1.4331
G1 X147.298 Y95.260 E1.4455
G1 X147.298 Y95.003 E1.4540
G1 X149.959 Y90.519 E1.6275
G1 X150.085 Y90.135 E1.6409
G1 X150.339 Y89.879 E1.6529
G1 X150.466 Y89.494 E1.6664
G1 X150.719 Y89.238 E1.6784
G1 X150.846 Y88.854 E1.6918
G1 X152.557 Y85.971 E1.8033
G1 X152.620 Y85.523 E1.8184
G1 X152.620 Y82.448 E1.9207
G1 X152.557 Y82.000 E1.9357
G1 X146.728 Y76.106 E2.2114
G1 X146.474 Y76.106 E2.2198
G1 X145.460 Y75.081 E2.2678
G1 X145.207 Y75.081 E2.2762
G1 X144.320 Y74.184 E2.3182
G1 X140.518 Y74.184 E2.4446
G1 X140.265 Y74.441 E2.4566
G1 X140.011 Y74.441 E2.4650
G1 X139.251 Y73.672 E2.5010
G1 X128.606 Y73.672 E2.8550
G1 X128.163 Y73.736 E2.8699
G1 X126.135 Y75.786 E2.9658
G1 X125.818 Y75.722 E2.9766
G1 X125.311 Y75.209 E3.0006
G1 X124.994 Y75.017 E3.0129
G1 X124.741 Y74.761 E3.0249
G1 X124.424 Y74.569 E3.0372
G1 X124.171 Y74.312 E3.0492
G1 X120.622 Y74.312 E3.1672
G1 X120.179 Y74.376 E3.1821
G1 X119.419 Y75.145 E3.2181
G1 X119.039 Y75.273 E3.2314
G1 X118.278 Y76.042 E3.2674
G1 X117.835 Y76.106 E3.2823
G1 X112.005 Y82.000 E3.5580
G1 X111.942 Y82.448 E3.5730
G1 X111.942 Y85.523 E3.6753
G1 X112.005 Y85.971 E3.6904
G1 X113.336 Y88.213 E3.7771
G1 X113.463 Y88.597 E3.7906
G1 X117.265 Y95.003 E4.0383
G1 X117.391 Y95.132 E4.0443
G1 X117.454 Y95.580 E4.0594
G1 X122.270 Y100.448 E4.2871
G1 X122.587 Y100.897 E4.3054
G1 X122.587 Y101.922 E4.3395
G1 X122.714 Y102.306 E4.3529
G1 X122.714 Y103.331 E4.3870
G1 X122.840 Y103.459 E4.3930
G1 X122.840 Y104.740 E4.4356
G1 X122.967 Y104.869 E4.4416
G1 X122.967 Y105.893 E4.4757
G1 X123.094 Y106.278 E4.4892
G1 X123.094 Y107.303 E4.5233
G1 X123.221 Y107.431 E4.5293
G1 X123.221 Y108.456 E4.5634
G1 X123.347 Y108.840 E4.5768
G1 X123.347 Y109.865 E4.6109
G1 X123.474 Y109.993 E4.6169
G1 X123.474 Y111.018 E4.6510
G1 X123.601 Y111.403 E4.6644
G1 X123.601 Y112.428 E4.6985
G1 X123.727 Y112.556 E4.7045
G1 X123.727 Y113.581 E4.7386
G1 X123.854 Y113.965 E4.7521
G1 X123.854 Y114.221 E4.7606
G1 X123.474 Y113.965 E4.7759
G1 X123.474 Y114.221 E4.7844
G1 X127.783 Y118.577 E4.9882
G1 X127.972 Y118.769 E4.9971
G1 X129.430 Y120.243 E5.0661
G1 X129.747 Y120.435 E5.0784
G1 X134.815 Y120.435 E5.2470
G1 X135.259 Y120.371 E5.2619
G1 X141.342 Y114.221 E5.5496
G1 X141.342 Y113.452 E5.5751
G1 X141.468 Y113.324 E5.5811
G1 X141.468 Y112.043 E5.6237
G1 X141.595 Y111.915 E5.6297
G1 X141.595 Y110.634 E5.6723
G1 X141.722 Y110.506 E5.6783
G1 X141.722 Y109.225 E5.7210
G1 X141.848 Y109.096 E5.7269
G1 X141.848 Y107.815 E5.7696
G1 X141.975 Y107.687 E5.7756
G1 X141.975 Y106.406 E5.8182
G1 X142.102 Y106.278 E5.8242
G1 X142.102 Y104.997 E5.8668
G1 X142.229 Y104.869 E5.8728
G1 X142.229 Y103.587 E5.9154
G1 X142.355 Y103.459 E5.9214
G1 X142.355 Y102.178 E5.9640
G1 X142.482 Y102.050 E5.9700
G1 X142.482 Y100.769 E6.0126
G1 X142.672 Y100.448 E6.0250
G1 X147.488 Y95.580 E6.2527
G1 X147.678 Y95.260 E6.2651
G1 X147.678 Y95.003 E6.2736
G1 X150.339 Y90.519 E6.4471
G1 X150.466 Y90.135 E6.4605
G1 X150.719 Y89.879 E6.4725
G1 X150.846 Y89.494 E6.4860
G1 X151.099 Y89.238 E6.4980
G1 X151.226 Y88.854 E6.5114
G1 X152.937 Y85.971 E6.6229
G1 X153.000 Y85.523 E6.6380
G1 X153.000 Y82.448 E6.7403
G1 X152.937 Y82.000 E6.7553
G1 X146.728 Y75.722 E7.0490
G1 X146.474 Y75.722 E7.0574
G1 X145.460 Y74.697 E7.1054
G1 X145.207 Y74.697 E7.1138
G1 X144.320 Y73.800 E7.1558
G1 X140.518 Y73.800 E7.2822
G1 X140.265 Y74.056 E7.2942
G1 X140.011 Y74.056 E7.3026
G1 X139.251 Y73.288 E7.3386
G1 X128.606 Y73.288 E7.6926
G1 X128.163 Y73.351 E7.7075
G1 X126.135 Y75.401 E7.8034
G1 X125.818 Y75.337 E7.8142
G1 X125.311 Y74.825 E7.8382
G1 X124.994 Y74.633 E7.8505
G1 X124.741 Y74.376 E7.8625
G1 X124.424 Y74.184 E7.8748
G1 X124.171 Y73.928 E7.8868
G1 X120.622 Y73.928 E8.0048
G1 X120.179 Y73.992 E8.0197
G1 X119.419 Y74.761 E8.0557
G1 X119.039 Y74.889 E8.0690
G1 X118.278 Y75.657 E8.1050
G1 X117.835 Y75.722 E8.1199
G1 X111.752 Y81.871 E8.4076
G1 X111.562 Y82.192 E8.4199
G1 X111.562 Y85.779 E8.5393
G1 X111.689 Y86.163 E8.5527
G1 X117.011 Y95.132 E8.8996
G1 X117.074 Y95.580 E8.9146
G1 X121.890 Y100.448 E9.1424
G1 X122.207 Y100.897 E9.1607
G1 X122.207 Y101.922 E9.1947
G1 X122.333 Y102.306 E9.2082
G1 X122.333 Y103.331 E9.2423
G1 X122.460 Y103.459 E9.2483
G1 X122.460 Y104.740 E9.2909
G1 X122.587 Y104.869 E9.2969
G1 X122.587 Y105.893 E9.3310
G1 X122.714 Y106.278 E9.3444
G1 X122.714 Y107.303 E9.3785
G1 X122.840 Y107.431 E9.3845
G1 X122.840 Y108.456 E9.4186
G1 X122.967 Y108.840 E9.4321
G1 X122.967 Y109.865 E9.4662
G1 X123.094 Y109.993 E9.4722
G1 X123.094 Y111.018 E9.5063
G1 X123.221 Y111.403 E9.5197
G1 X123.221 Y112.428 E9.5538
G1 X123.347 Y112.556 E9.5598
G1 X123.347 Y113.581 E9.5939
G1 X123.474 Y113.965 E9.6074
G1 X123.094 Y113.965 E9.6200
G1 X123.094 Y114.221 E9.6285
G1 X129.430 Y120.627 E9.9282
G1 X129.620 Y120.819 E9.9372
G1 X135.069 Y120.819 E10.1184
G1 X135.386 Y120.627 E10.1307
G1 X141.722 Y114.221 E10.4304
G1 X141.722 Y113.452 E10.4560
G1 X141.848 Y113.324 E10.4620
G1 X141.848 Y112.043 E10.5046
G1 X141.975 Y111.915 E10.5106
G1 X141.975 Y110.634 E10.5532
G1 X142.102 Y110.506 E10.5592
G1 X142.102 Y109.225 E10.6018
G1 X142.229 Y109.096 E10.6078
G1 X142.229 Y107.815 E10.6504
G1 X142.355 Y107.687 E10.6564
G1 X142.355 Y106.406 E10.6990
G1 X142.482 Y106.278 E10.7050
G1 X142.482 Y104.997 E10.7476
G1 X142.609 Y104.869 E10.7536
G1 X142.609 Y103.587 E10.7962
G1 X142.735 Y103.459 E10.8022
G1 X142.735 Y102.178 E10.8448
G1 X142.862 Y102.050 E10.8508
G1 X142.862 Y100.769 E10.8934
G1 X143.053 Y100.448 E10.9058
G1 X147.868 Y95.580 E11.1336
G1 X148.058 Y95.260 E11.1460
G1 X148.058 Y95.003 E11.1545
G1 X150.719 Y90.519 E11.3279
G1 X150.846 Y90.135 E11.3414
G1 X151.099 Y89.879 E11.3534
G1 X151.226 Y89.494 E11.3668
G1 X151.479 Y89.238 E11.3788
G1 X151.606 Y88.854 E11.3923
G1 X153.317 Y85.971 E11.5038
G1 X153.380 Y85.523 E11.5188
G1 X153.380 Y82.448 E11.6211
G1 X153.317 Y82.000 E11.6361
G1 X146.728 Y75.337 E11.9478
G1 X146.474 Y75.337 E11.9562
G1 X145.460 Y74.312 E12.0042
G1 X145.207 Y74.312 E12.0126
G1 X144.320 Y73.416 E12.0546
G1 X140.518 Y73.416 E12.1810
G1 X140.265 Y73.672 E12.1930
G1 X140.011 Y73.672 E12.2014
G1 X139.251 Y72.903 E12.2374
G1 X128.606 Y72.903 E12.5914
G1 X128.163 Y72.967 E12.6063
G1 X126.135 Y75.017 E12.7022
G1 X125.818 Y74.953 E12.7130
G1 X125.311 Y74.441 E12.7370
G1 X124.994 Y74.248 E12.7493
G1 X124.741 Y73.992 E12.7613
G1 X124.424 Y73.800 E12.7736
G1 X124.171 Y73.544 E12.7856
G1 X120.622 Y73.544 E12.9036
G1 X120.179 Y73.608 E12.9185
G1 X119.419 Y74.376 E12.9545
G1 X119.039 Y74.504 E12.9678
G1 X118.278 Y75.273 E13.0038
G1 X117.835 Y75.337 E13.0187
G1 X111.245 Y82.000 E13.3304
G1 X111.182 Y82.448 E13.3454
G1 X111.182 Y85.523 E13.4477
G1 X111.245 Y85.971 E13.4627
G1 X112.576 Y88.213 E13.5495
G1 X112.702 Y88.597 E13.5629
G1 X116.504 Y95.003 E13.8107
G1 X116.631 Y95.132 E13.8167
G1 X116.694 Y95.580 E13.8317
G1 X121.510 Y100.448 E14.0595
G1 X121.827 Y100.897 E14.0777
G1 X121.827 Y101.922 E14.1118
G1 X121.953 Y102.306 E14.1253
G1 X121.953 Y103.331 E14.1594
G1 X122.080 Y103.459 E14.1654
G1 X122.080 Y104.740 E14.2080
G1 X122.207 Y104.869 E14.2140
G1 X122.207 Y105.893 E14.2481
G1 X122.333 Y106.278 E14.2615
G1 X122.333 Y107.303 E14.2956
G1 X122.460 Y107.431 E14.3016
G1 X122.460 Y108.456 E14.3357
G1 X122.587 Y108.840 E14.3492
G1 X122.587 Y109.865 E14.3833
G1 X122.714 Y109.993 E14.3893
G1 X122.714 Y111.018 E14.4233
G1 X122.840 Y111.403 E14.4368
G1 X122.840 Y112.428 E14.4709
G1 X122.967 Y112.556 E14.4769
G1 X122.967 Y113.581 E14.5110
G1 X123.094 Y113.965 E14.5244
G1 X122.714 Y113.965 E14.5371
G1 X122.714 Y114.221 E14.5456
G1 X129.430 Y121.011 E14.8633
G1 X129.620 Y121.203 E14.8722
G1 X135.069 Y121.203 E15.0535
G1 X135.386 Y121.011 E15.0658
G1 X142.102 Y114.221 E15.3835
G1 X142.102 Y113.452 E15.4090
G1 X142.229 Y113.324 E15.4150
G1 X142.229 Y112.043 E15.4576
G1 X142.355 Y111.915 E15.4636
G1 X142.355 Y110.634 E15.5062
G1 X142.482 Y110.506 E15.5122
G1 X142.482 Y109.225 E15.5548
G1 X142.609 Y109.096 E15.5608
G1 X142.609 Y107.815 E15.6035
G1 X142.735 Y107.687 E15.6094
G1 X142.735 Y106.406 E15.6521
G1 X142.862 Y106.278 E15.6581
G1 X142.862 Y104.997 E15.7007
G1 X142.989 Y104.869 E15.7067
G1 X142.989 Y103.587 E15.7493
G1 X143.116 Y103.459 E15.7553
G1 X143.116 Y102.178 E15.7979
G1 X143.242 Y102.050 E15.8039
G1 X143.242 Y100.769 E15.8465
G1 X143.433 Y100.448 E15.8589
G1 X148.248 Y95.580 E16.0866
G1 X148.438 Y95.260 E16.0990
G1 X148.438 Y95.003 E16.1075
G1 X151.099 Y90.519 E16.2810
G1 X151.226 Y90.135 E16.2944
G1 X151.479 Y89.879 E16.3064
G1 X151.606 Y89.494 E16.3199
G1 X151.860 Y89.238 E16.3319
G1 X151.986 Y88.854 E16.3453
G1 X153.697 Y85.971 E16.4568
G1 X153.760 Y85.523 E16.4719
G1 X153.760 Y82.448 E16.5741
G1 X153.697 Y82.000 E16.5892
G1 X146.728 Y74.953 E16.9188
G1 X146.474 Y74.953 E16.9273
G1 X145.460 Y73.928 E16.9752
G1 X145.207 Y73.928 E16.9837
G1 X144.320 Y73.031 E17.0256
G1 X140.518 Y73.031 E17.1521
G1 X140.265 Y73.288 E17.1640
G1 X140.011 Y73.288 E17.1725
G1 X139.251 Y72.519 E17.2084
G1 X128.606 Y72.519 E17.5625
G1 X128.163 Y72.583 E17.5774
G1 X126.135 Y74.633 E17.6733
G1 X125.818 Y74.569 E17.6840
G1 X125.311 Y74.056 E17.7080
G1 X124.994 Y73.864 E17.7203
G1 X124.741 Y73.608 E17.7323
G1 X124.424 Y73.416 E17.7446
G1 X124.171 Y73.159 E17.7566
G1 X120.622 Y73.159 E17.8746
G1 X120.179 Y73.223 E17.8895
G1 X119.419 Y73.992 E17.9255
G1 X119.039 Y74.120 E17.9388
G1 X118.278 Y74.889 E17.9748
G1 X117.835 Y74.953 E17.9897
G1 X110.991 Y81.871 E18.3134
G1 X110.802 Y82.192 E18.3258
G1 X110.802 Y85.779 E18.4451
G1 X110.928 Y86.163 E18.4585
G1 X116.251 Y95.132 E18.8054
G1 X116.314 Y95.580 E18.8204
G1 X121.129 Y100.448 E19.0482
G1 X121.446 Y100.897 E19.0665
G1 X121.446 Y101.922 E19.1006
G1 X121.573 Y102.306 E19.1140
G1 X121.573 Y103.331 E19.1481
G1 X121.700 Y103.459 E19.1541
G1 X121.700 Y104.740 E19.1967
G1 X121.827 Y104.869 E19.2027
G1 X121.827 Y105.893 E19.2368
G1 X121.953 Y106.278 E19.2503
G1 X121.953 Y107.303 E19.2843
G1 X122.080 Y107.431 E19.2903
G1 X122.080 Y108.456 E19.3244
G1 X122.207 Y108.840 E19.3379
G1 X122.207 Y109.865 E19.3720
G1 X122.333 Y109.993 E19.3780
G1 X122.333 Y111.018 E19.4121
G1 X122.460 Y111.403 E19.4255
G1 X122.460 Y112.428 E19.4596
G1 X122.587 Y112.556 E19.4656
G1 X122.587 Y113.581 E19.4997
G1 X122.714 Y113.965 E19.5132
G1 X122.333 Y113.965 E19.5258
G0 F4800 E18.5258
G0 X119.737 Y83.937 F10800
G0 X122.245 Y82.041
G0 X130.000 Y85.000
G0 F4800 E19.5258
;segType:Support
G1 X132.500 Y85.000 E19.5965 F900
G1 X130.000 Y82.500 E19.6964
G1 X132.500 Y82.500 E19.7671
G1 X130.000 Y80.000 E19.8671
G1 X137.500 Y80.000 E20.0791
G1 X137.500 Y77.500 E20.1498
G1 X130.000 Y77.500 E20.3618
G0 F4800 E19.3618
G0 X123.916 Y82.095 F10800
G0 X121.888 Y83.627
G0 F4800 E20.3618
;segType:Perimeter
G1 X122.183 Y83.002 E20.3848 F359
G1 X122.313 Y82.221 E20.4111
G1 X123.919 Y83.545 E20.4804
G1 X124.142 Y83.680 E20.4890
G1 X127.615 Y86.627 E20.6405
G1 X128.144 Y86.535 E20.6584
G1 X132.358 Y87.148 E20.8000
G1 X136.567 Y86.507 E20.9417
G1 X137.098 Y86.595 E20.9595
G1 X140.550 Y83.620 E21.1111
G1 X140.771 Y83.484 E21.1197
G1 X142.368 Y82.148 E21.1890
G1 X142.513 Y82.985 E21.2172
G1 X143.575 Y82.970 E21.2525
G1 X143.737 Y83.909 E21.2843
G1 X144.790 Y83.939 E21.3193
G1 X143.659 Y85.896 E21.3945
G1 X143.490 Y86.238 E21.4071
G1 X139.524 Y93.059 E21.6696
G1 X139.448 Y93.461 E21.6832
G1 X134.908 Y96.065 E21.8573
G1 X134.308 Y96.399 E21.8801
G1 X134.604 Y96.686 E21.8939
G1 X133.202 Y112.122 E22.4094
G1 X132.450 Y112.139 E22.4344
G1 X131.697 Y112.127 E22.4594
G1 X130.182 Y96.702 E22.9749
G1 X130.477 Y96.414 E22.9887
G1 X129.874 Y96.083 E23.0115
G1 X125.315 Y93.513 E23.1856
G1 X125.237 Y93.111 E23.1992
G1 X121.220 Y86.319 E23.4617
G1 X121.049 Y85.979 E23.4743
G1 X119.904 Y84.030 E23.5495
G1 X120.956 Y83.992 E23.5846
G1 X121.119 Y83.044 E23.6165
G1 X122.116 Y83.058 E23.6497
G1 X122.778 Y82.877
G0 F4800 E22.6497
G0 X122.667 Y83.035 F10800
G0 F4800 E23.6497
;segType:Loop
G1 X123.689 Y83.877 E23.6938 F600
G1 X123.909 Y84.010 E23.7023
G1 X127.500 Y87.058 E23.8590
G1 X128.150 Y86.944 E23.8809
G1 X132.360 Y87.557 E24.0224
G1 X136.565 Y86.916 E24.1639
G1 X137.216 Y87.024 E24.1859
G1 X140.785 Y83.949 E24.3425
G1 X141.004 Y83.814 E24.3511
G1 X142.093 Y82.903 E24.3983
G1 X142.178 Y83.394 E24.4149
G1 X143.239 Y83.379 E24.4502
G1 X143.400 Y84.304 E24.4814
G1 X144.104 Y84.324 E24.5049
G1 X143.307 Y85.704 E24.5579
G1 X143.138 Y86.045 E24.5705
G1 X139.143 Y92.914 E24.8348
G1 X139.090 Y93.202 E24.8446
G1 X134.713 Y95.712 E25.0124
G1 X133.637 Y96.311 E25.0533
G1 X134.188 Y96.843 E25.0788
G1 X132.836 Y111.726 E25.5758
G1 X132.060 Y111.728 E25.6017
G1 X130.599 Y96.857 E26.0987
G1 X131.147 Y96.321 E26.1242
G1 X130.067 Y95.729 E26.1651
G1 X125.672 Y93.251 E26.3329
G1 X125.616 Y92.964 E26.3427
G1 X121.571 Y86.123 E26.6070
G1 X121.400 Y85.784 E26.6196
G1 X120.592 Y84.410 E26.6727
G1 X121.295 Y84.385 E26.6960
G1 X121.454 Y83.453 E26.7274
G1 X122.511 Y83.468 E26.7626
G1 X122.578 Y83.069 E26.7761
G0 F4800 E25.7761
G0 X123.232 Y84.009 F10800
G0 F4800 E26.7761
;segType:HShell
G1 X123.465 Y84.201 E26.7861 F300
G1 X123.682 Y84.333 E26.7945
G1 X127.388 Y87.478 E26.9562
G1 X128.155 Y87.344 E26.9821
G1 X132.361 Y87.956 E27.1235
G1 X136.562 Y87.315 E27.2648
G1 X137.331 Y87.444 E27.2908
G1 X141.014 Y84.269 E27.4525
G1 X141.231 Y84.136 E27.4609
G1 X141.824 Y83.640 E27.4867
G1 X141.851 Y83.793 E27.4918
G1 X142.912 Y83.778 E27.5272
G1 X143.070 Y84.689 E27.5579
G1 X143.435 Y84.700 E27.5701
G1 X142.963 Y85.516 E27.6014
G1 X142.795 Y85.856 E27.6140
G1 X138.772 Y92.774 E27.8802
G1 X138.740 Y92.949 E27.8861
G1 X134.522 Y95.368 E28.0478
G1 X132.983 Y96.225 E28.1064
G1 X133.782 Y96.997 E28.1434
G1 X132.480 Y111.332 E28.6221
G1 X132.413 Y111.333 E28.6244
G1 X131.006 Y97.007 E29.1031
G1 X131.801 Y96.230 E29.1401
G1 X130.255 Y95.383 E29.1987
G1 X126.020 Y92.995 E29.3604
G1 X125.986 Y92.820 E29.3663
G1 X121.912 Y85.932 E29.6325
G1 X121.742 Y85.593 E29.6451
G1 X121.264 Y84.780 E29.6765
G1 X121.625 Y84.767 E29.6885
G1 X121.782 Y83.853 E29.7194
G1 X122.841 Y83.867 E29.7546
G1 X122.867 Y83.709 E29.7599
G1 X123.084 Y83.888 E29.7693
G0 X123.815 Y84.947 F10800
G1 X127.278 Y87.887 E29.9204 F300
G1 X128.161 Y87.733 E29.9502
G1 X132.362 Y88.345 E30.0914
G1 X136.559 Y87.705 E30.2326
G1 X137.444 Y87.852 E30.2624
G1 X141.238 Y84.582 E30.4290
G1 X141.452 Y84.451 E30.4374
G1 X141.777 Y84.179 E30.4514
G1 X142.594 Y84.167 E30.4786
G1 X142.782 Y85.066 E30.5092
G1 X142.628 Y85.332 E30.5194
G1 X142.461 Y85.672 E30.5320
G1 X138.411 Y92.636 E30.8000
G1 X138.398 Y92.702 E30.8022
G1 X134.337 Y95.032 E30.9579
G1 X132.391 Y96.116 E31.0320
G1 X130.438 Y95.046 E31.1061
G1 X126.359 Y92.746 E31.2618
G1 X126.347 Y92.681 E31.2640
G1 X122.246 Y85.746 E31.5320
G1 X121.947 Y85.141 E31.5544
G1 X122.102 Y84.242 E31.5848
G1 X122.925 Y84.253 E31.6122
G1 X123.246 Y84.517 E31.6260
G1 X123.461 Y84.647 E31.6343
G1 X123.669 Y84.824 E31.6434
G0 X124.372 Y85.922 F10800
G1 X127.169 Y88.296 E31.7654 F300
G1 X128.166 Y88.123 E31.7991
G1 X132.364 Y88.734 E31.9402
G1 X136.556 Y88.094 E32.0813
G1 X137.556 Y88.261 E32.1150
G1 X141.462 Y84.895 E32.2864
G1 X141.673 Y84.765 E32.2947
G1 X141.916 Y84.562 E32.3052
G1 X142.286 Y84.556 E32.3176
G1 X142.379 Y85.000 E32.3326
G1 X142.126 Y85.489 E32.3510
G1 X138.083 Y92.441 E32.6184
G1 X134.151 Y94.696 E32.7692
G1 X132.390 Y95.677 E32.8363
G1 X130.621 Y94.709 E32.9033
G1 X126.673 Y92.483 E33.0541
G1 X122.580 Y85.561 E33.3215
G1 X122.343 Y85.082 E33.3393
G1 X122.421 Y84.631 E33.3545
G1 X122.788 Y84.636 E33.3667
G1 X123.026 Y84.832 E33.3770
G1 X123.239 Y84.961 E33.3853
G1 X124.226 Y85.799 E33.4283
G0 X124.929 Y86.897 F10800
G1 X127.059 Y88.706 E33.5213 F300
G1 X128.171 Y88.512 E33.5588
G1 X132.365 Y89.123 E33.6998
G1 X136.554 Y88.484 E33.8407
G1 X137.669 Y88.670 E33.8783
G1 X141.685 Y85.208 E34.0547
G1 X141.920 Y85.058 E34.0639
G1 X141.793 Y85.302 E34.0731
G1 X137.807 Y92.157 E34.3368
G1 X133.965 Y94.360 E34.4841
G1 X132.388 Y95.239 E34.5442
G1 X130.805 Y94.372 E34.6042
G1 X126.947 Y92.197 E34.7515
G1 X122.914 Y85.376 E35.0150
G1 X122.807 Y85.148 E35.0234
G1 X123.018 Y85.275 E35.0316
G1 X124.783 Y86.774 E35.1086
G0 X129.700 Y91.067 F10800
G1 X132.372 Y91.456 E35.1984 F300
G1 X135.136 Y91.035 E35.2914
G1 X132.851 Y92.345 E35.3790
G1 X132.379 Y92.608 E35.3970
G1 X131.904 Y92.348 E35.4150
G1 X129.688 Y91.100 E35.4996
G0 X131.684 Y91.744 F10800
G1 X132.374 Y91.845 E35.5228 F300
G1 X133.163 Y91.724 E35.5493
G1 X132.377 Y92.170 E35.5794
G1 X131.673 Y91.777 E35.6062
G0 X131.564 Y93.912 F10800
G1 X131.171 Y93.697 E35.6211 F300
G1 X127.496 Y91.626 E35.7614
G1 X125.663 Y88.525 E35.8812
G1 X126.841 Y89.525 E35.9326
G1 X128.182 Y89.291 E35.9779
G1 X132.367 Y89.900 E36.1186
G1 X136.549 Y89.263 E36.2593
G1 X137.893 Y89.487 E36.3046
G1 X139.063 Y88.479 E36.3559
G1 X137.254 Y91.589 E36.4756
G1 X133.594 Y93.689 E36.6159
G1 X132.385 Y94.362 E36.6620
G1 X131.731 Y94.004 E36.6868
G0 X132.303 Y94.755 F10800
G1 X130.988 Y94.035 E36.7366 F300
G1 X127.222 Y91.911 E36.8804
G1 X124.176 Y86.761 E37.0794
G1 X126.950 Y89.115 E37.2004
G1 X128.176 Y88.901 E37.2418
G1 X132.366 Y89.512 E37.3827
G1 X136.552 Y88.873 E37.5235
G1 X137.781 Y89.078 E37.5649
G1 X140.537 Y86.703 E37.6859
G1 X137.530 Y91.873 E37.8849
G1 X133.780 Y94.024 E38.0287
G1 X132.470 Y94.754 E38.0786
G0 X132.461 Y96.252 F10800
G1 X133.387 Y97.147 E38.1214 F300
G1 X132.433 Y107.644 E38.4719
G1 X131.403 Y97.154 E38.8225
G1 X132.324 Y96.253 E38.8654
G0 X132.955 Y97.262 F10800
G1 X132.991 Y97.296 E38.8670 F300
G1 X132.418 Y103.599 E39.0775
G1 X131.800 Y97.301 E39.2880
G1 X132.394 Y96.720 E39.3157
G1 X132.817 Y97.129 E39.3352
G0 X132.521 Y98.264 F10800
G1 X132.404 Y99.555 E39.3783 F300
G1 X132.197 Y97.448 E39.4487
G1 X132.396 Y97.254 E39.4580
G1 X132.595 Y97.446 E39.4672
G1 X132.538 Y98.073 E39.4881
G0 X130.832 Y93.066 F10800
G1 X127.770 Y91.340 E39.6051 F300
G1 X126.920 Y89.901 E39.6607
G1 X128.187 Y89.680 E39.7035
G1 X132.369 Y90.289 E39.8440
G1 X136.546 Y89.652 E39.9845
G1 X137.816 Y89.864 E40.0274
G1 X136.977 Y91.306 E40.0828
G1 X133.408 Y93.353 E40.2197
G1 X132.383 Y93.924 E40.2587
G1 X131.355 Y93.360 E40.2977
G1 X130.999 Y93.159 E40.3113
G0 X130.104 Y92.215 F10800
G1 X128.044 Y91.054 E40.3899 F300
G1 X127.531 Y90.185 E40.4235
G1 X128.192 Y90.070 E40.4458
G1 X132.370 Y90.678 E40.5862
G1 X136.544 Y90.042 E40.7267
G1 X137.207 Y90.152 E40.7490
G1 X136.701 Y91.022 E40.7825
G1 X133.223 Y93.017 E40.9158
G1 X132.382 Y93.485 E40.9479
G1 X131.538 Y93.023 E40.9798
G1 X130.270 Y92.308 E41.0283
G0 X129.375 Y91.363 F10800
G1 X128.319 Y90.768 E41.0686 F300
G1 X128.142 Y90.469 E41.0801
G1 X128.198 Y90.459 E41.0820
G1 X132.371 Y91.067 E41.2223
G1 X136.541 Y90.431 E41.3626
G1 X136.597 Y90.441 E41.3645
G1 X136.424 Y90.738 E41.3759
G1 X133.037 Y92.681 E41.5058
G1 X132.380 Y93.047 E41.5308
G1 X131.721 Y92.686 E41.5558
G1 X129.541 Y91.457 E41.6391
; ------------------------------------
; Layer #1
; ------------------------------------
G21 ; mm
G90 ; abs
G92 E0 ; reset extr
M106 S0
;segType:Support
G0 F4800 E-1.0000
G0 F2400 Z0.400
G0 X130.000 Y85.000 F10800
G0 F4800 E0.0000
G1 X132.500 Y85.000 E0.0707 F5400
G1 X132.500 Y82.500 E0.1414
G1 X130.000 Y82.500 E0.2120
G1 X130.000 Y80.000 E0.2827
G1 X137.500 Y80.000 E0.4947
G1 X137.500 Y77.500 E0.5654
G1 X130.000 Y77.500 E0.7775
G0 F4800 E-0.2225
G0 X123.920 Y82.154 F10800
G0 X121.893 Y83.705
G0 F4800 E0.7775
;segType:Perimeter
G1 X122.191 Y83.081 E0.8004 F2159
G1 X122.338 Y82.292 E0.8272
G1 X123.737 Y83.444 E0.8874
G1 X124.183 Y83.714 E0.9048
G1 X127.442 Y86.481 E1.0470
G1 X128.441 Y86.307 E1.0807
G1 X132.358 Y86.877 E1.2123
G1 X136.269 Y86.280 E1.3439
G1 X137.269 Y86.447 E1.3777
G1 X140.509 Y83.655 E1.5199
G1 X140.953 Y83.382 E1.5372
G1 X142.364 Y82.241 E1.5976
G1 X142.507 Y83.064 E1.6253
G1 X143.405 Y83.045 E1.6552
G1 X143.519 Y83.170 E1.6608
G1 X143.655 Y83.957 E1.6874
G1 X144.581 Y83.983 E1.7182
G1 X144.654 Y84.070 E1.7220
G1 X143.755 Y85.625 E1.7817
G1 X143.418 Y86.309 E1.8071
G1 X139.698 Y92.706 E2.0532
G1 X139.536 Y93.568 E2.0824
G1 X135.134 Y96.093 E2.2512
G1 X134.171 Y96.630 E2.2879
G1 X134.637 Y97.080 E2.3094
G1 X134.544 Y98.091 E2.3432
G1 X133.259 Y112.247 E2.8159
G1 X132.450 Y112.265 E2.8428
G1 X131.641 Y112.253 E2.8697
G1 X130.252 Y98.106 E3.3425
G1 X130.152 Y97.097 E3.3763
G1 X130.615 Y96.643 E3.3978
G1 X129.648 Y96.113 E3.4345
G1 X125.227 Y93.621 E3.6033
G1 X125.060 Y92.759 E3.6325
G1 X121.293 Y86.390 E3.8786
G1 X120.951 Y85.709 E3.9039
G1 X120.040 Y84.159 E3.9637
G1 X120.113 Y84.072 E3.9675
G1 X121.039 Y84.040 E3.9983
G1 X121.169 Y83.251 E4.0249
G1 X121.282 Y83.125 E4.0305
G1 X122.123 Y83.137 E4.0585
G1 X122.787 Y82.966
G0 F4800 E3.0585
G0 X122.680 Y83.096 F10800
G0 F4800 E4.0585
;segType:Loop
G1 X123.507 Y83.776 E4.0941 F3600
G1 X123.950 Y84.045 E4.1113
G1 X127.327 Y86.911 E4.2586
G1 X128.446 Y86.716 E4.2964
G1 X132.359 Y87.286 E4.4279
G1 X136.267 Y86.689 E4.5594
G1 X137.387 Y86.876 E4.5972
G1 X140.744 Y83.983 E4.7446
G1 X141.182 Y83.714 E4.7617
G1 X142.087 Y82.983 E4.8004
G1 X142.172 Y83.475 E4.8170
G1 X143.162 Y83.454 E4.8499
G1 X143.317 Y84.352 E4.8802
G1 X144.016 Y84.372 E4.9035
G1 X143.403 Y85.433 E4.9442
G1 X143.066 Y86.116 E4.9695
G1 X139.317 Y92.561 E5.2175
G1 X139.178 Y93.309 E5.2428
G1 X134.939 Y95.741 E5.4054
G1 X133.501 Y96.542 E5.4601
G1 X134.221 Y97.238 E5.4934
G1 X134.146 Y98.054 E5.5207
G1 X132.893 Y111.850 E5.9815
G1 X132.004 Y111.854 E6.0110
G1 X130.570 Y97.251 E6.4991
G1 X131.284 Y96.550 E6.5324
G1 X129.841 Y95.759 E6.5871
G1 X125.584 Y93.359 E6.7496
G1 X125.439 Y92.612 E6.7749
G1 X121.643 Y86.194 E7.0229
G1 X121.301 Y85.514 E7.0483
G1 X120.681 Y84.457 E7.0890
G1 X121.379 Y84.432 E7.1123
G1 X121.528 Y83.533 E7.1426
G1 X122.511 Y83.547 E7.1753
G1 X122.589 Y83.129 E7.1894
G0 F4800 E6.1894
G0 X123.245 Y84.070 F10800
G0 F4800 E7.1894
;segType:HShell
G1 X123.282 Y84.100 E7.1910 F1800
G1 X123.723 Y84.367 E7.2082
G1 X127.215 Y87.331 E7.3605
G1 X128.452 Y87.116 E7.4022
G1 X132.360 Y87.685 E7.5336
G1 X136.264 Y87.089 E7.6650
G1 X137.503 Y87.295 E7.7067
G1 X140.973 Y84.304 E7.8591
G1 X141.407 Y84.038 E7.8760
G1 X141.816 Y83.707 E7.8935
G1 X141.845 Y83.877 E7.8993
G1 X142.835 Y83.856 E7.9322
G1 X142.988 Y84.737 E7.9620
G1 X143.348 Y84.747 E7.9739
G1 X143.060 Y85.245 E7.9930
G1 X142.723 Y85.927 E8.0183
G1 X138.946 Y92.421 E8.2682
G1 X138.828 Y93.056 E8.2897
G1 X134.748 Y95.396 E8.4461
G1 X132.847 Y96.456 E8.5185
G1 X133.815 Y97.391 E8.5633
G1 X133.757 Y98.017 E8.5842
G1 X132.537 Y111.457 E9.0330
G1 X132.357 Y111.458 E9.0390
G1 X130.977 Y97.401 E9.5088
G1 X131.937 Y96.459 E9.5535
G1 X130.029 Y95.413 E9.6259
G1 X125.932 Y93.103 E9.7823
G1 X125.809 Y92.468 E9.8038
G1 X121.985 Y86.003 E10.0537
G1 X121.643 Y85.323 E10.0790
G1 X121.352 Y84.828 E10.0981
G1 X121.711 Y84.815 E10.1100
G1 X121.858 Y83.933 E10.1398
G1 X122.834 Y83.947 E10.1723
G1 X122.869 Y83.760 E10.1786
G1 X123.098 Y83.948 E10.1885
G0 X123.850 Y84.977 F10800
G1 X127.106 Y87.740 E10.3305 F1800
G1 X128.457 Y87.505 E10.3761
G1 X132.362 Y88.073 E10.5074
G1 X136.261 Y87.478 E10.6386
G1 X137.615 Y87.704 E10.6842
G1 X141.197 Y84.617 E10.8415
G1 X141.625 Y84.354 E10.8582
G1 X141.736 Y84.264 E10.8630
G1 X142.517 Y84.247 E10.8889
G1 X142.699 Y85.114 E10.9184
G1 X142.388 Y85.744 E10.9417
G1 X138.585 Y92.284 E11.1934
G1 X138.487 Y92.810 E11.2112
G1 X134.562 Y95.060 E11.3616
G1 X132.392 Y96.270 E11.4443
G1 X130.212 Y95.076 E11.5269
G1 X126.272 Y92.854 E11.6774
G1 X126.170 Y92.328 E11.6952
G1 X122.319 Y85.817 E11.9468
G1 X122.035 Y85.189 E11.9697
G1 X122.179 Y84.322 E11.9990
G1 X122.963 Y84.333 E12.0250
G1 X123.063 Y84.416 E12.0293
G1 X123.502 Y84.681 E12.0464
G1 X123.704 Y84.853 E12.0552
G0 X124.407 Y85.952 F10800
G1 X126.996 Y88.150 E12.1682 F1800
G1 X128.462 Y87.894 E12.2177
G1 X132.363 Y88.462 E12.3488
G1 X136.258 Y87.868 E12.4799
G1 X137.727 Y88.113 E12.5294
G1 X141.421 Y84.930 E12.6916
G1 X141.873 Y84.646 E12.7093
G1 X142.210 Y84.639 E12.7205
G1 X142.299 Y85.062 E12.7349
G1 X142.053 Y85.560 E12.7534
G1 X138.223 Y92.146 E13.0068
G1 X138.145 Y92.563 E13.0209
G1 X134.376 Y94.725 E13.1654
G1 X132.390 Y95.832 E13.2411
G1 X130.396 Y94.739 E13.3167
G1 X126.611 Y92.605 E13.4612
G1 X126.530 Y92.189 E13.4753
G1 X122.656 Y85.638 E13.7284
G1 X122.430 Y85.136 E13.7467
G1 X122.500 Y84.712 E13.7611
G1 X122.844 Y84.732 E13.7725
G1 X123.280 Y84.996 E13.7895
G1 X124.261 Y85.828 E13.8322
G0 X130.658 Y91.323 F10800
G1 X132.373 Y91.573 E13.8899 F1800
G1 X134.182 Y91.297 E13.9508
G1 X132.890 Y92.038 E14.0003
G1 X132.377 Y92.324 E14.0198
G1 X131.863 Y92.043 E14.0393
G1 X130.647 Y91.357 E14.0858
G0 X130.832 Y93.223 F10800
G1 X127.957 Y91.602 E14.1955 F1800
G1 X126.854 Y89.736 E14.2676
G1 X128.484 Y89.452 E14.3227
G1 X132.368 Y90.018 E14.4532
G1 X136.248 Y89.426 E14.5838
G1 X137.881 Y89.698 E14.6388
G1 X136.793 Y91.569 E14.7108
G1 X133.633 Y93.381 E14.8320
G1 X132.383 Y94.078 E14.8796
G1 X131.129 Y93.391 E14.9271
G1 X130.998 Y93.317 E14.9321
G0 X131.564 Y94.067 F10800
G1 X130.946 Y93.728 E14.9556 F1800
G1 X127.630 Y91.858 E15.0822
G1 X127.612 Y91.769 E15.0852
G1 X125.725 Y88.578 E15.2085
G1 X126.668 Y89.378 E15.2497
G1 X128.478 Y89.063 E15.3108
G1 X132.367 Y89.629 E15.4415
G1 X136.251 Y89.037 E15.5721
G1 X138.065 Y89.339 E15.6333
G1 X139.001 Y88.532 E15.6744
G1 X137.138 Y91.735 E15.7976
G1 X137.122 Y91.823 E15.8006
G1 X133.819 Y93.717 E15.9273
G1 X132.385 Y94.517 E15.9819
G1 X131.732 Y94.158 E16.0066
G0 X132.303 Y94.909 F10800
G1 X130.763 Y94.065 E16.0651 F1800
G1 X127.290 Y92.107 E16.1977
G1 X127.252 Y91.909 E16.2044
G1 X124.238 Y86.814 E16.4013
G1 X126.777 Y88.969 E16.5120
G1 X128.473 Y88.673 E16.5693
G1 X132.365 Y89.240 E16.7001
G1 X136.253 Y88.647 E16.8309
G1 X137.952 Y88.930 E16.8882
G1 X140.475 Y86.756 E16.9989
G1 X137.500 Y91.872 E17.1958
G1 X137.463 Y92.070 E17.2024
G1 X134.005 Y94.053 E17.3350
G1 X132.470 Y94.908 E17.3935
G0 X132.461 Y96.615 F10800
G1 X133.419 Y97.541 E17.4378 F1800
G1 X132.436 Y108.363 E17.7992
G1 X131.374 Y97.548 E18.1607
G1 X132.324 Y96.615 E18.2049
G0 X132.955 Y97.624 F10800
G1 X133.023 Y97.690 E18.2081 F1800
G1 X132.421 Y104.319 E18.4295
G1 X131.771 Y97.694 E18.6508
G1 X132.394 Y97.083 E18.6799
G1 X132.817 Y97.491 E18.6995
G0 X132.557 Y98.613 F10800
G1 X132.406 Y100.274 E18.7549 F1800
G1 X132.167 Y97.841 E18.8362
G1 X132.396 Y97.617 E18.8469
G1 X132.627 Y97.840 E18.8576
G1 X132.574 Y98.422 E18.8770
G0 X130.103 Y92.372 F10800
G1 X128.231 Y91.316 E18.9485 F1800
G1 X127.465 Y90.020 E18.9986
G1 X128.489 Y89.841 E19.0331
G1 X132.369 Y90.407 E19.1636
G1 X136.245 Y89.816 E19.2940
G1 X137.272 Y89.986 E19.3286
G1 X136.517 Y91.285 E19.3786
G1 X133.448 Y93.046 E19.4963
G1 X132.382 Y93.640 E19.5368
G1 X131.313 Y93.054 E19.5774
G1 X130.269 Y92.465 E19.6172
G0 X129.374 Y91.520 F10800
G1 X128.505 Y91.030 E19.6504 F1800
G1 X128.076 Y90.304 E19.6785
G1 X128.494 Y90.231 E19.6926
G1 X132.370 Y90.795 E19.8229
G1 X136.243 Y90.205 E19.9532
G1 X136.663 Y90.275 E19.9673
G1 X136.240 Y91.001 E19.9953
G1 X133.262 Y92.710 E20.1095
G1 X132.380 Y93.201 E20.1431
G1 X131.496 Y92.717 E20.1766
G1 X129.541 Y91.614 E20.2513
G0 X128.731 Y90.662 F10800
G1 X128.726 Y90.653 E20.2516 F1800
G1 X132.372 Y91.184 E20.3741
G1 X136.016 Y90.629 E20.4967
G1 X135.964 Y90.718 E20.5001
G1 X133.076 Y92.374 E20.6109
G1 X132.379 Y92.763 E20.6374
G1 X131.680 Y92.380 E20.6639
G1 X128.863 Y90.791 E20.7715
G0 X123.993 Y87.149 F10800
G1 X122.994 Y85.459 E20.8368 F1800
G1 X122.877 Y85.200 E20.8462
G1 X123.059 Y85.310 E20.8533
G1 X126.887 Y88.559 E21.0203
G1 X128.468 Y88.284 E21.0737
G1 X132.364 Y88.851 E21.2046
G1 X136.256 Y88.258 E21.3356
G1 X137.840 Y88.521 E21.3890
G1 X141.646 Y85.241 E21.5561
G1 X141.848 Y85.114 E21.5640
G1 X141.719 Y85.376 E21.5737
G1 X137.862 Y92.009 E21.8289
G1 X137.804 Y92.316 E21.8393
G1 X134.191 Y94.389 E21.9779
G1 X132.388 Y95.393 E22.0465
G1 X130.579 Y94.402 E22.1151
G1 X126.951 Y92.356 E22.2537
G1 X126.891 Y92.049 E22.2641
G1 X124.091 Y87.314 E22.4471
; ------------------------------------
; Layer #2
; ------------------------------------
G21 ; mm
G90 ; abs
G92 E0 ; reset extr
M106 S0
;segType:Perimeter
G0 F4800 E-1.0000
G0 F2400 Z0.600
G0 X121.902 Y83.786 F10800
G0 F4800 E0.0000
G1 X122.196 Y83.160 E0.0230 F2159
G1 X122.301 Y82.531 E0.0442
G1 X122.418 Y82.407 E0.0499
G1 X123.554 Y83.344 E0.0989
G1 X124.224 Y83.749 E0.1249
G1 X127.270 Y86.334 E0.2578
G1 X128.737 Y86.078 E0.3073
G1 X132.357 Y86.605 E0.4289
G1 X135.971 Y86.054 E0.5506
G1 X137.441 Y86.299 E0.6001
G1 X140.468 Y83.690 E0.7330
G1 X141.134 Y83.280 E0.7591
G1 X142.264 Y82.335 E0.8080
G1 X142.382 Y82.458 E0.8137
G1 X142.501 Y83.143 E0.8368
G1 X143.241 Y83.127 E0.8615
G1 X143.463 Y83.370 E0.8724
G1 X143.573 Y84.005 E0.8938
G1 X144.309 Y84.026 E0.9183
G1 X144.493 Y84.244 E0.9278
G1 X143.852 Y85.355 E0.9705
G1 X143.345 Y86.379 E1.0085
G1 X139.872 Y92.353 E1.2383
G1 X139.625 Y93.676 E1.2831
G1 X135.360 Y96.122 E1.4466
G1 X134.034 Y96.860 E1.4971
G1 X134.669 Y97.474 E1.5264
G1 X134.526 Y99.038 E1.5787
G1 X133.316 Y112.372 E2.0240
G1 X132.451 Y112.390 E2.0528
G1 X131.585 Y112.378 E2.0816
G1 X130.277 Y99.054 E2.5269
G1 X130.122 Y97.491 E2.5791
G1 X130.753 Y96.872 E2.6085
G1 X129.423 Y96.143 E2.6589
G1 X125.140 Y93.729 E2.8225
G1 X124.883 Y92.408 E2.8672
G1 X121.366 Y86.460 E3.0970
G1 X120.852 Y85.439 E3.1351
G1 X120.203 Y84.333 E3.1777
G1 X120.385 Y84.113 E3.1872
G1 X121.121 Y84.087 E3.2117
G1 X121.227 Y83.451 E3.2331
G1 X121.446 Y83.207 E3.2441
G1 X122.130 Y83.216 E3.2668
G1 X122.791 Y83.036
G0 F4800 E2.2668
G0 X122.687 Y83.151 F10800
G0 F4800 E3.2668
;segType:Loop
G1 X123.324 Y83.676 E3.2943 F3600
G1 X123.992 Y84.080 E3.3202
G1 X127.155 Y86.765 E3.4582
G1 X128.743 Y86.488 E3.5118
G1 X132.358 Y87.014 E3.6333
G1 X135.969 Y86.463 E3.7548
G1 X137.559 Y86.728 E3.8084
G1 X140.703 Y84.018 E3.9465
G1 X141.367 Y83.610 E3.9724
G1 X142.073 Y83.019 E4.0030
G1 X142.166 Y83.554 E4.0211
G1 X143.089 Y83.557 E4.0518
G1 X143.235 Y84.400 E4.0802
G1 X143.929 Y84.419 E4.1033
G1 X143.500 Y85.162 E4.1319
G1 X142.994 Y86.186 E4.1698
G1 X139.491 Y92.209 E4.4016
G1 X139.266 Y93.417 E4.4424
G1 X135.164 Y95.769 E4.5997
G1 X133.364 Y96.772 E4.6682
G1 X134.253 Y97.631 E4.7094
G1 X134.128 Y99.001 E4.7551
G1 X132.950 Y111.975 E5.1884
G1 X132.449 Y111.986 E5.2051
G1 X131.948 Y111.979 E5.2217
G1 X130.675 Y99.014 E5.6550
G1 X130.540 Y97.645 E5.7008
G1 X131.423 Y96.779 E5.7419
G1 X129.616 Y95.789 E5.8105
G1 X125.497 Y93.467 E5.9677
G1 X125.262 Y92.261 E6.0086
G1 X121.716 Y86.264 E6.2403
G1 X121.203 Y85.243 E6.2783
G1 X120.768 Y84.504 E6.3068
G1 X121.462 Y84.479 E6.3299
G1 X121.621 Y83.614 E6.3592
G1 X122.525 Y83.626 E6.3892
G1 X122.598 Y83.185 E6.4041
G0 F4800 E5.4041
G0 X123.181 Y84.049 F10800
G0 F4800 E6.4041
;segType:HShell
G1 X123.765 Y84.402 E6.4268 F1800
G1 X127.043 Y87.184 E6.5698
G1 X128.748 Y86.887 E6.6274
G1 X132.359 Y87.413 E6.7488
G1 X135.966 Y86.862 E6.8701
G1 X137.674 Y87.148 E6.9277
G1 X140.932 Y84.339 E7.0708
G1 X141.594 Y83.932 E7.0966
G1 X141.805 Y83.756 E7.1058
G1 X141.838 Y83.948 E7.1122
G1 X142.761 Y83.951 E7.1429
G1 X142.906 Y84.785 E7.1711
G1 X143.260 Y84.795 E7.1829
G1 X143.157 Y84.974 E7.1898
G1 X142.650 Y85.998 E7.2277
G1 X139.120 Y92.068 E7.4613
G1 X138.916 Y93.164 E7.4984
G1 X134.974 Y95.424 E7.6495
G1 X132.710 Y96.686 E7.7357
G1 X133.847 Y97.785 E7.7883
G1 X133.739 Y98.965 E7.8277
G1 X132.593 Y111.585 E8.2492
G1 X132.302 Y111.586 E8.2589
G1 X131.064 Y98.975 E8.6804
G1 X130.947 Y97.796 E8.7198
G1 X132.077 Y96.688 E8.7724
G1 X129.804 Y95.443 E8.8586
G1 X125.845 Y93.211 E9.0097
G1 X125.632 Y92.117 E9.0468
G1 X122.058 Y86.073 E9.2803
G1 X121.545 Y85.053 E9.3183
G1 X121.440 Y84.875 E9.3252
G1 X121.788 Y84.862 E9.3368
G1 X121.945 Y84.013 E9.3655
G1 X122.854 Y84.026 E9.3958
G1 X122.887 Y83.825 E9.4026
G1 X122.887 Y83.825
G0 X123.801 Y84.935 F10800
G1 X126.933 Y87.594 E9.5392 F1800
G1 X128.754 Y87.276 E9.6007
G1 X132.361 Y87.802 E9.7219
G1 X135.963 Y87.252 E9.8431
G1 X137.786 Y87.556 E9.9046
G1 X141.156 Y84.652 E10.0525
G1 X141.677 Y84.332 E10.0729
G1 X142.441 Y84.334 E10.0983
G1 X142.585 Y85.161 E10.1262
G1 X142.638 Y85.162 E10.1280
G1 X142.316 Y85.814 E10.1522
G1 X138.759 Y91.931 E10.3875
G1 X138.575 Y92.917 E10.4209
G1 X134.788 Y95.088 E10.5661
G1 X132.392 Y96.424 E10.6573
G1 X129.987 Y95.106 E10.7485
G1 X126.184 Y92.962 E10.8937
G1 X125.993 Y91.977 E10.9271
G1 X122.392 Y85.887 E11.1624
G1 X122.107 Y85.236 E11.1860
G1 X122.260 Y84.402 E11.2142
G1 X123.042 Y84.413 E11.2403
G1 X123.543 Y84.716 E11.2597
G1 X123.655 Y84.811 E11.2646
G0 X124.357 Y85.910 F10800
G1 X126.824 Y88.003 E11.3722 F1800
G1 X128.759 Y87.666 E11.4375
G1 X132.362 Y88.191 E11.5586
G1 X135.960 Y87.642 E11.6797
G1 X137.899 Y87.965 E11.7451
G1 X141.380 Y84.965 E11.8979
G1 X141.783 Y84.717 E11.9137
G1 X142.121 Y84.718 E11.9249
G1 X142.202 Y85.184 E11.9406
G1 X141.981 Y85.630 E11.9572
G1 X138.397 Y91.794 E12.1944
G1 X138.233 Y92.670 E12.2240
G1 X134.602 Y94.753 E12.3632
G1 X132.391 Y95.985 E12.4474
G1 X130.171 Y94.769 E12.5316
G1 X126.524 Y92.713 E12.6709
G1 X126.353 Y91.837 E12.7006
G1 X122.730 Y85.710 E12.9373
G1 X122.503 Y85.189 E12.9562
G1 X122.576 Y84.791 E12.9697
G1 X122.935 Y84.796 E12.9816
G1 X123.322 Y85.031 E12.9966
G1 X124.212 Y85.786 E13.0355
G0 X128.881 Y90.874 F10800
G1 X128.878 Y90.858 E13.0360 F1800
G1 X128.620 Y90.423 E13.0528
G1 X128.796 Y90.392 E13.0588
G1 X132.371 Y90.913 E13.1789
G1 X135.941 Y90.368 E13.2991
G1 X136.119 Y90.398 E13.3050
G1 X135.866 Y90.834 E13.3218
G1 X135.845 Y90.944 E13.3255
G1 X133.302 Y92.402 E13.4230
G1 X132.379 Y92.916 E13.4582
G1 X131.454 Y92.409 E13.4933
G1 X128.982 Y91.015 E13.5876
G0 X129.634 Y90.903 F10800
G1 X132.372 Y91.301 E13.6797 F1800
G1 X135.202 Y90.870 E13.7749
G1 X133.116 Y92.066 E13.8549
G1 X132.378 Y92.478 E13.8830
G1 X131.637 Y92.072 E13.9111
G1 X129.623 Y90.936 E13.9880
G0 X131.617 Y91.580 F10800
G1 X132.373 Y91.690 E14.0134 F1800
G1 X133.227 Y91.560 E14.0421
G1 X132.376 Y92.039 E14.0746
G1 X131.606 Y91.613 E14.1039
G0 X132.304 Y95.063 F10800
G1 X130.537 Y94.095 E14.1709 F1800
G1 X127.202 Y92.214 E14.2982
G1 X127.075 Y91.557 E14.3204
G1 X124.301 Y86.867 E14.5017
G1 X126.605 Y88.822 E14.6022
G1 X128.770 Y88.445 E14.6753
G1 X132.364 Y88.968 E14.7961
G1 X135.955 Y88.421 E14.9169
G1 X138.123 Y88.782 E14.9900
G1 X140.413 Y86.809 E15.0906
G1 X137.674 Y91.520 E15.2718
G1 X137.551 Y92.177 E15.2940
G1 X134.231 Y94.081 E15.4213
G1 X132.471 Y95.062 E15.4884
G0 X132.957 Y97.988 F10800
G1 X133.056 Y98.084 E15.4929 F1800
G1 X132.424 Y105.038 E15.7252
G1 X131.741 Y98.089 E15.9574
G1 X132.396 Y97.447 E15.9879
G1 X132.819 Y97.856 E16.0075
G0 X132.593 Y98.965 F10800
G1 X132.409 Y100.996 E16.0753 F1800
G1 X132.138 Y98.236 E16.1675
G1 X132.398 Y97.981 E16.1797
G1 X132.660 Y98.234 E16.1918
G1 X132.611 Y98.773 E16.2098
G0 X132.463 Y96.979 F10800
G1 X133.452 Y97.935 E16.2555 F1800
G1 X133.360 Y98.930 E16.2887
G1 X132.438 Y109.083 E16.6278
G1 X131.344 Y97.942 E17.0001
G1 X132.326 Y96.980 E17.0459
G0 X131.565 Y94.220 F10800
G1 X130.720 Y93.757 E17.0779 F1800
G1 X127.542 Y91.965 E17.1993
G1 X127.435 Y91.418 E17.2178
G1 X125.787 Y88.630 E17.3256
G1 X126.496 Y89.231 E17.3565
G1 X128.775 Y88.834 E17.4334
G1 X132.366 Y89.357 E17.5541
G1 X135.952 Y88.810 E17.6748
G1 X138.236 Y89.191 E17.7518
G1 X138.939 Y88.585 E17.7827
G1 X137.312 Y91.383 E17.8903
G1 X137.210 Y91.931 E17.9088
G1 X134.045 Y93.745 E18.0302
G1 X132.386 Y94.670 E18.0934
G1 X131.732 Y94.312 E18.1181
G0 X130.821 Y93.373 F10800
G1 X127.881 Y91.716 E18.2304 F1800
G1 X127.796 Y91.278 E18.2452
G1 X126.787 Y89.571 E18.3112
G1 X128.780 Y89.224 E18.3785
G1 X132.367 Y89.746 E18.4990
G1 X135.950 Y89.200 E18.6196
G1 X137.947 Y89.533 E18.6869
G1 X136.951 Y91.245 E18.7528
G1 X136.869 Y91.684 E18.7676
G1 X133.859 Y93.409 E18.8830
G1 X132.384 Y94.232 E18.9392
G1 X130.987 Y93.466 E18.9922
G0 X130.092 Y92.522 F10800
G1 X128.220 Y91.467 E19.0636 F1800
G1 X128.157 Y91.138 E19.0748
G1 X127.398 Y89.855 E19.1243
G1 X128.785 Y89.613 E19.1712
G1 X132.368 Y90.135 E19.2916
G1 X135.947 Y89.589 E19.4120
G1 X137.337 Y89.821 E19.4589
G1 X136.589 Y91.108 E19.5084
G1 X136.528 Y91.437 E19.5196
G1 X133.673 Y93.074 E19.6290
G1 X132.383 Y93.793 E19.6781
G1 X131.087 Y93.083 E19.7273
G1 X130.258 Y92.616 E19.7589
G0 X129.363 Y91.671 F10800
G1 X128.560 Y91.217 E19.7896 F1800
G1 X128.517 Y90.998 E19.7970
G1 X128.009 Y90.139 E19.8302
G1 X128.790 Y90.003 E19.8566
G1 X132.369 Y90.524 E19.9769
G1 X135.944 Y89.979 E20.0972
G1 X136.728 Y90.110 E20.1236
G1 X136.228 Y90.971 E20.1567
G1 X136.187 Y91.190 E20.1642
G1 X133.488 Y92.738 E20.2677
G1 X132.381 Y93.355 E20.3098
G1 X131.270 Y92.746 E20.3519
G1 X129.530 Y91.764 E20.4184
G0 X123.985 Y87.082 F10800
G1 X123.069 Y85.533 E20.4782 F1800
G1 X122.946 Y85.252 E20.4884
G1 X123.100 Y85.345 E20.4944
G1 X126.714 Y88.413 E20.6521
G1 X128.764 Y88.055 E20.7213
G1 X132.363 Y88.579 E20.8423
G1 X135.958 Y88.031 E20.9632
G1 X138.011 Y88.373 E21.0325
G1 X141.603 Y85.278 E21.1902
G1 X141.785 Y85.166 E21.1973
G1 X141.646 Y85.447 E21.2077
G1 X138.036 Y91.657 E21.4467
G1 X137.892 Y92.424 E21.4726
G1 X134.417 Y94.417 E21.6059
G1 X132.389 Y95.547 E21.6831
G1 X130.354 Y94.432 E21.7603
G1 X126.863 Y92.464 E21.8935
G1 X126.714 Y91.697 E21.9195
G1 X124.082 Y87.247 E22.0915
;segType:Support
G0 F4800 E21.0915
G0 X130.000 Y77.500 F10800
G0 F4800 E22.0915
G1 X137.500 Y77.500 E22.3035 F5400
G1 X137.500 Y80.000 E22.3742
G1 X130.000 Y80.000 E22.5862
G1 X130.000 Y82.500 E22.6569
G1 X132.500 Y82.500 E22.7276
G1 X132.500 Y85.000 E22.7982
G1 X130.000 Y85.000 E22.8689
; ------------------------------------
; Layer #3
; ------------------------------------
G21 ; mm
G90 ; abs
G92 E0 ; reset extr
M106 S255
;segType:Support
G0 F4800 E-1.0000
G0 F2400 Z0.800
G0 X130.000 Y85.000 F10800
G0 F4800 E0.0000
G1 X132.500 Y85.000 E0.0707 F5400
G1 X132.500 Y82.500 E0.1414
G1 X130.000 Y82.500 E0.2120
G1 X130.000 Y80.000 E0.2827
G1 X137.500 Y80.000 E0.4947
G1 X137.500 Y77.500 E0.5654
G1 X130.000 Y77.500 E0.7775
G0 F4800 E-0.2225
G0 X123.932 Y82.273 F10800
G0 X121.909 Y83.864
G0 F4800 E0.7775
;segType:Perimeter
G1 X122.203 Y83.239 E0.8004 F2159
G1 X122.285 Y82.748 E0.8170
G1 X122.498 Y82.523 E0.8273
G1 X123.372 Y83.243 E0.8650
G1 X124.265 Y83.783 E0.8997
G1 X127.097 Y86.187 E1.0233
G1 X129.033 Y85.850 E1.0886
G1 X132.356 Y86.333 E1.2003
G1 X135.673 Y85.827 E1.3119
G1 X137.612 Y86.151 E1.3773
G1 X140.427 Y83.725 E1.5009
G1 X141.316 Y83.178 E1.5356
G1 X142.185 Y82.451 E1.5733
G1 X142.400 Y82.674 E1.5836
G1 X142.495 Y83.222 E1.6021
G1 X143.078 Y83.210 E1.6215
G1 X143.407 Y83.570 E1.6377
G1 X143.490 Y84.053 E1.6540
G1 X144.037 Y84.068 E1.6722
G1 X144.332 Y84.419 E1.6874
G1 X143.948 Y85.084 E1.7130
G1 X143.273 Y86.450 E1.7636
G1 X140.046 Y92.000 E1.9772
G1 X139.713 Y93.783 E2.0375
G1 X135.586 Y96.150 E2.1957
G1 X133.897 Y97.091 E2.2600
G1 X134.702 Y97.868 E2.2972
G1 X134.508 Y99.985 E2.3680
G1 X133.372 Y112.497 E2.7858
G1 X132.451 Y112.516 E2.8164
G1 X131.530 Y112.503 E2.8471
G1 X130.302 Y100.001 E3.2649
G1 X130.093 Y97.885 E3.3356
G1 X130.892 Y97.102 E3.3729
G1 X129.197 Y96.173 E3.4371
G1 X125.053 Y93.836 E3.5954
G1 X124.707 Y92.056 E3.6557
G1 X121.439 Y86.530 E3.8692
G1 X120.754 Y85.169 E3.9199
G1 X120.365 Y84.507 E3.9455
G1 X120.658 Y84.154 E3.9607
G1 X121.204 Y84.134 E3.9789
G1 X121.284 Y83.651 E3.9952
G1 X121.610 Y83.288 E4.0114
G1 X122.137 Y83.295 E4.0289
G1 X122.798 Y83.114
G0 F4800 E3.0289
G0 X122.698 Y83.209 F10800
G0 F4800 E4.0289
;segType:Loop
G1 X123.142 Y83.575 E4.0481 F3600
G1 X124.032 Y84.114 E4.0827
G1 X126.982 Y86.618 E4.2114
G1 X129.039 Y86.259 E4.2808
G1 X132.357 Y86.742 E4.3923
G1 X135.670 Y86.237 E4.5038
G1 X137.730 Y86.580 E4.5733
G1 X140.662 Y84.054 E4.7020
G1 X141.549 Y83.508 E4.7366
G1 X142.063 Y83.077 E4.7589
G1 X142.160 Y83.633 E4.7777
G1 X142.906 Y83.618 E4.8025
G1 X143.033 Y83.757 E4.8088
G1 X143.153 Y84.448 E4.8321
G1 X143.841 Y84.467 E4.8550
G1 X143.596 Y84.892 E4.8713
G1 X142.921 Y86.257 E4.9220
G1 X139.665 Y91.856 E5.1374
G1 X139.354 Y93.524 E5.1938
G1 X135.391 Y95.797 E5.3458
G1 X133.227 Y97.002 E5.4281
G1 X134.286 Y98.025 E5.4771
G1 X134.110 Y99.948 E5.5413
G1 X133.007 Y112.100 E5.9472
G1 X132.450 Y112.111 E5.9657
G1 X131.892 Y112.104 E5.9842
G1 X130.700 Y99.961 E6.3901
G1 X130.510 Y98.039 E6.4543
G1 X131.561 Y97.008 E6.5033
G1 X129.390 Y95.819 E6.5856
G1 X125.410 Y93.575 E6.7376
G1 X125.086 Y91.909 E6.7940
G1 X121.789 Y86.335 E7.0094
G1 X121.104 Y84.973 E7.0601
G1 X120.856 Y84.551 E7.0764
G1 X121.545 Y84.526 E7.0993
G1 X121.659 Y83.835 E7.1226
G1 X121.785 Y83.695 E7.1289
G1 X122.531 Y83.705 E7.1537
G1 X122.608 Y83.243 E7.1693
G0 F4800 E6.1693
G0 X123.588 Y84.100 F10800
G0 F4800 E7.1693
;segType:Infill
G1 X122.407 Y84.100 E7.2085 F5400
;segType:HShell
G0 X122.109 Y84.170 F10800
G1 X121.984 Y84.329 E7.2153 F1800
G1 X122.030 Y84.093 E7.2233
G1 X122.073 Y84.093 E7.2247
;segType:Infill
G0 X121.791 Y84.885 F10800
G1 X121.791 Y85.669 E7.2508 F5400
G0 X123.189 Y88.150 F10800
G1 X141.495 Y88.150 E7.8597 F5400
G0 X141.820 Y87.592 F10800
G1 X141.820 Y83.607 E7.9922 F5400
;segType:HShell
G0 X142.636 Y84.040 F10800
G1 X142.686 Y84.041 E7.9939 F1800
G1 X142.726 Y84.271 E8.0016
G1 X142.600 Y84.114 E8.0084
;segType:Infill
G0 X142.345 Y84.100 F10800
G1 X141.019 Y84.100 E8.0525 F5400
G0 X137.814 Y86.775 F10800
G1 X137.814 Y93.701 E8.2828 F5400
G0 X139.290 Y92.200 F10800
G1 X125.454 Y92.200 E8.7430 F5400
G0 X129.803 Y87.389 F10800
G1 X129.803 Y95.349 E9.0077 F5400
G0 X131.437 Y96.249 F10800
G1 X133.334 Y96.249 E9.0708 F5400
;segType:HShell
G0 X133.021 Y97.415 F10800
G1 X133.064 Y97.391 E9.0725 F1800
G1 X133.880 Y98.179 E9.1102
G1 X133.834 Y98.689 E9.1272
G1 X132.801 Y97.691 E9.1750
G1 X133.039 Y97.559 E9.1840
G1 X133.007 Y97.527 E9.1855
;segType:Infill
G0 X132.938 Y108.399 F10800
G1 X131.934 Y108.399 E9.2189 F5400
G0 X131.536 Y104.349 F10800
G1 X133.306 Y104.349 E9.2778 F5400
G0 X133.673 Y100.299 F10800
G1 X131.138 Y100.299 E9.3621 F5400
;segType:HShell
G0 X131.811 Y97.441 F10800
G1 X131.854 Y97.465 E9.3637 F1800
G1 X131.754 Y97.563 E9.3684
G1 X131.993 Y97.694 E9.3775
G1 X130.967 Y98.699 E9.4252
G1 X130.917 Y98.190 E9.4422
G1 X131.659 Y97.462 E9.4768
;segType:Infill
G0 X133.808 Y95.985 F10800
G1 X133.808 Y87.541 E9.7577 F5400
G0 X125.797 Y92.875 F10800
G1 X125.797 Y85.876 E9.9905 F5400
;segType:HShell
G0 X127.454 Y86.936 F10800
G1 X129.045 Y86.659 E10.0442 F1800
G1 X132.358 Y87.141 E10.1555
G1 X135.668 Y86.636 E10.2669
G1 X137.355 Y86.918 E10.3238
G1 X137.219 Y87.035 E10.3297
G1 X136.564 Y86.926 E10.3518
G1 X132.360 Y87.567 E10.4933
G1 X128.150 Y86.954 E10.6348
G1 X127.497 Y87.068 E10.6568
G1 X127.433 Y87.014 E10.6596
; ------------------------------------
; Layer #4
; ------------------------------------
G21 ; mm
G90 ; abs
G92 E0 ; reset extr
M106 S255
;segType:Support
G0 F4800 E-1.0000
G0 F2400 Z1.000
G0 X130.674 Y85.000 F10800
G0 F4800 E0.0000
G1 X132.500 Y85.000 E0.0516 F5400
G1 X132.500 Y82.500 E0.1223
G1 X130.000 Y82.500 E0.1930
G1 X130.000 Y80.000 E0.2637
G1 X137.500 Y80.000 E0.4757
G1 X137.500 Y77.500 E0.5464
G1 X130.000 Y77.500 E0.7584
G0 F4800 E-0.2416
G0 X123.937 Y82.333 F10800
G0 X121.916 Y83.943
G0 F4800 E0.7584
;segType:Perimeter
G1 X122.210 Y83.318 E0.7814 F2159
G1 X122.269 Y82.964 E0.7933
G1 X122.577 Y82.638 E0.8083
G1 X123.190 Y83.142 E0.8346
G1 X124.306 Y83.818 E0.8781
G1 X126.925 Y86.041 E0.9923
G1 X129.330 Y85.621 E1.0735
G1 X132.355 Y86.062 E1.1752
G1 X135.375 Y85.601 E1.2768
G1 X137.783 Y86.003 E1.3580
G1 X140.386 Y83.759 E1.4723
G1 X141.498 Y83.076 E1.5157
G1 X142.106 Y82.567 E1.5421
G1 X142.417 Y82.891 E1.5570
G1 X142.488 Y83.301 E1.5709
G1 X142.914 Y83.292 E1.5850
G1 X143.351 Y83.771 E1.6066
G1 X143.408 Y84.101 E1.6177
G1 X143.764 Y84.111 E1.6296
G1 X144.171 Y84.594 E1.6506
G1 X144.045 Y84.813 E1.6590
G1 X143.201 Y86.521 E1.7224
G1 X140.220 Y91.648 E1.9196
G1 X139.801 Y93.890 E1.9955
G1 X135.812 Y96.178 E2.1484
G1 X133.761 Y97.321 E2.2265
G1 X134.735 Y98.262 E2.2716
G1 X134.490 Y100.933 E2.3608
G1 X133.429 Y112.622 E2.7511
G1 X132.451 Y112.641 E2.7837
G1 X131.474 Y112.629 E2.8162
G1 X130.327 Y100.948 E3.2066
G1 X130.063 Y98.279 E3.2958
G1 X131.030 Y97.331 E3.3408
G1 X128.971 Y96.203 E3.4189
G1 X124.965 Y93.944 E3.5719
G1 X124.530 Y91.705 E3.6477
G1 X121.512 Y86.601 E3.8450
G1 X120.655 Y84.899 E3.9083
G1 X120.527 Y84.681 E3.9167
G1 X120.930 Y84.194 E3.9377
G1 X121.287 Y84.182 E3.9496
G1 X121.341 Y83.851 E3.9608
G1 X121.774 Y83.369 E3.9823
G1 X122.143 Y83.374 E3.9946
G1 X122.804 Y83.193
G0 F4800 E2.9946
G0 X122.708 Y83.267 F10800
G0 F4800 E3.9946
;segType:Loop
G1 X122.959 Y83.474 E4.0054 F3600
G1 X124.074 Y84.149 E4.0487
G1 X126.810 Y86.471 E4.1681
G1 X129.336 Y86.031 E4.2534
G1 X132.356 Y86.471 E4.3549
G1 X135.372 Y86.010 E4.4564
G1 X137.901 Y86.432 E4.5417
G1 X140.621 Y84.088 E4.6611
G1 X141.730 Y83.406 E4.7044
G1 X142.054 Y83.136 E4.7184
G1 X142.153 Y83.713 E4.7379
G1 X142.743 Y83.700 E4.7575
G1 X142.977 Y83.957 E4.7691
G1 X143.071 Y84.496 E4.7872
G1 X143.575 Y84.510 E4.8040
G1 X143.684 Y84.639 E4.8096
G1 X142.849 Y86.328 E4.8723
G1 X139.839 Y91.503 E5.0714
G1 X139.442 Y93.631 E5.1434
G1 X135.616 Y95.825 E5.2901
G1 X133.091 Y97.233 E5.3863
G1 X134.319 Y98.419 E5.4431
G1 X134.092 Y100.896 E5.5258
G1 X133.063 Y112.225 E5.9041
G1 X132.450 Y112.237 E5.9245
G1 X131.837 Y112.229 E5.9449
G1 X130.725 Y100.908 E6.3233
G1 X130.480 Y98.434 E6.4060
G1 X131.700 Y97.238 E6.4628
G1 X129.164 Y95.849 E6.5590
G1 X125.322 Y93.682 E6.7057
G1 X124.909 Y91.558 E6.7776
G1 X121.862 Y86.405 E6.9768
G1 X121.015 Y84.722 E7.0394
G1 X121.123 Y84.592 E7.0450
G1 X121.627 Y84.574 E7.0618
G1 X121.717 Y84.035 E7.0800
G1 X121.949 Y83.776 E7.0916
G1 X122.538 Y83.784 E7.1112
G1 X122.618 Y83.301 E7.1274
G0 F4800 E6.1274
G0 X122.395 Y84.253 F10800
G0 F4800 E7.1274
;segType:HShell
G1 X121.991 Y84.769 E7.1492 F1800
G1 X122.082 Y84.215 E7.1679
G1 X122.120 Y84.173 E7.1698
G1 X122.359 Y84.176 E7.1777
G0 X121.781 Y85.037 F10800
G1 X121.678 Y85.168 E7.1833 F1800
G1 X121.578 Y84.971 E7.1907
G1 X121.745 Y84.965 E7.1962
;segType:Infill
G0 X121.791 Y85.333 F10800
G1 X121.791 Y85.595 E7.2049 F5400
G0 X123.221 Y88.150 F10800
G1 X141.464 Y88.150 E7.8117 F5400
G0 X141.820 Y87.538 F10800
G1 X141.820 Y83.884 E7.9332 F5400
G0 X141.035 Y84.100 F10800
G1 X141.992 Y84.100 E7.9651 F5400
;segType:HShell
G0 X142.336 Y84.104 F10800
G1 X142.575 Y84.099 E7.9730 F1800
G1 X142.612 Y84.140 E7.9749
G1 X142.709 Y84.694 E7.9936
G1 X142.301 Y84.181 E8.0154
G0 X142.956 Y84.887 F10800
G1 X143.123 Y84.892 E8.0209 F1800
G1 X143.025 Y85.090 E8.0282
G1 X142.921 Y84.959 E8.0338
;segType:Infill
G0 X137.814 Y86.774 F10800
G1 X137.814 Y93.859 E8.2694 F5400
G0 X133.808 Y96.140 F10800
G1 X133.808 Y87.269 E8.5644 F5400
G0 X129.803 Y87.118 F10800
G1 X129.803 Y95.506 E8.8434 F5400
G0 X131.219 Y97.305 F10800
G0 X131.070 Y100.299
G1 X133.741 Y100.299 E8.9323 F5400
G0 X133.373 Y104.349 F10800
G1 X131.468 Y104.349 E8.9956 F5400
G0 X131.866 Y108.399 F10800
G1 X133.006 Y108.399 E9.0336 F5400
G0 X133.808 Y99.559 F10800
G1 X133.808 Y99.293 E9.0424 F5400
;segType:HShell
G0 X132.885 Y97.645 F10800
G1 X132.927 Y97.621 E9.0440 F1800
G1 X133.913 Y98.573 E9.0896
G1 X133.866 Y99.082 E9.1066
G1 X132.664 Y97.922 E9.1622
G1 X132.903 Y97.789 E9.1713
G1 X132.870 Y97.758 E9.1728
G0 X131.949 Y97.670 F10800
G1 X131.993 Y97.694 E9.1744 F1800
G1 X131.892 Y97.792 E9.1791
G1 X132.131 Y97.923 E9.1882
G1 X130.938 Y99.093 E9.2437
G1 X130.887 Y98.584 E9.2608
G1 X131.798 Y97.692 E9.3032
;segType:Infill
G0 X131.156 Y96.249 F10800
G1 X133.611 Y96.249 E9.3848 F5400
G0 X139.290 Y92.200 F10800
G1 X125.454 Y92.200 E9.8450 F5400
;segType:HShell
G0 X127.281 Y86.789 F10800
G1 X129.341 Y86.430 E9.9145 F1800
G1 X132.358 Y86.870 E10.0159
G1 X135.370 Y86.410 E10.1173
G1 X137.526 Y86.769 E10.1900
G1 X137.390 Y86.887 E10.1959
G1 X136.266 Y86.699 E10.2338
G1 X132.359 Y87.296 E10.3653
G1 X128.446 Y86.726 E10.4968
G1 X127.324 Y86.922 E10.5347
G1 X127.261 Y86.867 E10.5375
;segType:Infill
G0 X125.797 Y93.247 F10800
G1 X125.797 Y85.876 E10.7826 F5400
G0 X122.758 Y84.100 F10800
G1 X123.555 Y84.100 E10.8092 F5400
; ------------------------------------
; Layer #5
; ------------------------------------
G21 ; mm
G90 ; abs
G92 E0 ; reset extr
M106 S255
;segType:Perimeter
G0 F4800 E-1.0000
G0 F2400 Z1.200
G0 X121.922 Y84.022 F10800
G0 F4800 E0.0000
G1 X122.216 Y83.397 E0.0230 F2159
G1 X122.253 Y83.181 E0.0303
G1 X122.657 Y82.753 E0.0499
G1 X123.007 Y83.042 E0.0649
G1 X124.347 Y83.853 E0.1171
G1 X126.752 Y85.894 E0.2220
G1 X129.627 Y85.393 E0.3190
G1 X132.354 Y85.790 E0.4107
G1 X135.077 Y85.374 E0.5023
G1 X137.955 Y85.855 E0.5993
G1 X140.345 Y83.794 E0.7043
G1 X141.680 Y82.974 E0.7564
G1 X142.028 Y82.683 E0.7715
G1 X142.435 Y83.107 E0.7911
G1 X142.482 Y83.380 E0.8003
G1 X142.751 Y83.375 E0.8092
G1 X143.349 Y84.030 E0.8387
G1 X143.449 Y84.103 E0.8429
G1 X144.018 Y84.792 E0.8726
G1 X143.129 Y86.592 E0.9393
G1 X140.394 Y91.295 E1.1203
G1 X139.889 Y93.997 E1.2117
G1 X136.037 Y96.206 E1.3594
G1 X133.624 Y97.551 E1.4513
G1 X134.768 Y98.656 E1.5042
G1 X134.472 Y101.880 E1.6119
G1 X133.486 Y112.747 E1.9748
G1 X132.452 Y112.767 E2.0092
G1 X131.418 Y112.754 E2.0436
G1 X130.352 Y101.896 E2.4065
G1 X130.033 Y98.674 E2.5142
G1 X131.168 Y97.560 E2.5670
G1 X128.745 Y96.233 E2.6589
G1 X124.878 Y94.052 E2.8066
G1 X124.354 Y91.353 E2.8981
G1 X121.585 Y86.671 E3.0790
G1 X120.682 Y84.878 E3.1458
G1 X121.246 Y84.184 E3.1755
G1 X121.346 Y84.110 E3.1796
G1 X121.938 Y83.450 E3.2091
G1 X122.150 Y83.453 E3.2161
G1 X122.811 Y83.272
G0 F4800 E2.2161
G0 X122.764 Y83.363 F10800
G0 F4800 E3.2161
;segType:Loop
G1 X122.777 Y83.374 E3.2167 F3600
G1 X124.115 Y84.183 E3.2687
G1 X126.637 Y86.324 E3.3788
G1 X129.632 Y85.802 E3.4799
G1 X132.355 Y86.199 E3.5714
G1 X135.074 Y85.784 E3.6629
G1 X138.073 Y86.284 E3.7640
G1 X140.580 Y84.123 E3.8741
G1 X141.912 Y83.304 E3.9261
G1 X141.998 Y83.232 E3.9298
G1 X142.062 Y83.299 E3.9329
G1 X142.147 Y83.792 E3.9495
G1 X142.579 Y83.783 E3.9639
G1 X143.082 Y84.334 E3.9887
G1 X143.175 Y84.401 E3.9925
G1 X143.543 Y84.848 E4.0118
G1 X142.777 Y86.399 E4.0693
G1 X140.014 Y91.151 E4.2521
G1 X139.531 Y93.738 E4.3397
G1 X135.842 Y95.853 E4.4811
G1 X132.954 Y97.463 E4.5911
G1 X134.352 Y98.813 E4.6557
G1 X134.074 Y101.843 E4.7569
G1 X133.120 Y112.350 E5.1078
G1 X132.450 Y112.363 E5.1301
G1 X131.781 Y112.355 E5.1523
G1 X130.750 Y101.855 E5.5032
G1 X130.450 Y98.828 E5.6044
G1 X131.838 Y97.467 E5.6691
G1 X128.938 Y95.878 E5.7790
G1 X125.235 Y93.790 E5.9204
G1 X124.733 Y91.206 E6.0080
G1 X121.935 Y86.475 E6.1908
G1 X121.157 Y84.930 E6.2483
G1 X121.523 Y84.480 E6.2676
G1 X121.615 Y84.412 E6.2714
G1 X122.113 Y83.857 E6.2962
G1 X122.545 Y83.863 E6.3106
G1 X122.627 Y83.370 E6.3272
G1 X122.627 Y83.370
;segType:Infill
G0 X123.109 Y84.100 F10800
G1 X123.539 Y84.100 E6.3415 F5400
G0 X125.797 Y85.876 F10800
G1 X125.797 Y93.404 E6.5919 F5400
G0 X125.454 Y92.200 F10800
G1 X139.290 Y92.200 E7.0521 F5400
G0 X133.808 Y86.997 F10800
G1 X133.808 Y96.294 E7.3613 F5400
;segType:HShell
G0 X132.088 Y97.900 F10800
G1 X132.369 Y98.054 E7.3719 F1800
G1 X130.908 Y99.487 E7.4400
G1 X130.857 Y98.978 E7.4570
G1 X131.936 Y97.921 E7.5073
G0 X132.510 Y98.008 F10800
G1 X132.791 Y97.851 E7.5180 F1800
G1 X133.946 Y98.967 E7.5714
G1 X133.899 Y99.477 E7.5884
G1 X132.495 Y98.121 E7.6533
;segType:Infill
G0 X133.808 Y99.655 F10800
G1 X133.808 Y100.307 E7.6750 F5400
G0 X131.400 Y104.349 F10800
G1 X133.441 Y104.349 E7.7429 F5400
G0 X133.074 Y108.399 F10800
G1 X131.798 Y108.399 E7.7853 F5400
G0 X133.809 Y100.299 F10800
G1 X131.002 Y100.299 E7.8787 F5400
G0 X130.240 Y96.833 F10800
G0 X129.803 Y95.661
G1 X129.803 Y86.846 E8.1719 F5400
;segType:HShell
G0 X127.109 Y86.643 F10800
G1 X129.638 Y86.202 E8.2573 F1800
G1 X132.357 Y86.598 E8.3486
G1 X135.072 Y86.183 E8.4400
G1 X137.698 Y86.622 E8.5285
G1 X137.562 Y86.739 E8.5345
G1 X135.968 Y86.473 E8.5882
G1 X132.358 Y87.024 E8.7097
G1 X128.743 Y86.498 E8.8312
G1 X127.152 Y86.775 E8.8849
G1 X127.088 Y86.721 E8.8877
;segType:Infill
G0 X130.876 Y96.249 F10800
G1 X133.887 Y96.249 E8.9879 F5400
G0 X137.814 Y94.017 F10800
G1 X137.814 Y86.774 E9.2288 F5400
G0 X141.820 Y87.485 F10800
G1 X141.820 Y84.328 E9.3338 F5400
;segType:HShell
G0 X142.050 Y84.189 F10800
G1 X142.412 Y84.181 E9.3458 F1800
G1 X143.080 Y84.903 E9.3785
G1 X142.866 Y85.335 E9.3946
G1 X142.015 Y84.265 E9.4400
;segType:Infill
G0 X141.639 Y84.100 F10800
G1 X141.051 Y84.100 E9.4596 F5400
G0 X141.434 Y88.150 F10800
G1 X123.252 Y88.150 E10.0643 F5400
;segType:HShell
G0 X122.682 Y84.335 F10800
G1 X121.837 Y85.412 E10.1098 F1800
G1 X121.621 Y84.981 E10.1258
G1 X122.284 Y84.254 E10.1586
G1 X122.646 Y84.259 E10.1706
;segType:Support
G0 F4800 E9.1706
G0 X130.000 Y77.500 F10800
G0 F4800 E10.1706
G1 X137.500 Y77.500 E10.3826 F5400
G1 X137.500 Y80.000 E10.4533
G1 X130.000 Y80.000 E10.6653
G1 X132.500 Y82.500 E10.7653
G1 X130.000 Y82.500 E10.8360
; ------------------------------------
; Layer #6
; ------------------------------------
G21 ; mm
G90 ; abs
G92 E0 ; reset extr
M106 S255
;segType:Support
G0 F4800 E-1.0000
G0 F2400 Z1.400
G0 X130.121 Y82.621 F10800
G0 F4800 E0.0000
G1 X132.379 Y82.621 E0.0638 F5400
G0 F4800 E-0.9362
G0 X130.000 Y77.500 F10800
G0 F4800 E0.0638
G1 X137.500 Y77.500 E0.2759 F5400
G0 F4800 E-0.7241
G0 X130.000 Y80.000 F10800
G0 F4800 E0.2759
G1 X137.500 Y80.000 E0.4879 F5400
;segType:Perimeter
G0 F4800 E-0.5121
G0 X131.557 Y98.384 F10800
G0 F4800 E0.4879
G1 X131.257 Y97.762 E0.5109 F2159
G1 X128.520 Y96.263 E0.6147
G1 X124.791 Y94.160 E0.7571
G1 X124.177 Y91.002 E0.8641
G1 X121.657 Y86.741 E1.0287
G1 X120.841 Y85.119 E1.0891
G1 X121.976 Y83.673 E1.1502
G1 X122.187 Y83.471 E1.1600
G1 X122.739 Y82.870 E1.1871
G1 X122.825 Y82.941 E1.1908
G1 X124.389 Y83.887 E1.2516
G1 X126.580 Y85.747 E1.3472
G1 X129.923 Y85.165 E1.4600
G1 X132.353 Y85.518 E1.5417
G1 X134.779 Y85.148 E1.6233
G1 X138.126 Y85.707 E1.7362
G1 X140.304 Y83.829 E1.8318
G1 X141.861 Y82.872 E1.8926
G1 X141.947 Y82.800 E1.8963
G1 X142.503 Y83.397 E1.9235
G1 X142.716 Y83.598 E1.9332
G1 X143.860 Y85.035 E1.9943
G1 X143.056 Y86.663 E2.0547
G1 X140.568 Y90.942 E2.2194
G1 X139.977 Y94.104 E2.3264
G1 X136.263 Y96.235 E2.4687
G1 X133.488 Y97.781 E2.5744
G1 X134.801 Y99.050 E2.6352
G1 X134.454 Y102.828 E2.7613
G1 X133.542 Y112.872 E3.0968
G1 X132.452 Y112.893 E3.1330
G1 X131.362 Y112.880 E3.1693
G1 X130.377 Y102.843 E3.5048
G1 X130.003 Y99.068 E3.6309
G1 X131.266 Y97.830 E3.6897
G1 X131.388 Y97.148
;segType:Loop
G0 X130.577 Y96.930 F10800
G1 X128.712 Y95.908 E3.7605 F3600
G1 X125.148 Y93.898 E3.8966
G1 X124.556 Y90.855 E3.9997
G1 X122.007 Y86.546 E4.1662
G1 X121.314 Y85.167 E4.2175
G1 X122.271 Y83.947 E4.2691
G1 X122.472 Y83.756 E4.2783
G1 X122.800 Y83.398 E4.2945
G1 X124.156 Y84.218 E4.3472
G1 X126.465 Y86.177 E4.4479
G1 X129.928 Y85.574 E4.5649
G1 X132.354 Y85.927 E4.6464
G1 X134.776 Y85.558 E4.7279
G1 X138.244 Y86.136 E4.8448
G1 X140.539 Y84.158 E4.9456
G1 X141.889 Y83.328 E4.9983
G1 X142.220 Y83.684 E5.0144
G1 X142.422 Y83.874 E5.0237
G1 X143.388 Y85.087 E5.0752
G1 X142.705 Y86.469 E5.1265
G1 X140.188 Y90.798 E5.2931
G1 X139.619 Y93.845 E5.3962
G1 X136.068 Y95.882 E5.5323
G1 X132.817 Y97.693 E5.6561
G1 X134.385 Y99.207 E5.7286
G1 X134.056 Y102.791 E5.8483
G1 X133.177 Y112.475 E6.1717
G1 X132.451 Y112.488 E6.1958
G1 X131.725 Y112.480 E6.2200
G1 X130.775 Y102.803 E6.5434
G1 X130.420 Y99.222 E6.6630
G1 X131.976 Y97.696 E6.7355
G1 X130.745 Y97.022 E6.7822
;segType:Infill
G0 X129.803 Y95.815 F10800
G1 X129.803 Y86.575 E7.0896 F5400
G0 X125.797 Y85.875 F10800
G1 X125.797 Y93.561 E7.3452 F5400
G0 X125.346 Y92.200 F10800
G1 X139.398 Y92.200 E7.8126 F5400
G0 X137.814 Y94.174 F10800
G1 X137.814 Y86.774 E8.0587 F5400
G0 X141.066 Y84.100 F10800
G1 X141.286 Y84.100 E8.0660 F5400
;segType:HShell
G0 X142.648 Y85.505 F10800
G1 X141.482 Y84.040 E8.1283 F1800
G1 X141.825 Y83.829 E8.1417
G1 X142.133 Y84.141 E8.1562
G1 X142.927 Y85.137 E8.1986
G1 X142.751 Y85.493 E8.2118
;segType:Infill
G0 X141.820 Y84.771 F10800
G1 X141.820 Y87.431 E8.3003 F5400
G0 X141.402 Y88.150 F10800
G1 X123.283 Y88.150 E8.9030 F5400
;segType:HShell
G0 X121.955 Y85.570 F10800
G1 X121.776 Y85.214 E8.9162 F1800
G1 X122.562 Y84.212 E8.9586
G1 X122.867 Y83.898 E8.9732
G1 X123.212 Y84.107 E8.9866
G1 X122.057 Y85.580 E9.0489
;segType:Infill
G0 X123.523 Y84.100 F10800
G1 X123.461 Y84.100 E9.0509 F5400
G0 X126.530 Y85.933 F10800
G0 X131.056 Y86.563
;segType:HShell
G1 X129.039 Y86.269 E9.1187 F1800
G1 X126.979 Y86.628 E9.1883
G1 X126.843 Y86.512 E9.1942
G1 X129.934 Y85.974 E9.2986
G1 X132.356 Y86.326 E9.3800
G1 X134.774 Y85.957 E9.4613
G1 X137.869 Y86.473 E9.5657
G1 X137.733 Y86.591 E9.5717
G1 X135.670 Y86.247 E9.6412
G1 X132.357 Y86.752 E9.7527
G1 X131.244 Y86.590 E9.7901
;segType:Infill
G0 X133.808 Y86.725 F10800
G1 X133.808 Y96.448 E10.1135 F5400
G0 X134.164 Y96.249 F10800
G1 X130.596 Y96.249 E10.2322 F5400
;segType:HShell
G0 X131.770 Y98.449 F10800
G1 X132.243 Y97.985 E10.2542 F1800
G1 X132.399 Y98.070 E10.2601
G1 X132.553 Y97.984 E10.2660
G1 X133.979 Y99.361 E10.3319
G1 X133.932 Y99.870 E10.3489
G1 X132.400 Y98.390 E10.4198
G1 X130.878 Y99.882 E10.4907
G1 X130.827 Y99.372 E10.5077
G1 X131.633 Y98.583 E10.5452
;segType:Infill
G0 X133.808 Y101.058 F10800
G1 X133.808 Y100.017 E10.5799 F5400
G0 X133.877 Y100.299 F10800
G1 X130.934 Y100.299 E10.6777 F5400
G0 X131.332 Y104.349 F10800
G1 X133.510 Y104.349 E10.7502 F5400
G0 X133.142 Y108.399 F10800
G1 X131.729 Y108.399 E10.7972 F5400
; ------------------------------------
; Layer #7
; ------------------------------------
G21 ; mm
G90 ; abs
G92 E0 ; reset extr
M106 S255
;segType:Perimeter
G0 F4800 E-1.0000
G0 F2400 Z1.600
G0 X131.695 Y98.614 F10800
G0 F4800 E0.0000
G1 X131.395 Y97.991 E0.0230 F2159
G1 X128.294 Y96.293 E0.1406
G1 X124.703 Y94.268 E0.2777
G1 X124.000 Y90.650 E0.4003
G1 X121.730 Y86.812 E0.5486
G1 X121.001 Y85.363 E0.6025
G1 X122.872 Y82.979 E0.7033
G1 X124.430 Y83.922 E0.7639
G1 X126.407 Y85.600 E0.8501
G1 X130.219 Y84.936 E0.9788
G1 X132.352 Y85.247 E1.0505
G1 X134.481 Y84.922 E1.1222
G1 X138.298 Y85.558 E1.2508
G1 X140.263 Y83.864 E1.3372
G1 X141.814 Y82.910 E1.3977
G1 X143.702 Y85.280 E1.4985
G1 X142.984 Y86.733 E1.5524
G1 X140.742 Y90.590 E1.7008
G1 X140.065 Y94.212 E1.8233
G1 X136.489 Y96.263 E1.9604
G1 X133.351 Y98.012 E2.0800
G1 X134.833 Y99.444 E2.1485
G1 X134.436 Y103.775 E2.2932
G1 X133.599 Y112.997 E2.6011
G1 X132.453 Y113.018 E2.6393
G1 X131.306 Y113.006 E2.6774
G1 X130.402 Y103.790 E2.9854
G1 X129.973 Y99.462 E3.1301
G1 X131.404 Y98.059 E3.1967
G1 X131.527 Y97.378
;segType:Loop
G0 X130.716 Y97.159 F10800
G1 X128.487 Y95.938 E3.2812 F3600
G1 X125.060 Y94.006 E3.4121
G1 X124.379 Y90.503 E3.5308
G1 X122.080 Y86.616 E3.6810
G1 X121.474 Y85.411 E3.7258
G1 X122.967 Y83.508 E3.8063
G1 X124.197 Y84.252 E3.8541
G1 X126.292 Y86.031 E3.9455
G1 X130.225 Y85.346 E4.0783
G1 X132.353 Y85.655 E4.1498
G1 X134.478 Y85.331 E4.2213
G1 X138.416 Y85.988 E4.3541
G1 X140.499 Y84.193 E4.4455
G1 X141.723 Y83.440 E4.4933
G1 X143.230 Y85.331 E4.5738
G1 X142.632 Y86.540 E4.6186
G1 X140.362 Y90.445 E4.7688
G1 X139.707 Y93.952 E4.8875
G1 X136.294 Y95.910 E5.0184
G1 X132.681 Y97.924 E5.1559
G1 X134.417 Y99.601 E5.2362
G1 X134.038 Y103.738 E5.3744
G1 X133.234 Y112.599 E5.6704
G1 X132.451 Y112.614 E5.6964
G1 X131.669 Y112.605 E5.7224
G1 X130.800 Y103.750 E6.0183
G1 X130.391 Y99.616 E6.1565
G1 X132.115 Y97.926 E6.2368
G1 X130.883 Y97.251 E6.2835
;segType:Infill
G0 X130.315 Y96.249 F10800
G1 X134.440 Y96.249 E6.4207 F5400
G0 X137.814 Y94.332 F10800
G1 X137.814 Y86.622 E6.6772 F5400
;segType:HShell
G0 X142.490 Y85.750 F10800
G1 X141.251 Y84.192 E6.7434 F1800
G1 X141.634 Y83.957 E6.7583
G1 X142.769 Y85.382 E6.8189
G1 X142.592 Y85.738 E6.8321
;segType:Infill
G0 X141.820 Y85.215 F10800
G1 X141.820 Y87.378 E6.9041 F5400
G0 X141.371 Y88.150 F10800
G1 X123.314 Y88.150 E7.5047 F5400
;segType:HShell
G0 X122.115 Y85.814 F10800
G1 X121.936 Y85.458 E7.5179 F1800
G1 X123.060 Y84.024 E7.5785
G1 X123.445 Y84.257 E7.5935
G1 X122.217 Y85.824 E7.6597
;segType:Infill
G0 X125.797 Y85.875 F10800
G1 X125.797 Y93.718 E7.9206 F5400
G0 X129.803 Y95.969 F10800
G1 X129.803 Y86.303 E8.2421 F5400
G0 X125.238 Y92.200 F10800
G1 X139.506 Y92.200 E8.7166 F5400
;segType:HShell
G0 X131.262 Y86.321 F10800
G1 X129.336 Y86.041 E8.7814 F1800
G1 X126.807 Y86.481 E8.8668
G1 X126.670 Y86.365 E8.8727
G1 X130.230 Y85.745 E8.9929
G1 X132.355 Y86.054 E9.0643
G1 X134.476 Y85.731 E9.1357
G1 X138.040 Y86.325 E9.2559
G1 X137.904 Y86.442 E9.2618
G1 X135.372 Y86.020 E9.3472
G1 X132.356 Y86.481 E9.4487
G1 X131.450 Y86.349 E9.4791
;segType:Infill
G0 X133.808 Y86.454 F10800
G1 X133.808 Y96.602 E9.8167 F5400
G0 X133.162 Y97.987 F10800
G0 X133.808 Y100.380
G1 X133.808 Y101.807 E9.8641 F5400
G0 X131.661 Y108.399 F10800
G1 X133.210 Y108.399 E9.9156 F5400
G0 X133.578 Y104.349 F10800
G1 X131.264 Y104.349 E9.9926 F5400
G0 X131.097 Y100.299 F10800
G1 X133.725 Y100.299 E10.0800 F5400
;segType:HShell
G0 X131.900 Y98.705 F10800
G1 X132.399 Y98.224 E10.1030 F1800
G1 X134.011 Y99.755 E10.1770
G1 X133.965 Y100.265 E10.1940
G1 X132.401 Y98.754 E10.2664
G1 X130.848 Y100.276 E10.3387
G1 X130.798 Y99.767 E10.3557
G1 X131.762 Y98.838 E10.4002
;segType:Support
G0 F4800 E9.4002
G0 X132.179 Y82.821 F10800
G0 F4800 E10.4002
G1 X130.321 Y82.821 E10.4528 F5400
G0 F4800 E9.4528
G0 X137.500 Y77.500 F10800
G0 F4800 E10.4528
G1 X130.000 Y77.500 E10.6648 F5400
G0 F4800 E9.6648
G0 X137.500 Y80.000 F10800
G0 F4800 E10.6648
G1 X130.000 Y80.000 E10.8768 F5400
; ------------------------------------
; Layer #8
; ------------------------------------
G21 ; mm
G90 ; abs
G92 E0 ; reset extr
M106 S255
;segType:Support
G0 F4800 E-1.0000
G0 F2400 Z1.800
G0 X130.000 Y80.000 F10800
G0 F4800 E0.0000
G1 X137.500 Y80.000 E0.2120 F5400
G1 X137.500 Y77.500 E0.2827
G1 X130.000 Y77.500 E0.4947
G0 F4800 E-0.5053
G0 X131.979 Y83.021 F10800
G0 F4800 E0.4947
G1 X130.521 Y83.021 E0.5360 F5400
G1 X131.540 Y84.040 E0.5767
G0 F4800 E-0.4233
G0 X131.784 Y96.376 F10800
G0 X131.833 Y98.843
G0 F4800 E0.5767
;segType:Perimeter
G1 X131.533 Y98.220 E0.5997 F2159
G1 X128.068 Y96.322 E0.7311
G1 X124.616 Y94.376 E0.8629
G1 X123.824 Y90.299 E1.0010
G1 X121.803 Y86.882 E1.1331
G1 X121.162 Y85.607 E1.1805
G1 X123.104 Y83.130 E1.2853
G1 X124.471 Y83.956 E1.3384
G1 X126.235 Y85.454 E1.4153
G1 X130.516 Y84.708 E1.5599
G1 X132.351 Y84.975 E1.6215
G1 X134.183 Y84.695 E1.6832
G1 X138.469 Y85.410 E1.8277
G1 X140.223 Y83.899 E1.9047
G1 X141.583 Y83.062 E1.9578
G1 X143.544 Y85.525 E2.0625
G1 X142.912 Y86.804 E2.1100
G1 X140.916 Y90.237 E2.2420
G1 X140.153 Y94.319 E2.3802
G1 X136.715 Y96.291 E2.5120
G1 X133.214 Y98.242 E2.6453
G1 X134.866 Y99.838 E2.7217
G1 X134.419 Y104.723 E2.8848
G1 X133.656 Y113.122 E3.1653
G1 X132.453 Y113.144 E3.2053
G1 X131.251 Y113.131 E3.2453
G1 X130.426 Y104.737 E3.5259
G1 X129.943 Y99.856 E3.6890
G1 X131.542 Y98.288 E3.7635
G1 X131.665 Y97.607
;segType:Loop
G0 X130.853 Y97.388 F10800
G1 X128.261 Y95.968 E3.8618 F3600
G1 X124.973 Y94.114 E3.9874
G1 X124.203 Y90.152 E4.1216
G1 X122.153 Y86.686 E4.2555
G1 X121.634 Y85.655 E4.2939
G1 X123.200 Y83.659 E4.3783
G1 X124.238 Y84.287 E4.4187
G1 X126.120 Y85.884 E4.5007
G1 X130.522 Y85.117 E4.6494
G1 X132.352 Y85.384 E4.7109
G1 X134.180 Y85.105 E4.7724
G1 X138.587 Y85.840 E4.9210
G1 X140.458 Y84.228 E5.0031
G1 X141.491 Y83.592 E5.0435
G1 X143.072 Y85.576 E5.1278
G1 X142.560 Y86.611 E5.1662
G1 X140.536 Y90.093 E5.3002
G1 X139.795 Y94.060 E5.4344
G1 X136.520 Y95.938 E5.5600
G1 X132.544 Y98.154 E5.7114
G1 X134.450 Y99.995 E5.7995
G1 X134.020 Y104.686 E5.9562
G1 X133.290 Y112.724 E6.2246
G1 X132.452 Y112.740 E6.2525
G1 X131.613 Y112.731 E6.2804
G1 X130.824 Y104.697 E6.5489
G1 X130.361 Y100.010 E6.7055
G1 X132.253 Y98.155 E6.7937
G1 X131.021 Y97.480 E6.8404
;segType:Infill
G0 X130.035 Y96.249 F10800
G1 X134.717 Y96.249 E6.9961 F5400
G0 X139.614 Y92.200 F10800
G1 X125.130 Y92.200 E7.4779 F5400
G0 X125.797 Y93.876 F10800
G1 X125.797 Y85.875 E7.7440 F5400
;segType:HShell
G0 X122.275 Y86.058 F10800
G1 X122.096 Y85.702 E7.7572 F1800
G1 X123.293 Y84.175 E7.8218
G1 X123.678 Y84.408 E7.8367
G1 X122.377 Y86.068 E7.9069
;segType:Infill
G0 X123.345 Y88.150 F10800
G1 X141.340 Y88.150 E8.5054 F5400
;segType:HShell
G0 X142.332 Y85.995 F10800
G1 X141.018 Y84.345 E8.5755 F1800
G1 X141.402 Y84.109 E8.5905
G1 X142.610 Y85.627 E8.6550
G1 X142.434 Y85.984 E8.6683
;segType:Infill
G0 X141.820 Y87.325 F10800
G1 X141.820 Y85.659 E8.7237 F5400
G0 X137.814 Y86.446 F10800
G1 X137.814 Y94.490 E8.9912 F5400
G0 X133.026 Y98.217 F10800
G0 X133.646 Y104.349
G1 X131.196 Y104.349 E9.0727 F5400
G0 X133.278 Y108.399 F10800
G1 X131.593 Y108.399 E9.1288 F5400
G0 X133.808 Y102.558 F10800
G1 X133.808 Y100.742 E9.1892 F5400
G0 X133.350 Y100.299 F10800
G1 X131.470 Y100.299 E9.2517 F5400
;segType:HShell
G0 X132.046 Y98.907 F10800
G1 X132.400 Y98.560 E9.2682 F1800
G1 X134.044 Y100.149 E9.3442
G1 X133.997 Y100.658 E9.3612
G1 X132.402 Y99.117 E9.4350
G1 X130.818 Y100.670 E9.5088
G1 X130.768 Y100.160 E9.5258
G1 X131.910 Y99.041 E9.5790
;segType:Infill
G0 X133.808 Y96.756 F10800
G1 X133.808 Y86.182 E9.9307 F5400
;segType:HShell
G0 X131.467 Y86.080 F10800
G1 X129.632 Y85.812 E9.9924 F1800
G1 X126.635 Y86.335 E10.0936
G1 X126.498 Y86.219 E10.0996
G1 X130.527 Y85.517 E10.2356
G1 X132.354 Y85.783 E10.2970
G1 X134.178 Y85.504 E10.3584
G1 X138.212 Y86.177 E10.4944
G1 X138.076 Y86.295 E10.5004
G1 X135.074 Y85.794 E10.6016
G1 X132.355 Y86.209 E10.6931
G1 X131.656 Y86.107 E10.7166
;segType:Infill
G0 X129.803 Y86.031 F10800
G1 X129.803 Y96.122 E11.0522 F5400
; ------------------------------------
; Layer #9
; ------------------------------------
G21 ; mm
G90 ; abs
G92 E0 ; reset extr
M106 S255
G0 F4800 E-1.0000
G0 F2400 Z2.000
G0 X131.994 Y97.970 F10800
G0 X131.971 Y99.072
G0 F4800 E0.0000
;segType:Perimeter
G1 X131.671 Y98.450 E0.0230 F2159
G1 X127.843 Y96.352 E0.1682
G1 X124.529 Y94.483 E0.2947
G1 X123.647 Y89.948 E0.4484
G1 X121.876 Y86.952 E0.5642
G1 X121.322 Y85.851 E0.6052
G1 X123.337 Y83.280 E0.7138
G1 X124.512 Y83.991 E0.7595
G1 X126.063 Y85.307 E0.8271
G1 X130.812 Y84.479 E0.9875
G1 X132.350 Y84.703 E1.0391
G1 X133.885 Y84.469 E1.0908
G1 X138.640 Y85.262 E1.2512
G1 X140.181 Y83.934 E1.3188
G1 X141.351 Y83.215 E1.3645
G1 X143.386 Y85.770 E1.4731
G1 X142.840 Y86.875 E1.5141
G1 X141.090 Y89.884 E1.6299
G1 X140.242 Y94.426 E1.7836
G1 X136.941 Y96.319 E1.9101
G1 X133.979 Y97.972 E2.0230
G1 X133.077 Y98.472 E2.0572
G1 X134.899 Y100.232 E2.1415
G1 X134.400 Y105.670 E2.3231
G1 X133.712 Y113.247 E2.5762
G1 X132.454 Y113.270 E2.6181
G1 X131.195 Y113.257 E2.6599
G1 X130.451 Y105.685 E2.9130
G1 X129.913 Y100.250 E3.0946
G1 X131.681 Y98.518 E3.1769
G1 X131.803 Y97.836
;segType:Loop
G0 X130.992 Y97.618 F10800
G1 X128.036 Y95.998 E3.2891 F3600
G1 X124.885 Y94.222 E3.4093
G1 X124.026 Y89.801 E3.5591
G1 X122.226 Y86.757 E3.6768
G1 X121.794 Y85.899 E3.7087
G1 X123.433 Y83.810 E3.7970
G1 X124.279 Y84.321 E3.8299
G1 X125.948 Y85.738 E3.9027
G1 X130.818 Y84.889 E4.0671
G1 X132.351 Y85.112 E4.1186
G1 X133.882 Y84.879 E4.1702
G1 X138.759 Y85.692 E4.3346
G1 X140.417 Y84.263 E4.4074
G1 X141.259 Y83.744 E4.4403
G1 X142.913 Y85.821 E4.5286
G1 X142.488 Y86.682 E4.5605
G1 X140.710 Y89.740 E4.6782
G1 X139.883 Y94.167 E4.8280
G1 X136.746 Y95.966 E4.9483
G1 X133.786 Y97.618 E5.0610
G1 X132.406 Y98.383 E5.1135
G1 X134.483 Y100.389 E5.2095
G1 X134.002 Y105.633 E5.3847
G1 X133.347 Y112.849 E5.6257
G1 X132.452 Y112.865 E5.6554
G1 X131.558 Y112.856 E5.6852
G1 X130.849 Y105.645 E5.9262
G1 X130.331 Y100.405 E6.1013
G1 X132.391 Y98.384 E6.1973
G1 X131.159 Y97.709 E6.2440
;segType:HShell
G0 X132.185 Y99.137 F10800
G1 X132.401 Y98.924 E6.2541 F1800
G1 X134.077 Y100.543 E6.3316
G1 X134.030 Y101.053 E6.3487
G1 X132.404 Y99.481 E6.4239
G1 X130.788 Y101.064 E6.4991
G1 X130.738 Y100.555 E6.5162
G1 X132.048 Y99.270 E6.5772
;segType:Infill
G0 X131.842 Y100.299 F10800
G1 X132.975 Y100.299 E6.6149 F5400
G0 X133.346 Y108.399 F10800
G1 X131.525 Y108.399 E6.6754 F5400
G0 X131.128 Y104.349 F10800
G1 X133.714 Y104.349 E6.7615 F5400
G0 X133.808 Y101.105 F10800
G1 X133.808 Y103.307 E6.8347 F5400
G0 X132.889 Y98.447 F10800
G0 X134.994 Y96.249
G1 X129.755 Y96.249 E7.0089 F5400
G1 X129.803 Y96.276 E7.0107
G1 X129.803 Y85.801 E7.3591
G0 X125.797 Y85.874 F10800
G1 X125.797 Y94.033 E7.6305 F5400
G0 X125.021 Y92.200 F10800
G1 X139.722 Y92.200 E8.1194 F5400
G0 X137.814 Y94.648 F10800
G1 X137.814 Y86.269 E8.3981 F5400
;segType:HShell
G0 X142.173 Y86.240 F10800
G1 X140.787 Y84.497 E8.4722 F1800
G1 X141.170 Y84.261 E8.4871
G1 X142.452 Y85.872 E8.5556
G1 X142.276 Y86.229 E8.5689
;segType:Infill
G0 X141.820 Y86.102 F10800
G1 X141.820 Y87.271 E8.6077 F5400
G0 X141.309 Y88.150 F10800
G1 X123.377 Y88.150 E9.2042 F5400
;segType:HShell
G0 X122.435 Y86.302 F10800
G1 X122.256 Y85.946 E9.2174 F1800
G1 X123.527 Y84.326 E9.2859
G1 X123.911 Y84.558 E9.3008
G1 X122.537 Y86.312 E9.3749
G0 X131.672 Y85.838 F10800
G1 X129.928 Y85.584 E9.4335 F1800
G1 X126.462 Y86.188 E9.5506
G1 X126.326 Y86.072 E9.5565
G1 X130.823 Y85.288 E9.7084
G1 X132.352 Y85.511 E9.7598
G1 X133.880 Y85.278 E9.8112
G1 X138.383 Y86.029 E9.9630
G1 X138.247 Y86.146 E9.9690
G1 X134.776 Y85.568 E10.0860
G1 X132.354 Y85.937 E10.1675
G1 X131.860 Y85.865 E10.1841
;segType:Infill
G0 X133.808 Y85.910 F10800
G1 X133.808 Y96.910 E10.5500 F5400
;segType:Support
G0 F4800 E9.5500
G0 X137.500 Y80.000 F10800
G0 F4800 E10.5500
G1 X130.000 Y80.000 E10.7620 F5400
G1 X130.000 Y77.500 E10.8327
G1 X137.500 Y77.500 E11.0447
G0 F4800 E10.0447
G0 X131.779 Y83.221 F10800
G0 F4800 E11.0447
G1 X130.721 Y83.221 E11.0747 F5400
G1 X131.222 Y83.722 E11.0947
; ------------------------------------
; Layer #10
; ------------------------------------
G21 ; mm
G90 ; abs
G92 E0 ; reset extr
M106 S255
;segType:Support
G0 F4800 E-1.0000
G0 F2400 Z2.200
G0 X131.508 Y83.492 F10800
G0 F4800 E0.0000
G1 X131.579 Y83.421 E0.0028 F5400
G0 F4800 E-0.9972
G0 X130.000 Y77.500 F10800
G0 F4800 E0.0028
G1 X137.500 Y77.500 E0.2149 F5400
G1 X137.500 Y80.000 E0.2856
G1 X130.000 Y80.000 E0.4976
G0 F4800 E-0.5024
G0 X131.847 Y96.888 F10800
G0 X132.111 Y99.301
G0 F4800 E0.4976
;segType:Perimeter
G1 X131.810 Y98.679 E0.5206 F2159
G1 X130.888 Y98.177 E0.5555
G1 X127.617 Y96.382 E0.6796
G1 X124.441 Y94.591 E0.8009
G1 X123.471 Y89.596 E0.9701
G1 X121.949 Y87.022 E1.0696
G1 X121.482 Y86.095 E1.1041
G1 X123.570 Y83.431 E1.2167
G1 X124.553 Y84.025 E1.2549
G1 X125.890 Y85.160 E1.3132
G1 X131.109 Y84.251 E1.4894
G1 X132.349 Y84.432 E1.5311
G1 X133.587 Y84.243 E1.5727
G1 X138.812 Y85.114 E1.7489
G1 X140.141 Y83.969 E1.8073
G1 X141.119 Y83.367 E1.8455
G1 X143.227 Y86.015 E1.9581
G1 X142.767 Y86.946 E1.9926
G1 X141.264 Y89.531 E2.0921
G1 X140.330 Y94.533 E2.2613
G1 X137.167 Y96.347 E2.3826
G1 X133.909 Y98.166 E2.5067
G1 X132.941 Y98.702 E2.5435
G1 X134.932 Y100.626 E2.6356
G1 X134.383 Y106.618 E2.8357
G1 X133.769 Y113.372 E3.0613
G1 X132.454 Y113.395 E3.1050
G1 X131.139 Y113.382 E3.1488
G1 X130.476 Y106.632 E3.3744
G1 X129.884 Y100.644 E3.5745
G1 X131.820 Y98.746 E3.6647
G1 X131.941 Y98.064
;segType:Loop
G0 X131.129 Y97.848 F10800
G1 X131.079 Y97.821 E3.6666 F3600
G1 X127.810 Y96.028 E3.7906
G1 X124.798 Y94.330 E3.9056
G1 X123.850 Y89.449 E4.0709
G1 X122.299 Y86.827 E4.1723
G1 X121.955 Y86.143 E4.1977
G1 X123.666 Y83.960 E4.2900
G1 X124.320 Y84.356 E4.3154
G1 X125.775 Y85.591 E4.3789
G1 X131.114 Y84.661 E4.5591
G1 X132.350 Y84.840 E4.6007
G1 X133.584 Y84.652 E4.6422
G1 X138.930 Y85.544 E4.8225
G1 X140.376 Y84.298 E4.8859
G1 X141.028 Y83.897 E4.9114
G1 X142.755 Y86.066 E5.0036
G1 X142.416 Y86.753 E5.0291
G1 X140.884 Y89.387 E5.1305
G1 X139.971 Y94.274 E5.2958
G1 X136.972 Y95.995 E5.4108
G1 X133.716 Y97.811 E5.5348
G1 X132.400 Y98.541 E5.5849
G1 X131.296 Y97.939 E5.6267
G0 X130.979 Y98.007 F10800
G0 X132.049 Y98.680
G0 X132.001 Y99.131
G1 X132.401 Y98.740 E5.6453 F3600
G1 X134.515 Y100.783 E5.7431
G1 X133.984 Y106.581 E5.9367
G1 X133.404 Y112.974 E6.1502
G1 X132.453 Y112.991 E6.1819
G1 X131.502 Y112.981 E6.2135
G1 X130.874 Y106.592 E6.4270
G1 X130.301 Y100.799 E6.6207
G1 X131.865 Y99.265 E6.6935
;segType:HShell
G0 X132.471 Y99.354 F10800
G1 X134.110 Y100.937 E6.7693 F1800
G1 X134.063 Y101.447 E6.7863
G1 X132.405 Y99.844 E6.8630
G1 X130.759 Y101.458 E6.9397
G1 X130.708 Y100.949 E6.9567
G1 X132.334 Y99.354 E7.0324
;segType:Infill
G0 X132.214 Y100.299 F10800
G1 X132.600 Y100.299 E7.0453 F5400
G0 X133.808 Y101.467 F10800
G1 X133.808 Y104.055 E7.1314 F5400
G0 X133.782 Y104.349 F10800
G1 X131.059 Y104.349 E7.2219 F5400
G0 X133.414 Y108.399 F10800
G1 X131.457 Y108.399 E7.2870 F5400
G0 X132.049 Y98.680 F10800
G0 X125.797 Y94.190
G1 X125.797 Y85.874 E7.5636 F5400
;segType:HShell
G0 X122.595 Y86.545 F10800
G1 X122.416 Y86.190 E7.5768 F1800
G1 X123.759 Y84.476 E7.6492
G1 X124.138 Y84.716 E7.6642
G1 X122.697 Y86.556 E7.7419
;segType:Infill
G0 X123.408 Y88.150 F10800
G1 X141.278 Y88.150 E8.3362 F5400
G0 X141.820 Y86.606 F10800
G1 X141.820 Y87.218 E8.3566 F5400
;segType:HShell
G0 X141.996 Y86.520 F10800
G1 X140.559 Y84.658 E8.4348 F1800
G1 X140.938 Y84.414 E8.4498
G1 X142.294 Y86.117 E8.5222
G1 X142.097 Y86.510 E8.5369
;segType:Infill
G0 X137.814 Y86.093 F10800
G1 X137.814 Y94.805 E8.8266 F5400
G0 X139.831 Y92.200 F10800
G1 X124.913 Y92.200 E9.3228 F5400
G0 X129.475 Y96.249 F10800
G1 X135.271 Y96.249 E9.5156 F5400
G0 X133.808 Y97.064 F10800
G1 X133.808 Y85.638 E9.8956 F5400
;segType:HShell
G0 X131.876 Y85.596 F10800
G1 X130.225 Y85.356 E9.9511 F1800
G1 X126.290 Y86.041 E10.0840
G1 X126.153 Y85.925 E10.0899
G1 X131.120 Y85.060 E10.2576
G1 X132.352 Y85.239 E10.2990
G1 X133.582 Y85.051 E10.3404
G1 X138.555 Y85.881 E10.5081
G1 X138.419 Y85.998 E10.5141
G1 X134.478 Y85.341 E10.6469
G1 X132.353 Y85.665 E10.7184
G1 X132.065 Y85.623 E10.7281
;segType:Infill
G0 X129.803 Y85.624 F10800
G1 X129.803 Y96.429 E11.0875 F5400
; ------------------------------------
; Layer #11
; ------------------------------------
G21 ; mm
G90 ; abs
G92 E0 ; reset extr
M106 S255
G0 F4800 E-1.0000
G0 F2400 Z2.400
G0 X132.269 Y98.427 F10800
G0 X132.249 Y99.530
G0 F4800 E0.0000
;segType:Perimeter
G1 X131.948 Y98.908 E0.0230 F2159
G1 X130.960 Y98.369 E0.0604
G1 X127.392 Y96.412 E0.1958
G1 X124.354 Y94.699 E0.3118
G1 X123.294 Y89.245 E0.4966
G1 X122.021 Y87.093 E0.5797
G1 X121.642 Y86.339 E0.6078
G1 X123.803 Y83.582 E0.7243
G1 X124.594 Y84.060 E0.7551
G1 X125.718 Y85.014 E0.8041
G1 X131.405 Y84.023 E0.9961
G1 X132.348 Y84.160 E1.0278
G1 X133.289 Y84.016 E1.0595
G1 X138.983 Y84.966 E1.2515
G1 X140.100 Y84.004 E1.3005
G1 X140.887 Y83.519 E1.3313
G1 X143.069 Y86.260 E1.4478
G1 X142.695 Y87.017 E1.4758
G1 X141.438 Y89.178 E1.5590
G1 X140.418 Y94.641 E1.7438
G1 X137.393 Y96.376 E1.8598
G1 X133.838 Y98.359 E1.9952
G1 X132.804 Y98.933 E2.0345
G1 X134.964 Y101.020 E2.1344
G1 X134.365 Y107.565 E2.3531
G1 X133.826 Y113.498 E2.5512
G1 X132.455 Y113.521 E2.5968
G1 X131.083 Y113.508 E2.6424
G1 X130.501 Y107.579 E2.8405
G1 X129.854 Y101.039 E3.0591
G1 X131.958 Y98.975 E3.1571
G1 X132.079 Y98.294
;segType:Loop
G0 X131.267 Y98.077 F10800
G1 X131.151 Y98.014 E3.1616 F3600
G1 X127.584 Y96.058 E3.2968
G1 X124.711 Y94.437 E3.4066
G1 X123.673 Y89.098 E3.5875
G1 X122.372 Y86.897 E3.6725
G1 X122.115 Y86.387 E3.6915
G1 X123.899 Y84.111 E3.7877
G1 X124.362 Y84.391 E3.8057
G1 X125.603 Y85.444 E3.8598
G1 X131.411 Y84.432 E4.0559
G1 X132.349 Y84.569 E4.0875
G1 X133.286 Y84.426 E4.1190
G1 X139.101 Y85.396 E4.3151
G1 X140.335 Y84.333 E4.3692
G1 X140.796 Y84.049 E4.3872
G1 X142.596 Y86.311 E4.4834
G1 X142.343 Y86.824 E4.5024
G1 X141.058 Y89.034 E4.5875
G1 X140.059 Y94.381 E4.7684
G1 X137.198 Y96.023 E4.8781
G1 X133.646 Y98.005 E5.0134
G1 X132.401 Y98.695 E5.0608
G1 X131.435 Y98.168 E5.0973
G0 X131.051 Y98.200 F10800
G0 X132.187 Y98.909
G0 X132.140 Y99.361
G1 X132.402 Y99.103 E5.1096 F3600
G1 X134.548 Y101.177 E5.2088
G1 X133.966 Y107.528 E5.4209
G1 X133.460 Y113.099 E5.6070
G1 X132.453 Y113.117 E5.6405
G1 X131.446 Y113.107 E5.6740
G1 X130.899 Y107.539 E5.8601
G1 X130.271 Y101.193 E6.0722
G1 X132.003 Y99.494 E6.1529
;segType:HShell
G0 X132.625 Y99.864 F10800
G1 X134.142 Y101.331 E6.2230 F1800
G1 X134.096 Y101.840 E6.2401
G1 X132.406 Y100.208 E6.3182
G1 X130.729 Y101.853 E6.3963
G1 X130.678 Y101.343 E6.4134
G1 X132.404 Y99.651 E6.4938
G1 X132.487 Y99.731 E6.4976
;segType:Infill
G0 X133.808 Y101.829 F10800
G1 X133.808 Y104.806 E6.5966 F5400
G0 X133.482 Y108.399 F10800
G1 X131.389 Y108.399 E6.6663 F5400
G0 X131.787 Y112.449 F10800
G1 X133.114 Y112.449 E6.7104 F5400
G0 X130.991 Y104.349 F10800
G1 X133.850 Y104.349 E6.8055 F5400
G0 X132.615 Y98.907 F10800
G0 X137.814 Y94.963
G1 X137.814 Y85.916 E7.1064 F5400
;segType:HShell
G0 X141.848 Y86.719 F10800
G1 X140.351 Y84.837 E7.1864 F1800
G1 X140.564 Y84.653 E7.1957
G1 X140.706 Y84.566 E7.2013
G1 X142.135 Y86.362 E7.2776
G1 X141.953 Y86.709 E7.2907
;segType:Infill
G0 X141.820 Y86.990 F10800
G1 X141.820 Y87.164 E7.2965 F5400
G0 X141.278 Y88.150 F10800
G1 X123.408 Y88.150 E7.8908 F5400
;segType:HShell
G0 X122.761 Y86.780 F10800
G1 X122.576 Y86.434 E7.9039 F1800
G1 X123.992 Y84.627 E7.9802
G1 X124.135 Y84.713 E7.9858
G1 X124.349 Y84.895 E7.9951
G1 X122.866 Y86.789 E8.0751
;segType:Infill
G0 X125.797 Y85.874 F10800
G1 X125.797 Y94.347 E8.3569 F5400
G0 X124.805 Y92.200 F10800
G1 X139.939 Y92.200 E8.8603 F5400
G0 X135.546 Y96.249 F10800
G1 X129.194 Y96.249 E9.0715 F5400
G0 X129.803 Y96.583 F10800
G1 X129.803 Y85.448 E9.4419 F5400
;segType:HShell
G0 X132.083 Y85.355 F10800
G1 X130.522 Y85.127 E9.4944 F1800
G1 X126.117 Y85.895 E9.6431
G1 X125.980 Y85.779 E9.6490
G1 X131.416 Y84.831 E9.8326
G1 X132.351 Y84.968 E9.8640
G1 X133.283 Y84.825 E9.8954
G1 X138.726 Y85.733 E10.0789
G1 X138.590 Y85.850 E10.0849
G1 X134.180 Y85.115 E10.2336
G1 X132.352 Y85.394 E10.2951
G1 X132.271 Y85.382 E10.2978
;segType:Infill
G0 X133.808 Y85.366 F10800
G1 X133.808 Y97.218 E10.6920 F5400
;segType:Support
G0 F4800 E9.6920
G0 X130.000 Y77.500 F10800
G0 F4800 E10.6920
G1 X137.500 Y77.500 E10.9040 F5400
G1 X137.500 Y80.000 E10.9747
G1 X130.000 Y80.000 E11.1867
; ------------------------------------
; Layer #12
; ------------------------------------
G21 ; mm
G90 ; abs
G92 E0 ; reset extr
M106 S255
;segType:Support
G0 F4800 E-1.0000
G0 F2400 Z2.600
G0 X130.000 Y80.000 F10800
G0 F4800 E0.0000
G1 X137.500 Y80.000 E0.2120 F5400
G1 X137.500 Y77.500 E0.2827
G1 X130.000 Y77.500 E0.4947
G0 F4800 E-0.5053
G0 X132.122 Y97.286 F10800
G0 X132.388 Y99.760
G0 F4800 E0.4947
;segType:Perimeter
G1 X132.087 Y99.137 E0.5177 F2159
G1 X131.032 Y98.563 E0.5577
G1 X127.166 Y96.442 E0.7043
G1 X124.266 Y94.807 E0.8151
G1 X123.117 Y88.893 E1.0154
G1 X122.094 Y87.163 E1.0823
G1 X121.802 Y86.583 E1.1039
G1 X124.036 Y83.732 E1.2243
G1 X124.635 Y84.095 E1.2476
G1 X125.545 Y84.867 E1.2873
G1 X131.701 Y83.794 E1.4952
G1 X132.347 Y83.888 E1.5169
G1 X132.991 Y83.790 E1.5385
G1 X139.155 Y84.818 E1.7464
G1 X140.059 Y84.039 E1.7861
G1 X140.656 Y83.672 E1.8094
G1 X142.911 Y86.505 E1.9298
G1 X142.623 Y87.088 E1.9514
G1 X141.612 Y88.826 E2.0183
G1 X140.506 Y94.748 E2.2187
G1 X137.619 Y96.404 E2.3294
G1 X133.768 Y98.553 E2.4761
G1 X132.667 Y99.163 E2.5179
G1 X134.997 Y101.414 E2.6257
G1 X134.346 Y108.513 E2.8628
G1 X133.882 Y113.623 E3.0334
G1 X132.455 Y113.647 E3.0809
G1 X131.028 Y113.633 E3.1284
G1 X130.526 Y108.527 E3.2990
G1 X129.824 Y101.433 E3.5361
G1 X132.096 Y99.205 E3.6420
G1 X132.218 Y98.523
;segType:Loop
G0 X131.406 Y98.307 F10800
G1 X131.222 Y98.207 E3.6489 F3600
G1 X127.359 Y96.088 E3.7955
G1 X124.623 Y94.545 E3.8999
G1 X123.496 Y88.746 E4.0964
G1 X122.444 Y86.967 E4.1652
G1 X122.275 Y86.631 E4.1777
G1 X124.132 Y84.261 E4.2778
G1 X124.403 Y84.425 E4.2884
G1 X125.430 Y85.297 E4.3332
G1 X131.707 Y84.204 E4.5451
G1 X132.348 Y84.297 E4.5666
G1 X132.988 Y84.199 E4.5882
G1 X139.273 Y85.248 E4.8001
G1 X140.294 Y84.368 E4.8449
G1 X140.564 Y84.201 E4.8555
G1 X142.438 Y86.556 E4.9556
G1 X142.271 Y86.894 E4.9681
G1 X141.232 Y88.682 E5.0369
G1 X140.148 Y94.488 E5.2334
G1 X137.423 Y96.051 E5.3378
G1 X133.575 Y98.198 E5.4844
G1 X132.401 Y98.849 E5.5290
G1 X131.573 Y98.398 E5.5604
G0 X131.123 Y98.393 F10800
G0 X132.326 Y99.138
G0 X132.278 Y99.590
G1 X132.403 Y99.467 E5.5662 F3600
G1 X134.581 Y101.571 E5.6669
G1 X133.948 Y108.476 E5.8975
G1 X133.517 Y113.224 E6.0561
G1 X132.454 Y113.242 E6.0915
G1 X131.390 Y113.232 E6.1269
G1 X130.924 Y108.487 E6.2855
G1 X130.241 Y101.587 E6.5161
G1 X132.141 Y99.724 E6.6046
;segType:HShell
G0 X132.764 Y100.361 F10800
G1 X134.175 Y101.725 E6.6698 F1800
G1 X134.128 Y102.235 E6.6869
G1 X132.408 Y100.572 E6.7665
G1 X130.699 Y102.247 E6.8461
G1 X130.648 Y101.738 E6.8631
G1 X132.405 Y100.015 E6.9449
G1 X132.626 Y100.228 E6.9551
;segType:Infill
G0 X133.919 Y104.349 F10800
G1 X130.922 Y104.349 E7.0548 F5400
G0 X133.182 Y112.449 F10800
G1 X131.719 Y112.449 E7.1035 F5400
G0 X131.321 Y108.399 F10800
G1 X133.550 Y108.399 E7.1777 F5400
G0 X133.808 Y105.555 F10800
G1 X133.808 Y102.192 E7.2895 F5400
G0 X132.479 Y99.138 F10800
G0 X135.824 Y96.249
G1 X128.914 Y96.249 E7.5194 F5400
G0 X129.803 Y96.736 F10800
G1 X129.803 Y85.271 E7.9007 F5400
G0 X125.797 Y85.874 F10800
G1 X125.797 Y94.504 E8.1878 F5400
G0 X124.696 Y92.200 F10800
G1 X140.047 Y92.200 E8.6983 F5400
G0 X137.814 Y95.121 F10800
G1 X137.814 Y85.739 E9.0104 F5400
;segType:HShell
G0 X141.681 Y86.952 F10800
G1 X140.142 Y85.017 E9.0926 F1800
G1 X140.480 Y84.726 E9.1075
G1 X141.977 Y86.606 E9.1874
G1 X141.788 Y86.944 E9.2003
;segType:Infill
G0 X141.278 Y88.150 F10800
G1 X123.408 Y88.150 E9.7946 F5400
;segType:HShell
G0 X122.931 Y87.019 F10800
G1 X122.736 Y86.677 E9.8077 F1800
G1 X124.219 Y84.785 E9.8877
G1 X124.589 Y85.099 E9.9038
G1 X123.039 Y87.027 E9.9861
G0 X132.257 Y85.109 F10800
G1 X130.818 Y84.899 E10.0345 F1800
G1 X125.945 Y85.748 E10.1990
G1 X125.808 Y85.632 E10.2049
G1 X131.712 Y84.603 E10.4043
G1 X132.349 Y84.696 E10.4257
G1 X132.985 Y84.599 E10.4471
G1 X138.898 Y85.585 E10.6465
G1 X138.762 Y85.702 E10.6524
G1 X133.882 Y84.889 E10.8170
G1 X132.445 Y85.108 E10.8653
;segType:Infill
G0 X133.808 Y85.094 F10800
G1 X133.808 Y97.375 E11.2738 F5400
; ------------------------------------
; Layer #13
; ------------------------------------
G21 ; mm
G90 ; abs
G92 E0 ; reset extr
M106 S255
G0 F4800 E-1.0000
G0 F2400 Z2.800
G0 X132.256 Y98.887 F10800
G0 X132.525 Y99.989
G0 F4800 E0.0000
;segType:Perimeter
G1 X132.225 Y99.367 E0.0230 F2159
G1 X131.104 Y98.756 E0.0655
G1 X126.940 Y96.472 E0.2234
G1 X124.179 Y94.915 E0.3288
G1 X122.941 Y88.542 E0.5448
G1 X122.167 Y87.233 E0.5953
G1 X121.962 Y86.827 E0.6105
G1 X124.269 Y83.883 E0.7349
G1 X124.677 Y84.129 E0.7507
G1 X125.373 Y84.720 E0.7811
G1 X131.998 Y83.566 E1.0048
G1 X132.346 Y83.617 E1.0165
G1 X132.693 Y83.564 E1.0281
G1 X139.326 Y84.670 E1.2518
G1 X140.018 Y84.074 E1.2822
G1 X140.424 Y83.824 E1.2980
G1 X142.752 Y86.750 E1.4224
G1 X142.551 Y87.158 E1.4376
G1 X141.786 Y88.473 E1.4882
G1 X140.594 Y94.855 E1.7041
G1 X137.844 Y96.432 E1.8095
G1 X133.698 Y98.746 E1.9675
G1 X132.531 Y99.393 E2.0118
G1 X135.030 Y101.808 E2.1274
G1 X134.329 Y109.460 E2.3830
G1 X133.939 Y113.748 E2.5262
G1 X132.456 Y113.772 E2.5756
G1 X130.972 Y113.759 E2.6249
G1 X130.551 Y109.474 E2.7681
G1 X129.794 Y101.827 E3.0237
G1 X132.234 Y99.434 E3.1374
G1 X132.356 Y98.752
;segType:Loop
G0 X131.544 Y98.536 F10800
G1 X131.294 Y98.400 E3.1468 F3600
G1 X127.133 Y96.117 E3.3047
G1 X124.536 Y94.653 E3.4038
G1 X123.320 Y88.395 E3.6159
G1 X122.517 Y87.038 E3.6683
G1 X122.435 Y86.875 E3.6744
G1 X124.365 Y84.412 E3.7785
G1 X124.444 Y84.460 E3.7816
G1 X125.258 Y85.151 E3.8171
G1 X132.003 Y83.975 E4.0448
G1 X132.347 Y84.025 E4.0564
G1 X132.690 Y83.973 E4.0679
G1 X139.444 Y85.100 E4.2956
G1 X140.253 Y84.402 E4.3312
G1 X140.332 Y84.354 E4.3343
G1 X142.280 Y86.801 E4.4383
G1 X142.199 Y86.965 E4.4444
G1 X141.406 Y88.329 E4.4968
G1 X140.236 Y94.596 E4.7089
G1 X137.649 Y96.079 E4.8081
G1 X133.505 Y98.392 E4.9659
G1 X132.402 Y99.003 E5.0078
G1 X131.711 Y98.627 E5.0340
G0 X131.194 Y98.586 F10800
G0 X132.464 Y99.367
G0 X132.215 Y99.722
G0 X132.416 Y99.842
G1 X134.614 Y101.965 E5.1356 F3600
G1 X133.930 Y109.423 E5.3847
G1 X133.574 Y113.349 E5.5158
G1 X132.454 Y113.368 E5.5531
G1 X131.334 Y113.358 E5.5903
G1 X130.949 Y109.434 E5.7215
G1 X130.211 Y101.981 E5.9706
G1 X132.280 Y99.953 E6.0669
G0 X132.342 Y99.368 F10800
G0 X132.903 Y100.858
;segType:HShell
G1 X134.208 Y102.119 E6.1272 F1800
G1 X134.161 Y102.628 E6.1443
G1 X132.409 Y100.935 E6.2253
G1 X130.669 Y102.641 E6.3063
G1 X130.619 Y102.132 E6.3234
G1 X132.406 Y100.378 E6.4067
G1 X132.766 Y100.725 E6.4233
;segType:Infill
G0 X130.853 Y104.349 F10800
G1 X133.988 Y104.349 E6.5275 F5400
G0 X133.250 Y112.449 F10800
G1 X131.650 Y112.449 E6.5808 F5400
G0 X131.253 Y108.399 F10800
G1 X133.618 Y108.399 E6.6594 F5400
G0 X133.808 Y106.308 F10800
G1 X133.808 Y102.554 E6.7843 F5400
G0 X131.820 Y100.108 F10800
G0 X132.464 Y99.367
G0 X128.633 Y96.249
G1 X136.101 Y96.249 E7.0327 F5400
G0 X137.814 Y95.279 F10800
G1 X137.814 Y85.563 E7.3558 F5400
;segType:HShell
G0 X141.511 Y87.192 F10800
G1 X139.933 Y85.197 E7.4405 F1800
G1 X140.268 Y84.908 E7.4552
G1 X141.793 Y86.884 E7.5382
G1 X141.619 Y87.184 E7.5498
;segType:Infill
G0 X141.278 Y88.150 F10800
G1 X123.377 Y88.150 E8.1452 F5400
;segType:HShell
G0 X123.098 Y87.247 F10800
G1 X122.902 Y86.914 E8.1580 F1800
G1 X124.430 Y84.963 E8.2405
G1 X124.770 Y85.252 E8.2553
G1 X123.206 Y87.254 E8.3398
;segType:Infill
G0 X125.797 Y85.792 F10800
G1 X125.797 Y94.661 E8.6348 F5400
G0 X124.588 Y92.200 F10800
G1 X140.155 Y92.200 E9.1526 F5400
G0 X133.808 Y97.529 F10800
G1 X133.808 Y84.894 E9.5728 F5400
;segType:HShell
G0 X132.256 Y84.837 F10800
G1 X131.114 Y84.671 E9.6111 F1800
G1 X125.772 Y85.601 E9.7915
G1 X125.636 Y85.485 E9.7975
G1 X132.009 Y84.375 E10.0126
G1 X132.349 Y84.424 E10.0240
G1 X132.688 Y84.372 E10.0355
G1 X139.069 Y85.437 E10.2506
G1 X138.933 Y85.554 E10.2566
G1 X133.584 Y84.662 E10.4370
G1 X132.444 Y84.836 E10.4753
;segType:Infill
G0 X129.803 Y85.094 F10800
G1 X129.803 Y96.891 E10.8677 F5400
;segType:Support
G0 F4800 E9.8677
G0 X137.500 Y77.500 F10800
G0 F4800 E10.8677
G1 X130.000 Y77.500 E11.0797 F5400
G1 X130.000 Y80.000 E11.1504
G1 X137.500 Y80.000 E11.3624
; ------------------------------------
; Layer #14
; ------------------------------------
G21 ; mm
G90 ; abs
G92 E0 ; reset extr
M106 S255
;segType:Support
G0 F4800 E-1.0000
G0 F2400 Z3.000
G0 X137.500 Y80.000 F10800
G0 F4800 E0.0000
G1 X130.000 Y80.000 E0.2120 F5400
G0 F4800 E-0.7880
G0 X124.399 Y83.466 F10800
G0 X121.554 Y87.013
G0 X123.630 Y95.362
G0 X132.179 Y100.311
G0 F4800 E0.2120
;segType:Perimeter
G1 X132.445 Y99.673 E0.2350 F2159
G1 X135.063 Y102.202 E0.3561
G1 X134.311 Y110.408 E0.6302
G1 X133.996 Y113.873 E0.7459
G1 X132.456 Y113.898 E0.7971
G1 X130.916 Y113.884 E0.8483
G1 X130.576 Y110.421 E0.9641
G1 X129.764 Y102.221 E1.2381
G1 X132.363 Y99.673 E1.3592
G1 X132.633 Y100.309
;segType:Loop
G0 X132.884 Y100.656 F10800
G1 X134.646 Y102.359 E1.4407 F3600
G1 X133.912 Y110.371 E1.7083
G1 X133.630 Y113.475 E1.8119
G1 X132.455 Y113.493 E1.8510
G1 X131.279 Y113.483 E1.8902
G1 X130.974 Y110.381 E1.9938
G1 X130.181 Y102.376 E2.2614
G1 X132.406 Y100.194 E2.3650
G1 X132.747 Y100.523 E2.3808
;segType:HShell
G0 X132.959 Y101.830 F10800
G1 X132.410 Y101.299 E2.4062 F1800
G1 X130.639 Y103.035 E2.4887
G1 X130.589 Y102.526 E2.5057
G1 X132.408 Y100.742 E2.5905
G1 X134.240 Y102.512 E2.6752
G1 X134.194 Y103.022 E2.6922
G1 X133.097 Y101.963 E2.7430
;segType:Infill
G0 X134.057 Y104.349 F10800
G1 X130.784 Y104.349 E2.8518 F5400
G0 X133.319 Y112.449 F10800
G1 X131.582 Y112.449 E2.9095 F5400
G0 X131.185 Y108.399 F10800
G1 X133.686 Y108.399 E2.9927 F5400
G0 X133.808 Y107.058 F10800
G1 X133.808 Y102.916 E3.1305 F5400
G0 F4800 E2.1305
G0 X132.630 Y100.644 F10800
G0 X131.453 Y98.371
G0 X124.385 Y84.735
G0 F4800 E3.1305
;segType:Perimeter
G1 X124.551 Y84.063 E3.1535 F2159
G1 X124.718 Y84.164 E3.1600
G1 X125.200 Y84.573 E3.1811
G1 X132.309 Y83.335 E3.4211
G1 X132.381 Y83.335 E3.4235
G1 X139.497 Y84.522 E3.6634
G1 X139.977 Y84.108 E3.6845
G1 X140.192 Y83.976 E3.6929
G1 X142.594 Y86.995 E3.8212
G1 X142.478 Y87.229 E3.8299
G1 X141.960 Y88.120 E3.8642
G1 X140.682 Y94.962 E4.0957
G1 X138.070 Y96.460 E4.1958
G1 X133.627 Y98.940 E4.3651
G1 X132.404 Y99.618 E4.4116
G1 X131.176 Y98.949 E4.4581
G1 X126.714 Y96.502 E4.6274
G1 X124.092 Y95.023 E4.7275
G1 X122.764 Y88.190 E4.9590
G1 X122.240 Y87.304 E4.9933
G1 X122.122 Y87.071 E5.0019
G1 X124.466 Y84.078 E5.1284
G1 X124.857 Y84.648
;segType:Loop
G0 X125.430 Y84.944 F10800
G1 X132.349 Y83.739 E5.3619 F3600
G1 X139.615 Y84.952 E5.6070
G1 X140.114 Y84.522 E5.6288
G1 X142.121 Y87.046 E5.7361
G1 X141.580 Y87.976 E5.7719
G1 X140.324 Y94.703 E5.9995
G1 X137.875 Y96.107 E6.0934
G1 X133.434 Y98.585 E6.2625
G1 X132.402 Y99.158 E6.3018
G1 X131.366 Y98.593 E6.3410
G1 X126.907 Y96.147 E6.5102
G1 X124.449 Y94.761 E6.6040
G1 X123.143 Y88.043 E6.8316
G1 X122.596 Y87.118 E6.8674
G1 X124.584 Y84.579 E6.9747
G1 X125.085 Y85.004 E6.9965
G1 X125.243 Y84.976 E7.0018
;segType:HShell
G0 X124.711 Y85.327 F10800
G1 X123.163 Y87.309 E7.0855 F1800
G1 X123.069 Y87.149 E7.0916
G1 X124.641 Y85.142 E7.1764
G1 X124.697 Y85.190 E7.1789
;segType:Infill
G0 X123.408 Y88.150 F10800
G1 X141.278 Y88.150 E7.7732 F5400
;segType:HShell
G0 X140.005 Y85.134 F10800
G1 X140.061 Y85.086 E7.7757 F1800
G1 X141.648 Y87.081 E7.8605
G1 X141.553 Y87.245 E7.8668
G1 X139.992 Y85.272 E7.9505
;segType:Infill
G0 X137.814 Y85.386 F10800
G1 X137.814 Y95.437 E8.2848 F5400
G0 X136.378 Y96.249 F10800
G1 X128.354 Y96.249 E8.5516 F5400
G0 X129.803 Y97.044 F10800
G1 X129.803 Y84.917 E8.9550 F5400
;segType:HShell
G0 X126.364 Y85.321 F10800
G1 X125.600 Y85.454 E8.9808 F1800
G1 X125.463 Y85.338 E8.9867
G1 X132.351 Y84.139 E9.2193
G1 X139.240 Y85.289 E9.4516
G1 X139.104 Y85.406 E9.4575
G1 X133.286 Y84.436 E9.6537
G1 X132.349 Y84.579 E9.6853
G1 X131.411 Y84.442 E9.7168
G1 X126.551 Y85.289 E9.8809
;segType:Infill
G0 X133.808 Y84.718 F10800
G1 X133.808 Y97.683 E10.3121 F5400
G0 X140.263 Y92.200 F10800
G1 X124.480 Y92.200 E10.8371 F5400
G0 X125.797 Y94.818 F10800
G1 X125.797 Y85.615 E11.1431 F5400
;segType:Support
G0 F4800 E10.1431
G0 X130.000 Y77.500 F10800
G0 F4800 E11.1431
G1 X137.500 Y77.500 E11.3552 F5400
; ------------------------------------
; Layer #15
; ------------------------------------
G21 ; mm
G90 ; abs
G92 E0 ; reset extr
M106 S255
;segType:Support
G0 F4800 E-1.0000
G0 F2400 Z3.200
G0 X137.500 Y80.000 F10800
G0 F4800 E0.0000
G1 X130.000 Y80.000 E0.2120 F5400
G0 F4800 E-0.7880
G0 X126.405 Y83.266 F10800
G0 X124.607 Y84.899
G0 F4800 E0.2120
;segType:Perimeter
G1 X124.803 Y84.236 E0.2350 F2159
G1 X125.028 Y84.427 E0.2449
G1 X132.344 Y83.152 E0.4919
G1 X139.669 Y84.374 E0.7389
G1 X139.961 Y84.128 E0.7516
G1 X142.432 Y87.234 E0.8836
G1 X142.134 Y87.770 E0.9039
G1 X140.770 Y95.069 E1.1509
G1 X138.296 Y96.489 E1.2458
G1 X133.557 Y99.133 E1.4263
G1 X132.404 Y99.772 E1.4701
G1 X131.247 Y99.142 E1.5140
G1 X126.489 Y96.532 E1.6945
G1 X124.004 Y95.131 E1.7893
G1 X122.588 Y87.841 E2.0363
G1 X122.287 Y87.309 E2.0566
G1 X124.723 Y84.243 E2.1869
G1 X125.042 Y84.856
;segType:Loop
G0 X125.781 Y84.706 F10800
G1 X132.346 Y83.563 E2.4085 F3600
G1 X139.784 Y84.803 E2.6593
G1 X139.904 Y84.702 E2.6646
G1 X141.950 Y87.275 E2.7739
G1 X141.753 Y87.629 E2.7874
G1 X140.412 Y94.810 E3.0303
G1 X138.101 Y96.136 E3.1190
G1 X133.364 Y98.779 E3.2994
G1 X132.403 Y99.312 E3.3359
G1 X131.438 Y98.786 E3.3725
G1 X126.681 Y96.177 E3.5529
G1 X124.361 Y94.869 E3.6415
G1 X122.968 Y87.698 E3.8845
G1 X122.769 Y87.348 E3.8979
G1 X124.815 Y84.774 E4.0072
G1 X124.913 Y84.857 E4.0115
G1 X125.593 Y84.739 E4.0345
;segType:Infill
G0 X125.797 Y85.439 F10800
G1 X125.797 Y94.975 E4.3516 F5400
G0 X128.073 Y96.249 F10800
G1 X136.653 Y96.249 E4.6370 F5400
G0 X137.814 Y95.594 F10800
G1 X137.814 Y85.209 E4.9824 F5400
G0 X141.278 Y88.150 F10800
G1 X123.408 Y88.150 E5.5767 F5400
G0 X124.371 Y92.200 F10800
G1 X140.371 Y92.200 E6.1089 F5400
G0 X133.808 Y84.541 F10800
G1 X133.808 Y97.837 E6.5511 F5400
G0 X129.803 Y97.198 F10800
G1 X129.803 Y84.741 E6.9655 F5400
;segType:HShell
G0 X126.714 Y85.084 F10800
G1 X125.427 Y85.308 E7.0089 F1800
G1 X125.291 Y85.192 E7.0149
G1 X132.347 Y83.962 E7.2531
G1 X139.443 Y85.114 E7.4922
G1 X139.276 Y85.258 E7.4995
G1 X132.988 Y84.209 E7.7116
G1 X132.348 Y84.307 E7.7331
G1 X131.707 Y84.214 E7.7546
G1 X126.902 Y85.051 E7.9169
;segType:Perimeter
G0 F4800 E6.9169
G0 X132.181 Y100.675 F10800
G0 F4800 E7.9169
G1 X132.447 Y100.037 E7.9399 F2159
G1 X135.095 Y102.596 E8.0624
G1 X134.293 Y111.355 E8.3549
G1 X134.053 Y113.998 E8.4432
G1 X132.457 Y114.023 E8.4963
G1 X130.860 Y114.010 E8.5494
G1 X130.601 Y111.369 E8.6377
G1 X129.734 Y102.616 E8.9302
G1 X132.364 Y100.037 E9.0527
G1 X132.635 Y100.673
;segType:Loop
G0 X132.886 Y101.020 F10800
G1 X134.679 Y102.753 E9.1357 F3600
G1 X133.894 Y111.318 E9.4217
G1 X133.687 Y113.600 E9.4979
G1 X132.455 Y113.619 E9.5389
G1 X131.223 Y113.608 E9.5799
G1 X130.999 Y111.328 E9.6561
G1 X130.151 Y102.770 E9.9422
G1 X132.407 Y100.558 E10.0472
G1 X132.748 Y100.887 E10.0630
;segType:HShell
G0 X132.961 Y102.193 F10800
G1 X132.673 Y101.916 E10.0763 F1800
G1 X132.412 Y101.958 E10.0851
G1 X132.151 Y101.917 E10.0939
G1 X130.609 Y103.429 E10.1657
G1 X130.559 Y102.920 E10.1827
G1 X132.409 Y101.106 E10.2689
G1 X134.273 Y102.907 E10.3551
G1 X134.226 Y103.416 E10.3721
G1 X133.098 Y102.326 E10.4243
;segType:Infill
G0 X134.125 Y104.349 F10800
G1 X130.715 Y104.349 E10.5377 F5400
G0 X133.387 Y112.449 F10800
G1 X131.514 Y112.449 E10.6000 F5400
G0 X131.116 Y108.399 F10800
G1 X133.754 Y108.399 E10.6877 F5400
G0 X133.808 Y107.809 F10800
G1 X133.808 Y103.278 E10.8384 F5400
G0 F4800 E9.8384
G0 X141.235 Y95.405 F10800
G0 X143.000 Y87.187
G0 X137.500 Y77.500
G0 F4800 E10.8384
;segType:Support
G1 X130.000 Y77.500 E11.0505 F5400
; ------------------------------------
; Layer #16
; ------------------------------------
G21 ; mm
G90 ; abs
G92 E0 ; reset extr
M106 S255
;segType:Support
G0 F4800 E-1.0000
G0 F2400 Z3.400
G0 X130.000 Y77.500 F10800
G0 F4800 E0.0000
G1 X137.500 Y77.500 E0.2120 F5400
;segType:Perimeter
G0 F4800 E-0.7880
G0 X132.703 Y99.303 F10800
G0 F4800 E0.2120
G1 X132.355 Y99.899 E0.2350 F2159
G1 X131.319 Y99.335 E0.2742
G1 X126.263 Y96.561 E0.4660
G1 X123.917 Y95.238 E0.5556
G1 X122.423 Y87.583 E0.8150
G1 X124.334 Y85.143 E0.9181
G1 X125.025 Y84.250 E0.9557
G1 X132.343 Y82.976 E1.2027
G1 X139.671 Y84.198 E1.4498
G1 X140.283 Y84.977 E1.4827
G1 X142.296 Y87.521 E1.5907
G1 X140.859 Y95.177 E1.8497
G1 X138.522 Y96.517 E1.9393
G1 X133.486 Y99.327 E2.1311
G1 X132.455 Y99.899 E2.1704
G1 X132.103 Y99.305
;segType:Loop
G0 X131.674 Y99.068 F10800
G1 X131.510 Y98.979 E2.1766 F3600
G1 X126.456 Y96.207 E2.3683
G1 X124.274 Y94.976 E2.4516
G1 X122.852 Y87.688 E2.6986
G1 X124.648 Y85.393 E2.7955
G1 X125.245 Y84.623 E2.8279
G1 X132.345 Y83.386 E3.0677
G1 X139.454 Y84.571 E3.3074
G1 X139.970 Y85.229 E3.3351
G1 X141.869 Y87.628 E3.4369
G1 X140.500 Y94.917 E3.6836
G1 X138.326 Y96.164 E3.7669
G1 X133.294 Y98.973 E3.9586
G1 X132.404 Y99.466 E3.9925
G1 X131.841 Y99.160 E4.0138
;segType:Infill
G0 X129.803 Y97.352 F10800
G1 X129.803 Y84.564 E4.4391 F5400
;segType:HShell
G0 X128.356 Y84.621 F10800
G1 X125.334 Y85.147 E4.5412 F1800
G1 X125.459 Y84.986 E4.5479
G1 X132.346 Y83.787 E4.7805
G1 X139.242 Y84.936 E5.0130
G1 X139.368 Y85.097 E5.0198
G1 X132.690 Y83.983 E5.2449
G1 X132.347 Y84.035 E5.2565
G1 X132.004 Y83.985 E5.2680
G1 X128.544 Y84.588 E5.3848
;segType:Infill
G0 X124.263 Y92.200 F10800
G1 X140.480 Y92.200 E5.9242 F5400
G0 X141.278 Y88.150 F10800
G1 X123.408 Y88.150 E6.5185 F5400
G0 X125.797 Y85.262 F10800
G1 X125.797 Y95.133 E6.8468 F5400
G0 X127.793 Y96.249 F10800
G1 X136.930 Y96.249 E7.1507 F5400
G0 X133.808 Y97.991 F10800
G1 X133.808 Y84.364 E7.6040 F5400
G0 X137.814 Y85.033 F10800
G1 X137.814 Y95.752 E7.9605 F5400
G0 F4800 E6.9605
G0 X134.059 Y99.276 F10800
G0 X132.182 Y101.038
G0 F4800 E7.9605
;segType:Perimeter
G1 X132.448 Y100.400 E7.9835 F2159
G1 X135.128 Y102.990 E8.1074
G1 X134.275 Y112.302 E8.4185
G1 X134.109 Y114.123 E8.4793
G1 X132.457 Y114.149 E8.5343
G1 X130.804 Y114.135 E8.5892
G1 X130.626 Y112.316 E8.6500
G1 X129.704 Y103.010 E8.9611
G1 X132.366 Y100.400 E9.0850
G1 X132.636 Y101.037
;segType:Loop
G0 X132.887 Y101.384 F10800
G1 X134.712 Y103.147 E9.1694 F3600
G1 X133.876 Y112.265 E9.4740
G1 X133.744 Y113.724 E9.5227
G1 X132.456 Y113.745 E9.5656
G1 X131.167 Y113.734 E9.6084
G1 X131.024 Y112.276 E9.6572
G1 X130.121 Y103.164 E9.9617
G1 X132.409 Y100.922 E10.0682
G1 X132.749 Y101.251 E10.0840
;segType:HShell
G0 X132.962 Y102.557 F10800
G1 X132.961 Y102.556 E10.0840 F1800
G1 X132.415 Y102.644 E10.1024
G1 X131.868 Y102.560 E10.1208
G1 X130.579 Y103.824 E10.1809
G1 X130.529 Y103.315 E10.1979
G1 X132.411 Y101.469 E10.2855
G1 X134.306 Y103.300 E10.3732
G1 X134.259 Y103.810 E10.3902
G1 X133.100 Y102.690 E10.4439
;segType:Infill
G0 X133.808 Y103.641 F10800
G1 X133.808 Y108.562 E10.6075 F5400
G0 X133.455 Y112.449 F10800
G1 X131.446 Y112.449 E10.6743 F5400
G0 X131.048 Y108.399 F10800
G1 X133.823 Y108.399 E10.7667 F5400
G0 X134.194 Y104.349 F10800
G1 X130.647 Y104.349 E10.8847 F5400
G0 F4800 E9.8847
G0 X141.323 Y95.513 F10800
G0 X142.850 Y87.382
G0 X137.500 Y80.000
G0 F4800 E10.8847
;segType:Support
G1 X130.000 Y80.000 E11.0967 F5400
; ------------------------------------
; Layer #17
; ------------------------------------
G21 ; mm
G90 ; abs
G92 E0 ; reset extr
M106 S255
;segType:Support
G0 F4800 E-1.0000
G0 F2400 Z3.600
G0 X130.000 Y80.000 F10800
G0 F4800 E0.0000
G1 X137.500 Y80.000 E0.2120 F5400
G1 X137.500 Y77.500 E0.2827
G1 X130.000 Y77.500 E0.4947
G0 F4800 E-0.5053
G0 X122.829 Y92.919 F10800
G0 X123.368 Y95.685
G0 X133.888 Y113.593
G0 F4800 E0.4947
;segType:Perimeter
G1 X134.109 Y114.249 E0.5178 F2159
G1 X132.457 Y114.275 E0.5727
G1 X130.749 Y114.261 E0.6295
G1 X129.675 Y103.404 E0.9924
G1 X132.295 Y100.834 E1.1145
G1 X132.522 Y100.834 E1.1220
G1 X135.161 Y103.384 E1.2441
G1 X134.257 Y113.250 E1.5736
G1 X134.171 Y114.191 E1.6050
G1 X133.541 Y113.919
;segType:Loop
G0 X133.114 Y113.860 F10800
G1 X132.456 Y113.870 E1.6269 F3600
G1 X131.111 Y113.859 E1.6716
G1 X130.092 Y103.558 E2.0159
G1 X132.410 Y101.285 E2.1239
G1 X134.745 Y103.541 E2.2319
G1 X133.801 Y113.849 E2.5762
G1 X133.304 Y113.857 E2.5927
;segType:Infill
G0 X133.523 Y112.449 F10800
G1 X131.378 Y112.449 E2.6640 F5400
G0 X130.979 Y108.399 F10800
G1 X133.892 Y108.399 E2.7609 F5400
G0 X134.167 Y104.349 F10800
G1 X130.689 Y104.349 E2.8766 F5400
;segType:HShell
G0 X130.540 Y104.122 F10800
G1 X130.499 Y103.708 E2.8904 F1800
G1 X132.412 Y101.833 E2.9795
G1 X134.339 Y103.695 E3.0687
G1 X134.292 Y104.204 E3.0857
G1 X133.249 Y103.196 E3.1339
G1 X132.417 Y103.330 E3.1619
G1 X131.585 Y103.203 E3.1900
G1 X130.618 Y104.151 E3.2350
G0 X131.976 Y102.796 F10800
G1 X132.414 Y102.367 E3.2554 F1800
G1 X132.923 Y102.859 E3.2790
G1 X132.416 Y102.940 E3.2960
G1 X132.002 Y102.877 E3.3100
;segType:Infill
G0 X133.808 Y104.003 F10800
G1 X133.808 Y109.312 E3.4865 F5400
G0 F4800 E2.4865
G0 X132.979 Y101.921 F10800
G0 X132.703 Y99.457
G0 F4800 E3.4865
;segType:Perimeter
G1 X132.355 Y100.053 E3.5095 F2159
G1 X131.391 Y99.528 E3.5460
G1 X126.037 Y96.591 E3.7491
G1 X123.830 Y95.346 E3.8334
G1 X122.308 Y87.519 E4.0986
G1 X124.963 Y84.085 E4.2430
G1 X132.343 Y82.800 E4.4921
G1 X139.731 Y84.031 E4.7413
G1 X142.411 Y87.445 E4.8856
G1 X140.947 Y95.284 E5.1509
G1 X138.748 Y96.545 E5.2352
G1 X133.416 Y99.521 E5.4383
G1 X132.455 Y100.053 E5.4748
G1 X132.103 Y99.459
;segType:Loop
G0 X131.674 Y99.223 F10800
G1 X131.581 Y99.172 E5.4783 F3600
G1 X126.230 Y96.237 E5.6813
G1 X124.186 Y95.084 E5.7593
G1 X122.736 Y87.622 E6.0122
G1 X125.183 Y84.457 E6.1452
G1 X132.344 Y83.210 E6.3870
G1 X139.514 Y84.405 E6.6288
G1 X141.984 Y87.551 E6.7618
G1 X140.588 Y95.024 E7.0147
G1 X138.553 Y96.192 E7.0927
G1 X133.223 Y99.166 E7.2957
