; generated by Slic3r 1.2.9 on 2016-06-29 at 15:58:10

; external perimeters extrusion width = 0.40mm
; perimeters extrusion width = 0.40mm
; infill extrusion width = 0.67mm
; solid infill extrusion width = 0.40mm
; top infill extrusion width = 0.40mm
; support material extrusion width = 0.40mm

M190 S60 ; set bed temperature
M104 S210 ; set temperature
G28 ; home all axes

M109 S210 ; wait for temperature to be reached
G21 ; set units to millimeters
G90 ; use absolute coordinates
M82 ; use absolute distances for extrusion
G92 E0
G1 E-4.00000 F4800.00000
G92 E0
G1 Z1.000 F6000.000
G1 X0.220 Y-35.383 F6000.000
G1 Z0.300 F6000.000
G1 E4.00000 F4800.00000
G1 X15.242 Y-35.289 E4.62886 F1200.000
G1 X17.940 Y-34.875 E4.74312 F1200.000
G1 X20.404 Y-33.700 E4.85738
G1 X22.424 Y-31.864 E4.97164
G1 X23.315 Y-30.570 E5.03741
G1 X37.070 Y-6.484 E6.19845
G1 X38.265 Y-4.297 E6.30281
G1 X39.209 Y-1.735 E6.41707
G1 X39.374 Y0.989 E6.53133
G1 X38.746 Y3.646 E6.64559
G1 X38.124 Y4.919 E6.70489
G1 X22.940 Y30.845 E7.96261
G1 X21.232 Y32.974 E8.07687
G1 X18.983 Y34.520 E8.19113
G1 X16.383 Y35.352 E8.30539
G1 X14.803 Y35.476 E8.37174
G1 X-15.242 Y35.289 E9.62946
G1 X-17.940 Y34.875 E9.74372
G1 X-20.404 Y33.700 E9.85798
G1 X-22.424 Y31.864 E9.97224
G1 X-23.315 Y30.570 E10.03801
G1 X-37.070 Y6.484 E11.19906
G1 X-38.265 Y4.296 E11.30342
G1 X-39.209 Y1.735 E11.41768
G1 X-39.374 Y-0.989 E11.53194
G1 X-38.746 Y-3.646 E11.64620
G1 X-38.129 Y-4.910 E11.70508
G1 X-23.490 Y-29.967 E12.91987
G1 X-22.796 Y-31.083 E12.97489
G1 X-21.025 Y-33.160 E13.08915
G1 X-18.731 Y-34.639 E13.20341
G1 X-14.803 Y-35.476 E13.37154
G1 X0.160 Y-35.383 E13.99789
G1 X0.218 Y-35.047 F6000.000
G1 X15.240 Y-34.954 E14.62675 F1200.000
G1 X17.888 Y-34.539 E14.73893 F1200.000
G1 X20.298 Y-33.366 E14.85111
G1 X22.256 Y-31.537 E14.96329
G1 X23.023 Y-30.403 E15.02060
G1 X36.778 Y-6.318 E16.18165
G1 X37.970 Y-4.136 E16.28574
G1 X38.890 Y-1.619 E16.39792
G1 X39.030 Y1.058 E16.51010
G1 X37.835 Y4.749 E16.67253
G1 X22.651 Y30.675 E17.93025
G1 X20.968 Y32.761 E18.04243
G1 X18.747 Y34.261 E18.15461
G1 X16.184 Y35.043 E18.26679
G1 X14.805 Y35.140 E18.32467
G1 X-15.240 Y34.954 E19.58239
G1 X-17.888 Y34.539 E19.69457
G1 X-20.298 Y33.366 E19.80675
G1 X-22.256 Y31.537 E19.91893
G1 X-23.023 Y30.403 E19.97624
G1 X-36.778 Y6.318 E21.13729
G1 X-37.970 Y4.136 E21.24138
G1 X-38.890 Y1.619 E21.35356
G1 X-39.030 Y-1.058 E21.46574
G1 X-37.840 Y-4.741 E21.62778
G1 X-23.056 Y-30.035 E22.85419
G1 X-22.512 Y-30.905 E22.89715
G1 X-20.768 Y-32.940 E23.00933
G1 X-18.503 Y-34.373 E23.12151
G1 X-14.805 Y-35.140 E23.27963
G1 X0.158 Y-35.047 E23.90598
G1 X0.216 Y-34.711 F6000.000
G1 X15.238 Y-34.618 E24.53484 F1200.000
G1 X17.835 Y-34.204 E24.64491 F1200.000
G1 X20.189 Y-33.033 E24.75497
G1 X22.732 Y-30.237 E24.91319
G1 X36.487 Y-6.152 E26.07423
G1 X37.676 Y-3.975 E26.17804
G1 X38.571 Y-1.503 E26.28811
G1 X38.686 Y1.124 E26.39817
G1 X37.545 Y4.579 E26.55050
G1 X22.361 Y30.506 E27.80822
G1 X20.704 Y32.548 E27.91829
G1 X18.513 Y34.001 E28.02835
G1 X14.807 Y34.805 E28.18710
G1 X-15.238 Y34.618 E29.44482
G1 X-17.835 Y34.204 E29.55489
G1 X-20.189 Y33.033 E29.66495
G1 X-22.732 Y30.237 E29.82317
G1 X-36.487 Y6.152 E30.98421
G1 X-37.676 Y3.975 E31.08803
G1 X-38.571 Y1.503 E31.19809
G1 X-38.686 Y-1.124 E31.30816
G1 X-37.550 Y-4.571 E31.46011
G1 X-22.772 Y-29.857 E32.68609
G1 X-22.227 Y-30.727 E32.72905
G1 X-20.510 Y-32.718 E32.83911
G1 X-18.277 Y-34.106 E32.94918
G1 X-14.807 Y-34.805 E33.09735
G1 X0.156 Y-34.712 E33.72370
G1 X0.214 Y-34.376 F6000.000
G1 X15.236 Y-34.282 E34.35256 F1200.000
G1 X17.781 Y-33.869 E34.46047 F1200.000
G1 X20.078 Y-32.700 E34.56837
G1 X22.441 Y-30.070 E34.71635
G1 X36.195 Y-5.985 E35.87739
G1 X37.381 Y-3.814 E35.98093
G1 X38.252 Y-1.388 E36.08884
G1 X38.341 Y1.188 E36.19674
G1 X37.256 Y4.410 E36.33905
G1 X22.071 Y30.336 E37.59677
G1 X20.441 Y32.333 E37.70467
G1 X18.280 Y33.738 E37.81258
G1 X14.809 Y34.469 E37.96107
G1 X-15.236 Y34.282 E39.21879
G1 X-17.781 Y33.869 E39.32669
G1 X-20.078 Y32.700 E39.43460
G1 X-22.441 Y30.070 E39.58257
G1 X-36.195 Y5.985 E40.74362
G1 X-37.381 Y3.814 E40.84716
G1 X-38.252 Y1.388 E40.95506
G1 X-38.341 Y-1.188 E41.06297
G1 X-37.260 Y-4.402 E41.20491
G1 X-22.487 Y-29.679 E42.43046
G1 X-21.943 Y-30.549 E42.47342
G1 X-20.254 Y-32.496 E42.58132
G1 X-18.052 Y-33.836 E42.68923
G1 X-14.809 Y-34.469 E42.82754
G1 X0.154 Y-34.376 E43.45389
G1 X0.212 Y-34.040 F6000.000
G1 X15.234 Y-33.947 E44.08275 F1200.000
G1 X17.725 Y-33.534 E44.18845 F1200.000
G1 X19.965 Y-32.367 E44.29416
G1 X22.149 Y-29.904 E44.43196
G1 X35.904 Y-5.819 E45.59301
G1 X37.086 Y-3.654 E45.69627
G1 X37.931 Y-1.274 E45.80198
G1 X37.995 Y1.250 E45.90768
G1 X36.966 Y4.240 E46.04004
G1 X21.782 Y30.167 E47.29776
G1 X20.179 Y32.117 E47.40346
G1 X18.048 Y33.473 E47.50917
G1 X14.811 Y34.134 E47.64747
G1 X-15.234 Y33.947 E48.90519
G1 X-17.725 Y33.534 E49.01089
G1 X-19.965 Y32.367 E49.11660
G1 X-22.149 Y29.904 E49.25441
G1 X-35.904 Y5.819 E50.41545
G1 X-37.086 Y3.654 E50.51871
G1 X-37.931 Y1.274 E50.62442
G1 X-37.995 Y-1.250 E50.73012
G1 X-36.970 Y-4.233 E50.86214
G1 X-22.203 Y-29.501 E52.08725
G1 X-21.658 Y-30.370 E52.13021
G1 X-19.998 Y-32.273 E52.23591
G1 X-17.828 Y-33.565 E52.34162
G1 X-14.811 Y-34.134 E52.47014
G1 X0.152 Y-34.041 E53.09649
G1 X0.210 Y-33.705 F6000.000
G1 X15.232 Y-33.611 E53.72535 F1200.000
G1 X17.669 Y-33.199 E53.82880 F1200.000
G1 X19.849 Y-32.034 E53.93226
G1 X21.858 Y-29.737 E54.05998
G1 X35.612 Y-5.652 E55.22103
G1 X36.792 Y-3.493 E55.32402
G1 X37.611 Y-1.161 E55.42747
G1 X37.648 Y1.310 E55.53093
G1 X36.676 Y4.071 E55.65343
G1 X21.492 Y29.997 E56.91115
G1 X19.916 Y31.901 E57.01460
G1 X17.818 Y33.206 E57.11806
G1 X14.813 Y33.798 E57.24626
G1 X-15.232 Y33.611 E58.50398
G1 X-17.669 Y33.199 E58.60744
G1 X-19.849 Y32.034 E58.71089
G1 X-21.858 Y29.738 E58.83862
G1 X-35.612 Y5.652 E59.99966
G1 X-36.792 Y3.493 E60.10265
G1 X-37.611 Y1.161 E60.20611
G1 X-37.648 Y-1.310 E60.30956
G1 X-36.681 Y-4.064 E60.43173
G1 X-21.918 Y-29.323 E61.65642
G1 X-21.374 Y-30.192 E61.69937
G1 X-19.742 Y-32.049 E61.80283
G1 X-17.606 Y-33.291 E61.90628
G1 X-14.813 Y-33.798 E62.02510
G1 X0.150 Y-33.705 E62.65145
G1 X0.207 Y-33.369 F6000.000
G1 X15.230 Y-33.276 E63.28031 F1200.000
G1 X17.611 Y-32.864 E63.38146 F1200.000
G1 X19.730 Y-31.701 E63.48262
G1 X21.566 Y-29.571 E63.60035
G1 X35.321 Y-5.486 E64.76140
G1 X36.497 Y-3.332 E64.86411
G1 X37.290 Y-1.049 E64.96527
G1 X37.299 Y1.367 E65.06642
G1 X36.387 Y3.901 E65.17916
G1 X21.203 Y29.827 E66.43688
G1 X19.655 Y31.683 E66.53803
G1 X17.589 Y32.937 E66.63919
G1 X14.815 Y33.462 E66.75738
G1 X-15.230 Y33.276 E68.01510
G1 X-17.611 Y32.864 E68.11626
G1 X-19.730 Y31.701 E68.21741
G1 X-21.566 Y29.571 E68.33515
G1 X-35.321 Y5.486 E69.49620
G1 X-36.497 Y3.332 E69.59891
G1 X-37.290 Y1.049 E69.70007
G1 X-37.299 Y-1.367 E69.80122
G1 X-36.391 Y-3.894 E69.91364
G1 X-21.751 Y-28.951 E71.12842
G1 X-21.089 Y-30.014 E71.18084
G1 X-19.487 Y-31.823 E71.28200
G1 X-17.385 Y-33.015 E71.38316
G1 X-14.815 Y-33.462 E71.49236
G1 X0.147 Y-33.369 E72.11871
G1 X0.205 Y-33.033 F6000.000
G1 X15.228 Y-32.940 E72.74757 F1200.000
G1 X17.552 Y-32.528 E72.84637 F1200.000
G1 X19.608 Y-31.369 E72.94517
G1 X21.275 Y-29.405 E73.05302
G1 X35.030 Y-5.319 E74.21406
G1 X36.202 Y-3.172 E74.31650
G1 X36.968 Y-0.939 E74.41531
G1 X36.949 Y1.421 E74.51411
G1 X36.097 Y3.731 E74.61717
G1 X20.913 Y29.658 E75.87489
G1 X19.394 Y31.465 E75.97369
G1 X17.362 Y32.666 E76.07250
G1 X14.817 Y33.127 E76.18078
G1 X-15.228 Y32.940 E77.43850
G1 X-17.552 Y32.528 E77.53730
G1 X-19.608 Y31.369 E77.63610
G1 X-21.275 Y29.405 E77.74395
G1 X-35.030 Y5.319 E78.90499
G1 X-36.202 Y3.172 E79.00743
G1 X-36.968 Y0.939 E79.10624
G1 X-36.949 Y-1.421 E79.20504
G1 X-36.101 Y-3.725 E79.30780
G1 X-21.461 Y-28.782 E80.52258
G1 X-20.805 Y-29.836 E80.57457
G1 X-19.233 Y-31.597 E80.67337
G1 X-17.167 Y-32.737 E80.77218
G1 X-14.817 Y-33.127 E80.87187
G1 X0.145 Y-33.034 E81.49822
G1 X0.203 Y-32.698 F6000.000
G1 X15.226 Y-32.604 E82.12708 F1200.000
G1 X17.491 Y-32.193 E82.22347 F1200.000
G1 X19.483 Y-31.037 E82.31986
G1 X20.983 Y-29.238 E82.41792
G1 X34.738 Y-5.153 E83.57896
G1 X35.908 Y-3.011 E83.68113
G1 X36.645 Y-0.829 E83.77752
G1 X36.598 Y1.473 E83.87391
G1 X35.808 Y3.562 E83.96741
G1 X20.623 Y29.488 E85.22513
G1 X19.134 Y31.245 E85.32152
G1 X17.137 Y32.391 E85.41791
G1 X14.819 Y32.791 E85.51639
G1 X-15.226 Y32.604 E86.77411
G1 X-17.492 Y32.193 E86.87050
G1 X-19.483 Y31.037 E86.96689
G1 X-20.983 Y29.238 E87.06495
G1 X-34.738 Y5.153 E88.22599
G1 X-35.908 Y3.011 E88.32816
G1 X-36.645 Y0.829 E88.42455
G1 X-36.598 Y-1.473 E88.52094
G1 X-35.811 Y-3.556 E88.61415
G1 X-21.172 Y-28.612 E89.82893
G1 X-20.520 Y-29.658 E89.88049
G1 X-18.980 Y-31.369 E89.97688
G1 X-16.950 Y-32.456 E90.07328
G1 X-14.819 Y-32.791 E90.16356
G1 X0.143 Y-32.698 E90.78991
G1 X0.201 Y-32.362 F6000.000
G1 X15.224 Y-32.269 E91.41877 F1200.000
G1 X17.429 Y-31.858 E91.51269 F1200.000
G1 X19.354 Y-30.705 E91.60661
G1 X20.692 Y-29.072 E91.69499
G1 X34.447 Y-4.986 E92.85603
G1 X35.613 Y-2.850 E92.95792
G1 X36.322 Y-0.721 E93.05184
G1 X36.246 Y1.521 E93.14576
G1 X35.518 Y3.392 E93.22981
G1 X20.334 Y29.319 E94.48753
G1 X18.875 Y31.023 E94.58145
G1 X16.914 Y32.114 E94.67537
G1 X14.821 Y32.456 E94.76414
G1 X-15.224 Y32.269 E96.02186
G1 X-17.429 Y31.858 E96.11578
G1 X-19.354 Y30.705 E96.20970
G1 X-20.692 Y29.072 E96.29809
G1 X-34.447 Y4.986 E97.45913
G1 X-35.613 Y2.850 E97.56102
G1 X-36.322 Y0.721 E97.65494
G1 X-36.246 Y-1.521 E97.74886
G1 X-35.521 Y-3.386 E97.83263
G1 X-20.882 Y-28.443 E99.04741
G1 X-20.236 Y-29.480 E99.09854
G1 X-18.728 Y-31.141 E99.19246
G1 X-16.735 Y-32.172 E99.28638
G1 X-14.821 Y-32.456 E99.36736
G1 X0.141 Y-32.363 E99.99371
G1 X0.199 Y-32.027 F6000.000
G1 X15.222 Y-31.933 E100.62257 F1200.000
G1 X17.366 Y-31.523 E100.71395 F1200.000
G1 X19.222 Y-30.374 E100.80533
G1 X20.400 Y-28.905 E100.88416
G1 X34.155 Y-4.820 E102.04521
G1 X35.319 Y-2.689 E102.14682
G1 X35.998 Y-0.615 E102.23820
G1 X35.892 Y1.565 E102.32958
G1 X35.228 Y3.222 E102.40430
G1 X20.044 Y29.149 E103.66202
G1 X18.617 Y30.801 E103.75340
G1 X16.694 Y31.834 E103.84478
G1 X14.823 Y32.120 E103.92398
G1 X-15.222 Y31.933 E105.18170
G1 X-17.366 Y31.523 E105.27308
G1 X-19.222 Y30.374 E105.36447
G1 X-20.400 Y28.905 E105.44329
G1 X-34.155 Y4.820 E106.60434
G1 X-35.319 Y2.689 E106.70595
G1 X-35.998 Y0.615 E106.79733
G1 X-35.892 Y-1.565 E106.88872
G1 X-35.232 Y-3.217 E106.96317
G1 X-20.592 Y-28.274 E108.17795
G1 X-19.952 Y-29.302 E108.22864
G1 X-18.476 Y-30.910 E108.32003
G1 X-16.523 Y-31.886 E108.41141
G1 X-14.823 Y-32.120 E108.48322
G1 X0.139 Y-32.027 E109.10957
G1 X0.197 Y-31.691 F6000.000
G1 X15.220 Y-31.598 E109.73843 F1200.000
G1 X17.300 Y-31.188 E109.82720 F1200.000
G1 X19.085 Y-30.043 E109.91597
G1 X20.109 Y-28.739 E109.98537
G1 X33.864 Y-4.654 E111.14642
G1 X35.024 Y-2.529 E111.24776
G1 X35.673 Y-0.510 E111.33653
G1 X35.536 Y1.606 E111.42530
G1 X34.939 Y3.053 E111.49081
G1 X19.755 Y28.979 E112.74853
G1 X18.360 Y30.577 E112.83730
G1 X16.475 Y31.550 E112.92607
G1 X14.826 Y31.784 E112.99583
G1 X-15.220 Y31.598 E114.25355
G1 X-17.300 Y31.188 E114.34232
G1 X-19.085 Y30.043 E114.43109
G1 X-20.109 Y28.739 E114.50050
G1 X-33.918 Y4.557 E115.66619
G1 X-35.024 Y2.529 E115.76288
G1 X-35.673 Y0.510 E115.85165
G1 X-35.536 Y-1.606 E115.94042
G1 X-34.942 Y-3.048 E116.00569
G1 X-20.302 Y-28.104 E117.22048
G1 X-19.667 Y-29.123 E117.27074
G1 X-18.225 Y-30.679 E117.35951
G1 X-16.313 Y-31.595 E117.44828
G1 X-14.826 Y-31.784 E117.51105
G1 X0.137 Y-31.691 E118.13740
G1 X0.195 Y-31.355 F6000.000
G1 X15.217 Y-31.262 E118.76626 F1200.000
G1 X17.233 Y-30.853 E118.85234 F1200.000
G1 X18.944 Y-29.713 E118.93842
G1 X19.818 Y-28.572 E118.99855
G1 X33.572 Y-4.487 E120.15959
G1 X34.729 Y-2.368 E120.26066
G1 X35.348 Y-0.407 E120.34674
G1 X35.178 Y1.642 E120.43281
G1 X34.649 Y2.883 E120.48928
G1 X19.465 Y28.810 E121.74700
G1 X18.103 Y30.351 E121.83308
G1 X16.260 Y31.262 E121.91916
G1 X14.828 Y31.449 E121.97962
G1 X-15.217 Y31.262 E123.23734
G1 X-17.233 Y30.853 E123.32342
G1 X-18.944 Y29.713 E123.40950
G1 X-19.818 Y28.572 E123.46963
G1 X-33.623 Y4.396 E124.63505
G1 X-34.729 Y2.368 E124.73174
G1 X-35.348 Y0.407 E124.81782
G1 X-35.178 Y-1.642 E124.90390
G1 X-34.652 Y-2.878 E124.96013
G1 X-20.012 Y-27.935 E126.17491
G1 X-19.383 Y-28.945 E126.22474
G1 X-17.976 Y-30.445 E126.31082
G1 X-16.106 Y-31.301 E126.39690
G1 X-14.828 Y-31.449 E126.45078
G1 X0.135 Y-31.356 E127.07713
G1 F4800
G1 X4.135 Y-31.331 E123.27713
G1 E123.07713 F4800.00000
G92 E0
G1 Z1.300 F6000.000
G1 X14.677 Y-25.058 F6000.000
G1 Z0.300 F6000.000
G1 E4.00000 F4800.00000
G1 X28.178 Y-1.416 E5.13966 F2553.461
G1 X29.044 Y0.171 E5.21538
G1 X14.363 Y25.239 E6.43142
G1 X-14.677 Y25.058 E7.64707
G1 X-28.178 Y1.416 E8.78674
G1 X-29.045 Y-0.172 E8.86248
G1 X-14.660 Y-24.792 E10.05611
G1 X-14.388 Y-25.227 E10.07756
G1 X14.617 Y-25.058 E11.29173
G1 X14.679 Y-25.394 F6000.000
G1 X14.872 Y-25.393 E11.29983 F2553.461
G1 X28.471 Y-1.580 E12.44773
G1 X29.430 Y0.177 E12.53153
G1 X14.555 Y25.576 E13.76363
G1 X-14.872 Y25.393 E14.99548
G1 X-28.471 Y1.580 E16.14338
G1 X-29.430 Y-0.178 E16.22720
G1 X-14.947 Y-24.966 E17.42897
G1 X-14.570 Y-25.569 E17.45873
G1 X-14.351 Y-25.562 E17.46789
G1 X14.619 Y-25.394 E18.68060 F2553.461
G1 F4800
G1 X14.872 Y-25.393 E18.43975
G1 F4800
G1 X16.730 Y-22.139 E14.88060
G1 E14.68060 F4800.00000
G92 E0
G1 Z1.300 F6000.000
G1 X14.747 Y25.912 F6000.000
G1 Z0.300 F6000.000
G1 E4.00000 F4800.00000
G1 X-15.068 Y25.727 E5.24806 F2553.461
G1 X-28.764 Y1.744 E6.40420
G1 X-29.815 Y-0.183 E6.49608
G1 X-15.234 Y-25.140 E7.70601
G1 X-14.752 Y-25.910 E7.74404
G1 X15.068 Y-25.727 E8.99234
G1 X28.764 Y-1.744 E10.14847
G1 X29.815 Y0.183 E10.24035
G1 X14.777 Y25.861 E11.48599
G1 X14.442 Y25.653 F6000.000
G1 X14.096 Y24.952 F6000.000
G1 X14.096 Y14.096 E11.94042 F2553.461
G1 X20.559 Y14.096 E12.21095
G1 X20.755 Y13.760 F6000.000
G1 X13.760 Y13.760 E12.50375 F2553.461
G1 X13.760 Y24.950 E12.97215
G1 X13.425 Y24.948 F6000.000
G1 X13.425 Y13.425 E13.45450 F2553.461
G1 X20.952 Y13.425 E13.76958
G1 X21.148 Y13.089 F6000.000
G1 X13.089 Y13.089 E14.10694 F2553.461
G1 X13.089 Y24.946 E14.60326
G1 X12.754 Y24.944 F6000.000
G1 X12.754 Y12.754 E15.11354 F2553.461
G1 X21.345 Y12.754 E15.47317
G1 X21.541 Y12.418 F6000.000
G1 X12.418 Y12.418 E15.85509 F2553.461
G1 X12.418 Y24.941 E16.37933
G1 X12.082 Y24.939 F6000.000
G1 X12.082 Y12.082 E16.91753 F2553.461
G1 X21.738 Y12.082 E17.32172
G1 X21.935 Y11.747 F6000.000
G1 X11.747 Y11.747 E17.74819 F2553.461
G1 X11.747 Y24.937 E18.30035
G1 X11.411 Y24.935 F6000.000
G1 X11.411 Y11.411 E18.86648 F2553.461
G1 X22.131 Y11.411 E19.31522
G1 X22.328 Y11.075 F6000.000
G1 X11.075 Y11.075 E19.78625 F2553.461
G1 X11.075 Y24.933 E20.36633
G1 X10.740 Y24.931 F6000.000
G1 X10.740 Y10.740 E20.96038 F2553.461
G1 X22.524 Y10.740 E21.45368
G1 X22.721 Y10.404 F6000.000
G1 X10.404 Y10.404 E21.96926 F2553.461
G1 X10.404 Y24.929 E22.57727
G1 X10.069 Y24.927 F6000.000
G1 X10.069 Y10.069 E23.19924 F2553.461
G1 X22.917 Y10.069 E23.73710
G1 X23.114 Y9.733 F6000.000
G1 X9.733 Y9.733 E24.29723 F2553.461
G1 X9.733 Y24.925 E24.93316
G1 X9.397 Y24.923 F6000.000
G1 X9.397 Y9.397 E25.58306 F2553.461
G1 X23.310 Y9.397 E26.16547
G1 X23.507 Y9.062 F6000.000
G1 X9.062 Y9.062 E26.77016 F2553.461
G1 X9.062 Y24.921 E27.43401
G1 X8.726 Y24.919 F6000.000
G1 X8.726 Y8.726 E28.11183 F2553.461
G1 X23.704 Y8.726 E28.73880
G1 X23.900 Y8.390 F6000.000
G1 X8.390 Y8.390 E29.38804 F2553.461
G1 X8.390 Y24.916 E30.07982
G1 X8.134 Y24.915 F6000.000
G1 X0.000 Y16.781 E30.56134 F2553.461
G1 X-8.033 Y24.814 E31.03691
G1 X-7.366 Y24.819 F6000.000
G1 X0.000 Y17.452 E31.47299 F2553.461
G1 X7.458 Y24.911 E31.91453
G1 X6.783 Y24.906 F6000.000
G1 X0.000 Y18.123 E32.31608 F2553.461
G1 X-6.699 Y24.823 E32.71267
G1 X-6.032 Y24.827 F6000.000
G1 X0.000 Y18.795 E33.06977 F2553.461
G1 X6.108 Y24.902 E33.43133
G1 X5.432 Y24.898 F6000.000
G1 X0.000 Y19.466 E33.75291 F2553.461
G1 X-5.365 Y24.831 E34.07052
G1 X-4.698 Y24.835 F6000.000
G1 X0.000 Y20.137 E34.34863 F2553.461
G1 X4.757 Y24.894 E34.63022
