; GCode generated by CraftWare

G28 X0 Y0
G28 Z0

M190 S60 ;set bed temp (wait)
M109 S205 ;set head temp (wait)
; ------------------------------------
; Layer #0
; ------------------------------------
G21 ; mm
G90 ; abs
G92 E0 ; reset extr
M106 S0
;segType:Skirt
G0 F4800 E-1.0000
G0 F2400 Z0.200
G0 X-19.357 Y26.758 F10800
G0 F4800 E0.0000
G1 X-16.359 Y29.789 E0.1418 F600
G1 X-16.164 Y29.987 E0.1510
G1 X0.391 Y29.987 E0.7017
G1 X7.691 Y29.987 E0.9445
G1 X7.821 Y30.119 E0.9506
G1 X15.642 Y30.119 E1.2108
G1 X15.968 Y29.921 E1.2234
G1 X18.836 Y27.021 E1.3591
G1 X22.355 Y21.090 E1.5885
G1 X22.486 Y20.694 E1.6023
G1 X22.746 Y20.431 E1.6146
G1 X22.877 Y20.035 E1.6285
G1 X23.137 Y19.772 E1.6408
G1 X23.268 Y19.376 E1.6547
G1 X26.005 Y14.763 E1.8331
G1 X26.135 Y14.367 E1.8469
G1 X26.396 Y14.104 E1.8593
G1 X26.526 Y13.708 E1.8731
G1 X26.787 Y13.445 E1.8855
G1 X26.918 Y13.049 E1.8993
G1 X33.174 Y2.504 E2.3071
G1 X33.761 Y1.516 E2.3454
G1 X33.826 Y1.054 E2.3608
G1 X33.826 Y-1.054 E2.4310
G1 X33.566 Y-1.318 E2.4433
G1 X33.435 Y-1.714 E2.4572
G1 X32.262 Y-3.691 E2.5336
G1 X32.132 Y-4.086 E2.5475
G1 X31.871 Y-4.350 E2.5598
G1 X31.741 Y-4.745 E2.5737
G1 X31.480 Y-5.009 E2.5860
G1 X31.350 Y-5.404 E2.5998
G1 X28.612 Y-10.018 E2.7783
G1 X28.482 Y-10.413 E2.7921
G1 X28.221 Y-10.677 E2.8044
G1 X28.091 Y-11.072 E2.8183
G1 X27.830 Y-11.336 E2.8306
G1 X27.700 Y-11.731 E2.8445
G1 X24.962 Y-16.345 E3.0229
G1 X24.832 Y-16.740 E3.0367
G1 X24.571 Y-17.004 E3.0491
G1 X24.441 Y-17.399 E3.0629
G1 X24.180 Y-17.663 E3.0753
G1 X24.050 Y-18.058 E3.0891
G1 X22.486 Y-20.694 E3.1911
G1 X22.355 Y-21.090 E3.2049
G1 X22.095 Y-21.353 E3.2172
G1 X21.964 Y-21.749 E3.2311
G1 X20.400 Y-24.385 E3.3330
G1 X20.270 Y-24.780 E3.3469
G1 X20.009 Y-25.044 E3.3592
G1 X19.879 Y-25.440 E3.3731
G1 X18.901 Y-27.087 E3.4368
G1 X16.164 Y-29.855 E3.5663
G1 X14.078 Y-29.855 E3.6356
G1 X13.166 Y-29.987 E3.6663
G1 X-3.520 Y-29.987 E4.2212
G1 X-16.033 Y-29.987 E4.6375
G1 X-18.901 Y-27.087 E4.7731
G1 X-21.443 Y-22.803 E4.9388
G1 X-21.573 Y-22.408 E4.9526
G1 X-21.834 Y-22.144 E4.9649
G1 X-21.964 Y-21.749 E4.9788
G1 X-22.225 Y-21.485 E4.9911
G1 X-22.355 Y-21.090 E5.0050
G1 X-25.093 Y-16.476 E5.1834
G1 X-25.223 Y-16.081 E5.1972
G1 X-25.484 Y-15.817 E5.2096
G1 X-25.614 Y-15.422 E5.2234
G1 X-25.875 Y-15.158 E5.2358
G1 X-26.005 Y-14.763 E5.2496
G1 X-28.742 Y-10.149 E5.4280
G1 X-28.873 Y-9.754 E5.4419
G1 X-29.134 Y-9.490 E5.4542
G1 X-29.264 Y-9.095 E5.4681
G1 X-29.525 Y-8.831 E5.4804
G1 X-29.655 Y-8.436 E5.4942
G1 X-29.916 Y-8.172 E5.5066
G1 X-30.046 Y-7.777 E5.5204
G1 X-30.307 Y-7.513 E5.5327
G1 X-30.437 Y-7.118 E5.5466
G1 X-30.698 Y-6.854 E5.5589
G1 X-30.828 Y-6.459 E5.5728
G1 X-31.089 Y-6.195 E5.5851
G1 X-31.219 Y-5.800 E5.5989
G1 X-31.480 Y-5.536 E5.6113
G1 X-31.610 Y-5.141 E5.6251
G1 X-31.871 Y-4.877 E5.6375
G1 X-32.001 Y-4.482 E5.6513
G1 X-32.262 Y-4.218 E5.6636
G1 X-32.392 Y-3.823 E5.6775
G1 X-32.653 Y-3.559 E5.6898
G1 X-32.783 Y-3.163 E5.7037
G1 X-33.044 Y-2.900 E5.7160
G1 X-33.174 Y-2.504 E5.7298
G1 X-33.435 Y-2.241 E5.7422
G1 X-33.566 Y-1.845 E5.7560
G1 X-33.826 Y-1.582 E5.7684
G1 X-33.957 Y-1.186 E5.7822
G1 X-33.957 Y0.923 E5.8524
G1 X-33.826 Y1.318 E5.8662
G1 X-33.044 Y2.636 E5.9172
G1 X-32.914 Y3.032 E5.9310
G1 X-32.653 Y3.295 E5.9434
G1 X-32.523 Y3.691 E5.9572
G1 X-30.176 Y7.645 E6.1101
G1 X-30.046 Y8.040 E6.1240
G1 X-29.785 Y8.304 E6.1363
G1 X-29.655 Y8.700 E6.1502
G1 X-29.394 Y8.963 E6.1625
G1 X-29.264 Y9.359 E6.1763
G1 X-29.003 Y9.622 E6.1887
G1 X-28.873 Y10.018 E6.2025
G1 X-26.135 Y14.631 E6.3809
G1 X-26.005 Y15.026 E6.3948
G1 X-25.744 Y15.290 E6.4071
G1 X-25.614 Y15.685 E6.4210
G1 X-25.353 Y15.949 E6.4333
G1 X-25.223 Y16.345 E6.4472
G1 X-23.268 Y19.640 E6.5746
G1 X-23.137 Y20.035 E6.5884
G1 X-22.877 Y20.299 E6.6008
G1 X-22.746 Y20.694 E6.6146
G1 X-21.182 Y23.331 E6.7166
G1 X-21.052 Y23.726 E6.7304
G1 X-20.791 Y23.990 E6.7428
G1 X-20.661 Y24.385 E6.7566
G1 X-19.487 Y26.362 E6.8331
G1 X-19.357 Y26.758 E6.8469
G1 X-19.618 Y26.889 E6.8566
G1 X-16.880 Y29.657 E6.9861
G1 X-16.685 Y29.855 E6.9954
G1 X-16.229 Y30.317 E7.0169
G1 X-15.773 Y30.382 E7.0323
G1 X0.912 Y30.382 E7.5872
G1 X7.691 Y30.382 E7.8127
G1 X7.821 Y30.514 E7.8188
G1 X15.642 Y30.514 E8.0790
G1 X15.968 Y30.317 E8.0916
G1 X19.357 Y26.889 E8.2519
G1 X19.748 Y26.230 E8.2774
G1 X19.879 Y25.835 E8.2913
G1 X20.139 Y25.571 E8.3036
G1 X20.270 Y25.176 E8.3175
G1 X20.530 Y24.912 E8.3298
G1 X20.661 Y24.517 E8.3436
G1 X20.921 Y24.253 E8.3560
G1 X21.052 Y23.858 E8.3698
G1 X21.312 Y23.594 E8.3822
G1 X21.443 Y23.199 E8.3960
G1 X21.703 Y22.935 E8.4083
G1 X21.834 Y22.540 E8.4222
G1 X24.571 Y17.926 E8.6006
G1 X24.702 Y17.531 E8.6144
G1 X24.962 Y17.267 E8.6268
G1 X25.093 Y16.872 E8.6406
G1 X25.353 Y16.608 E8.6530
G1 X25.484 Y16.213 E8.6668
G1 X28.221 Y11.599 E8.8452
G1 X28.351 Y11.204 E8.8591
G1 X28.612 Y10.940 E8.8714
G1 X28.742 Y10.545 E8.8853
G1 X29.003 Y10.281 E8.8976
G1 X29.134 Y9.886 E8.9114
G1 X34.217 Y1.318 E9.2428
G1 X34.217 Y-1.054 E9.3217
G1 X33.957 Y-1.318 E9.3340
G1 X33.826 Y-1.714 E9.3479
G1 X32.653 Y-3.691 E9.4243
G1 X32.523 Y-4.086 E9.4382
G1 X32.262 Y-4.350 E9.4505
G1 X32.132 Y-4.745 E9.4644
G1 X31.871 Y-5.009 E9.4767
G1 X31.741 Y-5.404 E9.4906
G1 X29.003 Y-10.018 E9.6690
G1 X28.873 Y-10.413 E9.6828
G1 X28.612 Y-10.677 E9.6952
G1 X28.482 Y-11.072 E9.7090
G1 X28.221 Y-11.336 E9.7213
G1 X28.091 Y-11.731 E9.7352
G1 X25.353 Y-16.345 E9.9136
G1 X25.293 Y-16.527 E9.9200
;segType:Perimeter
G0 F4800 E8.9200
G0 X-29.185 Y0.137 F10800
G0 F4800 E9.9200
G1 X-29.785 Y-0.237 E9.9435 F359
G1 X-29.488 Y-0.696 E9.9617
G1 X-29.023 Y-1.461 E9.9914
G1 X-28.570 Y-2.227 E10.0211
G1 X-24.958 Y-8.346 E10.2574
G1 X-17.040 Y-22.061 E10.7841
G1 X-15.234 Y-25.116 E10.9021
G1 X-14.747 Y-25.915 E10.9333
G1 X-14.495 Y-25.904 E10.9417
G1 X-10.224 Y-25.859 E11.0837
G1 X5.612 Y-25.859 E11.6104
G1 X12.712 Y-25.791 E11.8466
G1 X13.598 Y-25.781 E11.8761
G1 X14.481 Y-25.760 E11.9054
G1 X15.072 Y-25.727 E11.9251
G1 X15.349 Y-25.186 E11.9453
G1 X15.779 Y-24.401 E11.9751
G1 X16.215 Y-23.625 E12.0047
G1 X19.709 Y-17.438 E12.2410
G1 X27.627 Y-3.723 E12.7677
G1 X29.370 Y-0.632 E12.8858
G1 X29.817 Y0.187 E12.9168
G1 X29.488 Y0.696 E12.9370
G1 X29.024 Y1.461 E12.9667
G1 X28.570 Y2.227 E12.9963
G1 X24.958 Y8.346 E13.2327
G1 X17.040 Y22.061 E13.7594
G1 X15.234 Y25.116 E13.8774
G1 X14.747 Y25.914 E13.9085
G1 X14.139 Y25.884 E13.9288
G1 X13.245 Y25.864 E13.9585
G1 X12.354 Y25.853 E13.9882
G1 X5.249 Y25.786 E14.2245
G1 X-10.587 Y25.786 E14.7512
G1 X-14.136 Y25.749 E14.8692
G1 X-15.072 Y25.727 E14.9004
G1 X-15.348 Y25.186 E14.9206
G1 X-15.779 Y24.401 E14.9504
G1 X-16.215 Y23.625 E14.9800
G1 X-19.709 Y17.438 E15.2163
G1 X-27.627 Y3.723 E15.7430
G1 X-29.370 Y0.632 E15.8611
G1 X-29.789 Y-0.135 E15.8901
G1 X-29.163 Y-0.462
;segType:Loop
G0 X-28.898 Y-0.894 F10800
G1 X-28.681 Y-1.251 E15.9040 F600
G1 X-28.226 Y-2.019 E15.9337
G1 X-24.614 Y-8.141 E16.1701
G1 X-16.696 Y-21.855 E16.6968
G1 X-14.892 Y-24.906 E16.8147
G1 X-14.505 Y-25.499 E16.8383
G1 X-10.226 Y-25.455 E16.9806
G1 X5.610 Y-25.455 E17.5073
G1 X12.708 Y-25.386 E17.7434
G1 X13.592 Y-25.376 E17.7728
G1 X14.466 Y-25.356 E17.8019
G1 X14.821 Y-25.336 E17.8137
G1 X14.996 Y-24.995 E17.8265
G1 X15.430 Y-24.203 E17.8565
G1 X15.868 Y-23.425 E17.8862
G1 X19.362 Y-17.236 E18.1226
G1 X27.281 Y-3.521 E18.6493
G1 X29.021 Y-0.434 E18.7672
G1 X29.350 Y0.170 E18.7901
G1 X29.150 Y0.479 E18.8023
G1 X28.681 Y1.251 E18.8324
G1 X28.226 Y2.019 E18.8621
G1 X24.614 Y8.141 E19.0985
G1 X16.696 Y21.855 E19.6252
G1 X14.892 Y24.906 E19.7431
G1 X14.531 Y25.498 E19.7661
G1 X14.154 Y25.479 E19.7787
G1 X13.251 Y25.459 E19.8087
G1 X12.358 Y25.449 E19.8384
G1 X5.251 Y25.381 E20.0748
G1 X-10.585 Y25.381 E20.6015
G1 X-14.130 Y25.345 E20.7194
G1 X-14.825 Y25.328 E20.7426
G1 X-14.996 Y24.995 E20.7550
G1 X-15.430 Y24.203 E20.7851
G1 X-15.868 Y23.425 E20.8148
G1 X-19.362 Y17.235 E21.0512
G1 X-27.281 Y3.521 E21.5779
G1 X-29.021 Y0.434 E21.6958
G1 X-29.350 Y-0.170 E21.7186
G1 X-29.150 Y-0.479 E21.7309
G1 X-29.001 Y-0.725 E21.7405
;segType:HShell
G0 X-28.002 Y-1.620 F10800
G1 X-27.887 Y-1.814 E21.7480 F300
G1 X-24.273 Y-7.937 E21.9844
G1 X-16.355 Y-21.652 E22.5112
G1 X-14.556 Y-24.693 E22.6287
G1 X-14.294 Y-25.097 E22.6447
G1 X-10.229 Y-25.055 E22.7799
G1 X5.608 Y-25.055 E23.3067
G1 X12.704 Y-24.986 E23.5427
G1 X13.584 Y-24.976 E23.5719
G1 X14.578 Y-24.946 E23.6050
G1 X15.084 Y-24.008 E23.6405
G1 X15.524 Y-23.227 E23.6703
G1 X19.020 Y-17.036 E23.9068
G1 X26.938 Y-3.322 E24.4335
G1 X28.676 Y-0.237 E24.5512
G1 X28.890 Y0.155 E24.5661
G1 X28.343 Y1.044 E24.6008
G1 X27.887 Y1.814 E24.6306
G1 X24.273 Y7.937 E24.8670
G1 X16.355 Y21.652 E25.3938
G1 X14.554 Y24.698 E25.5115
G1 X14.315 Y25.089 E25.5267
G1 X13.258 Y25.059 E25.5619
G1 X12.362 Y25.049 E25.5917
G1 X5.253 Y24.981 E25.8282
G1 X-10.583 Y24.981 E26.3549
G1 X-14.123 Y24.944 E26.4726
G1 X-14.584 Y24.933 E26.4880
G1 X-15.084 Y24.008 E26.5230
G1 X-15.524 Y23.227 E26.5528
G1 X-19.020 Y17.035 E26.7892
G1 X-26.938 Y3.321 E27.3160
G1 X-28.676 Y0.238 E27.4337
G1 X-28.890 Y-0.155 E27.4486
G1 X-28.343 Y-1.043 E27.4832
G1 X-28.102 Y-1.450 E27.4990
G0 X-27.114 Y-2.351 F10800
G1 X-23.936 Y-7.736 E27.7069 F300
G1 X-16.018 Y-21.450 E28.2336
G1 X-14.225 Y-24.483 E28.3508
G1 X-14.084 Y-24.699 E28.3594
G1 X-10.231 Y-24.659 E28.4876
G1 X5.606 Y-24.659 E29.0143
G1 X12.700 Y-24.590 E29.2502
G1 X13.576 Y-24.580 E29.2794
G1 X14.342 Y-24.557 E29.3049
G1 X14.743 Y-23.816 E29.3329
G1 X15.184 Y-23.031 E29.3628
G1 X18.681 Y-16.838 E29.5994
G1 X26.599 Y-3.124 E30.1261
G1 X28.335 Y-0.044 E30.2437
G1 X28.436 Y0.143 E30.2507
G1 X28.009 Y0.837 E30.2779
G1 X27.551 Y1.611 E30.3078
G1 X23.936 Y7.736 E30.5443
G1 X16.018 Y21.450 E31.0710
G1 X14.219 Y24.493 E31.1886
G1 X14.101 Y24.687 E31.1962
G1 X13.266 Y24.664 E31.2239
G1 X12.366 Y24.653 E31.2539
G1 X5.255 Y24.585 E31.4904
G1 X-10.581 Y24.585 E32.0171
G1 X-14.116 Y24.549 E32.1347
G1 X-14.349 Y24.543 E32.1425
G1 X-14.743 Y23.815 E32.1700
G1 X-15.184 Y23.031 E32.1999
G1 X-18.681 Y16.837 E32.4365
G1 X-26.599 Y3.123 E32.9632
G1 X-28.334 Y0.044 E33.0807
G1 X-28.436 Y-0.143 E33.0878
G1 X-28.009 Y-0.837 E33.1149
G1 X-27.550 Y-1.611 E33.1449
G1 X-27.214 Y-2.181 E33.1669
G0 X-26.226 Y-3.083 F10800
G1 X-23.599 Y-7.535 E33.3388 F300
G1 X-15.681 Y-21.249 E33.8655
G1 X-13.874 Y-24.301 E33.9835
G1 X-10.233 Y-24.263 E34.1046
G1 X5.605 Y-24.263 E34.6313
G1 X12.696 Y-24.195 E34.8672
G1 X13.568 Y-24.185 E34.8962
G1 X14.106 Y-24.168 E34.9141
G1 X14.400 Y-23.623 E34.9347
G1 X14.843 Y-22.835 E34.9648
G1 X18.342 Y-16.640 E35.2014
G1 X26.259 Y-2.926 E35.7281
G1 X27.982 Y0.131 E35.8448
G1 X27.675 Y0.631 E35.8644
G1 X27.215 Y1.408 E35.8944
G1 X23.599 Y7.535 E36.1310
G1 X15.681 Y21.249 E36.6577
G1 X13.886 Y24.285 E36.7750
G1 X13.274 Y24.268 E36.7954
G1 X12.371 Y24.257 E36.8254
G1 X5.257 Y24.189 E37.0621
G1 X-10.579 Y24.189 E37.5888
G1 X-14.114 Y24.153 E37.7063
G1 X-14.401 Y23.622 E37.7264
G1 X-14.843 Y22.835 E37.7564
G1 X-18.342 Y16.639 E37.9931
G1 X-26.260 Y2.925 E38.5198
G1 X-27.983 Y-0.131 E38.6365
G1 X-27.675 Y-0.630 E38.6560
G1 X-27.214 Y-1.408 E38.6860
G1 X-26.326 Y-2.913 E38.7442
G0 X-25.338 Y-3.815 F10800
G1 X-23.262 Y-7.333 E38.8801 F300
G1 X-15.344 Y-21.048 E39.4068
G1 X-13.654 Y-23.903 E39.5171
G1 X-10.235 Y-23.867 E39.6308
G1 X5.603 Y-23.868 E40.1576
G1 X12.692 Y-23.799 E40.3934
G1 X13.870 Y-23.780 E40.4326
G1 X14.503 Y-22.639 E40.4760
G1 X18.003 Y-16.442 E40.7127
G1 X25.920 Y-2.729 E41.2393
G1 X27.527 Y0.122 E41.3482
G1 X26.879 Y1.205 E41.3901
G1 X23.262 Y7.333 E41.6268
G1 X15.344 Y21.048 E42.1535
G1 X13.668 Y23.883 E42.2631
G1 X12.375 Y23.862 E42.3061
G1 X5.258 Y23.793 E42.5428
G1 X-10.577 Y23.793 E43.0695
G1 X-13.881 Y23.759 E43.1794
G1 X-14.503 Y22.639 E43.2220
G1 X-18.002 Y16.441 E43.4587
G1 X-25.921 Y2.727 E43.9854
G1 X-27.527 Y-0.122 E44.0942
G1 X-26.878 Y-1.205 E44.1362
G1 X-25.438 Y-3.645 E44.2305
G0 X-24.450 Y-4.547 F10800
G1 X-22.925 Y-7.132 E44.3303 F300
G1 X-15.007 Y-20.846 E44.8570
G1 X-13.433 Y-23.505 E44.9597
G1 X-10.237 Y-23.471 E45.0661
G1 X5.601 Y-23.472 E45.5928
G1 X12.687 Y-23.403 E45.8285
G1 X13.639 Y-23.388 E45.8602
G1 X14.163 Y-22.444 E45.8961
G1 X17.664 Y-16.244 E46.1329
G1 X25.581 Y-2.531 E46.6595
G1 X27.073 Y0.116 E46.7606
G1 X26.543 Y1.001 E46.7949
G1 X22.925 Y7.132 E47.0317
G1 X15.007 Y20.846 E47.5584
G1 X13.448 Y23.484 E47.6603
G1 X12.380 Y23.466 E47.6958
G1 X5.260 Y23.397 E47.9326
G1 X-10.575 Y23.397 E48.4593
G1 X-13.650 Y23.366 E48.5616
G1 X-14.163 Y22.444 E48.5967
G1 X-17.663 Y16.243 E48.8335
G1 X-25.581 Y2.529 E49.3602
G1 X-27.073 Y-0.116 E49.4612
G1 X-26.543 Y-1.001 E49.4955
G1 X-24.550 Y-4.377 E49.6259
G0 X-23.562 Y-5.279 F10800
G1 X-22.588 Y-6.931 E49.6897 F300
G1 X-14.670 Y-20.645 E50.2164
G1 X-13.213 Y-23.106 E50.3115
G1 X-10.239 Y-23.075 E50.4105
G1 X5.599 Y-23.076 E50.9372
G1 X12.682 Y-23.007 E51.1728
G1 X13.408 Y-22.995 E51.1969
G1 X13.822 Y-22.249 E51.2254
G1 X17.325 Y-16.046 E51.4623
G1 X25.242 Y-2.333 E51.9889
G1 X26.619 Y0.110 E52.0822
G1 X26.207 Y0.797 E52.1088
G1 X22.588 Y6.931 E52.3457
G1 X14.670 Y20.645 E52.8724
G1 X13.228 Y23.084 E52.9667
G1 X12.385 Y23.070 E52.9947
G1 X5.262 Y23.001 E53.2316
G1 X-10.573 Y23.001 E53.7583
G1 X-13.420 Y22.972 E53.8530
G1 X-13.822 Y22.248 E53.8805
G1 X-17.324 Y16.045 E54.1175
G1 X-25.242 Y2.331 E54.6442
G1 X-26.619 Y-0.110 E54.7374
G1 X-26.207 Y-0.797 E54.7640
G1 X-23.663 Y-5.109 E54.9306
G0 X-22.675 Y-6.011 F10800
G1 X-22.251 Y-6.729 E54.9583 F300
G1 X-14.333 Y-20.444 E55.4850
G1 X-12.992 Y-22.708 E55.5725
G1 X-10.241 Y-22.679 E55.6640
G1 X5.598 Y-22.680 E56.1908
G1 X12.677 Y-22.612 E56.4263
G1 X13.176 Y-22.603 E56.4429
G1 X13.481 Y-22.054 E56.4638
G1 X16.987 Y-15.848 E56.7009
G1 X24.903 Y-2.135 E57.2275
G1 X26.165 Y0.104 E57.3130
G1 X25.872 Y0.593 E57.3320
G1 X22.251 Y6.729 E57.5690
G1 X14.333 Y20.444 E58.0957
G1 X13.008 Y22.685 E58.1822
G1 X12.390 Y22.675 E58.2028
G1 X5.264 Y22.605 E58.4398
G1 X-10.571 Y22.605 E58.9665
G1 X-13.190 Y22.579 E59.0536
G1 X-13.481 Y22.053 E59.0736
G1 X-16.985 Y15.847 E59.3106
G1 X-24.903 Y2.134 E59.8373
G1 X-26.165 Y-0.104 E59.9228
G1 X-25.872 Y-0.593 E59.9417
G1 X-22.775 Y-5.841 E60.1444
G0 X-21.787 Y-6.747 F10800
G1 X-13.996 Y-20.242 E60.6627 F300
G1 X-12.772 Y-22.310 E60.7426
G1 X-10.243 Y-22.283 E60.8267
G1 X5.596 Y-22.285 E61.3535
G1 X12.672 Y-22.216 E61.5888
G1 X12.945 Y-22.211 E61.5979
G1 X13.141 Y-21.859 E61.6113
G1 X16.648 Y-15.650 E61.8485
G1 X24.564 Y-1.938 E62.3751
G1 X25.711 Y0.098 E62.4529
G1 X25.536 Y0.389 E62.4641
G1 X21.913 Y6.528 E62.7012
G1 X13.996 Y20.242 E63.2279
G1 X12.788 Y22.285 E63.3069
G1 X12.395 Y22.279 E63.3199
G1 X5.266 Y22.209 E63.5571
G1 X-10.569 Y22.209 E64.0837
G1 X-12.959 Y22.185 E64.1632
G1 X-13.141 Y21.858 E64.1757
G1 X-16.646 Y15.649 E64.4128
G1 X-24.564 Y1.936 E64.9395
G1 X-25.711 Y-0.098 E65.0172
G1 X-25.536 Y-0.389 E65.0285
G1 X-21.913 Y-6.528 E65.2655
G1 X-21.886 Y-6.576 E65.2674
G0 X-20.906 Y-7.488 F10800
G1 X-13.659 Y-20.041 E65.7495 F300
G1 X-12.551 Y-21.911 E65.8218
G1 X-10.245 Y-21.887 E65.8985
G1 X5.594 Y-21.889 E66.4253
G1 X12.714 Y-21.820 E66.6621
G1 X12.800 Y-21.664 E66.6681
G1 X16.309 Y-15.452 E66.9054
G1 X24.225 Y-1.740 E67.4320
G1 X25.257 Y0.092 E67.5019
G1 X21.576 Y6.327 E67.7427
G1 X13.659 Y20.041 E68.2694
G1 X12.568 Y21.886 E68.3407
G1 X5.267 Y21.813 E68.5835
G1 X-10.567 Y21.813 E69.1102
G1 X-12.729 Y21.791 E69.1821
G1 X-16.307 Y15.451 E69.4242
G1 X-24.225 Y1.738 E69.9509
G1 X-25.257 Y-0.092 E70.0207
G1 X-21.576 Y-6.327 E70.2616
G1 X-21.005 Y-7.317 E70.2996
G0 X-20.025 Y-8.228 F10800
G1 X-13.321 Y-19.840 E70.7455 F300
G1 X-12.331 Y-21.513 E70.8102
G1 X-10.247 Y-21.491 E70.8795
G1 X5.592 Y-21.493 E71.4063
G1 X12.484 Y-21.426 E71.6355
G1 X15.970 Y-15.254 E71.8713
G1 X23.886 Y-1.542 E72.3979
G1 X24.804 Y0.087 E72.4601
G1 X21.239 Y6.125 E72.6933
G1 X13.322 Y19.840 E73.2200
G1 X12.347 Y21.488 E73.2837
G1 X5.269 Y21.417 E73.5191
G1 X-10.565 Y21.417 E74.0458
G1 X-12.500 Y21.398 E74.1101
G1 X-15.968 Y15.254 E74.3448
G1 X-23.886 Y1.540 E74.8715
G1 X-24.804 Y-0.087 E74.9336
G1 X-21.239 Y-6.125 E75.1668
G1 X-20.124 Y-8.057 E75.2410
G0 X-19.144 Y-8.969 F10800
G1 X-12.984 Y-19.638 E75.6508 F300
G1 X-12.110 Y-21.115 E75.7079
G1 X-10.249 Y-21.095 E75.7698
G1 X5.590 Y-21.098 E76.2966
G1 X12.255 Y-21.032 E76.5183
G1 X15.631 Y-15.056 E76.7466
G1 X23.546 Y-1.344 E77.2732
G1 X24.351 Y0.082 E77.3276
G1 X20.902 Y5.924 E77.5533
G1 X12.985 Y19.638 E78.0800
G1 X12.127 Y21.090 E78.1360
G1 X5.271 Y21.021 E78.3641
G1 X-10.563 Y21.021 E78.8907
G1 X-12.271 Y21.004 E78.9475
G1 X-15.629 Y15.056 E79.1747
G1 X-23.547 Y1.342 E79.7014
G1 X-24.350 Y-0.083 E79.7558
G1 X-20.902 Y-5.924 E79.9814
G1 X-19.243 Y-8.798 E80.0918
G0 X-18.264 Y-9.709 F10800
G1 X-12.647 Y-19.437 E80.4654 F300
G1 X-11.890 Y-20.717 E80.5149
G1 X-10.252 Y-20.699 E80.5694
G1 X5.589 Y-20.702 E81.0962
G1 X12.027 Y-20.639 E81.3104
G1 X15.292 Y-14.858 E81.5312
G1 X23.207 Y-1.147 E82.0577
G1 X23.897 Y0.077 E82.1045
G1 X20.565 Y5.723 E82.3225
G1 X12.648 Y19.437 E82.8492
G1 X11.906 Y20.692 E82.8977
G1 X5.273 Y20.625 E83.1183
G1 X-10.561 Y20.625 E83.6450
G1 X-12.043 Y20.611 E83.6942
G1 X-15.289 Y14.858 E83.9140
G1 X-23.208 Y1.145 E84.4406
G1 X-23.897 Y-0.078 E84.4873
G1 X-20.565 Y-5.723 E84.7053
G1 X-18.362 Y-9.538 E84.8519
G0 X-17.383 Y-10.450 F10800
G1 X-12.310 Y-19.235 E85.1893 F300
G1 X-11.669 Y-20.318 E85.2312
G1 X-10.254 Y-20.303 E85.2782
G1 X5.587 Y-20.306 E85.8051
G1 X11.799 Y-20.245 E86.0117
G1 X14.953 Y-14.660 E86.2251
G1 X22.868 Y-0.949 E86.7516
G1 X23.444 Y0.073 E86.7906
G1 X20.228 Y5.521 E87.0011
G1 X12.311 Y19.235 E87.5277
G1 X11.685 Y20.294 E87.5686
G1 X5.275 Y20.229 E87.7818
G1 X-10.559 Y20.229 E88.3085
G1 X-11.814 Y20.217 E88.3502
G1 X-14.950 Y14.660 E88.5625
G1 X-22.868 Y0.947 E89.0892
G1 X-23.444 Y-0.073 E89.1281
G1 X-20.228 Y-5.521 E89.3385
G1 X-17.481 Y-10.279 E89.5212
G0 X-16.502 Y-11.190 F10800
G1 X-11.973 Y-19.034 E89.8225 F300
G1 X-11.449 Y-19.920 E89.8567
G1 X-10.256 Y-19.907 E89.8964
G1 X5.585 Y-19.911 E90.4233
G1 X11.570 Y-19.851 E90.6224
G1 X14.615 Y-14.462 E90.8282
G1 X22.529 Y-0.751 E91.3548
G1 X22.991 Y0.068 E91.3861
G1 X19.891 Y5.320 E91.5889
G1 X11.974 Y19.034 E92.1156
G1 X11.464 Y19.896 E92.1489
G1 X5.277 Y19.833 E92.3547
G1 X-10.557 Y19.833 E92.8813
G1 X-11.586 Y19.823 E92.9155
G1 X-14.611 Y14.462 E93.1203
G1 X-22.530 Y0.749 E93.6470
G1 X-22.991 Y-0.069 E93.6782
G1 X-19.891 Y-5.320 E93.8810
G1 X-16.601 Y-11.019 E94.0999
G0 X-15.621 Y-11.930 F10800
G1 X-11.636 Y-18.832 E94.3650 F300
G1 X-11.228 Y-19.522 E94.3916
G1 X-10.259 Y-19.511 E94.4239
G1 X5.583 Y-19.515 E94.9507
G1 X11.342 Y-19.458 E95.1423
G1 X14.276 Y-14.264 E95.3407
G1 X22.190 Y-0.554 E95.8672
G1 X22.538 Y0.063 E95.8908
G1 X19.554 Y5.119 E96.0860
G1 X11.637 Y18.832 E96.6127
G1 X11.244 Y19.498 E96.6384
G1 X5.280 Y19.437 E96.8368
G1 X-10.555 Y19.437 E97.3634
G1 X-11.357 Y19.430 E97.3901
G1 X-14.272 Y14.264 E97.5874
G1 X-22.190 Y0.551 E98.1141
G1 X-22.538 Y-0.064 E98.1376
G1 X-19.554 Y-5.119 E98.3328
G1 X-15.720 Y-11.760 E98.5878
G0 X-14.740 Y-12.671 F10800
G1 X-11.299 Y-18.631 E98.8167 F300
G1 X-11.008 Y-19.124 E98.8358
G1 X-10.261 Y-19.115 E98.8606
G1 X5.581 Y-19.119 E99.3875
G1 X11.114 Y-19.064 E99.5715
G1 X13.937 Y-14.066 E99.7624
G1 X21.851 Y-0.356 E100.2890
G1 X22.085 Y0.059 E100.3048
G1 X19.217 Y4.917 E100.4924
G1 X11.300 Y18.631 E101.0191
G1 X11.023 Y19.100 E101.0372
G1 X5.282 Y19.042 E101.2282
G1 X-10.553 Y19.042 E101.7548
G1 X-11.128 Y19.036 E101.7740
G1 X-13.933 Y14.066 E101.9638
G1 X-21.851 Y0.353 E102.4905
G1 X-22.084 Y-0.060 E102.5062
G1 X-19.217 Y-4.917 E102.6938
G1 X-14.839 Y-12.500 E102.9850
G0 X-13.859 Y-13.411 F10800
G1 X-10.962 Y-18.430 E103.1778 F300
G1 X-10.787 Y-18.725 E103.1892
G1 X-10.263 Y-18.719 E103.2066
G1 X5.579 Y-18.723 E103.7335
G1 X10.885 Y-18.670 E103.9100
G1 X13.598 Y-13.868 E104.0935
G1 X21.512 Y-0.158 E104.6200
G1 X21.632 Y0.054 E104.6281
G1 X18.880 Y4.716 E104.8082
G1 X10.963 Y18.430 E105.3348
G1 X10.802 Y18.702 E105.3453
G1 X5.284 Y18.646 E105.5289
G1 X-10.551 Y18.646 E106.0556
G1 X-10.900 Y18.642 E106.0672
G1 X-13.594 Y13.868 E106.2495
G1 X-21.512 Y0.155 E106.7762
G1 X-21.631 Y-0.055 E106.7842
G1 X-18.880 Y-4.716 E106.9642
G1 X-13.958 Y-13.240 E107.2916
G0 X-12.979 Y-14.152 F10800
G1 X-10.625 Y-18.229 E107.4482 F300
G1 X-10.567 Y-18.327 E107.4520
G1 X-10.266 Y-18.324 E107.4620
G1 X5.577 Y-18.327 E107.9889
G1 X10.657 Y-18.277 E108.1579
G1 X13.259 Y-13.670 E108.3338
G1 X21.178 Y0.050 E108.8607
G1 X18.543 Y4.515 E109.0332
G1 X10.626 Y18.229 E109.5598
G1 X10.581 Y18.304 E109.5627
G1 X5.286 Y18.250 E109.7389
G1 X-10.550 Y18.250 E110.2656
G1 X-10.671 Y18.249 E110.2696
G1 X-13.255 Y13.670 E110.4445
G1 X-21.178 Y-0.051 E110.9714
G1 X-18.543 Y-4.515 E111.1438
G1 X-13.077 Y-13.981 E111.5074
G0 X-12.098 Y-14.892 F10800
G1 X-10.345 Y-17.928 E111.6240 F300
G1 X-10.268 Y-17.928 E111.6266
G1 X5.575 Y-17.931 E112.1535
G1 X10.428 Y-17.883 E112.3149
G1 X12.920 Y-13.472 E112.4834
G1 X20.724 Y0.048 E113.0026
G1 X18.206 Y4.313 E113.1674
G1 X10.359 Y17.906 E113.6894
G1 X5.288 Y17.854 E113.8581
G1 X-10.443 Y17.854 E114.3813
G1 X-12.916 Y13.472 E114.5486
G1 X-20.723 Y-0.049 E115.0679
G1 X-18.206 Y-4.313 E115.2326
G1 X-12.196 Y-14.721 E115.6323
G0 X-11.217 Y-15.633 F10800
G1 X-10.120 Y-17.532 E115.7053 F300
G1 X5.573 Y-17.535 E116.2272
G1 X10.200 Y-17.490 E116.3811
G1 X12.581 Y-13.274 E116.5422
G1 X20.269 Y0.045 E117.0537
G1 X17.868 Y4.112 E117.2107
G1 X10.135 Y17.508 E117.7252
G1 X5.290 Y17.458 E117.8864
G1 X-10.216 Y17.458 E118.4021
G1 X-12.576 Y13.274 E118.5619
G1 X-20.269 Y-0.047 E119.0735
G1 X-17.868 Y-4.112 E119.2305
G1 X-11.315 Y-15.462 E119.6664
G0 X-10.336 Y-16.373 F10800
G1 X-9.896 Y-17.136 E119.6957 F300
G1 X5.571 Y-17.140 E120.2101
G1 X9.972 Y-17.096 E120.3565
G1 X12.242 Y-13.076 E120.5100
G1 X19.815 Y0.043 E121.0138
G1 X17.531 Y3.911 E121.1632
G1 X9.912 Y17.109 E121.6701
G1 X5.292 Y17.062 E121.8238
G1 X-9.989 Y17.062 E122.3320
G1 X-12.237 Y13.076 E122.4842
G1 X-19.814 Y-0.044 E122.9881
G1 X-17.531 Y-3.911 E123.1375
G1 X-10.435 Y-16.202 E123.6095
G0 X-9.573 Y-16.740 F10800
G1 X5.569 Y-16.744 E124.1132 F300
G1 X9.743 Y-16.702 E124.2520
G1 X11.904 Y-12.878 E124.3981
G1 X19.360 Y0.040 E124.8942
G1 X17.194 Y3.709 E125.0359
G1 X9.689 Y16.711 E125.5352
G1 X5.294 Y16.666 E125.6814
G1 X-9.761 Y16.666 E126.1821
G1 X-11.898 Y12.878 E126.3268
G1 X-19.359 Y-0.042 E126.8230
G1 X-17.194 Y-3.709 E126.9647
G1 X-9.720 Y-16.655 E127.4619
G0 X-8.496 Y-16.345 F10800
G1 X5.567 Y-16.348 E127.9296 F300
G1 X9.515 Y-16.309 E128.0609
G1 X11.565 Y-12.680 E128.1995
G1 X18.905 Y0.038 E128.6879
G1 X16.857 Y3.508 E128.8220
G1 X9.465 Y16.313 E129.3137
G1 X5.296 Y16.270 E129.4524
G1 X-9.534 Y16.270 E129.9457
G1 X-11.559 Y12.680 E130.0828
G1 X-18.905 Y-0.040 E130.5713
G1 X-16.857 Y-3.508 E130.7053
G1 X-9.446 Y-16.345 E131.1982
G1 X-8.692 Y-16.345 E131.2233
G0 X-7.420 Y-15.949 F10800
G1 X5.565 Y-15.952 E131.6552 F300
G1 X9.287 Y-15.915 E131.7790
G1 X11.226 Y-12.482 E131.9101
G1 X18.451 Y0.036 E132.3908
G1 X16.520 Y3.307 E132.5172
G1 X9.242 Y15.915 E133.0014
G1 X5.298 Y15.874 E133.1326
G1 X-9.307 Y15.874 E133.6183
G1 X-11.220 Y12.482 E133.7478
G1 X-18.450 Y-0.038 E134.2287
G1 X-16.520 Y-3.307 E134.3550
G1 X-9.221 Y-15.949 E134.8405
G1 X-7.615 Y-15.949 E134.8939
G0 X-6.343 Y-15.554 F10800
G1 X5.563 Y-15.556 E135.2899 F300
G1 X9.058 Y-15.521 E135.4061
G1 X10.887 Y-12.284 E135.5298
G1 X17.996 Y0.034 E136.0029
G1 X16.183 Y3.106 E136.1215
G1 X9.019 Y15.516 E136.5981
G1 X5.300 Y15.478 E136.7218
G1 X-9.079 Y15.478 E137.2001
G1 X-10.881 Y12.284 E137.3220
G1 X-17.996 Y-0.036 E137.7952
G1 X-16.183 Y-3.106 E137.9138
G1 X-8.996 Y-15.553 E138.3918
G1 X-6.539 Y-15.554 E138.4736
G0 X-5.267 Y-15.158 F10800
G1 X5.561 Y-15.160 E138.8337 F300
G1 X8.830 Y-15.128 E138.9424
G1 X10.548 Y-12.086 E139.0586
G1 X17.542 Y0.032 E139.5240
G1 X15.846 Y2.904 E139.6349
G1 X8.795 Y15.118 E140.1040
G1 X5.302 Y15.082 E140.2202
G1 X-8.852 Y15.082 E140.6909
G1 X-10.542 Y12.086 E140.8053
G1 X-17.541 Y-0.033 E141.2708
G1 X-15.846 Y-2.904 E141.3817
G1 X-8.771 Y-15.158 E141.8523
G1 X-5.462 Y-15.158 E141.9624
G0 X-4.190 Y-14.763 F10800
G1 X5.559 Y-14.764 E142.2866 F300
G1 X8.601 Y-14.734 E142.3878
G1 X10.209 Y-11.888 E142.4965
G1 X17.087 Y0.029 E142.9542
G1 X15.509 Y2.703 E143.0575
G1 X8.572 Y14.720 E143.5190
G1 X5.304 Y14.686 E143.6277
G1 X-8.625 Y14.686 E144.0909
G1 X-10.203 Y11.888 E144.1978
G1 X-17.086 Y-0.031 E144.6556
G1 X-15.509 Y-2.703 E144.7588
G1 X-8.547 Y-14.762 E145.2219
G1 X-4.386 Y-14.763 E145.3603
G0 X-3.114 Y-14.367 F10800
G1 X5.557 Y-14.369 E145.6487 F300
G1 X8.373 Y-14.341 E145.7424
G1 X9.870 Y-11.690 E145.8436
G1 X16.633 Y0.027 E146.2936
G1 X15.172 Y2.502 E146.3892
G1 X8.349 Y14.322 E146.8431
G1 X5.306 Y14.290 E146.9443
G1 X-8.397 Y14.290 E147.4001
G1 X-9.864 Y11.690 E147.4994
G1 X-16.632 Y-0.029 E147.9495
G1 X-15.172 Y-2.502 E148.0450
G1 X-8.322 Y-14.366 E148.5006
G1 X-3.309 Y-14.367 E148.6673
G0 X-2.037 Y-13.971 F10800
G1 X5.554 Y-13.973 E148.9198 F300
G1 X8.145 Y-13.947 E149.0060
G1 X9.532 Y-11.492 E149.0998
G1 X16.178 Y0.025 E149.5420
G1 X14.835 Y2.300 E149.6299
G1 X8.126 Y13.923 E150.0763
G1 X5.308 Y13.894 E150.1700
G1 X-8.170 Y13.894 E150.6183
G1 X-9.525 Y11.492 E150.7100
G1 X-16.177 Y-0.027 E151.1524
G1 X-14.835 Y-2.300 E151.2403
G1 X-8.097 Y-13.970 E151.6885
G1 X-2.233 Y-13.971 E151.8835
G0 X-0.960 Y-13.576 F10800
G1 X5.552 Y-13.577 E152.1001 F300
G1 X7.916 Y-13.553 E152.1788
G1 X9.193 Y-11.294 E152.2651
G1 X15.724 Y0.022 E152.6997
G1 X14.498 Y2.099 E152.7799
G1 X7.902 Y13.525 E153.2187
G1 X5.310 Y13.498 E153.3049
G1 X-7.942 Y13.498 E153.7457
G1 X-9.186 Y11.294 E153.8298
G1 X-15.723 Y-0.024 E154.2646
G1 X-14.498 Y-2.099 E154.3447
G1 X-7.872 Y-13.575 E154.7854
G1 X-1.156 Y-13.576 E155.0088
G0 X0.116 Y-13.180 F10800
G1 X5.550 Y-13.181 E155.1896 F300
G1 X7.688 Y-13.160 E155.2606
G1 X8.854 Y-11.096 E155.3395
G1 X15.269 Y0.020 E155.7663
G1 X14.161 Y1.898 E155.8389
G1 X7.679 Y13.127 E156.2701
G1 X5.312 Y13.102 E156.3488
G1 X-7.715 Y13.102 E156.7821
G1 X-8.846 Y11.097 E156.8587
G1 X-15.268 Y-0.022 E157.2858
G1 X-14.161 Y-1.898 E157.3582
G1 X-7.647 Y-13.179 E157.7915
G1 X-0.080 Y-13.180 E158.0432
G0 X1.193 Y-12.785 F10800
G1 X5.548 Y-12.785 E158.1880 F300
G1 X7.460 Y-12.766 E158.2516
G1 X8.515 Y-10.898 E158.3230
G1 X14.815 Y0.018 E158.7422
G1 X13.823 Y1.697 E158.8070
G1 X7.456 Y12.728 E159.2307
G1 X5.314 Y12.706 E159.3019
G1 X-7.488 Y12.706 E159.7277
G1 X-8.507 Y10.899 E159.7967
G1 X-14.813 Y-0.020 E160.2161
G1 X-13.823 Y-1.696 E160.2809
G1 X-7.423 Y-12.783 E160.7067
G1 X0.997 Y-12.785 E160.9867
G0 X2.269 Y-12.389 F10800
G1 X5.546 Y-12.389 E161.0957 F300
G1 X7.231 Y-12.372 E161.1518
G1 X8.176 Y-10.700 E161.2156
G1 X14.361 Y0.015 E161.6271
G1 X13.486 Y1.495 E161.6843
G1 X7.232 Y12.330 E162.1004
G1 X5.316 Y12.310 E162.1641
G1 X-7.260 Y12.310 E162.5824
G1 X-8.168 Y10.701 E162.6439
G1 X-14.359 Y-0.018 E163.0556
G1 X-13.486 Y-1.495 E163.1126
G1 X-7.198 Y-12.388 E163.5310
G1 X2.073 Y-12.389 E163.8393
G0 X3.346 Y-11.993 F10800
G1 X5.544 Y-11.994 E163.9125 F300
G1 X7.003 Y-11.979 E163.9610
G1 X7.837 Y-10.502 E164.0174
G1 X13.906 Y0.013 E164.4212
G1 X13.149 Y1.294 E164.4707
G1 X7.009 Y11.932 E164.8792
G1 X5.318 Y11.914 E164.9354
G1 X-7.033 Y11.914 E165.3463
G1 X-7.829 Y10.503 E165.4002
G1 X-13.904 Y-0.015 E165.8042
G1 X-13.149 Y-1.294 E165.8535
G1 X-6.973 Y-11.992 E166.2644
G1 X3.150 Y-11.993 E166.6011
G0 X4.422 Y-11.597 F10800
G1 X5.542 Y-11.598 E166.6383 F300
G1 X6.774 Y-11.585 E166.6793
G1 X7.498 Y-10.304 E166.7283
G1 X13.452 Y0.010 E167.1244
G1 X12.812 Y1.093 E167.1662
G1 X6.786 Y11.534 E167.5672
G1 X5.320 Y11.519 E167.6159
G1 X-6.806 Y11.519 E168.0192
G1 X-7.490 Y10.305 E168.0656
G1 X-13.450 Y-0.013 E168.4619
G1 X-12.812 Y-1.092 E168.5036
G1 X-6.748 Y-11.596 E168.9070
G1 X4.227 Y-11.597 E169.2720
G0 X5.499 Y-11.202 F10800
G1 X5.539 Y-11.202 E169.2733 F300
G1 X6.546 Y-11.192 E169.3068
G1 X7.159 Y-10.106 E169.3483
G1 X12.997 Y0.008 E169.7367
G1 X12.475 Y0.892 E169.7708
G1 X6.563 Y11.135 E170.1642
G1 X5.322 Y11.123 E170.2055
G1 X-6.578 Y11.123 E170.6013
G1 X-7.151 Y10.107 E170.6401
G1 X-12.995 Y-0.011 E171.0287
G1 X-12.475 Y-0.891 E171.0627
G1 X-6.523 Y-11.201 E171.4586
G1 X5.303 Y-11.202 E171.8520
G0 X6.366 Y-10.712 F10800
G1 X6.821 Y-9.908 E171.8827 F300
G1 X12.542 Y0.006 E172.2634
G1 X12.138 Y0.691 E172.2899
G1 X6.339 Y10.737 E172.6757
G1 X5.324 Y10.727 E172.7094
G1 X-6.351 Y10.727 E173.0978
G1 X-6.812 Y9.909 E173.1290
G1 X-12.540 Y-0.009 E173.5099
G1 X-12.138 Y-0.690 E173.5362
G1 X-6.299 Y-10.805 E173.9247
G1 X5.537 Y-10.806 E174.3183
G1 X6.220 Y-10.799 E174.3410
G0 X6.531 Y-9.625 F10800
G1 X12.088 Y0.003 E174.7108 F300
G1 X11.800 Y0.490 E174.7296
G1 X6.116 Y10.339 E175.1078
G1 X5.326 Y10.331 E175.1341
G1 X-6.124 Y10.331 E175.5149
G1 X-6.473 Y9.711 E175.5385
G1 X-12.086 Y-0.006 E175.9118
G1 X-11.801 Y-0.488 E175.9304
G1 X-6.074 Y-10.409 E176.3114
G1 X5.535 Y-10.410 E176.6975
G1 X6.089 Y-10.404 E176.7159
G1 X6.433 Y-9.796 E176.7392
G0 X6.736 Y-8.485 F10800
G1 X11.633 Y0.001 E177.0651 F300
G1 X11.463 Y0.288 E177.0761
G1 X5.893 Y9.941 E177.4468
G1 X5.328 Y9.935 E177.4656
G1 X-5.896 Y9.935 E177.8389
G1 X-6.134 Y9.514 E177.8550
G1 X-11.631 Y-0.004 E178.2206
G1 X-11.464 Y-0.287 E178.2315
G1 X-5.849 Y-10.014 E178.6050
G1 X5.533 Y-10.014 E178.9836
G1 X5.861 Y-10.011 E178.9945
G1 X6.143 Y-9.513 E179.0135
G1 X6.637 Y-8.656 E179.0464
G0 X6.940 Y-7.346 F10800
G1 X11.178 Y-0.001 E179.3285 F300
G1 X11.126 Y0.087 E179.3319
G1 X5.669 Y9.542 E179.6950
G1 X5.329 Y9.539 E179.7063
G1 X-5.669 Y9.539 E180.0721
G1 X-5.795 Y9.316 E180.0806
G1 X-11.176 Y-0.002 E180.4385
G1 X-11.127 Y-0.086 E180.4417
G1 X-5.624 Y-9.618 E180.8078
G1 X5.531 Y-9.618 E181.1788
G1 X5.633 Y-9.617 E181.1822
G1 X5.804 Y-9.315 E181.1938
G1 X6.841 Y-7.517 E181.2628
G0 X7.145 Y-6.206 F10800
G1 X10.725 Y-0.002 E181.5010 F300
G1 X5.446 Y9.144 E181.8523
G1 X5.331 Y9.143 E181.8561
G1 X-5.455 Y9.118 E182.2149
G1 X-10.722 Y-0.001 E182.5651
G1 X-5.400 Y-9.222 E182.9192
G1 X5.405 Y-9.222 E183.2786
G1 X5.465 Y-9.117 E183.2826
G1 X7.046 Y-6.377 E183.3878
G0 X7.349 Y-5.067 F10800
G1 X10.271 Y-0.002 E183.5823 F300
G1 X5.222 Y8.747 E183.9183
G1 X-5.231 Y8.722 E184.2660
G1 X-10.269 Y-0.001 E184.6010
G1 X-5.175 Y-8.826 E184.9399
G1 X5.180 Y-8.826 E185.2843
G1 X7.250 Y-5.237 E185.4221
G0 X7.553 Y-3.927 F10800
G1 X9.818 Y-0.002 E185.5728 F300
G1 X4.998 Y8.350 E185.8936
G1 X-5.006 Y8.327 E186.2263
G1 X-9.816 Y-0.001 E186.5462
G1 X-4.950 Y-8.430 E186.8699
G1 X4.955 Y-8.430 E187.1993
G1 X7.455 Y-4.098 E187.3657
G0 X7.758 Y-2.787 F10800
G1 X9.365 Y-0.002 E187.4726 F300
G1 X4.773 Y7.954 E187.7781
G1 X-4.781 Y7.932 E188.0959
G1 X-9.363 Y-0.001 E188.4006
G1 X-4.725 Y-8.034 E188.7091
G1 X4.730 Y-8.034 E189.0236
G1 X7.659 Y-2.958 E189.2185
G0 X7.962 Y-1.647 F10800
G1 X8.912 Y-0.002 E189.2817 F300
G1 X4.549 Y7.557 E189.5720
G1 X-4.556 Y7.536 E189.8748
G1 X-8.909 Y-0.001 E190.1644
G1 X-4.501 Y-7.638 E190.4576
G1 X4.505 Y-7.638 E190.7572
G1 X7.864 Y-1.818 E190.9807
G0 X8.167 Y-0.508 F10800
G1 X8.459 Y-0.002 E191.0001 F300
G1 X4.324 Y7.161 E191.2752
G1 X-4.331 Y7.141 E191.5631
G1 X-8.456 Y-0.001 E191.8374
G1 X-4.276 Y-7.242 E192.1155
G1 X4.280 Y-7.242 E192.4001
G1 X8.068 Y-0.679 E192.6521
G0 X7.870 Y0.233 F10800
G1 X4.100 Y6.765 E192.9029 F300
G1 X-4.106 Y6.746 E193.1759
G1 X-8.003 Y-0.001 E193.4350
G1 X-4.051 Y-6.846 E193.6979
G1 X4.056 Y-6.846 E193.9676
G1 X8.005 Y-0.002 E194.2304
G1 X7.968 Y0.062 E194.2329
G0 X6.989 Y0.973 F10800
G1 X3.876 Y6.368 E194.4400 F300
G1 X-3.881 Y6.350 E194.6980
G1 X-7.550 Y-0.001 E194.9420
G1 X-3.827 Y-6.450 E195.1897
G1 X3.831 Y-6.450 E195.4443
G1 X7.552 Y-0.002 E195.6920
G1 X7.088 Y0.803 E195.7229
G0 X6.108 Y1.714 F10800
G1 X3.651 Y5.972 E195.8864 F300
G1 X-3.657 Y5.955 E196.1294
G1 X-7.096 Y-0.001 E196.3582
G1 X-3.602 Y-6.055 E196.5907
G1 X3.606 Y-6.055 E196.8304
G1 X7.099 Y-0.002 E197.0628
G1 X6.207 Y1.543 E197.1222
G0 X5.228 Y2.455 F10800
G1 X3.427 Y5.575 E197.2420 F300
G1 X-3.432 Y5.559 E197.4701
G1 X-6.643 Y-0.001 E197.6837
G1 X-3.377 Y-5.659 E197.9009
G1 X3.381 Y-5.659 E198.1257
G1 X6.646 Y-0.002 E198.3429
G1 X5.326 Y2.284 E198.4307
G0 X4.347 Y3.195 F10800
G1 X3.203 Y5.179 E198.5069 F300
G1 X-3.207 Y5.164 E198.7201
G1 X-6.190 Y-0.001 E198.9185
G1 X-3.152 Y-5.263 E199.1205
G1 X3.156 Y-5.263 E199.3303
G1 X6.193 Y-0.002 E199.5324
G1 X4.446 Y3.025 E199.6486
G0 X3.467 Y3.936 F10800
G1 X2.978 Y4.782 E199.6811 F300
G1 X-2.982 Y4.768 E199.8793
G1 X-5.736 Y-0.001 E200.0625
G1 X-2.928 Y-4.867 E200.2494
G1 X2.932 Y-4.867 E200.4442
G1 X5.740 Y-0.002 E200.6310
G1 X3.565 Y3.765 E200.7757
G0 X2.656 Y4.386 F10800
G1 X-2.757 Y4.373 E200.9558 F300
G1 X-5.283 Y-0.001 E201.1238
G1 X-2.703 Y-4.471 E201.2954
G1 X2.707 Y-4.471 E201.4754
G1 X5.286 Y-0.002 E201.6470
G1 X2.803 Y4.300 E201.8122
G0 X1.580 Y3.987 F10800
G1 X-2.532 Y3.978 E201.9490 F300
G1 X-4.830 Y-0.001 E202.1018
G1 X-2.478 Y-4.075 E202.2582
G1 X2.482 Y-4.075 E202.4232
G1 X4.833 Y-0.002 E202.5796
G1 X2.530 Y3.989 E202.7329
G1 X1.776 Y3.988 E202.7580
G0 X0.505 Y3.589 F10800
G1 X-2.307 Y3.582 E202.8515 F300
G1 X-4.376 Y-0.001 E202.9891
G1 X-2.254 Y-3.679 E203.1303
G1 X2.258 Y-3.679 E203.2804
G1 X4.380 Y-0.002 E203.4216
G1 X2.305 Y3.593 E203.5596
G1 X0.701 Y3.589 E203.6130
G0 X-0.571 Y3.190 F10800
G1 X-2.082 Y3.187 E203.6633 F300
G1 X-3.923 Y-0.001 E203.7857
G1 X-2.029 Y-3.283 E203.9117
G1 X2.033 Y-3.283 E204.0469
G1 X3.927 Y-0.002 E204.1728
G1 X2.081 Y3.196 E204.2957
G1 X-0.375 Y3.191 E204.3774
G0 X-1.646 Y2.792 F10800
G1 X-1.857 Y2.791 E204.3844 F300
G1 X-3.470 Y-0.001 E204.4916
G1 X-1.804 Y-2.887 E204.6025
G1 X1.808 Y-2.887 E204.7226
G1 X3.474 Y-0.002 E204.8334
G1 X1.856 Y2.800 E204.9410
G1 X-1.451 Y2.792 E205.0510
G0 X-1.956 Y1.836 F10800
G1 X-3.017 Y-0.001 E205.1216 F300
G1 X-1.580 Y-2.491 E205.2172
G1 X1.584 Y-2.491 E205.3224
G1 X3.020 Y-0.002 E205.4180
G1 X1.632 Y2.403 E205.5104
G1 X-1.633 Y2.396 E205.6189
G1 X-1.857 Y2.007 E205.6339
G0 X-2.161 Y0.697 F10800
G1 X-2.564 Y-0.001 E205.6607 F300
G1 X-1.355 Y-2.095 E205.7411
G1 X1.359 Y-2.095 E205.8314
G1 X2.567 Y-0.002 E205.9117
G1 X1.408 Y2.007 E205.9889
G1 X-1.408 Y2.001 E206.0825
G1 X-2.062 Y0.868 E206.1261
G0 X-2.061 Y-0.087 F10800
G1 X-1.130 Y-1.699 E206.1880 F300
G1 X1.135 Y-1.699 E206.2633
G1 X2.114 Y-0.002 E206.3285
G1 X1.183 Y1.611 E206.3904
G1 X-1.183 Y1.605 E206.4691
G1 X-2.061 Y0.084 E206.5275
G0 X-1.180 Y-0.827 F10800
G1 X-0.906 Y-1.303 E206.5458 F300
G1 X0.910 Y-1.303 E206.6062
G1 X1.661 Y-0.002 E206.6562
G1 X0.959 Y1.214 E206.7029
G1 X-0.958 Y1.210 E206.7666
G1 X-1.657 Y-0.001 E206.8131
G1 X-1.279 Y-0.656 E206.8383
G0 X-0.374 Y-0.907 F10800
G1 X0.685 Y-0.907 E206.8735 F300
G1 X1.208 Y-0.002 E206.9083
G1 X0.734 Y0.818 E206.9398
G1 X-0.733 Y0.814 E206.9886
G1 X-1.204 Y-0.001 E207.0199
G1 X-0.681 Y-0.907 E207.0547
G1 X-0.570 Y-0.907 E207.0584
G0 X0.510 Y-0.426 F10800
G1 X0.755 Y-0.002 E207.0747 F300
G1 X0.510 Y0.421 E207.0910
G1 X-0.508 Y0.419 E207.1248
G1 X-0.751 Y-0.001 E207.1410
G1 X-0.457 Y-0.511 E207.1606
G1 X0.363 Y-0.511 E207.1878
G0 X0.188 Y0.024 F10800
G1 X-0.283 Y0.023 E207.2035 F300
G1 X-0.232 Y-0.115 E207.2084
G1 X0.236 Y-0.115 E207.2240
G1 X0.253 Y-0.068 E207.2256
; ------------------------------------
; Layer #1
; ------------------------------------
G21 ; mm
G90 ; abs
G92 E0 ; reset extr
M106 S0
;segType:Perimeter
G0 F4800 E-1.0000
G0 F2400 Z0.400
G0 X-29.241 Y-0.049 F10800
G0 F4800 E0.0000
G1 X-29.833 Y-0.436 E0.0235 F2159
G1 X-29.145 Y-1.499 E0.0656
G1 X-28.218 Y-3.025 E0.1250
G1 X-27.312 Y-4.555 E0.1842
G1 X-20.093 Y-16.787 E0.6565
G1 X-19.249 Y-18.248 E0.7127
G1 X-15.638 Y-24.356 E0.9487
G1 X-14.916 Y-25.567 E0.9956
G1 X-14.598 Y-26.056 E1.0150
G1 X-13.985 Y-26.029 E1.0354
G1 X-12.556 Y-26.012 E1.0829
G1 X-5.452 Y-25.940 E1.3192
G1 X-3.765 Y-25.940 E1.3753
G1 X10.429 Y-25.803 E1.8474
G1 X12.201 Y-25.782 E1.9064
G1 X13.970 Y-25.741 E1.9652
G1 X15.268 Y-25.669 E2.0085
G1 X15.873 Y-24.488 E2.0526
G1 X16.731 Y-22.922 E2.1120
G1 X17.603 Y-21.372 E2.1712
G1 X24.586 Y-9.004 E2.6435
G1 X25.430 Y-7.544 E2.6997
G1 X28.914 Y-1.362 E2.9357
G1 X29.602 Y-0.131 E2.9826
G1 X29.865 Y0.386 E3.0019
G1 X29.145 Y1.499 E3.0460
G1 X28.218 Y3.025 E3.1053
G1 X27.312 Y4.555 E3.1645
G1 X20.093 Y16.787 E3.6369
G1 X19.250 Y18.248 E3.6930
G1 X15.639 Y24.356 E3.9290
G1 X14.916 Y25.567 E3.9759
G1 X14.599 Y26.055 E3.9953
G1 X13.272 Y25.988 E4.0394
G1 X11.487 Y25.949 E4.0988
G1 X9.709 Y25.929 E4.1580
G1 X-4.493 Y25.793 E4.6304
G1 X-6.180 Y25.793 E4.6865
G1 X-13.276 Y25.719 E4.9225
G1 X-14.686 Y25.700 E4.9694
G1 X-15.268 Y25.669 E4.9888
G1 X-15.872 Y24.488 E5.0329
G1 X-16.731 Y22.922 E5.0923
G1 X-17.603 Y21.372 E5.1515
G1 X-24.586 Y9.004 E5.6239
G1 X-25.430 Y7.543 E5.6800
G1 X-28.914 Y1.362 E5.9160
G1 X-29.602 Y0.131 E5.9629
G1 X-29.838 Y-0.334 E5.9802
G1 X-29.210 Y-0.656
;segType:Loop
G0 X-28.941 Y-1.076 F10800
G1 X-28.807 Y-1.282 E5.9884 F3600
G1 X-27.876 Y-2.815 E6.0481
G1 X-26.969 Y-4.348 E6.1073
G1 X-19.749 Y-16.581 E6.5797
G1 X-18.905 Y-18.042 E6.6359
G1 X-15.296 Y-24.148 E6.8718
G1 X-14.578 Y-25.351 E6.9184
G1 X-14.389 Y-25.642 E6.9299
G1 X-13.996 Y-25.625 E6.9430
G1 X-12.560 Y-25.608 E6.9908
G1 X-5.454 Y-25.536 E7.2271
G1 X-3.767 Y-25.536 E7.2832
G1 X10.425 Y-25.399 E7.7553
G1 X12.194 Y-25.378 E7.8141
G1 X13.955 Y-25.337 E7.8727
G1 X15.018 Y-25.278 E7.9081
G1 X15.520 Y-24.297 E7.9448
G1 X16.382 Y-22.724 E8.0044
G1 X17.255 Y-21.172 E8.0637
G1 X24.240 Y-8.802 E8.5361
G1 X25.083 Y-7.341 E8.5922
G1 X28.566 Y-1.163 E8.8281
G1 X29.250 Y0.061 E8.8748
G1 X29.403 Y0.362 E8.8860
G1 X28.807 Y1.283 E8.9225
G1 X27.876 Y2.816 E8.9821
G1 X26.969 Y4.348 E9.0413
G1 X19.749 Y16.581 E9.5138
G1 X18.905 Y18.042 E9.5699
G1 X15.296 Y24.148 E9.8058
G1 X14.578 Y25.351 E9.8524
G1 X14.390 Y25.640 E9.8639
G1 X13.287 Y25.584 E9.9006
G1 X11.494 Y25.544 E9.9603
G1 X9.713 Y25.524 E10.0195
G1 X-4.491 Y25.388 E10.4920
G1 X-6.178 Y25.388 E10.5481
G1 X-13.271 Y25.315 E10.7840
G1 X-14.672 Y25.296 E10.8306
G1 X-15.018 Y25.277 E10.8421
G1 X-15.520 Y24.297 E10.8788
G1 X-16.382 Y22.724 E10.9384
G1 X-17.255 Y21.172 E10.9977
G1 X-24.240 Y8.802 E11.4701
G1 X-25.083 Y7.341 E11.5262
G1 X-28.566 Y1.163 E11.7621
G1 X-29.250 Y-0.061 E11.8088
G1 X-29.403 Y-0.362 E11.8200
G1 X-29.048 Y-0.910 E11.8417
;segType:HShell
G0 X-28.034 Y-1.790 F10800
G1 X-27.538 Y-2.608 E11.8735 F1800
G1 X-26.629 Y-4.143 E11.9329
G1 X-19.408 Y-16.378 E12.4054
G1 X-18.564 Y-17.839 E12.4615
G1 X-14.956 Y-23.942 E12.6973
G1 X-14.182 Y-25.233 E12.7474
G1 X-14.007 Y-25.225 E12.7532
G1 X-12.565 Y-25.208 E12.8012
G1 X-5.456 Y-25.135 E13.0376
G1 X-3.769 Y-25.135 E13.0937
G1 X10.421 Y-24.998 E13.5657
G1 X12.188 Y-24.978 E13.6245
G1 X13.939 Y-24.937 E13.6827
G1 X14.770 Y-24.891 E13.7104
G1 X15.171 Y-24.108 E13.7397
G1 X16.037 Y-22.528 E13.7996
G1 X16.911 Y-20.973 E13.8589
G1 X23.897 Y-8.602 E14.3315
G1 X24.741 Y-7.141 E14.3876
G1 X28.222 Y-0.965 E14.6234
G1 X28.946 Y0.338 E14.6730
G1 X28.473 Y1.068 E14.7019
G1 X27.537 Y2.608 E14.7618
G1 X26.629 Y4.143 E14.8211
G1 X19.408 Y16.378 E15.2937
G1 X18.565 Y17.838 E15.3497
G1 X14.957 Y23.942 E15.5856
G1 X14.184 Y25.229 E15.6355
G1 X13.301 Y25.184 E15.6649
G1 X11.501 Y25.144 E15.7248
G1 X9.717 Y25.124 E15.7841
G1 X-4.489 Y24.988 E16.2566
G1 X-6.176 Y24.988 E16.3127
G1 X-13.266 Y24.915 E16.5486
G1 X-14.771 Y24.890 E16.5986
G1 X-15.171 Y24.108 E16.6279
G1 X-16.037 Y22.528 E16.6878
G1 X-16.911 Y20.973 E16.7471
G1 X-23.897 Y8.602 E17.2196
G1 X-24.741 Y7.141 E17.2757
G1 X-28.222 Y0.965 E17.5115
G1 X-28.946 Y-0.338 E17.5611
G1 X-28.473 Y-1.068 E17.5900
G1 X-28.137 Y-1.621 E17.6116
G0 X-27.153 Y-2.487 F10800
G1 X-26.293 Y-3.939 E17.6677 F1800
G1 X-19.071 Y-16.176 E18.1403
G1 X-18.227 Y-17.637 E18.1964
G1 X-14.621 Y-23.738 E18.4321
G1 X-13.966 Y-24.829 E18.4744
G1 X-12.569 Y-24.812 E18.5209
G1 X-5.458 Y-24.740 E18.7574
G1 X-3.771 Y-24.740 E18.8136
G1 X10.417 Y-24.603 E19.2855
G1 X12.181 Y-24.582 E19.3441
G1 X13.924 Y-24.542 E19.4021
G1 X14.525 Y-24.508 E19.4222
G1 X14.826 Y-23.921 E19.4441
G1 X15.696 Y-22.334 E19.5043
G1 X16.571 Y-20.777 E19.5637
G1 X23.558 Y-8.404 E20.0363
G1 X24.401 Y-6.944 E20.0924
G1 X27.881 Y-0.770 E20.3281
G1 X28.488 Y0.322 E20.3697
G1 X28.142 Y0.856 E20.3908
G1 X27.203 Y2.403 E20.4510
G1 X26.293 Y3.939 E20.5104
G1 X19.071 Y16.176 E20.9830
G1 X18.228 Y17.637 E21.0391
G1 X14.621 Y23.738 E21.2748
G1 X13.970 Y24.821 E21.3169
G1 X13.315 Y24.788 E21.3387
G1 X11.507 Y24.749 E21.3988
G1 X9.721 Y24.728 E21.4582
G1 X-4.487 Y24.592 E21.9308
G1 X-6.174 Y24.592 E21.9869
G1 X-13.261 Y24.519 E22.2227
G1 X-14.531 Y24.498 E22.2649
G1 X-14.826 Y23.921 E22.2865
G1 X-15.696 Y22.334 E22.3466
G1 X-16.571 Y20.777 E22.4060
G1 X-23.558 Y8.404 E22.8787
G1 X-24.402 Y6.944 E22.9348
G1 X-27.881 Y0.770 E23.1704
G1 X-28.488 Y-0.322 E23.2120
G1 X-28.142 Y-0.856 E23.2332
G1 X-27.254 Y-2.318 E23.2901
G0 X-26.264 Y-3.218 F10800
G1 X-25.957 Y-3.736 E23.3101 F1800
G1 X-18.734 Y-15.975 E23.7828
G1 X-17.890 Y-17.436 E23.8389
G1 X-14.286 Y-23.533 E24.0745
G1 X-13.747 Y-24.430 E24.1092
G1 X-12.573 Y-24.416 E24.1483
G1 X-5.460 Y-24.344 E24.3849
G1 X-3.773 Y-24.344 E24.4410
G1 X10.413 Y-24.207 E24.9129
G1 X12.174 Y-24.187 E24.9715
G1 X13.909 Y-24.146 E25.0292
G1 X14.281 Y-24.125 E25.0415
G1 X14.481 Y-23.734 E25.0562
G1 X15.354 Y-22.140 E25.1166
G1 X16.231 Y-20.582 E25.1761
G1 X23.219 Y-8.206 E25.6488
G1 X24.062 Y-6.746 E25.7049
G1 X27.541 Y-0.575 E25.9405
G1 X28.030 Y0.307 E25.9740
G1 X27.812 Y0.644 E25.9874
G1 X26.868 Y2.198 E26.0479
G1 X25.957 Y3.736 E26.1073
G1 X18.734 Y15.975 E26.5800
G1 X17.891 Y17.435 E26.6361
G1 X14.286 Y23.533 E26.8717
G1 X13.757 Y24.414 E26.9059
G1 X13.329 Y24.393 E26.9201
G1 X11.513 Y24.353 E26.9805
G1 X9.725 Y24.332 E27.0400
G1 X-4.486 Y24.196 E27.5127
G1 X-6.172 Y24.196 E27.5688
G1 X-13.256 Y24.123 E27.8044
G1 X-14.290 Y24.106 E27.8388
G1 X-14.481 Y23.734 E27.8527
G1 X-15.354 Y22.140 E27.9131
G1 X-16.231 Y20.582 E27.9726
G1 X-23.219 Y8.206 E28.4453
G1 X-24.063 Y6.746 E28.5014
G1 X-27.541 Y0.575 E28.7370
G1 X-28.030 Y-0.307 E28.7705
G1 X-27.812 Y-0.644 E28.7839
G1 X-26.868 Y-2.197 E28.8444
G1 X-26.364 Y-3.048 E28.8773
G0 X-25.375 Y-3.949 F10800
G1 X-18.397 Y-15.774 E29.3339 F1800
G1 X-17.553 Y-17.235 E29.3900
G1 X-13.950 Y-23.329 E29.6255
G1 X-13.529 Y-24.032 E29.6527
G1 X-12.577 Y-24.020 E29.6844
G1 X-5.462 Y-23.948 E29.9211
G1 X-3.774 Y-23.948 E29.9772
G1 X10.409 Y-23.811 E30.4489
G1 X12.168 Y-23.791 E30.5074
G1 X14.036 Y-23.742 E30.5696
G1 X14.136 Y-23.547 E30.5769
G1 X15.013 Y-21.947 E30.6376
G1 X15.891 Y-20.386 E30.6972
G1 X22.880 Y-8.008 E31.1700
G1 X23.723 Y-6.548 E31.2260
G1 X27.200 Y-0.381 E31.4615
G1 X27.573 Y0.291 E31.4870
G1 X27.481 Y0.432 E31.4927
G1 X26.533 Y1.993 E31.5534
G1 X25.621 Y3.533 E31.6129
G1 X18.397 Y15.774 E32.0857
G1 X17.554 Y17.234 E32.1417
G1 X13.951 Y23.329 E32.3772
G1 X13.543 Y24.007 E32.4036
G1 X13.343 Y23.997 E32.4102
G1 X11.520 Y23.957 E32.4709
G1 X9.729 Y23.937 E32.5304
G1 X-4.484 Y23.800 E33.0032
G1 X-6.170 Y23.800 E33.0593
G1 X-13.251 Y23.728 E33.2948
G1 X-14.050 Y23.714 E33.3214
G1 X-14.136 Y23.547 E33.3276
G1 X-15.013 Y21.947 E33.3883
G1 X-15.891 Y20.386 E33.4479
G1 X-22.880 Y8.008 E33.9207
G1 X-23.723 Y6.548 E33.9768
G1 X-27.200 Y0.381 E34.2122
G1 X-27.572 Y-0.291 E34.2378
G1 X-27.481 Y-0.431 E34.2433
G1 X-26.533 Y-1.992 E34.3041
G1 X-25.621 Y-3.533 E34.3636
G1 X-25.476 Y-3.779 E34.3732
G0 X-24.487 Y-4.681 F10800
G1 X-18.060 Y-15.572 E34.7938 F1800
G1 X-17.216 Y-17.033 E34.8499
G1 X-13.615 Y-23.125 E35.0853
G1 X-13.310 Y-23.633 E35.1050
G1 X-5.464 Y-23.552 E35.3659
G1 X-3.776 Y-23.552 E35.4221
G1 X10.405 Y-23.415 E35.8938
G1 X12.160 Y-23.395 E35.9522
G1 X13.795 Y-23.353 E36.0065
G1 X14.672 Y-21.753 E36.0672
G1 X15.551 Y-20.190 E36.1269
G1 X22.541 Y-7.810 E36.5997
G1 X23.384 Y-6.350 E36.6558
G1 X26.859 Y-0.186 E36.8912
G1 X27.116 Y0.277 E36.9088
G1 X26.198 Y1.787 E36.9675
G1 X25.285 Y3.330 E37.0272
G1 X18.060 Y15.572 E37.5000
G1 X17.216 Y17.033 E37.5561
G1 X13.615 Y23.125 E37.7914
G1 X13.330 Y23.601 E37.8099
G1 X11.526 Y23.561 E37.8699
G1 X9.733 Y23.541 E37.9295
G1 X-4.482 Y23.404 E38.4024
G1 X-6.168 Y23.404 E38.4584
G1 X-13.246 Y23.332 E38.6939
G1 X-13.812 Y23.322 E38.7127
G1 X-14.672 Y21.753 E38.7722
G1 X-15.551 Y20.190 E38.8318
G1 X-22.541 Y7.810 E39.3047
G1 X-23.384 Y6.350 E39.3608
G1 X-26.859 Y0.186 E39.5961
G1 X-27.116 Y-0.277 E39.6137
G1 X-26.199 Y-1.787 E39.6725
G1 X-25.285 Y-3.330 E39.7322
G1 X-24.588 Y-4.511 E39.7778
G0 X-23.600 Y-5.413 F10800
G1 X-17.723 Y-15.371 E40.1624 F1800
G1 X-16.879 Y-16.832 E40.2185
G1 X-13.280 Y-22.921 E40.4537
G1 X-13.091 Y-23.235 E40.4659
G1 X-5.466 Y-23.156 E40.7195
G1 X-3.778 Y-23.156 E40.7757
G1 X10.400 Y-23.020 E41.2473
G1 X12.153 Y-22.999 E41.3056
G1 X13.561 Y-22.963 E41.3524
G1 X14.330 Y-21.559 E41.4056
G1 X15.211 Y-19.994 E41.4654
G1 X22.202 Y-7.612 E41.9383
G1 X23.045 Y-6.153 E41.9944
G1 X26.519 Y0.009 E42.2296
G1 X26.662 Y0.268 E42.2395
G1 X25.864 Y1.582 E42.2906
G1 X24.949 Y3.127 E42.3503
G1 X17.723 Y15.371 E42.8232
G1 X16.879 Y16.831 E42.8793
G1 X13.280 Y22.920 E43.1146
G1 X13.112 Y23.200 E43.1254
G1 X11.532 Y23.166 E43.1780
G1 X9.737 Y23.145 E43.2377
G1 X-4.480 Y23.008 E43.7106
G1 X-6.166 Y23.008 E43.7666
G1 X-13.240 Y22.936 E44.0019
G1 X-13.579 Y22.930 E44.0132
G1 X-14.330 Y21.559 E44.0652
G1 X-15.211 Y19.994 E44.1249
G1 X-22.202 Y7.612 E44.5979
G1 X-23.045 Y6.152 E44.6540
G1 X-26.519 Y-0.009 E44.8892
G1 X-26.662 Y-0.268 E44.8990
G1 X-25.864 Y-1.581 E44.9502
G1 X-24.949 Y-3.127 E45.0099
G1 X-23.700 Y-5.243 E45.0916
G0 X-22.712 Y-6.145 F10800
G1 X-17.386 Y-15.170 E45.4402 F1800
G1 X-16.542 Y-16.631 E45.4963
G1 X-12.872 Y-22.837 E45.7361
G1 X-5.468 Y-22.760 E45.9824
G1 X-3.780 Y-22.761 E46.0385
G1 X10.396 Y-22.624 E46.5100
G1 X12.146 Y-22.604 E46.5682
G1 X13.327 Y-22.573 E46.6075
G1 X13.989 Y-21.366 E46.6533
G1 X14.871 Y-19.798 E46.7132
G1 X21.863 Y-7.414 E47.1862
G1 X22.706 Y-5.955 E47.2422
G1 X26.208 Y0.259 E47.4794
G1 X25.529 Y1.377 E47.5230
G1 X24.613 Y2.924 E47.5828
G1 X17.386 Y15.170 E48.0557
G1 X16.542 Y16.630 E48.1118
G1 X12.895 Y22.799 E48.3502
G1 X11.539 Y22.770 E48.3953
G1 X9.742 Y22.750 E48.4551
G1 X-4.479 Y22.612 E48.9280
G1 X-6.164 Y22.612 E48.9841
G1 X-13.346 Y22.539 E49.2230
G1 X-13.989 Y21.365 E49.2675
G1 X-14.870 Y19.798 E49.3273
G1 X-21.863 Y7.414 E49.8003
G1 X-22.706 Y5.954 E49.8564
G1 X-26.208 Y-0.259 E50.0936
G1 X-25.529 Y-1.376 E50.1371
G1 X-24.613 Y-2.924 E50.1969
G1 X-22.812 Y-5.975 E50.3147
G0 X-21.824 Y-6.877 F10800
G1 X-17.049 Y-14.969 E50.6272 F1800
G1 X-16.205 Y-16.429 E50.6833
G1 X-12.652 Y-22.439 E50.9156
G1 X-5.470 Y-22.364 E51.1544
G1 X-3.782 Y-22.365 E51.2106
G1 X10.392 Y-22.228 E51.6820
G1 X12.139 Y-22.208 E51.7401
G1 X13.093 Y-22.183 E51.7719
G1 X13.648 Y-21.172 E51.8103
G1 X14.530 Y-19.602 E51.8702
G1 X21.524 Y-7.216 E52.3432
G1 X22.367 Y-5.757 E52.3993
G1 X25.753 Y0.251 E52.6287
G1 X25.194 Y1.172 E52.6645
G1 X24.277 Y2.721 E52.7244
G1 X17.049 Y14.969 E53.1974
G1 X16.205 Y16.429 E53.2535
G1 X12.676 Y22.399 E53.4842
G1 X11.546 Y22.374 E53.5218
G1 X9.746 Y22.354 E53.5816
G1 X-4.477 Y22.216 E54.0547
G1 X-6.162 Y22.216 E54.1107
G1 X-13.114 Y22.145 E54.3420
G1 X-13.647 Y21.172 E54.3789
G1 X-14.530 Y19.602 E54.4388
G1 X-21.524 Y7.216 E54.9119
G1 X-22.367 Y5.756 E54.9679
G1 X-25.753 Y-0.251 E55.1973
G1 X-25.194 Y-1.171 E55.2331
G1 X-24.277 Y-2.721 E55.2930
G1 X-21.924 Y-6.707 E55.4470
G0 X-20.936 Y-7.609 F10800
G1 X-16.712 Y-14.767 E55.7234 F1800
G1 X-15.868 Y-16.228 E55.7795
G1 X-12.431 Y-22.041 E56.0041
G1 X-5.472 Y-21.968 E56.2356
G1 X-3.784 Y-21.969 E56.2917
G1 X10.388 Y-21.833 E56.7631
G1 X12.131 Y-21.812 E56.8211
G1 X12.859 Y-21.793 E56.8453
G1 X13.306 Y-20.978 E56.8763
G1 X14.190 Y-19.406 E56.9363
G1 X21.186 Y-7.018 E57.4094
G1 X22.028 Y-5.559 E57.4655
G1 X25.299 Y0.243 E57.6870
G1 X24.859 Y0.966 E57.7151
G1 X23.941 Y2.518 E57.7751
G1 X16.712 Y14.767 E58.2482
G1 X15.868 Y16.228 E58.3043
G1 X12.456 Y21.998 E58.5272
G1 X11.552 Y21.979 E58.5573
G1 X9.750 Y21.958 E58.6173
G1 X-4.475 Y21.820 E59.0904
G1 X-6.160 Y21.820 E59.1465
G1 X-12.882 Y21.752 E59.3701
G1 X-13.306 Y20.978 E59.3994
G1 X-14.190 Y19.406 E59.4594
G1 X-21.185 Y7.018 E59.9326
G1 X-22.028 Y5.559 E59.9886
G1 X-25.299 Y-0.243 E60.2101
G1 X-24.860 Y-0.966 E60.2382
G1 X-23.941 Y-2.518 E60.2982
G1 X-21.036 Y-7.439 E60.4883
G0 X-20.048 Y-8.341 F10800
G1 X-16.375 Y-14.566 E60.7287 F1800
G1 X-15.531 Y-16.026 E60.7848
G1 X-12.210 Y-21.642 E61.0018
G1 X-5.474 Y-21.572 E61.2259
G1 X-3.786 Y-21.573 E61.2820
G1 X10.384 Y-21.437 E61.7533
G1 X12.124 Y-21.417 E61.8112
G1 X12.625 Y-21.404 E61.8279
G1 X12.965 Y-20.784 E61.8514
G1 X13.850 Y-19.210 E61.9114
G1 X20.847 Y-6.820 E62.3847
G1 X21.689 Y-5.361 E62.4408
G1 X24.844 Y0.236 E62.6544
G1 X24.525 Y0.761 E62.6749
G1 X23.605 Y2.314 E62.7349
G1 X16.375 Y14.566 E63.2081
G1 X15.531 Y16.026 E63.2641
G1 X12.237 Y21.598 E63.4794
G1 X11.558 Y21.583 E63.5020
G1 X9.754 Y21.563 E63.5620
G1 X-4.473 Y21.424 E64.0353
G1 X-6.158 Y21.424 E64.0913
G1 X-12.650 Y21.358 E64.3072
G1 X-12.964 Y20.784 E64.3290
G1 X-13.850 Y19.210 E64.3891
G1 X-20.846 Y6.820 E64.8623
G1 X-21.689 Y5.361 E64.9184
G1 X-24.844 Y-0.236 E65.1320
G1 X-24.525 Y-0.760 E65.1525
G1 X-23.605 Y-2.314 E65.2125
G1 X-20.149 Y-8.171 E65.4387
G0 X-19.160 Y-9.073 F10800
G1 X-16.037 Y-14.365 E65.6431 F1800
G1 X-15.194 Y-15.825 E65.6992
G1 X-11.990 Y-21.244 E65.9085
G1 X-5.476 Y-21.176 E66.1252
G1 X-3.788 Y-21.177 E66.1814
G1 X10.380 Y-21.041 E66.6526
G1 X12.391 Y-21.014 E66.7195
G1 X12.624 Y-20.590 E66.7356
G1 X13.510 Y-19.014 E66.7957
G1 X20.508 Y-6.622 E67.2691
G1 X21.351 Y-5.163 E67.3251
G1 X24.389 Y0.228 E67.5309
G1 X23.268 Y2.111 E67.6038
G1 X16.037 Y14.365 E68.0770
G1 X15.194 Y15.825 E68.1331
G1 X12.018 Y21.197 E68.3407
G1 X11.565 Y21.187 E68.3558
G1 X9.758 Y21.167 E68.4159
G1 X-4.471 Y21.028 E68.8892
G1 X-6.156 Y21.028 E68.9452
G1 X-12.418 Y20.965 E69.1535
G1 X-12.623 Y20.591 E69.1677
G1 X-13.510 Y19.014 E69.2278
G1 X-20.507 Y6.622 E69.7012
G1 X-21.350 Y5.163 E69.7572
G1 X-24.389 Y-0.228 E69.9631
G1 X-24.190 Y-0.555 E69.9758
G1 X-23.268 Y-2.111 E70.0359
G1 X-19.261 Y-8.903 E70.2982
G0 X-18.273 Y-9.804 F10800
G1 X-15.700 Y-14.163 E70.4665 F1800
G1 X-14.857 Y-15.624 E70.5226
G1 X-11.769 Y-20.846 E70.7244
G1 X-5.478 Y-20.780 E70.9337
G1 X-3.790 Y-20.781 E70.9898
G1 X10.376 Y-20.646 E71.4610
G1 X12.159 Y-20.621 E71.5203
G1 X13.170 Y-18.818 E71.5891
G1 X20.169 Y-6.424 E72.0625
G1 X21.011 Y-4.965 E72.1185
G1 X23.935 Y0.223 E72.3166
G1 X22.933 Y1.908 E72.3818
G1 X15.700 Y14.163 E72.8551
G1 X14.858 Y15.623 E72.9112
G1 X11.799 Y20.797 E73.1111
G1 X9.762 Y20.771 E73.1788
G1 X-4.470 Y20.633 E73.6522
G1 X-6.154 Y20.633 E73.7082
G1 X-12.186 Y20.572 E73.9088
G1 X-13.170 Y18.818 E73.9757
G1 X-20.168 Y6.424 E74.4491
G1 X-21.011 Y4.965 E74.5051
G1 X-23.934 Y-0.221 E74.7031
G1 X-22.932 Y-1.908 E74.7684
G1 X-18.373 Y-9.634 E75.0668
G0 X-17.385 Y-10.536 F10800
G1 X-15.363 Y-13.962 E75.1991 F1800
G1 X-14.520 Y-15.422 E75.2552
G1 X-11.549 Y-20.448 E75.4493
G1 X-5.480 Y-20.384 E75.6512
G1 X-3.791 Y-20.385 E75.7074
G1 X10.371 Y-20.250 E76.1784
G1 X11.929 Y-20.229 E76.2303
G1 X12.830 Y-18.623 E76.2915
G1 X19.830 Y-6.226 E76.7650
G1 X20.672 Y-4.767 E76.8210
G1 X23.482 Y0.217 E77.0113
G1 X22.597 Y1.705 E77.0689
G1 X15.363 Y13.962 E77.5423
G1 X14.521 Y15.422 E77.5983
G1 X11.578 Y20.398 E77.7906
G1 X9.766 Y20.376 E77.8509
G1 X-4.468 Y20.237 E78.3244
G1 X-6.152 Y20.237 E78.3804
G1 X-11.957 Y20.178 E78.5735
G1 X-12.830 Y18.622 E78.6328
G1 X-19.829 Y6.226 E79.1063
G1 X-20.672 Y4.767 E79.1623
G1 X-23.480 Y-0.216 E79.3525
G1 X-22.597 Y-1.705 E79.4101
G1 X-17.485 Y-10.366 E79.7446
G0 X-16.497 Y-11.268 F10800
G1 X-15.026 Y-13.761 E79.8409 F1800
G1 X-14.183 Y-15.221 E79.8970
G1 X-11.328 Y-20.049 E80.0835
G1 X-5.482 Y-19.988 E80.2780
G1 X-3.793 Y-19.989 E80.3342
G1 X10.366 Y-19.854 E80.8051
G1 X11.699 Y-19.836 E80.8495
G1 X12.490 Y-18.427 E80.9032
G1 X19.491 Y-6.028 E81.3768
G1 X20.333 Y-4.569 E81.4328
G1 X23.028 Y0.212 E81.6154
G1 X22.261 Y1.501 E81.6653
G1 X15.026 Y13.761 E82.1387
G1 X14.184 Y15.220 E82.1948
G1 X11.358 Y20.000 E82.3795
G1 X9.771 Y19.980 E82.4322
G1 X-4.466 Y19.841 E82.9058
G1 X-6.150 Y19.841 E82.9618
G1 X-11.728 Y19.784 E83.1473
G1 X-12.489 Y18.427 E83.1991
G1 X-19.490 Y6.028 E83.6727
G1 X-20.332 Y4.570 E83.7287
G1 X-23.027 Y-0.210 E83.9112
G1 X-22.261 Y-1.501 E83.9611
G1 X-16.597 Y-11.098 E84.3317
G0 X-15.609 Y-12.000 F10800
G1 X-14.689 Y-13.559 E84.3920 F1800
G1 X-13.846 Y-15.020 E84.4480
G1 X-11.108 Y-19.651 E84.6270
G1 X-5.484 Y-19.592 E84.8140
G1 X-3.795 Y-19.593 E84.8702
G1 X10.362 Y-19.459 E85.3411
G1 X11.470 Y-19.443 E85.3779
G1 X12.150 Y-18.231 E85.4242
G1 X19.152 Y-5.830 E85.8978
G1 X19.994 Y-4.372 E85.9539
G1 X22.574 Y0.207 E86.1286
G1 X21.925 Y1.298 E86.1709
G1 X14.689 Y13.560 E86.6444
G1 X13.847 Y15.019 E86.7005
G1 X11.137 Y19.601 E86.8775
G1 X9.775 Y19.584 E86.9228
G1 X-4.464 Y19.445 E87.3965
G1 X-6.148 Y19.445 E87.4525
G1 X-11.499 Y19.391 E87.6304
G1 X-12.149 Y18.231 E87.6747
G1 X-19.151 Y5.830 E88.1483
G1 X-19.994 Y4.372 E88.2043
G1 X-22.573 Y-0.205 E88.3791
G1 X-21.925 Y-1.298 E88.4213
G1 X-15.710 Y-11.830 E88.8281
G0 X-14.721 Y-12.732 F10800
G1 X-14.352 Y-13.358 E88.8523 F1800
G1 X-13.509 Y-14.818 E88.9084
G1 X-10.887 Y-19.253 E89.0797
G1 X-5.486 Y-19.196 E89.2593
G1 X-3.797 Y-19.197 E89.3155
G1 X10.357 Y-19.063 E89.7863
G1 X11.240 Y-19.051 E89.8157
G1 X11.809 Y-18.036 E89.8544
G1 X18.813 Y-5.632 E90.3281
G1 X19.655 Y-4.174 E90.3842
G1 X22.121 Y0.201 E90.5512
G1 X21.589 Y1.094 E90.5858
G1 X14.352 Y13.358 E91.0594
G1 X13.510 Y14.818 E91.1154
G1 X10.917 Y19.202 E91.2849
G1 X9.779 Y19.189 E91.3227
G1 X-4.463 Y19.049 E91.7964
G1 X-6.146 Y19.049 E91.8524
G1 X-11.269 Y18.997 E92.0228
G1 X-11.809 Y18.035 E92.0595
G1 X-18.812 Y5.632 E92.5332
G1 X-19.654 Y4.174 E92.5893
G1 X-22.120 Y-0.200 E92.7563
G1 X-21.589 Y-1.095 E92.7909
G1 X-14.822 Y-12.562 E93.2337
G0 X-13.835 Y-13.469 F10800
G1 X-13.171 Y-14.617 E93.2778 F1800
G1 X-10.666 Y-18.855 E93.4416
G1 X-5.488 Y-18.800 E93.6138
G1 X-3.799 Y-18.802 E93.6700
G1 X10.353 Y-18.667 E94.1407
G1 X11.010 Y-18.658 E94.1625
G1 X11.469 Y-17.840 E94.1938
G1 X18.474 Y-5.434 E94.6676
G1 X19.316 Y-3.976 E94.7236
G1 X21.667 Y0.196 E94.8829
G1 X21.254 Y0.891 E94.9098
G1 X14.015 Y13.157 E95.3835
G1 X13.172 Y14.616 E95.4395
G1 X10.696 Y18.804 E95.6013
G1 X9.784 Y18.793 E95.6317
G1 X-4.461 Y18.653 E96.1055
G1 X-6.144 Y18.653 E96.1615
G1 X-11.040 Y18.603 E96.3243
G1 X-11.469 Y17.839 E96.3535
G1 X-18.473 Y5.434 E96.8273
G1 X-19.315 Y3.976 E96.8833
G1 X-21.667 Y-0.195 E97.0425
G1 X-21.253 Y-0.891 E97.0695
G1 X-14.015 Y-13.157 E97.5432
G1 X-13.933 Y-13.298 E97.5486
G0 X-12.954 Y-14.209 F10800
G1 X-12.834 Y-14.416 E97.5565 F1800
G1 X-10.446 Y-18.456 E97.7126
G1 X-5.490 Y-18.404 E97.8775
G1 X-3.800 Y-18.406 E97.9337
G1 X10.348 Y-18.272 E98.4043
G1 X10.780 Y-18.266 E98.4187
G1 X11.129 Y-17.644 E98.4424
G1 X18.135 Y-5.236 E98.9163
G1 X18.977 Y-3.778 E98.9723
G1 X21.213 Y0.190 E99.1238
G1 X20.918 Y0.688 E99.1430
G1 X13.678 Y12.956 E99.6168
G1 X12.835 Y14.415 E99.6729
G1 X10.476 Y18.405 E99.8271
G1 X9.788 Y18.397 E99.8499
G1 X-4.459 Y18.257 E100.3238
G1 X-6.142 Y18.257 E100.3798
G1 X-10.811 Y18.210 E100.5351
G1 X-11.129 Y17.643 E100.5567
G1 X-18.134 Y5.236 E101.0306
G1 X-18.976 Y3.778 E101.0866
G1 X-21.213 Y-0.190 E101.2381
G1 X-20.918 Y-0.688 E101.2574
G1 X-13.678 Y-12.955 E101.7311
G1 X-13.052 Y-14.038 E101.7727
G0 X-12.067 Y-14.942 F10800
G1 X-10.225 Y-18.058 E101.8931 F1800
G1 X-5.492 Y-18.008 E102.0506
G1 X-3.802 Y-18.010 E102.1068
G1 X10.343 Y-17.876 E102.5773
G1 X10.550 Y-17.873 E102.5842
G1 X10.789 Y-17.448 E102.6004
G1 X17.796 Y-5.038 E103.0744
G1 X18.638 Y-3.580 E103.1304
G1 X20.760 Y0.185 E103.2741
G1 X20.582 Y0.484 E103.2857
G1 X13.341 Y12.755 E103.7596
G1 X12.499 Y14.214 E103.8156
G1 X10.255 Y18.007 E103.9622
G1 X9.792 Y18.001 E103.9776
G1 X-4.457 Y17.861 E104.4516
G1 X-6.140 Y17.861 E104.5075
G1 X-10.582 Y17.816 E104.6553
G1 X-10.789 Y17.447 E104.6693
G1 X-17.795 Y5.038 E105.1433
G1 X-18.637 Y3.580 E105.1993
G1 X-20.760 Y-0.185 E105.3431
G1 X-20.582 Y-0.485 E105.3547
G1 X-13.341 Y-12.754 E105.8285
G1 X-12.497 Y-14.214 E105.8846
G1 X-12.168 Y-14.772 E105.9061
G0 X-11.179 Y-15.673 F10800
G1 X-10.004 Y-17.660 E105.9829 F1800
G1 X-5.494 Y-17.612 E106.1329
G1 X-3.804 Y-17.614 E106.1892
G1 X10.321 Y-17.480 E106.6590
G1 X10.449 Y-17.252 E106.6677
G1 X17.457 Y-4.840 E107.1417
G1 X18.299 Y-3.382 E107.1977
G1 X20.306 Y0.180 E107.3337
G1 X13.004 Y12.553 E107.8116
G1 X12.161 Y14.012 E107.8676
G1 X10.035 Y17.609 E108.0066
G1 X-4.455 Y17.465 E108.4886
G1 X-6.138 Y17.465 E108.5445
G1 X-10.353 Y17.422 E108.6847
G1 X-17.456 Y4.840 E109.1653
G1 X-18.298 Y3.382 E109.2213
G1 X-20.306 Y-0.180 E109.3573
G1 X-13.004 Y-12.553 E109.8352
G1 X-12.160 Y-14.013 E109.8912
G1 X-11.279 Y-15.503 E109.9488
G0 X-10.291 Y-16.404 F10800
G1 X-9.784 Y-17.262 E109.9819 F1800
G1 X-5.496 Y-17.217 E110.1245
G1 X-3.806 Y-17.218 E110.1808
G1 X10.109 Y-17.056 E110.6436
G1 X17.118 Y-4.642 E111.1178
G1 X17.960 Y-3.184 E111.1738
G1 X19.853 Y0.175 E111.3020
G1 X12.667 Y12.352 E111.7723
G1 X11.824 Y13.811 E111.8283
G1 X9.814 Y17.210 E111.9597
G1 X-4.453 Y17.069 E112.4342
G1 X-6.135 Y17.069 E112.4902
G1 X-10.124 Y17.029 E112.6229
G1 X-17.117 Y4.642 E113.0959
G1 X-17.959 Y3.184 E113.1520
G1 X-19.853 Y-0.175 E113.2802
G1 X-12.667 Y-12.351 E113.7505
G1 X-11.823 Y-13.812 E113.8066
G1 X-10.391 Y-16.234 E113.9002
G0 X-9.465 Y-16.862 F10800
G1 X-5.498 Y-16.821 E114.0321 F1800
G1 X-3.808 Y-16.822 E114.0883
G1 X9.880 Y-16.663 E114.5436
G1 X16.779 Y-4.444 E115.0103
G1 X17.621 Y-2.986 E115.0663
G1 X19.400 Y0.171 E115.1868
G1 X12.330 Y12.151 E115.6495
G1 X11.487 Y13.610 E115.7055
G1 X9.594 Y16.812 E115.8293
G1 X-4.451 Y16.673 E116.2964
G1 X-6.133 Y16.673 E116.3524
G1 X-9.896 Y16.635 E116.4775
G1 X-16.778 Y4.445 E116.9432
G1 X-17.620 Y2.986 E116.9992
G1 X-19.400 Y-0.170 E117.1197
G1 X-12.330 Y-12.150 E117.5824
G1 X-11.486 Y-13.611 E117.6384
G1 X-9.613 Y-16.778 E117.7608
G0 X-8.393 Y-16.455 F10800
G1 X-5.501 Y-16.425 E117.8571 F1800
G1 X-3.810 Y-16.426 E117.9133
G1 X9.651 Y-16.270 E118.3610
G1 X16.440 Y-4.247 E118.8203
G1 X17.282 Y-2.788 E118.8763
G1 X18.947 Y0.166 E118.9891
G1 X11.992 Y11.949 E119.4441
G1 X11.150 Y13.408 E119.5002
G1 X9.373 Y16.414 E119.6163
G1 X-4.449 Y16.277 E120.0761
G1 X-6.131 Y16.277 E120.1320
G1 X-9.667 Y16.242 E120.2496
G1 X-16.438 Y4.247 E120.7078
G1 X-17.281 Y2.788 E120.7638
G1 X-18.947 Y-0.166 E120.8766
G1 X-11.992 Y-11.949 E121.3316
G1 X-11.149 Y-13.409 E121.3877
G1 X-9.342 Y-16.465 E121.5058
G1 X-8.589 Y-16.457 E121.5309
G0 X-7.321 Y-16.048 F10800
G1 X-5.503 Y-16.029 E121.5913 F1800
G1 X-3.813 Y-16.030 E121.6476
G1 X9.422 Y-15.877 E122.0878
G1 X16.101 Y-4.049 E122.5396
G1 X16.943 Y-2.590 E122.5956
G1 X18.493 Y0.161 E122.7006
G1 X11.655 Y11.748 E123.1481
G1 X10.813 Y13.207 E123.2041
G1 X9.152 Y16.016 E123.3127
G1 X-4.447 Y15.881 E123.7650
G1 X-6.129 Y15.881 E123.8210
G1 X-9.439 Y15.848 E123.9311
G1 X-16.100 Y4.049 E124.3817
G1 X-16.942 Y2.590 E124.4377
G1 X-18.494 Y-0.161 E124.5428
G1 X-11.655 Y-11.747 E124.9903
G1 X-10.812 Y-13.208 E125.0463
G1 X-9.122 Y-16.067 E125.1568
G1 X-7.516 Y-16.050 E125.2102
G0 X-6.248 Y-15.641 F10800
G1 X-5.505 Y-15.633 E125.2349 F1800
G1 X-3.815 Y-15.634 E125.2911
G1 X9.193 Y-15.484 E125.7238
G1 X15.761 Y-3.851 E126.1682
G1 X16.603 Y-2.393 E126.2242
G1 X18.040 Y0.157 E126.3215
G1 X11.318 Y11.547 E126.7614
G1 X10.476 Y13.006 E126.8174
G1 X8.931 Y15.618 E126.9184
G1 X-4.445 Y15.485 E127.3633
G1 X-6.127 Y15.485 E127.4192
G1 X-9.211 Y15.454 E127.5218
G1 X-15.761 Y3.851 E127.9650
G1 X-16.603 Y2.392 E128.0210
G1 X-18.040 Y-0.157 E128.1183
G1 X-11.318 Y-11.546 E128.5582
G1 X-10.475 Y-13.007 E128.6143
G1 X-8.901 Y-15.668 E128.7171
G1 X-6.444 Y-15.643 E128.7988
G0 X-5.171 Y-15.237 F10800
G1 X-3.817 Y-15.238 E128.8439 F1800
G1 X8.964 Y-15.091 E129.2690
G1 X15.423 Y-3.653 E129.7059
G1 X16.265 Y-2.195 E129.7619
G1 X17.587 Y0.152 E129.8515
G1 X10.981 Y11.346 E130.2838
G1 X10.139 Y12.804 E130.3398
G1 X8.711 Y15.220 E130.4332
G1 X-4.443 Y15.089 E130.8707
G1 X-6.125 Y15.089 E130.9266
G1 X-8.982 Y15.061 E131.0217
G1 X-15.422 Y3.653 E131.4574
G1 X-16.264 Y2.194 E131.5134
G1 X-17.587 Y-0.152 E131.6030
G1 X-10.981 Y-11.345 E132.0353
G1 X-10.138 Y-12.805 E132.0913
G1 X-8.680 Y-15.270 E132.1866
G1 X-5.507 Y-15.237 E132.2922
G1 X-5.367 Y-15.237 E132.2968
G0 X-4.095 Y-14.842 F10800
G1 X-3.819 Y-14.842 E132.3060 F1800
G1 X8.736 Y-14.697 E132.7236
G1 X15.084 Y-3.455 E133.1530
G1 X15.925 Y-1.997 E133.2090
G1 X17.134 Y0.147 E133.2909
G1 X10.644 Y11.144 E133.7156
G1 X9.802 Y12.603 E133.7716
G1 X8.490 Y14.822 E133.8573
G1 X-4.441 Y14.693 E134.2874
G1 X-6.123 Y14.693 E134.3434
G1 X-8.754 Y14.667 E134.4309
G1 X-15.082 Y3.455 E134.8591
G1 X-15.925 Y1.996 E134.9151
G1 X-17.134 Y-0.147 E134.9970
G1 X-10.644 Y-11.143 E135.4217
G1 X-9.801 Y-12.604 E135.4778
G1 X-8.460 Y-14.872 E135.5654
G1 X-5.509 Y-14.841 E135.6636
G1 X-4.290 Y-14.842 E135.7041
G0 X-3.023 Y-14.437 F10800
G1 X8.507 Y-14.304 E136.0876 F1800
G1 X14.745 Y-3.257 E136.5096
G1 X15.586 Y-1.799 E136.5655
G1 X16.681 Y0.143 E136.6397
G1 X10.307 Y10.943 E137.0568
G1 X9.465 Y12.401 E137.1128
G1 X8.269 Y14.424 E137.1910
G1 X-4.439 Y14.297 E137.6137
G1 X-6.121 Y14.297 E137.6696
G1 X-8.526 Y14.273 E137.7496
G1 X-14.743 Y3.257 E138.1703
G1 X-15.586 Y1.799 E138.2263
G1 X-16.681 Y-0.143 E138.3005
G1 X-10.307 Y-10.942 E138.7176
G1 X-9.464 Y-12.403 E138.7736
G1 X-8.239 Y-14.474 E138.8537
G1 X-5.511 Y-14.445 E138.9444
G1 X-3.822 Y-14.446 E139.0006
G1 X-3.218 Y-14.439 E139.0207
G0 X-1.951 Y-14.029 F10800
G1 X8.278 Y-13.911 E139.3609 F1800
G1 X14.406 Y-3.059 E139.7754
G1 X15.247 Y-1.601 E139.8314
G1 X16.228 Y0.138 E139.8978
G1 X9.970 Y10.742 E140.3073
G1 X9.128 Y12.200 E140.3633
G1 X8.048 Y14.026 E140.4339
G1 X-4.437 Y13.901 E140.8492
G1 X-6.119 Y13.901 E140.9051
G1 X-8.297 Y13.880 E140.9776
G1 X-14.404 Y3.059 E141.3909
G1 X-15.247 Y1.601 E141.4469
G1 X-16.228 Y-0.138 E141.5133
G1 X-9.970 Y-10.741 E141.9228
G1 X-9.126 Y-12.201 E141.9788
G1 X-8.019 Y-14.075 E142.0513
G1 X-5.513 Y-14.049 E142.1346
G1 X-3.824 Y-14.050 E142.1908
G1 X-2.146 Y-14.031 E142.2466
G0 X-0.879 Y-13.620 F10800
G1 X8.050 Y-13.518 E142.5436 F1800
G1 X14.067 Y-2.861 E142.9506
G1 X14.908 Y-1.404 E143.0066
G1 X15.774 Y0.133 E143.0653
G1 X9.633 Y10.540 E143.4672
G1 X8.791 Y11.998 E143.5232
G1 X7.828 Y13.628 E143.5862
G1 X-4.435 Y13.505 E143.9940
G1 X-6.117 Y13.505 E144.0500
G1 X-8.069 Y13.486 E144.1149
G1 X-14.065 Y2.861 E144.5207
G1 X-14.908 Y1.403 E144.5767
G1 X-15.775 Y-0.133 E144.6354
G1 X-9.633 Y-10.539 E145.0373
G1 X-8.789 Y-12.000 E145.0933
G1 X-7.798 Y-13.677 E145.1581
G1 X-5.515 Y-13.653 E145.2341
G1 X-3.826 Y-13.654 E145.2902
G1 X-1.074 Y-13.623 E145.3818
G0 X0.193 Y-13.212 F10800
G1 X7.821 Y-13.125 E145.6355 F1800
G1 X13.728 Y-2.663 E146.0351
G1 X14.569 Y-1.206 E146.0911
G1 X15.321 Y0.129 E146.1420
G1 X9.296 Y10.339 E146.5363
G1 X8.454 Y11.797 E146.5923
G1 X7.607 Y13.230 E146.6477
G1 X-4.433 Y13.110 E147.0482
G1 X-6.115 Y13.110 E147.1041
G1 X-7.840 Y13.092 E147.1615
G1 X-13.726 Y2.663 E147.5598
G1 X-14.569 Y1.205 E147.6158
G1 X-15.321 Y-0.129 E147.6668
G1 X-9.296 Y-10.338 E148.0611
G1 X-8.452 Y-11.799 E148.1171
G1 X-7.577 Y-13.279 E148.1743
G1 X-5.517 Y-13.257 E148.2429
G1 X-3.829 Y-13.258 E148.2990
G1 X-0.003 Y-13.215 E148.4263
G0 X1.265 Y-12.804 F10800
G1 X7.592 Y-12.732 E148.6367 F1800
G1 X13.389 Y-2.465 E149.0289
G1 X14.230 Y-1.008 E149.0848
G1 X14.868 Y0.124 E149.1281
G1 X8.959 Y10.138 E149.5148
G1 X8.117 Y11.596 E149.5708
G1 X7.386 Y12.832 E149.6185
G1 X-4.431 Y12.714 E150.0116
G1 X-6.113 Y12.714 E150.0675
G1 X-7.612 Y12.699 E150.1174
G1 X-13.387 Y2.465 E150.5082
G1 X-14.230 Y1.007 E150.5642
G1 X-14.868 Y-0.124 E150.6074
G1 X-8.959 Y-10.137 E150.9941
G1 X-8.115 Y-11.597 E151.0502
G1 X-7.357 Y-12.881 E151.0998
G1 X-5.519 Y-12.861 E151.1609
G1 X-3.831 Y-12.862 E151.2171
G1 X1.069 Y-12.806 E151.3801
G0 X2.337 Y-12.396 F10800
G1 X7.363 Y-12.339 E151.5472 F1800
G1 X13.050 Y-2.267 E151.9319
G1 X13.891 Y-0.810 E151.9879
G1 X14.415 Y0.120 E152.0234
G1 X8.622 Y9.937 E152.4025
G1 X7.780 Y11.395 E152.4585
G1 X7.165 Y12.434 E152.4987
G1 X-4.429 Y12.318 E152.8843
G1 X-6.111 Y12.318 E152.9403
G1 X-7.383 Y12.305 E152.9826
G1 X-13.048 Y2.267 E153.3659
G1 X-13.890 Y0.809 E153.4219
G1 X-14.415 Y-0.120 E153.4574
G1 X-8.622 Y-9.936 E153.8365
G1 X-7.778 Y-11.396 E153.8926
G1 X-7.136 Y-12.482 E153.9346
G1 X-5.521 Y-12.465 E153.9883
G1 X-3.833 Y-12.466 E154.0445
G1 X2.141 Y-12.398 E154.2432
G0 X3.409 Y-11.988 F10800
G1 X7.135 Y-11.946 E154.3671 F1800
G1 X12.711 Y-2.069 E154.7443
G1 X13.552 Y-0.612 E154.8003
G1 X13.962 Y0.115 E154.8280
G1 X8.285 Y9.735 E155.1996
G1 X7.443 Y11.193 E155.2556
G1 X6.945 Y12.036 E155.2881
G1 X-4.427 Y11.922 E155.6664
G1 X-6.109 Y11.922 E155.7223
G1 X-7.155 Y11.912 E155.7571
G1 X-12.709 Y2.069 E156.1330
G1 X-13.551 Y0.611 E156.1890
G1 X-13.962 Y-0.116 E156.2168
G1 X-8.285 Y-9.734 E156.5882
G1 X-7.441 Y-11.195 E156.6443
G1 X-6.915 Y-12.084 E156.6787
G1 X-5.523 Y-12.069 E156.7250
G1 X-3.835 Y-12.070 E156.7811
G1 X3.213 Y-11.990 E157.0156
G0 X4.481 Y-11.580 F10800
G1 X6.906 Y-11.552 E157.0962 F1800
G1 X12.372 Y-1.871 E157.4660
G1 X13.213 Y-0.415 E157.5219
G1 X13.509 Y0.111 E157.5420
G1 X7.947 Y9.534 E157.9059
G1 X7.106 Y10.992 E157.9619
G1 X6.724 Y11.638 E157.9869
G1 X-4.425 Y11.526 E158.3577
G1 X-6.107 Y11.526 E158.4137
G1 X-6.926 Y11.518 E158.4409
G1 X-12.370 Y1.871 E158.8093
G1 X-13.212 Y0.413 E158.8653
G1 X-13.509 Y-0.111 E158.8854
G1 X-7.947 Y-9.533 E159.2492
G1 X-7.104 Y-10.993 E159.3053
G1 X-6.695 Y-11.686 E159.3321
G1 X-5.525 Y-11.673 E159.3710
G1 X-3.837 Y-11.675 E159.4271
G1 X4.285 Y-11.582 E159.6973
G0 X5.553 Y-11.172 F10800
G1 X6.677 Y-11.159 E159.7347 F1800
G1 X12.033 Y-1.673 E160.0970
G1 X13.055 Y0.106 E160.1652
G1 X7.610 Y9.333 E160.5216
G1 X6.769 Y10.791 E160.5776
G1 X6.503 Y11.240 E160.5949
G1 X-4.423 Y11.130 E160.9583
G1 X-6.106 Y11.130 E161.0143
G1 X-6.698 Y11.124 E161.0340
G1 X-12.031 Y1.673 E161.3950
G1 X-13.055 Y-0.107 E161.4633
G1 X-7.610 Y-9.332 E161.8195
G1 X-6.767 Y-10.792 E161.8756
G1 X-6.474 Y-11.287 E161.8948
G1 X-5.527 Y-11.277 E161.9263
G1 X-3.839 Y-11.279 E161.9824
G1 X5.358 Y-11.174 E162.2883
G0 X6.497 Y-10.680 F10800
G1 X11.694 Y-1.475 E162.6399 F1800
G1 X12.601 Y0.103 E162.7004
G1 X7.273 Y9.132 E163.0491
G1 X6.282 Y10.842 E163.1149
G1 X-4.421 Y10.734 E163.4708
G1 X-6.469 Y10.730 E163.5390
G1 X-11.692 Y1.475 E163.8924
G1 X-12.601 Y-0.105 E163.9531
G1 X-7.273 Y-9.130 E164.3017
G1 X-6.253 Y-10.889 E164.3693
G1 X-5.529 Y-10.881 E164.3934
G1 X-3.841 Y-10.883 E164.4495
G1 X6.351 Y-10.767 E164.7885
G0 X6.691 Y-9.538 F10800
G1 X11.355 Y-1.278 E165.1041 F1800
G1 X12.147 Y0.100 E165.1569
G1 X6.936 Y8.930 E165.4979
G1 X6.059 Y10.444 E165.5561
G1 X-4.418 Y10.338 E165.9046
G1 X-6.242 Y10.335 E165.9653
G1 X-11.353 Y1.278 E166.3112
G1 X-12.147 Y-0.102 E166.3641
G1 X-6.936 Y-8.929 E166.7050
G1 X-6.031 Y-10.491 E166.7651
G1 X-5.531 Y-10.485 E166.7817
G1 X-3.843 Y-10.487 E166.8378
G1 X6.220 Y-10.372 E167.1726
G1 X6.594 Y-9.710 E167.1979
G0 X6.885 Y-8.396 F10800
G1 X11.016 Y-1.080 E167.4773 F1800
G1 X11.692 Y0.098 E167.5225
G1 X6.599 Y8.728 E167.8558
G1 X5.836 Y10.046 E167.9065
G1 X-4.416 Y9.942 E168.2475
G1 X-6.014 Y9.939 E168.3006
G1 X-11.014 Y1.080 E168.6390
G1 X-11.692 Y-0.099 E168.6842
G1 X-6.600 Y-8.727 E169.0174
G1 X-5.808 Y-10.093 E169.0699
G1 X-3.845 Y-10.091 E169.1352
G1 X5.991 Y-9.979 E169.4624
G1 X6.788 Y-8.568 E169.5163
G0 X7.079 Y-7.255 F10800
G1 X10.676 Y-0.883 E169.7597 F1800
G1 X11.238 Y0.095 E169.7972
G1 X6.262 Y8.527 E170.1228
G1 X5.613 Y9.648 E170.1659
G1 X-4.414 Y9.546 E170.4994
G1 X-5.787 Y9.544 E170.5451
G1 X-10.675 Y0.882 E170.8759
G1 X-11.238 Y-0.096 E170.9135
G1 X-6.263 Y-8.525 E171.2390
G1 X-5.584 Y-9.697 E171.2840
G1 X-3.847 Y-9.695 E171.3418
G1 X5.763 Y-9.585 E171.6614
G1 X6.982 Y-7.427 E171.7439
G0 X7.273 Y-6.113 F10800
G1 X10.337 Y-0.685 E171.9512 F1800
G1 X10.784 Y0.092 E171.9810
G1 X5.925 Y8.326 E172.2990
G1 X5.390 Y9.250 E172.3345
G1 X-4.411 Y9.150 E172.6605
G1 X-5.559 Y9.149 E172.6987
G1 X-10.336 Y0.685 E173.0220
G1 X-10.784 Y-0.094 E173.0519
G1 X-5.926 Y-8.324 E173.3697
G1 X-5.359 Y-9.301 E173.4073
G1 X-3.850 Y-9.299 E173.4575
G1 X5.534 Y-9.192 E173.7696
G1 X7.175 Y-6.285 E173.8806
G0 X7.466 Y-4.972 F10800
G1 X9.998 Y-0.488 E174.0519 F1800
G1 X10.330 Y0.090 E174.0740
G1 X5.588 Y8.124 E174.3843
G1 X5.167 Y8.852 E174.4123
G1 X-4.409 Y8.754 E174.7308
G1 X-5.331 Y8.753 E174.7615
G1 X-9.997 Y0.487 E175.0772
G1 X-10.329 Y-0.091 E175.0994
G1 X-5.589 Y-8.122 E175.4095
G1 X-5.136 Y-8.904 E175.4396
G1 X-3.853 Y-8.903 E175.4823
G1 X5.306 Y-8.799 E175.7869
G1 X7.369 Y-5.144 E175.9265
G0 X7.660 Y-3.830 F10800
G1 X9.659 Y-0.290 E176.0617 F1800
G1 X9.876 Y0.087 E176.0762
G1 X5.251 Y7.923 E176.3788
G1 X4.944 Y8.454 E176.3992
G1 X-4.407 Y8.358 E176.7103
G1 X-5.104 Y8.357 E176.7335
G1 X-9.658 Y0.289 E177.0416
G1 X-9.875 Y-0.089 E177.0561
G1 X-5.252 Y-7.921 E177.3586
G1 X-4.911 Y-8.508 E177.3812
G1 X-3.855 Y-8.507 E177.4163
G1 X5.077 Y-8.405 E177.7134
G1 X7.563 Y-4.002 E177.8816
G0 X7.854 Y-2.689 F10800
G1 X9.320 Y-0.093 E177.9807 F1800
G1 X9.421 Y0.084 E177.9875
G1 X4.914 Y7.722 E178.2825
G1 X4.720 Y8.056 E178.2953
G1 X-4.404 Y7.962 E178.5989
G1 X-4.877 Y7.962 E178.6146
G1 X-9.318 Y0.091 E178.9151
G1 X-9.421 Y-0.086 E178.9220
G1 X-4.915 Y-7.719 E179.2168
G1 X-4.687 Y-8.112 E179.2319
G1 X-3.858 Y-8.111 E179.2595
G1 X4.848 Y-8.012 E179.5490
G1 X7.757 Y-2.861 E179.7458
G0 X8.048 Y-1.547 F10800
G1 X8.967 Y0.081 E179.8080 F1800
G1 X4.577 Y7.520 E180.0953
G1 X4.497 Y7.658 E180.1006
G1 X-4.402 Y7.566 E180.3966
G1 X-4.649 Y7.566 E180.4048
G1 X-8.966 Y-0.083 E180.6970
G1 X-4.579 Y-7.518 E180.9841
G1 X-4.464 Y-7.716 E180.9917
G1 X-3.860 Y-7.715 E181.0118
G1 X4.620 Y-7.618 E181.2938
G1 X7.951 Y-1.719 E181.5192
G0 X8.242 Y-0.406 F10800
G1 X8.514 Y0.077 E181.5376 F1800
G1 X4.275 Y7.259 E181.8150
G1 X-4.400 Y7.170 E182.1035
G1 X-8.513 Y-0.079 E182.3808
G1 X-4.240 Y-7.320 E182.6604
G1 X-3.863 Y-7.319 E182.6729
G1 X4.391 Y-7.225 E182.9475
G1 X8.145 Y-0.577 E183.2014
G0 X7.907 Y0.332 F10800
G1 X4.054 Y6.861 E183.4536 F1800
G1 X-4.172 Y6.777 E183.7272
G1 X-8.060 Y-0.075 E183.9892
G1 X-4.018 Y-6.924 E184.2537
G1 X-3.865 Y-6.923 E184.2588
G1 X4.162 Y-6.832 E184.5258
G1 X8.061 Y0.072 E184.7895
G1 X8.008 Y0.162 E184.7929
G0 X7.020 Y1.064 F10800
G1 X3.833 Y6.463 E185.0015 F1800
G1 X-3.944 Y6.383 E185.2601
G1 X-7.606 Y-0.071 E185.5070
G1 X-3.796 Y-6.527 E185.7563
G1 X3.934 Y-6.439 E186.0134
G1 X7.607 Y0.068 E186.2619
G1 X7.120 Y0.894 E186.2938
G0 X6.132 Y1.796 F10800
G1 X3.612 Y6.065 E186.4587 F1800
G1 X-3.716 Y5.990 E186.7024
G1 X-7.153 Y-0.067 E186.9341
G1 X-3.575 Y-6.128 E187.1682
G1 X3.705 Y-6.045 E187.4103
G1 X7.154 Y0.063 E187.6437
G1 X6.232 Y1.626 E187.7040
G0 X5.244 Y2.527 F10800
G1 X3.391 Y5.667 E187.8252 F1800
G1 X-3.488 Y5.596 E188.0541
G1 X-6.699 Y-0.063 E188.2705
G1 X-3.355 Y-5.730 E188.4893
G1 X3.477 Y-5.652 E188.7166
G1 X6.701 Y0.059 E188.9347
G1 X5.344 Y2.358 E189.0235
G0 X4.356 Y3.259 F10800
G1 X3.170 Y5.269 E189.1011 F1800
G1 X-3.260 Y5.203 E189.3149
G1 X-6.245 Y-0.059 E189.5162
G1 X-3.134 Y-5.332 E189.7198
G1 X3.248 Y-5.259 E189.9321
G1 X6.248 Y0.054 E190.1350
G1 X4.457 Y3.089 E190.2522
G0 X3.469 Y3.991 F10800
G1 X2.949 Y4.871 E190.2862 F1800
G1 X-3.032 Y4.810 E190.4852
G1 X-5.792 Y-0.055 E190.6712
G1 X-2.913 Y-4.933 E190.8596
G1 X3.019 Y-4.866 E191.0569
G1 X5.795 Y0.050 E191.2447
G1 X3.569 Y3.821 E191.3903
G0 X2.630 Y4.472 F10800
G1 X-2.804 Y4.416 E191.5711 F1800
G1 X-5.338 Y-0.051 E191.7419
G1 X-2.692 Y-4.535 E191.9150
G1 X2.791 Y-4.473 E192.0974
G1 X5.341 Y0.046 E192.2700
G1 X2.778 Y4.388 E192.4377
G0 X1.558 Y4.066 F10800
G1 X-2.575 Y4.023 E192.5752 F1800
G1 X-4.885 Y-0.048 E192.7309
G1 X-2.472 Y-4.137 E192.8888
G1 X2.562 Y-4.079 E193.0562
G1 X4.888 Y0.041 E193.2136
G1 X2.507 Y4.075 E193.3694
G1 X1.754 Y4.068 E193.3945
G0 X0.485 Y3.659 F10800
G1 X-2.347 Y3.629 E193.4887 F1800
G1 X-4.431 Y-0.044 E193.6292
G1 X-2.251 Y-3.739 E193.7719
G1 X2.333 Y-3.686 E193.9243
G1 X4.435 Y0.037 E194.0665
G1 X2.286 Y3.677 E194.2071
G1 X0.681 Y3.661 E194.2605
G0 X-0.587 Y3.252 F10800
G1 X-2.119 Y3.236 E194.3115 F1800
G1 X-3.978 Y-0.040 E194.4368
G1 X-2.030 Y-3.340 E194.5642
G1 X2.104 Y-3.293 E194.7017
G1 X3.982 Y0.032 E194.8288
G1 X2.065 Y3.279 E194.9542
G1 X-0.391 Y3.254 E195.0359
G0 X-1.659 Y2.845 F10800
G1 X-1.891 Y2.843 E195.0436 F1800
G1 X-3.524 Y-0.036 E195.1536
G1 X-1.809 Y-2.942 E195.2659
G1 X1.876 Y-2.900 E195.3884
G1 X3.529 Y0.028 E195.5003
G1 X1.844 Y2.881 E195.6105
G1 X-1.464 Y2.847 E195.7205
G0 X-1.972 Y1.905 F10800
G1 X-3.071 Y-0.032 E195.7946 F1800
G1 X-1.589 Y-2.544 E195.8916
G1 X1.647 Y-2.507 E195.9992
G1 X3.075 Y0.024 E196.0959
G1 X1.623 Y2.483 E196.1909
G1 X-1.663 Y2.449 E196.3002
G1 X-1.875 Y2.076 E196.3144
G0 X-2.168 Y0.764 F10800
G1 X-2.617 Y-0.028 E196.3447 F1800
G1 X-1.368 Y-2.146 E196.4265
G1 X1.418 Y-2.114 E196.5191
G1 X2.622 Y0.019 E196.6006
G1 X1.402 Y2.085 E196.6804
G1 X-1.435 Y2.056 E196.7747
G1 X-2.071 Y0.935 E196.8176
G0 X-2.114 Y-0.109 F10800
G1 X-1.147 Y-1.747 E196.8809 F1800
G1 X1.189 Y-1.720 E196.9586
G1 X2.169 Y0.015 E197.0248
G1 X1.181 Y1.687 E197.0894
G1 X-1.207 Y1.663 E197.1689
G1 X-2.115 Y0.062 E197.2301
G0 X-1.226 Y-0.841 F10800
G1 X-0.926 Y-1.349 E197.2497 F1800
G1 X0.960 Y-1.327 E197.3124
G1 X1.715 Y0.010 E197.3635
G1 X0.960 Y1.289 E197.4129
G1 X-0.979 Y1.269 E197.4774
G1 X-1.710 Y-0.020 E197.5267
G1 X-1.326 Y-0.671 E197.5519
G0 X-0.439 Y-0.948 F10800
G1 X0.731 Y-0.934 E197.5908 F1800
G1 X1.262 Y0.006 E197.6267
G1 X0.739 Y0.891 E197.6609
G1 X-0.751 Y0.876 E197.7105
G1 X-1.257 Y-0.016 E197.7446
G1 X-0.705 Y-0.951 E197.7807
G1 X-0.635 Y-0.950 E197.7830
G0 X0.551 Y-0.455 F10800
G1 X0.809 Y0.001 E197.8005 F1800
G1 X0.519 Y0.493 E197.8194
G1 X-0.523 Y0.482 E197.8541
G1 X-0.803 Y-0.012 E197.8730
G1 X-0.485 Y-0.552 E197.8939
G1 X0.405 Y-0.542 E197.9234
G0 X0.200 Y0.094 F10800
G1 X-0.294 Y0.089 E197.9399 F1800
G1 X-0.350 Y-0.009 E197.9436
G1 X-0.264 Y-0.154 E197.9492
G1 X0.274 Y-0.148 E197.9671
G1 X0.356 Y-0.003 E197.9726
G1 X0.356 Y-0.003
; ------------------------------------
; Layer #2
; ------------------------------------
G21 ; mm
G90 ; abs
G92 E0 ; reset extr
M106 S0
;segType:Perimeter
G0 F4800 E-1.0000
G0 F2400 Z0.600
G0 X-29.290 Y-0.250 F10800
G0 F4800 E0.0000
G1 X-29.882 Y-0.636 E0.0235 F2159
G1 X-29.393 Y-1.403 E0.0538
G1 X-28.803 Y-2.301 E0.0895
G1 X-27.414 Y-4.589 E0.1785
G1 X-26.054 Y-6.884 E0.2672
G1 X-21.573 Y-14.477 E0.5605
G1 X-19.623 Y-17.669 E0.6849
G1 X-19.153 Y-18.368 E0.7129
G1 X-18.287 Y-19.801 E0.7686
G1 X-16.043 Y-23.596 E0.9152
G1 X-14.959 Y-25.414 E0.9856
G1 X-14.450 Y-26.197 E1.0167
G1 X-13.475 Y-26.155 E1.0492
G1 X-11.333 Y-26.129 E1.1204
G1 X-6.924 Y-26.085 E1.2671
G1 X-5.266 Y-26.049 E1.3222
G1 X-4.431 Y-25.991 E1.3501
G1 X-0.670 Y-25.901 E1.4752
G1 X8.146 Y-25.815 E1.7684
G1 X10.804 Y-25.784 E1.8569
G1 X13.459 Y-25.722 E1.9452
G1 X15.465 Y-25.611 E2.0120
G1 X15.913 Y-24.750 E2.0443
G1 X16.396 Y-23.790 E2.0800
G1 X17.683 Y-21.443 E2.1691
G1 X18.990 Y-19.119 E2.2578
G1 X23.326 Y-11.441 E2.5510
G1 X25.115 Y-8.156 E2.6754
G1 X25.486 Y-7.400 E2.7035
G1 X26.294 Y-5.933 E2.7592
G1 X28.458 Y-2.093 E2.9058
G1 X29.491 Y-0.245 E2.9762
G1 X29.914 Y0.586 E3.0072
G1 X29.393 Y1.403 E3.0394
G1 X28.803 Y2.301 E3.0751
G1 X27.414 Y4.589 E3.1642
G1 X26.054 Y6.884 E3.2529
G1 X21.573 Y14.477 E3.5461
G1 X19.623 Y17.669 E3.6705
G1 X19.153 Y18.368 E3.6986
G1 X18.287 Y19.801 E3.7543
G1 X16.043 Y23.596 E3.9009
G1 X14.959 Y25.414 E3.9713
G1 X14.450 Y26.197 E4.0023
G1 X13.479 Y26.155 E4.0347
G1 X12.406 Y26.093 E4.0704
G1 X9.730 Y26.034 E4.1594
G1 X7.064 Y26.004 E4.2481
G1 X-1.753 Y25.920 E4.5414
G1 X-5.492 Y25.827 E4.6658
G1 X-6.333 Y25.770 E4.6938
G1 X-8.007 Y25.736 E4.7495
G1 X-12.415 Y25.690 E4.8961
G1 X-14.532 Y25.661 E4.9665
G1 X-15.465 Y25.611 E4.9976
G1 X-15.913 Y24.750 E5.0299
G1 X-16.396 Y23.790 E5.0657
G1 X-17.683 Y21.443 E5.1547
G1 X-18.990 Y19.119 E5.2434
G1 X-23.326 Y11.441 E5.5367
G1 X-25.115 Y8.156 E5.6611
G1 X-25.486 Y7.400 E5.6891
G1 X-26.294 Y5.933 E5.7448
G1 X-28.458 Y2.093 E5.8914
G1 X-29.491 Y0.245 E5.9618
G1 X-29.887 Y-0.533 E5.9908
G1 X-29.260 Y-0.859
;segType:Loop
G0 X-29.004 Y-1.264 F10800
G1 X-28.466 Y-2.083 E6.0234 F3600
G1 X-27.072 Y-4.380 E6.1128
G1 X-25.711 Y-6.676 E6.2016
G1 X-21.231 Y-14.268 E6.4948
G1 X-19.287 Y-17.449 E6.6187
G1 X-18.817 Y-18.149 E6.6468
G1 X-17.945 Y-19.592 E6.7029
G1 X-15.700 Y-23.387 E6.8495
G1 X-14.621 Y-25.199 E6.9197
G1 X-14.240 Y-25.783 E6.9429
G1 X-13.486 Y-25.750 E6.9680
G1 X-11.337 Y-25.725 E7.0395
G1 X-6.930 Y-25.680 E7.1860
G1 X-5.284 Y-25.645 E7.2408
G1 X-4.450 Y-25.587 E7.2686
G1 X-0.677 Y-25.496 E7.3941
G1 X8.142 Y-25.411 E7.6875
G1 X10.797 Y-25.380 E7.7758
G1 X13.444 Y-25.318 E7.8638
G1 X15.217 Y-25.220 E7.9229
G1 X15.558 Y-24.564 E7.9475
G1 X16.043 Y-23.600 E7.9834
G1 X17.334 Y-21.245 E8.0727
G1 X18.643 Y-18.918 E8.1615
G1 X22.977 Y-11.243 E8.4547
G1 X24.761 Y-7.968 E8.5787
G1 X25.132 Y-7.211 E8.6068
G1 X25.945 Y-5.734 E8.6628
G1 X28.110 Y-1.893 E8.8095
G1 X29.139 Y-0.053 E8.8796
G1 X29.452 Y0.563 E8.9026
G1 X29.058 Y1.182 E8.9270
G1 X28.466 Y2.083 E8.9629
G1 X27.072 Y4.380 E9.0522
G1 X25.711 Y6.676 E9.1410
G1 X21.231 Y14.268 E9.4342
G1 X19.287 Y17.449 E9.5582
G1 X18.817 Y18.149 E9.5862
G1 X17.945 Y19.592 E9.6423
G1 X15.700 Y23.387 E9.7890
G1 X14.621 Y25.198 E9.8591
G1 X14.240 Y25.783 E9.8823
G1 X13.499 Y25.751 E9.9070
G1 X12.422 Y25.689 E9.9429
G1 X9.737 Y25.629 E10.0322
G1 X7.068 Y25.599 E10.1210
G1 X-1.747 Y25.515 E10.4141
G1 X-5.474 Y25.423 E10.5382
G1 X-6.316 Y25.366 E10.5662
G1 X-8.001 Y25.331 E10.6223
G1 X-12.410 Y25.286 E10.7689
G1 X-14.518 Y25.256 E10.8391
G1 X-15.217 Y25.219 E10.8623
G1 X-15.558 Y24.564 E10.8869
G1 X-16.043 Y23.600 E10.9228
G1 X-17.334 Y21.245 E11.0121
G1 X-18.643 Y18.918 E11.1009
G1 X-22.977 Y11.243 E11.3941
G1 X-24.761 Y7.968 E11.5181
G1 X-25.132 Y7.211 E11.5462
G1 X-25.945 Y5.734 E11.6022
G1 X-28.110 Y1.893 E11.7489
G1 X-29.139 Y0.053 E11.8190
G1 X-29.452 Y-0.563 E11.8420
G1 X-29.111 Y-1.098 E11.8631
G0 X-28.081 Y-1.952 F10800
;segType:HShell
G1 X-26.733 Y-4.172 E11.9495 F1800
G1 X-25.371 Y-6.471 E12.0383
G1 X-20.893 Y-14.060 E12.3314
G1 X-18.955 Y-17.231 E12.4551
G1 X-18.485 Y-17.932 E12.4831
G1 X-17.606 Y-19.385 E12.5396
G1 X-15.361 Y-23.181 E12.6863
G1 X-14.286 Y-24.985 E12.7561
G1 X-14.033 Y-25.374 E12.7716
G1 X-13.497 Y-25.350 E12.7894
G1 X-11.342 Y-25.325 E12.8611
G1 X-6.936 Y-25.280 E13.0076
G1 X-5.301 Y-25.245 E13.0620
G1 X-4.468 Y-25.187 E13.0898
G1 X-0.683 Y-25.096 E13.2157
G1 X8.138 Y-25.011 E13.5091
G1 X10.791 Y-24.980 E13.5974
G1 X13.429 Y-24.918 E13.6851
G1 X14.971 Y-24.833 E13.7365
G1 X15.693 Y-23.412 E13.7895
G1 X16.989 Y-21.050 E13.8791
G1 X18.299 Y-18.720 E13.9680
G1 X22.632 Y-11.047 E14.2611
G1 X24.410 Y-7.783 E14.3847
G1 X24.782 Y-7.025 E14.4128
G1 X25.600 Y-5.538 E14.4693
G1 X27.766 Y-1.696 E14.6160
G1 X28.790 Y0.137 E14.6858
G1 X28.996 Y0.541 E14.7009
G1 X28.132 Y1.868 E14.7535
G1 X26.733 Y4.172 E14.8432
G1 X25.371 Y6.471 E14.9320
G1 X20.893 Y14.060 E15.2251
G1 X18.955 Y17.231 E15.3488
G1 X18.484 Y17.932 E15.3768
G1 X17.606 Y19.385 E15.4333
G1 X15.361 Y23.181 E15.5800
G1 X14.286 Y24.985 E15.6498
G1 X14.033 Y25.374 E15.6653
G1 X12.437 Y25.289 E15.7184
G1 X9.744 Y25.229 E15.8080
G1 X7.072 Y25.199 E15.8969
G1 X-1.740 Y25.115 E16.1900
G1 X-5.456 Y25.023 E16.3136
G1 X-6.299 Y24.966 E16.3417
G1 X-7.995 Y24.931 E16.3981
G1 X-12.405 Y24.885 E16.5448
G1 X-14.505 Y24.857 E16.6147
G1 X-14.972 Y24.832 E16.6302
G1 X-15.693 Y23.412 E16.6832
G1 X-16.989 Y21.049 E16.7728
G1 X-18.299 Y18.720 E16.8617
G1 X-22.632 Y11.047 E17.1548
G1 X-24.410 Y7.783 E17.2784
G1 X-24.782 Y7.025 E17.3065
G1 X-25.600 Y5.538 E17.3630
G1 X-27.766 Y1.695 E17.5097
G1 X-28.791 Y-0.137 E17.5795
G1 X-28.996 Y-0.541 E17.5945
G1 X-28.186 Y-1.785 E17.6439
G0 X-27.184 Y-2.673 F10800
G1 X-26.399 Y-3.967 E17.6943 F1800
G1 X-25.035 Y-6.267 E17.7832
G1 X-20.558 Y-13.854 E18.0762
G1 X-18.626 Y-17.016 E18.1995
G1 X-18.155 Y-17.718 E18.2276
G1 X-17.271 Y-19.180 E18.2844
G1 X-15.025 Y-22.978 E18.4312
G1 X-13.955 Y-24.774 E18.5007
G1 X-13.828 Y-24.969 E18.5084
G1 X-13.507 Y-24.954 E18.5191
G1 X-11.346 Y-24.929 E18.5910
G1 X-6.943 Y-24.884 E18.7375
G1 X-5.319 Y-24.850 E18.7915
G1 X-4.486 Y-24.792 E18.8193
G1 X-0.690 Y-24.701 E18.9455
G1 X8.134 Y-24.615 E19.2390
G1 X10.784 Y-24.584 E19.3272
G1 X13.413 Y-24.523 E19.4147
G1 X14.726 Y-24.450 E19.4584
G1 X15.348 Y-23.226 E19.5041
G1 X16.648 Y-20.856 E19.5940
G1 X17.959 Y-18.524 E19.6829
G1 X22.290 Y-10.853 E19.9759
G1 X24.063 Y-7.599 E20.0992
G1 X24.435 Y-6.841 E20.1273
G1 X25.259 Y-5.344 E20.1841
G1 X27.426 Y-1.500 E20.3308
G1 X28.446 Y0.325 E20.4004
G1 X28.543 Y0.516 E20.4075
G1 X27.802 Y1.656 E20.4527
G1 X26.399 Y3.966 E20.5427
G1 X25.035 Y6.267 E20.6316
G1 X20.558 Y13.855 E20.9246
G1 X18.627 Y17.016 E21.0478
G1 X18.155 Y17.717 E21.0760
G1 X17.271 Y19.181 E21.1328
G1 X15.026 Y22.978 E21.2795
G1 X13.955 Y24.774 E21.3491
G1 X13.829 Y24.967 E21.3567
G1 X12.452 Y24.893 E21.4026
G1 X9.750 Y24.834 E21.4925
G1 X7.076 Y24.803 E21.5814
G1 X-1.733 Y24.719 E21.8745
G1 X-5.438 Y24.627 E21.9977
G1 X-6.282 Y24.570 E22.0258
G1 X-7.989 Y24.536 E22.0826
G1 X-12.401 Y24.490 E22.2294
G1 X-14.492 Y24.461 E22.2990
G1 X-14.726 Y24.448 E22.3068
G1 X-15.348 Y23.225 E22.3524
G1 X-16.648 Y20.855 E22.4423
G1 X-17.959 Y18.524 E22.5312
G1 X-22.291 Y10.854 E22.8242
G1 X-24.063 Y7.599 E22.9475
G1 X-24.435 Y6.841 E22.9756
G1 X-25.259 Y5.343 E23.0324
G1 X-27.426 Y1.500 E23.1792
G1 X-28.446 Y-0.325 E23.2487
G1 X-28.543 Y-0.516 E23.2559
G1 X-27.802 Y-1.656 E23.3011
G1 X-27.287 Y-2.504 E23.3341
G0 X-26.287 Y-3.394 F10800
G1 X-26.064 Y-3.762 E23.3484 F1800
G1 X-24.699 Y-6.064 E23.4374
G1 X-20.224 Y-13.649 E23.7304
G1 X-18.297 Y-16.801 E23.8532
G1 X-17.826 Y-17.503 E23.8813
G1 X-16.936 Y-18.975 E23.9386
G1 X-14.690 Y-22.774 E24.0853
G1 X-13.623 Y-24.563 E24.1546
G1 X-11.350 Y-24.533 E24.2302
G1 X-6.949 Y-24.489 E24.3766
G1 X-5.336 Y-24.455 E24.4303
G1 X-4.504 Y-24.397 E24.4580
G1 X-0.696 Y-24.305 E24.5847
G1 X8.129 Y-24.219 E24.8783
G1 X10.778 Y-24.188 E24.9663
G1 X13.398 Y-24.127 E25.0535
G1 X14.480 Y-24.067 E25.0896
G1 X15.003 Y-23.039 E25.1279
G1 X16.306 Y-20.662 E25.2181
G1 X17.618 Y-18.328 E25.3072
G1 X21.949 Y-10.659 E25.6001
G1 X23.716 Y-7.416 E25.7229
G1 X24.089 Y-6.656 E25.7511
G1 X24.918 Y-5.150 E25.8083
G1 X27.085 Y-1.305 E25.9551
G1 X28.090 Y0.493 E26.0236
G1 X27.471 Y1.443 E26.0613
G1 X26.064 Y3.761 E26.1515
G1 X24.699 Y6.064 E26.2405
G1 X20.223 Y13.649 E26.5334
G1 X18.298 Y16.800 E26.6563
G1 X17.826 Y17.503 E26.6844
G1 X16.936 Y18.976 E26.7417
G1 X14.690 Y22.774 E26.8884
G1 X13.626 Y24.559 E26.9575
G1 X12.466 Y24.498 E26.9961
G1 X9.757 Y24.438 E27.0863
G1 X7.080 Y24.407 E27.1753
G1 X-1.727 Y24.324 E27.4683
G1 X-5.420 Y24.232 E27.5911
G1 X-6.265 Y24.174 E27.6193
G1 X-7.983 Y24.140 E27.6765
G1 X-12.396 Y24.094 E27.8233
G1 X-14.481 Y24.065 E27.8926
G1 X-15.003 Y23.039 E27.9309
G1 X-16.307 Y20.661 E28.0211
G1 X-17.618 Y18.328 E28.1101
G1 X-21.949 Y10.660 E28.4030
G1 X-23.716 Y7.416 E28.5259
G1 X-24.089 Y6.656 E28.5540
G1 X-24.918 Y5.149 E28.6112
G1 X-27.085 Y1.304 E28.7580
G1 X-28.090 Y-0.493 E28.8265
G1 X-27.471 Y-1.443 E28.8642
G1 X-26.390 Y-3.225 E28.9336
G0 X-25.394 Y-4.121 F10800
G1 X-24.363 Y-5.861 E29.0008 F1800
G1 X-19.889 Y-13.443 E29.2936
G1 X-17.969 Y-16.586 E29.4161
G1 X-17.497 Y-17.289 E29.4443
G1 X-16.601 Y-18.771 E29.5019
G1 X-14.354 Y-22.571 E29.6487
G1 X-13.404 Y-24.165 E29.7104
G1 X-11.355 Y-24.138 E29.7786
G1 X-6.955 Y-24.093 E29.9249
G1 X-5.354 Y-24.059 E29.9782
G1 X-4.522 Y-24.001 E30.0059
G1 X-0.703 Y-23.909 E30.1330
G1 X8.125 Y-23.824 E30.4266
G1 X10.771 Y-23.793 E30.5146
G1 X13.383 Y-23.731 E30.6015
G1 X14.235 Y-23.684 E30.6299
G1 X14.658 Y-22.852 E30.6609
G1 X15.965 Y-20.468 E30.7514
G1 X17.278 Y-18.132 E30.8405
G1 X21.607 Y-10.466 E31.1334
G1 X23.369 Y-7.232 E31.2558
G1 X23.742 Y-6.472 E31.2840
G1 X24.577 Y-4.956 E31.3416
G1 X26.745 Y-1.110 E31.4884
G1 X27.631 Y0.477 E31.5489
G1 X27.141 Y1.231 E31.5788
G1 X25.729 Y3.556 E31.6692
G1 X24.363 Y5.861 E31.7584
G1 X19.889 Y13.444 E32.0512
G1 X17.969 Y16.585 E32.1736
G1 X17.497 Y17.289 E32.2018
G1 X16.601 Y18.771 E32.2594
G1 X14.355 Y22.570 E32.4062
G1 X13.412 Y24.151 E32.4675
G1 X12.481 Y24.102 E32.4985
G1 X9.763 Y24.042 E32.5889
G1 X7.084 Y24.012 E32.6780
G1 X-1.720 Y23.928 E32.9708
G1 X-5.402 Y23.836 E33.0934
G1 X-6.248 Y23.779 E33.1215
G1 X-7.977 Y23.744 E33.1791
G1 X-12.392 Y23.698 E33.3259
G1 X-14.241 Y23.673 E33.3874
G1 X-14.658 Y22.853 E33.4180
G1 X-15.965 Y20.468 E33.5085
G1 X-17.278 Y18.132 E33.5976
G1 X-21.608 Y10.466 E33.8904
G1 X-23.369 Y7.232 E34.0129
G1 X-23.742 Y6.472 E34.0411
G1 X-24.577 Y4.955 E34.0987
G1 X-26.745 Y1.109 E34.2455
G1 X-27.632 Y-0.477 E34.3059
G1 X-27.141 Y-1.231 E34.3358
G1 X-25.729 Y-3.556 E34.4263
G1 X-25.495 Y-3.952 E34.4416
G0 X-24.505 Y-4.852 F10800
G1 X-24.027 Y-5.658 E34.4728 F1800
G1 X-19.555 Y-13.238 E34.7655
G1 X-17.640 Y-16.370 E34.8876
G1 X-17.168 Y-17.074 E34.9158
G1 X-16.266 Y-18.566 E34.9738
G1 X-14.019 Y-22.367 E35.1207
G1 X-13.184 Y-23.766 E35.1748
G1 X-11.360 Y-23.742 E35.2355
G1 X-6.962 Y-23.697 E35.3818
G1 X-5.371 Y-23.664 E35.4347
G1 X-4.540 Y-23.606 E35.4624
G1 X-0.710 Y-23.514 E35.5899
G1 X8.121 Y-23.428 E35.8836
G1 X10.764 Y-23.397 E35.9715
G1 X13.368 Y-23.336 E36.0581
G1 X13.989 Y-23.302 E36.0788
G1 X14.312 Y-22.666 E36.1025
G1 X15.623 Y-20.274 E36.1933
G1 X16.938 Y-17.936 E36.2825
G1 X21.266 Y-10.272 E36.5752
G1 X23.022 Y-7.049 E36.6973
G1 X23.396 Y-6.288 E36.7255
G1 X24.236 Y-4.761 E36.7835
G1 X26.405 Y-0.914 E36.9303
G1 X27.173 Y0.461 E36.9828
G1 X26.810 Y1.018 E37.0049
G1 X25.395 Y3.351 E37.0956
G1 X24.027 Y5.658 E37.1848
G1 X19.554 Y13.238 E37.4776
G1 X17.641 Y16.370 E37.5996
G1 X17.168 Y17.074 E37.6278
G1 X16.266 Y18.567 E37.6858
G1 X14.019 Y22.367 E37.8327
G1 X13.198 Y23.744 E37.8860
G1 X12.496 Y23.706 E37.9094
G1 X9.770 Y23.647 E38.0001
G1 X7.088 Y23.616 E38.0893
G1 X-1.713 Y23.532 E38.3820
G1 X-5.384 Y23.441 E38.5041
G1 X-6.230 Y23.383 E38.5324
G1 X-7.972 Y23.349 E38.5903
G1 X-12.387 Y23.302 E38.7371
G1 X-14.000 Y23.280 E38.7908
G1 X-14.312 Y22.666 E38.8137
G1 X-15.624 Y20.274 E38.9045
G1 X-16.938 Y17.936 E38.9937
G1 X-21.266 Y10.273 E39.2864
G1 X-23.022 Y7.049 E39.4085
G1 X-23.396 Y6.288 E39.4367
G1 X-24.236 Y4.760 E39.4947
G1 X-26.405 Y0.914 E39.6415
G1 X-27.173 Y-0.461 E39.6939
G1 X-26.810 Y-1.018 E39.7160
G1 X-25.395 Y-3.351 E39.8068
G1 X-24.606 Y-4.682 E39.8582
G0 X-23.641 Y-5.540 F10800
G1 X-19.220 Y-13.033 E40.1476 F1800
G1 X-17.311 Y-16.155 E40.2693
G1 X-16.839 Y-16.860 E40.2975
G1 X-15.931 Y-18.361 E40.3559
G1 X-13.683 Y-22.163 E40.5028
G1 X-12.965 Y-23.367 E40.5494
G1 X-11.364 Y-23.346 E40.6027
G1 X-6.968 Y-23.302 E40.7489
G1 X-5.389 Y-23.268 E40.8014
G1 X-4.558 Y-23.210 E40.8291
G1 X-0.716 Y-23.118 E40.9569
G1 X8.117 Y-23.032 E41.2508
G1 X10.757 Y-23.001 E41.3386
G1 X13.352 Y-22.940 E41.4249
G1 X13.744 Y-22.919 E41.4380
G1 X13.967 Y-22.480 E41.4543
G1 X15.282 Y-20.080 E41.5453
G1 X16.598 Y-17.740 E41.6346
G1 X20.925 Y-10.078 E41.9273
G1 X22.675 Y-6.865 E42.0490
G1 X23.049 Y-6.103 E42.0772
G1 X23.894 Y-4.567 E42.1355
G1 X26.064 Y-0.719 E42.2825
G1 X26.715 Y0.446 E42.3268
G1 X26.480 Y0.806 E42.3411
G1 X25.060 Y3.145 E42.4321
G1 X23.691 Y5.455 E42.5215
G1 X19.220 Y13.033 E42.8141
G1 X17.312 Y16.155 E42.9358
G1 X16.838 Y16.860 E42.9640
G1 X15.931 Y18.362 E43.0224
G1 X13.683 Y22.163 E43.1693
G1 X12.984 Y23.336 E43.2147
G1 X12.510 Y23.310 E43.2305
G1 X9.776 Y23.251 E43.3214
G1 X7.093 Y23.220 E43.4107
G1 X-1.707 Y23.137 E43.7034
G1 X-5.366 Y23.046 E43.8251
G1 X-6.213 Y22.987 E43.8534
G1 X-7.966 Y22.953 E43.9117
G1 X-12.382 Y22.907 E44.0586
G1 X-13.760 Y22.887 E44.1044
G1 X-13.967 Y22.479 E44.1196
G1 X-15.282 Y20.080 E44.2106
G1 X-16.598 Y17.740 E44.2999
G1 X-20.925 Y10.079 E44.5925
G1 X-22.675 Y6.865 E44.7143
G1 X-23.049 Y6.103 E44.7425
G1 X-23.894 Y4.566 E44.8008
G1 X-26.064 Y0.718 E44.9478
G1 X-26.715 Y-0.445 E44.9921
G1 X-26.480 Y-0.806 E45.0064
G1 X-25.060 Y-3.146 E45.0974
G1 X-23.741 Y-5.370 E45.1834
G0 X-22.753 Y-6.272 F10800
G1 X-18.886 Y-12.827 E45.4366 F1800
G1 X-16.983 Y-15.940 E45.5579
G1 X-16.509 Y-16.646 E45.5862
G1 X-15.596 Y-18.157 E45.6449
G1 X-13.348 Y-21.959 E45.7919
G1 X-12.746 Y-22.968 E45.8309
G1 X-11.369 Y-22.951 E45.8767
G1 X-6.974 Y-22.906 E46.0229
G1 X-5.407 Y-22.873 E46.0751
G1 X-4.576 Y-22.815 E46.1028
G1 X-0.723 Y-22.722 E46.2309
G1 X8.113 Y-22.636 E46.5248
G1 X10.750 Y-22.606 E46.6126
G1 X13.337 Y-22.544 E46.6986
G1 X13.499 Y-22.535 E46.7040
G1 X13.622 Y-22.293 E46.7130
G1 X14.941 Y-19.886 E46.8043
G1 X16.258 Y-17.544 E46.8937
G1 X20.583 Y-9.885 E47.1863
G1 X22.328 Y-6.682 E47.3076
G1 X22.703 Y-5.919 E47.3359
G1 X23.553 Y-4.373 E47.3945
G1 X25.724 Y-0.523 E47.5415
G1 X26.256 Y0.430 E47.5778
G1 X26.149 Y0.594 E47.5843
G1 X24.725 Y2.940 E47.6756
G1 X23.355 Y5.252 E47.7650
G1 X18.885 Y12.827 E48.0576
G1 X16.983 Y15.940 E48.1789
G1 X16.509 Y16.645 E48.2072
G1 X15.596 Y18.157 E48.2659
G1 X13.348 Y21.959 E48.4128
G1 X12.770 Y22.928 E48.4503
G1 X12.525 Y22.915 E48.4585
G1 X9.782 Y22.855 E48.5497
G1 X7.097 Y22.825 E48.6391
G1 X-1.700 Y22.741 E48.9317
G1 X-5.348 Y22.650 E49.0530
G1 X-6.196 Y22.592 E49.0813
G1 X-7.960 Y22.557 E49.1400
G1 X-12.377 Y22.511 E49.2869
G1 X-13.519 Y22.495 E49.3249
G1 X-13.622 Y22.293 E49.3324
G1 X-14.941 Y19.886 E49.4237
G1 X-16.258 Y17.544 E49.5131
G1 X-20.583 Y9.886 E49.8056
G1 X-22.328 Y6.682 E49.9270
G1 X-22.703 Y5.919 E49.9552
G1 X-23.553 Y4.372 E50.0139
G1 X-25.724 Y0.523 E50.1609
G1 X-26.256 Y-0.430 E50.1972
G1 X-26.149 Y-0.594 E50.2037
G1 X-24.725 Y-2.940 E50.2950
G1 X-23.355 Y-5.252 E50.3844
G1 X-22.853 Y-6.102 E50.4172
G0 X-21.865 Y-7.004 F10800
G1 X-18.551 Y-12.622 E50.6342 F1800
G1 X-16.654 Y-15.725 E50.7551
G1 X-16.180 Y-16.431 E50.7834
G1 X-15.261 Y-17.952 E50.8425
G1 X-13.012 Y-21.755 E50.9895
G1 X-12.526 Y-22.570 E51.0210
G1 X-11.373 Y-22.555 E51.0594
G1 X-6.981 Y-22.510 E51.2055
G1 X-5.424 Y-22.477 E51.2573
G1 X-4.594 Y-22.419 E51.2849
G1 X-0.729 Y-22.326 E51.4135
G1 X8.109 Y-22.241 E51.7075
G1 X10.744 Y-22.210 E51.7951
G1 X13.277 Y-22.107 E51.8794
G1 X14.599 Y-19.693 E51.9710
G1 X15.918 Y-17.349 E52.0605
G1 X20.242 Y-9.691 E52.3529
G1 X21.981 Y-6.498 E52.4739
G1 X22.356 Y-5.735 E52.5022
G1 X23.212 Y-4.179 E52.5612
G1 X25.383 Y-0.328 E52.7083
G1 X25.799 Y0.415 E52.7366
G1 X24.391 Y2.735 E52.8268
G1 X23.019 Y5.049 E52.9163
G1 X18.550 Y12.622 E53.2088
G1 X16.655 Y15.724 E53.3297
G1 X16.180 Y16.431 E53.3580
G1 X15.261 Y17.953 E53.4171
G1 X13.012 Y21.756 E53.5641
G1 X12.539 Y22.519 E53.5939
G1 X9.789 Y22.460 E53.6854
G1 X7.101 Y22.429 E53.7749
G1 X-1.694 Y22.345 E54.0674
G1 X-5.330 Y22.255 E54.1883
G1 X-6.179 Y22.196 E54.2167
G1 X-7.954 Y22.161 E54.2757
G1 X-12.373 Y22.115 E54.4227
G1 X-13.279 Y22.103 E54.4528
G1 X-14.599 Y19.692 E54.5442
G1 X-15.918 Y17.349 E54.6337
G1 X-20.242 Y9.692 E54.9261
G1 X-21.981 Y6.498 E55.0471
G1 X-22.356 Y5.735 E55.0754
G1 X-23.212 Y4.178 E55.1345
G1 X-25.383 Y0.327 E55.2815
G1 X-25.798 Y-0.415 E55.3098
G1 X-24.391 Y-2.735 E55.4000
G1 X-23.019 Y-5.049 E55.4895
G1 X-21.966 Y-6.834 E55.5584
G0 X-20.978 Y-7.736 F10800
G1 X-18.217 Y-12.416 E55.7392 F1800
G1 X-16.325 Y-15.509 E55.8598
G1 X-15.851 Y-16.217 E55.8881
G1 X-14.926 Y-17.747 E55.9476
G1 X-12.677 Y-21.552 E56.0946
G1 X-12.307 Y-22.171 E56.1186
G1 X-11.378 Y-22.159 E56.1495
G1 X-6.987 Y-22.115 E56.2955
G1 X-5.442 Y-22.082 E56.3469
G1 X-4.612 Y-22.024 E56.3746
G1 X-0.736 Y-21.931 E56.5035
G1 X8.105 Y-21.845 E56.7976
G1 X10.733 Y-21.814 E56.8850
G1 X13.041 Y-21.720 E56.9618
G1 X14.258 Y-19.499 E57.0461
G1 X15.578 Y-17.153 E57.1356
G1 X19.900 Y-9.498 E57.4280
G1 X21.634 Y-6.315 E57.5486
G1 X22.010 Y-5.550 E57.5769
G1 X22.871 Y-3.984 E57.6363
G1 X25.043 Y-0.133 E57.7834
G1 X25.344 Y0.407 E57.8040
G1 X24.056 Y2.529 E57.8865
G1 X22.683 Y4.846 E57.9761
G1 X18.216 Y12.417 E58.2685
G1 X16.326 Y15.509 E58.3890
G1 X15.851 Y16.216 E58.4174
G1 X14.926 Y17.748 E58.4769
G1 X12.679 Y21.549 E58.6237
G1 X12.325 Y22.119 E58.6460
G1 X9.795 Y22.064 E58.7302
G1 X7.105 Y22.033 E58.8197
G1 X-1.687 Y21.950 E59.1121
G1 X-5.312 Y21.859 E59.2327
G1 X-6.162 Y21.800 E59.2611
G1 X-7.948 Y21.766 E59.3205
G1 X-12.368 Y21.720 E59.4675
G1 X-13.046 Y21.710 E59.4901
G1 X-14.258 Y19.498 E59.5739
G1 X-15.578 Y17.153 E59.6635
G1 X-19.901 Y9.498 E59.9558
G1 X-21.634 Y6.315 E60.0764
G1 X-22.010 Y5.550 E60.1047
G1 X-22.871 Y3.984 E60.1642
G1 X-25.043 Y0.132 E60.3113
G1 X-25.344 Y-0.407 E60.3318
G1 X-24.056 Y-2.530 E60.4144
G1 X-22.683 Y-4.846 E60.5039
G1 X-21.078 Y-7.566 E60.6090
G0 X-20.090 Y-8.468 F10800
G1 X-17.882 Y-12.211 E60.7535 F1800
G1 X-15.997 Y-15.294 E60.8737
G1 X-15.522 Y-16.002 E60.9021
G1 X-14.591 Y-17.543 E60.9620
G1 X-12.341 Y-21.348 E61.1090
G1 X-12.088 Y-21.772 E61.1254
G1 X-11.382 Y-21.763 E61.1489
G1 X-6.993 Y-21.719 E61.2949
G1 X-5.459 Y-21.686 E61.3459
G1 X-4.630 Y-21.629 E61.3735
G1 X-0.743 Y-21.535 E61.5029
G1 X8.101 Y-21.449 E61.7970
G1 X10.723 Y-21.418 E61.8843
G1 X12.805 Y-21.334 E61.9536
G1 X13.916 Y-19.305 E62.0305
G1 X15.238 Y-16.957 E62.1201
G1 X19.559 Y-9.304 E62.4124
G1 X21.287 Y-6.131 E62.5326
G1 X21.663 Y-5.366 E62.5610
G1 X22.530 Y-3.790 E62.6208
G1 X24.890 Y0.398 E62.7807
G1 X23.721 Y2.324 E62.8556
G1 X22.347 Y4.642 E62.9452
G1 X17.881 Y12.211 E63.2375
G1 X15.998 Y15.293 E63.3577
G1 X15.522 Y16.002 E63.3861
G1 X14.591 Y17.543 E63.4459
G1 X12.345 Y21.342 E63.5927
G1 X12.112 Y21.718 E63.6074
G1 X9.802 Y21.668 E63.6843
G1 X7.109 Y21.638 E63.7739
G1 X-1.680 Y21.554 E64.0662
G1 X-5.294 Y21.464 E64.1864
G1 X-6.145 Y21.405 E64.2148
G1 X-7.942 Y21.370 E64.2746
G1 X-12.363 Y21.324 E64.4216
G1 X-12.814 Y21.318 E64.4366
G1 X-13.917 Y19.305 E64.5130
G1 X-15.238 Y16.957 E64.6026
G1 X-19.559 Y9.305 E64.8949
G1 X-21.287 Y6.131 E65.0151
G1 X-21.663 Y5.366 E65.0434
G1 X-22.530 Y3.790 E65.1032
G1 X-24.890 Y-0.399 E65.2631
G1 X-23.721 Y-2.325 E65.3381
G1 X-22.347 Y-4.642 E65.4277
G1 X-20.190 Y-8.298 E65.5689
G0 X-19.202 Y-9.200 F10800
G1 X-17.547 Y-12.005 E65.6772 F1800
G1 X-15.668 Y-15.079 E65.7970
G1 X-15.193 Y-15.788 E65.8254
G1 X-14.256 Y-17.338 E65.8856
G1 X-11.869 Y-21.374 E66.0416
G1 X-7.000 Y-21.323 E66.2035
G1 X-5.477 Y-21.291 E66.2542
G1 X-4.648 Y-21.233 E66.2818
G1 X-0.749 Y-21.139 E66.4115
G1 X8.097 Y-21.054 E66.7058
G1 X10.713 Y-21.023 E66.7928
G1 X12.569 Y-20.947 E66.8546
G1 X13.575 Y-19.112 E66.9242
G1 X14.897 Y-16.761 E67.0139
G1 X19.218 Y-9.110 E67.3061
G1 X20.940 Y-5.947 E67.4259
G1 X21.317 Y-5.182 E67.4543
G1 X22.189 Y-3.596 E67.5145
G1 X24.435 Y0.391 E67.6667
G1 X23.387 Y2.119 E67.7339
G1 X22.011 Y4.439 E67.8237
G1 X17.546 Y12.006 E68.1159
G1 X15.670 Y15.078 E68.2356
G1 X15.192 Y15.787 E68.2640
G1 X14.256 Y17.339 E68.3243
G1 X12.011 Y21.136 E68.4710
G1 X11.898 Y21.317 E68.4781
G1 X9.808 Y21.273 E68.5477
G1 X7.113 Y21.242 E68.6373
G1 X-1.674 Y21.158 E68.9296
G1 X-5.275 Y21.068 E69.0494
G1 X-6.128 Y21.009 E69.0778
G1 X-7.936 Y20.974 E69.1380
G1 X-12.582 Y20.925 E69.2925
G1 X-13.575 Y19.111 E69.3613
G1 X-14.897 Y16.761 E69.4510
G1 X-19.218 Y9.111 E69.7432
G1 X-20.940 Y5.947 E69.8630
G1 X-21.317 Y5.182 E69.8914
G1 X-22.189 Y3.595 E69.9516
G1 X-24.435 Y-0.391 E70.1038
G1 X-23.387 Y-2.119 E70.1710
G1 X-22.011 Y-4.439 E70.2607
G1 X-19.303 Y-9.030 E70.4380
G0 X-18.315 Y-9.932 F10800
G1 X-17.213 Y-11.800 E70.5101 F1800
G1 X-15.339 Y-14.864 E70.6296
G1 X-14.864 Y-15.573 E70.6580
G1 X-13.920 Y-17.133 E70.7186
G1 X-11.648 Y-20.976 E70.8671
G1 X-7.006 Y-20.928 E71.0215
G1 X-5.494 Y-20.896 E71.0718
G1 X-4.666 Y-20.838 E71.0994
G1 X-0.756 Y-20.744 E71.2295
G1 X8.093 Y-20.658 E71.5238
G1 X10.703 Y-20.627 E71.6106
G1 X12.334 Y-20.561 E71.6649
G1 X13.234 Y-18.918 E71.7272
G1 X14.557 Y-16.565 E71.8170
G1 X18.876 Y-8.917 E72.1091
G1 X20.593 Y-5.764 E72.2286
G1 X20.970 Y-4.997 E72.2570
G1 X21.848 Y-3.402 E72.3175
G1 X23.981 Y0.383 E72.4620
G1 X23.052 Y1.914 E72.5216
G1 X21.675 Y4.236 E72.6114
G1 X17.212 Y11.800 E72.9035
G1 X15.341 Y14.862 E73.0228
G1 X14.863 Y15.573 E73.0513
G1 X13.920 Y17.134 E73.1120
G1 X11.684 Y20.917 E73.2581
G1 X9.814 Y20.877 E73.3203
G1 X7.117 Y20.846 E73.4101
G1 X-1.667 Y20.763 E73.7022
G1 X-5.257 Y20.673 E73.8217
G1 X-6.111 Y20.613 E73.8501
G1 X-7.931 Y20.579 E73.9107
G1 X-12.349 Y20.532 E74.0577
G1 X-13.234 Y18.917 E74.1189
G1 X-14.557 Y16.565 E74.2086
G1 X-18.876 Y8.918 E74.5008
G1 X-20.593 Y5.764 E74.6202
G1 X-20.970 Y4.997 E74.6486
G1 X-21.848 Y3.401 E74.7092
G1 X-23.980 Y-0.384 E74.8537
G1 X-23.052 Y-1.914 E74.9132
G1 X-21.675 Y-4.236 E75.0030
G1 X-18.415 Y-9.762 E75.2164
G0 X-17.427 Y-10.664 F10800
G1 X-16.878 Y-11.594 E75.2523 F1800
G1 X-15.011 Y-14.649 E75.3714
G1 X-14.534 Y-15.359 E75.3998
G1 X-13.585 Y-16.928 E75.4608
G1 X-11.427 Y-20.578 E75.6018
G1 X-7.012 Y-20.532 E75.7487
G1 X-5.512 Y-20.500 E75.7986
G1 X-4.685 Y-20.442 E75.8262
G1 X-0.763 Y-20.348 E75.9567
G1 X8.089 Y-20.262 E76.2511
G1 X10.693 Y-20.231 E76.3377
G1 X12.098 Y-20.174 E76.3845
G1 X12.893 Y-18.724 E76.4395
G1 X14.217 Y-16.369 E76.5294
G1 X18.535 Y-8.723 E76.8214
G1 X20.247 Y-5.580 E76.9404
G1 X20.624 Y-4.813 E76.9689
G1 X21.507 Y-3.207 E77.0298
G1 X23.526 Y0.376 E77.1666
G1 X22.717 Y1.708 E77.2185
G1 X21.339 Y4.033 E77.3084
G1 X16.877 Y11.595 E77.6004
G1 X15.013 Y14.647 E77.7193
G1 X14.534 Y15.359 E77.7479
G1 X13.585 Y16.929 E77.8089
G1 X11.465 Y20.516 E77.9475
G1 X9.821 Y20.481 E78.0022
G1 X7.121 Y20.451 E78.0920
G1 X-1.660 Y20.367 E78.3841
G1 X-5.239 Y20.278 E78.5031
G1 X-6.094 Y20.218 E78.5316
G1 X-7.925 Y20.183 E78.5925
G1 X-12.117 Y20.138 E78.7320
G1 X-12.892 Y18.723 E78.7856
G1 X-14.217 Y16.369 E78.8755
G1 X-18.535 Y8.724 E79.1675
G1 X-20.246 Y5.580 E79.2866
G1 X-20.624 Y4.813 E79.3150
G1 X-21.506 Y3.207 E79.3760
G1 X-23.526 Y-0.377 E79.5128
G1 X-22.717 Y-1.709 E79.5646
G1 X-21.339 Y-4.033 E79.6545
G1 X-17.527 Y-10.494 E79.9040
G0 X-16.539 Y-11.396 F10800
G1 X-14.682 Y-14.433 E80.0224 F1800
G1 X-14.205 Y-15.144 E80.0509
G1 X-13.250 Y-16.723 E80.1122
G1 X-11.207 Y-20.179 E80.2458
G1 X-7.018 Y-20.136 E80.3851
G1 X-5.530 Y-20.105 E80.4346
G1 X-4.703 Y-20.047 E80.4622
G1 X-0.769 Y-19.952 E80.5930
G1 X8.085 Y-19.867 E80.8875
G1 X10.683 Y-19.836 E80.9739
G1 X11.862 Y-19.788 E81.0132
G1 X12.551 Y-18.530 E81.0609
G1 X13.877 Y-16.173 E81.1509
G1 X18.193 Y-8.529 E81.4428
G1 X19.900 Y-5.397 E81.5615
G1 X20.277 Y-4.629 E81.5899
G1 X21.165 Y-3.013 E81.6513
G1 X23.071 Y0.369 E81.7804
G1 X22.382 Y1.503 E81.8245
G1 X21.003 Y3.830 E81.9145
G1 X16.543 Y11.389 E82.2064
G1 X14.684 Y14.431 E82.3250
G1 X14.205 Y15.144 E82.3535
G1 X13.250 Y16.725 E82.4150
G1 X11.246 Y20.116 E82.5460
G1 X9.827 Y20.085 E82.5932
G1 X7.125 Y20.055 E82.6830
G1 X-1.654 Y19.971 E82.9750
G1 X-5.220 Y19.882 E83.0937
G1 X-6.076 Y19.822 E83.1222
G1 X-7.919 Y19.787 E83.1835
G1 X-11.885 Y19.745 E83.3155
G1 X-12.551 Y18.529 E83.3616
G1 X-13.877 Y16.173 E83.4515
G1 X-18.194 Y8.530 E83.7434
G1 X-19.900 Y5.397 E83.8621
G1 X-20.277 Y4.629 E83.8906
G1 X-21.165 Y3.013 E83.9519
G1 X-23.071 Y-0.369 E84.0810
G1 X-22.382 Y-1.503 E84.1251
G1 X-21.003 Y-3.830 E84.2151
G1 X-16.640 Y-11.226 E84.5007
G0 X-15.640 Y-12.114 F10800
G1 X-14.353 Y-14.218 E84.5827 F1800
G1 X-13.876 Y-14.930 E84.6112
G1 X-12.915 Y-16.518 E84.6730
G1 X-10.986 Y-19.781 E84.7991
G1 X-7.024 Y-19.740 E84.9308
G1 X-5.547 Y-19.709 E84.9800
G1 X-4.721 Y-19.651 E85.0075
G1 X-0.776 Y-19.557 E85.1388
G1 X8.081 Y-19.471 E85.4334
G1 X10.672 Y-19.440 E85.5196
G1 X11.627 Y-19.401 E85.5513
G1 X12.210 Y-18.336 E85.5917
G1 X13.537 Y-15.977 E85.6817
G1 X17.852 Y-8.336 E85.9736
G1 X19.553 Y-5.213 E86.0919
G1 X19.931 Y-4.444 E86.1204
G1 X20.824 Y-2.819 E86.1821
G1 X22.616 Y0.361 E86.3035
G1 X22.048 Y1.298 E86.3399
G1 X20.666 Y3.627 E86.4300
G1 X16.208 Y11.184 E86.7218
G1 X14.356 Y14.216 E86.8400
G1 X13.876 Y14.930 E86.8686
G1 X12.915 Y16.520 E86.9304
G1 X11.027 Y19.715 E87.0538
G1 X9.833 Y19.690 E87.0935
G1 X7.129 Y19.659 E87.1835
G1 X-1.647 Y19.575 E87.4754
G1 X-5.202 Y19.487 E87.5937
G1 X-6.059 Y19.426 E87.6222
G1 X-7.914 Y19.392 E87.6839
G1 X-11.653 Y19.352 E87.8083
G1 X-12.210 Y18.336 E87.8469
G1 X-13.537 Y15.977 E87.9369
G1 X-17.852 Y8.337 E88.2287
G1 X-19.553 Y5.213 E88.3470
G1 X-19.931 Y4.444 E88.3755
G1 X-20.824 Y2.818 E88.4372
G1 X-22.616 Y-0.361 E88.5586
G1 X-22.048 Y-1.298 E88.5951
G1 X-20.666 Y-3.627 E88.6851
G1 X-16.209 Y-11.184 E88.9769
G1 X-15.743 Y-11.945 E89.0066
G0 X-14.741 Y-12.831 F10800
G1 X-14.025 Y-14.003 E89.0523 F1800
G1 X-13.547 Y-14.715 E89.0808
G1 X-12.580 Y-16.313 E89.1429
G1 X-10.765 Y-19.383 E89.2616
G1 X-7.030 Y-19.345 E89.3858
G1 X-5.565 Y-19.314 E89.4345
G1 X-4.739 Y-19.256 E89.4621
G1 X-0.782 Y-19.161 E89.5937
G1 X8.077 Y-19.075 E89.8884
G1 X10.662 Y-19.044 E89.9744
G1 X11.391 Y-19.015 E89.9986
G1 X11.869 Y-18.142 E90.0317
G1 X13.197 Y-15.781 E90.1218
G1 X17.511 Y-8.142 E90.4136
G1 X19.206 Y-5.030 E90.5315
G1 X19.584 Y-4.260 E90.5600
G1 X20.483 Y-2.625 E90.6221
G1 X22.162 Y0.353 E90.7358
G1 X21.713 Y1.092 E90.7645
G1 X20.331 Y3.424 E90.8547
G1 X15.873 Y10.978 E91.1464
G1 X14.027 Y14.000 E91.2642
G1 X13.547 Y14.715 E91.2929
G1 X12.580 Y16.315 E91.3550
G1 X10.807 Y19.315 E91.4709
