; GCode generated by CraftWare

G28 X0 Y0
G28 Z0

M190 S60 ;set bed temp (wait)
M109 S215 ;set head temp (wait)
; ------------------------------------
; Layer #0
; ------------------------------------
G21 ; mm
G90 ; abs
G92 E0 ; reset extr
M106 S0
;segType:Skirt
G0 F4800 E-1.0000
G0 F2400 Z0.200
G0 X110.643 Y126.758 F10800
G0 F4800 E0.0000
G1 X113.641 Y129.789 E0.1418 F600
G1 X113.836 Y129.987 E0.1510
G1 X130.391 Y129.987 E0.7017
G1 X137.691 Y129.987 E0.9445
G1 X137.821 Y130.119 E0.9506
G1 X145.642 Y130.119 E1.2108
G1 X145.968 Y129.921 E1.2234
G1 X148.836 Y127.021 E1.3591
G1 X152.355 Y121.090 E1.5885
G1 X152.486 Y120.694 E1.6023
G1 X152.746 Y120.431 E1.6146
G1 X152.877 Y120.035 E1.6285
G1 X153.137 Y119.772 E1.6408
G1 X153.268 Y119.376 E1.6547
G1 X156.005 Y114.763 E1.8331
G1 X156.135 Y114.367 E1.8469
G1 X156.396 Y114.104 E1.8593
G1 X156.526 Y113.708 E1.8731
G1 X156.787 Y113.445 E1.8855
G1 X156.918 Y113.049 E1.8993
G1 X163.174 Y102.504 E2.3071
G1 X163.761 Y101.516 E2.3454
G1 X163.826 Y101.054 E2.3608
G1 X163.826 Y98.946 E2.4310
G1 X163.566 Y98.682 E2.4433
G1 X163.435 Y98.286 E2.4572
G1 X162.262 Y96.309 E2.5336
G1 X162.132 Y95.914 E2.5475
G1 X161.871 Y95.650 E2.5598
G1 X161.741 Y95.255 E2.5737
G1 X161.480 Y94.991 E2.5860
G1 X161.350 Y94.596 E2.5998
G1 X158.612 Y89.982 E2.7783
G1 X158.482 Y89.587 E2.7921
G1 X158.221 Y89.323 E2.8044
G1 X158.091 Y88.928 E2.8183
G1 X157.830 Y88.664 E2.8306
G1 X157.700 Y88.269 E2.8445
G1 X154.962 Y83.655 E3.0229
G1 X154.832 Y83.260 E3.0367
G1 X154.571 Y82.996 E3.0491
G1 X154.441 Y82.601 E3.0629
G1 X154.180 Y82.337 E3.0753
G1 X154.050 Y81.942 E3.0891
G1 X152.486 Y79.306 E3.1911
G1 X152.355 Y78.910 E3.2049
G1 X152.095 Y78.647 E3.2172
G1 X151.964 Y78.251 E3.2311
G1 X150.400 Y75.615 E3.3330
G1 X150.270 Y75.220 E3.3469
G1 X150.009 Y74.956 E3.3592
G1 X149.879 Y74.560 E3.3731
G1 X148.901 Y72.913 E3.4368
G1 X146.164 Y70.145 E3.5663
G1 X144.078 Y70.145 E3.6356
G1 X143.166 Y70.013 E3.6663
G1 X126.480 Y70.013 E4.2212
G1 X113.967 Y70.013 E4.6375
G1 X111.099 Y72.913 E4.7731
G1 X108.557 Y77.197 E4.9388
G1 X108.454 Y77.509 E4.9497
G0 F4800 E3.9497
G0 X101.664 Y97.622 F10800
G0 X100.815 Y100.137
G0 F4800 E4.9497
;segType:Perimeter
G1 X100.215 Y99.763 E4.9732 F359
G1 X100.512 Y99.304 E4.9914
G1 X100.977 Y98.539 E5.0212
G1 X101.430 Y97.773 E5.0508
G1 X105.042 Y91.654 E5.2871
G1 X112.960 Y77.939 E5.8138
G1 X114.766 Y74.884 E5.9319
G1 X115.253 Y74.085 E5.9630
G1 X115.505 Y74.096 E5.9714
G1 X119.776 Y74.141 E6.1134
G1 X135.612 Y74.141 E6.6401
G1 X142.712 Y74.209 E6.8763
G1 X143.598 Y74.219 E6.9058
G1 X144.481 Y74.240 E6.9351
G1 X145.072 Y74.273 E6.9548
G1 X145.349 Y74.814 E6.9750
G1 X145.779 Y75.599 E7.0048
G1 X146.215 Y76.375 E7.0344
G1 X149.709 Y82.562 E7.2707
G1 X157.627 Y96.277 E7.7975
G1 X159.370 Y99.368 E7.9155
G1 X159.817 Y100.187 E7.9465
G1 X159.488 Y100.696 E7.9667
G1 X159.024 Y101.461 E7.9964
G1 X158.570 Y102.227 E8.0261
G1 X154.958 Y108.346 E8.2624
G1 X147.040 Y122.061 E8.7891
G1 X145.234 Y125.116 E8.9072
G1 X144.747 Y125.914 E8.9382
G1 X144.139 Y125.884 E8.9585
G1 X143.245 Y125.864 E8.9883
G1 X142.354 Y125.853 E9.0179
G1 X135.249 Y125.786 E9.2542
G1 X119.413 Y125.786 E9.7809
G1 X115.864 Y125.749 E9.8990
G1 X114.928 Y125.727 E9.9301
G1 X114.652 Y125.186 E9.9503
G1 X114.221 Y124.401 E9.9801
G1 X113.785 Y123.625 E10.0097
G1 X110.291 Y117.438 E10.2460
G1 X102.373 Y103.723 E10.7727
G1 X100.630 Y100.632 E10.8908
G1 X100.211 Y99.865 E10.9198
G1 X100.837 Y99.538
;segType:Loop
G0 X101.102 Y99.106 F10800
G1 X101.319 Y98.749 E10.9337 F600
G1 X101.774 Y97.981 E10.9634
G1 X105.386 Y91.859 E11.1998
G1 X113.304 Y78.145 E11.7266
G1 X115.108 Y75.094 E11.8444
G1 X115.495 Y74.501 E11.8680
G1 X119.774 Y74.545 E12.0103
G1 X135.610 Y74.545 E12.5370
G1 X142.708 Y74.614 E12.7731
G1 X143.592 Y74.624 E12.8025
G1 X144.466 Y74.644 E12.8316
G1 X144.821 Y74.664 E12.8434
G1 X144.996 Y75.005 E12.8562
G1 X145.430 Y75.797 E12.8862
G1 X145.868 Y76.575 E12.9159
G1 X149.362 Y82.764 E13.1523
G1 X157.281 Y96.479 E13.6790
G1 X159.021 Y99.566 E13.7969
G1 X159.350 Y100.170 E13.8198
G1 X159.150 Y100.479 E13.8321
G1 X158.681 Y101.251 E13.8621
G1 X158.226 Y102.019 E13.8918
G1 X154.614 Y108.141 E14.1282
G1 X146.696 Y121.855 E14.6549
G1 X144.892 Y124.906 E14.7728
G1 X144.531 Y125.498 E14.7958
G1 X144.154 Y125.479 E14.8084
G1 X143.251 Y125.459 E14.8384
G1 X142.358 Y125.449 E14.8681
G1 X135.251 Y125.381 E15.1045
G1 X119.415 Y125.381 E15.6313
G1 X115.870 Y125.345 E15.7491
G1 X115.175 Y125.328 E15.7723
G1 X115.004 Y124.995 E15.7847
G1 X114.570 Y124.203 E15.8148
G1 X114.132 Y123.425 E15.8445
G1 X110.638 Y117.235 E16.0809
G1 X102.719 Y103.521 E16.6076
G1 X100.979 Y100.434 E16.7255
G1 X100.650 Y99.830 E16.7483
G1 X100.850 Y99.521 E16.7606
G1 X100.999 Y99.275 E16.7702
;segType:HShell
G0 X101.998 Y98.380 F10800
G1 X102.113 Y98.186 E16.7777 F300
G1 X105.727 Y92.063 E17.0142
G1 X113.645 Y78.348 E17.5409
G1 X115.444 Y75.307 E17.6584
G1 X115.706 Y74.903 E17.6744
G1 X119.771 Y74.945 E17.8096
G1 X135.608 Y74.945 E18.3364
G1 X142.704 Y75.014 E18.5724
G1 X143.584 Y75.024 E18.6016
G1 X144.578 Y75.054 E18.6347
G1 X145.084 Y75.992 E18.6702
G1 X145.524 Y76.773 E18.7000
G1 X149.020 Y82.964 E18.9365
G1 X156.938 Y96.678 E19.4632
G1 X158.676 Y99.763 E19.5809
G1 X158.890 Y100.155 E19.5958
G1 X158.343 Y101.044 E19.6305
G1 X157.887 Y101.814 E19.6603
G1 X154.273 Y107.937 E19.8968
G1 X146.355 Y121.652 E20.4235
G1 X144.554 Y124.698 E20.5412
G1 X144.315 Y125.089 E20.5564
G1 X143.258 Y125.059 E20.5916
G1 X142.362 Y125.049 E20.6214
G1 X135.253 Y124.981 E20.8579
G1 X119.417 Y124.981 E21.3846
G1 X115.877 Y124.944 E21.5023
G1 X115.416 Y124.933 E21.5177
G1 X114.916 Y124.008 E21.5527
G1 X114.476 Y123.227 E21.5825
G1 X110.980 Y117.035 E21.8190
G1 X103.062 Y103.321 E22.3457
G1 X101.324 Y100.238 E22.4634
G1 X101.110 Y99.845 E22.4783
G1 X101.657 Y98.957 E22.5130
G1 X101.898 Y98.550 E22.5287
G0 X102.886 Y97.649 F10800
G1 X106.064 Y92.264 E22.7366 F300
G1 X113.982 Y78.550 E23.2634
G1 X115.775 Y75.517 E23.3805
G1 X115.916 Y75.301 E23.3891
G1 X119.769 Y75.341 E23.5173
G1 X135.606 Y75.341 E24.0440
G1 X142.700 Y75.410 E24.2800
G1 X143.576 Y75.420 E24.3091
G1 X144.342 Y75.443 E24.3346
G1 X144.743 Y76.184 E24.3626
G1 X145.184 Y76.969 E24.3926
G1 X148.681 Y83.162 E24.6291
G1 X156.599 Y96.876 E25.1558
G1 X158.335 Y99.956 E25.2734
G1 X158.436 Y100.143 E25.2805
G1 X158.009 Y100.837 E25.3076
G1 X157.551 Y101.611 E25.3375
G1 X153.936 Y107.736 E25.5740
G1 X146.018 Y121.450 E26.1008
G1 X144.219 Y124.493 E26.2183
G1 X144.101 Y124.687 E26.2259
G1 X143.266 Y124.664 E26.2537
G1 X142.366 Y124.653 E26.2836
G1 X135.255 Y124.585 E26.5201
G1 X119.419 Y124.585 E27.0468
G1 X115.884 Y124.549 E27.1644
G1 X115.651 Y124.543 E27.1722
G1 X115.257 Y123.815 E27.1997
G1 X114.816 Y123.031 E27.2296
G1 X111.319 Y116.837 E27.4662
G1 X103.401 Y103.123 E27.9929
G1 X101.666 Y100.044 E28.1105
G1 X101.564 Y99.857 E28.1175
G1 X101.991 Y99.163 E28.1446
G1 X102.450 Y98.389 E28.1746
G1 X102.786 Y97.819 E28.1966
G0 X103.774 Y96.917 F10800
G1 X106.401 Y92.465 E28.3685 F300
G1 X114.319 Y78.751 E28.8952
G1 X116.126 Y75.699 E29.0132
G1 X119.767 Y75.737 E29.1343
G1 X135.605 Y75.737 E29.6611
G1 X142.696 Y75.805 E29.8969
G1 X143.568 Y75.815 E29.9259
G1 X144.106 Y75.832 E29.9438
G1 X144.400 Y76.377 E29.9644
G1 X144.843 Y77.165 E29.9945
G1 X148.342 Y83.360 E30.2312
G1 X156.259 Y97.074 E30.7578
G1 X157.982 Y100.131 E30.8745
G1 X157.675 Y100.631 E30.8941
G1 X157.215 Y101.408 E30.9241
G1 X153.599 Y107.535 E31.1607
G1 X145.681 Y121.249 E31.6874
G1 X143.886 Y124.285 E31.8047
G1 X143.274 Y124.268 E31.8251
G1 X142.371 Y124.257 E31.8552
G1 X135.257 Y124.189 E32.0918
G1 X119.421 Y124.189 E32.6185
G1 X115.886 Y124.153 E32.7361
G1 X115.599 Y123.622 E32.7561
G1 X115.157 Y122.835 E32.7862
G1 X111.658 Y116.639 E33.0228
G1 X103.740 Y102.925 E33.5495
G1 X102.017 Y99.869 E33.6662
G1 X102.325 Y99.370 E33.6857
G1 X102.786 Y98.592 E33.7158
G1 X103.674 Y97.087 E33.7739
G0 X104.662 Y96.185 F10800
G1 X106.738 Y92.667 E33.9098 F300
G1 X114.656 Y78.952 E34.4365
G1 X116.346 Y76.097 E34.5468
G1 X119.765 Y76.133 E34.6606
G1 X135.603 Y76.132 E35.1873
G1 X142.692 Y76.201 E35.4231
G1 X143.870 Y76.220 E35.4623
G1 X144.503 Y77.361 E35.5057
G1 X148.003 Y83.558 E35.7424
G1 X155.920 Y97.271 E36.2691
G1 X157.527 Y100.122 E36.3779
G1 X156.879 Y101.205 E36.4199
G1 X153.262 Y107.333 E36.6566
G1 X145.344 Y121.048 E37.1833
G1 X143.668 Y123.883 E37.2928
G1 X142.375 Y123.862 E37.3358
G1 X135.258 Y123.793 E37.5725
G1 X119.423 Y123.793 E38.0992
G1 X116.119 Y123.759 E38.2091
G1 X115.497 Y122.639 E38.2517
G1 X111.998 Y116.441 E38.4884
G1 X104.079 Y102.727 E39.0151
G1 X102.473 Y99.878 E39.1239
G1 X103.122 Y98.795 E39.1659
G1 X104.562 Y96.355 E39.2602
G0 X105.550 Y95.453 F10800
G1 X107.075 Y92.868 E39.3600 F300
G1 X114.993 Y79.154 E39.8867
G1 X116.567 Y76.495 E39.9894
G1 X119.763 Y76.529 E40.0958
G1 X135.601 Y76.528 E40.6225
G1 X142.687 Y76.597 E40.8582
G1 X143.639 Y76.612 E40.8899
G1 X144.163 Y77.556 E40.9258
G1 X147.664 Y83.756 E41.1626
G1 X155.581 Y97.469 E41.6893
G1 X157.073 Y100.116 E41.7903
G1 X156.543 Y101.001 E41.8246
G1 X152.925 Y107.132 E42.0614
G1 X145.007 Y120.846 E42.5881
G1 X143.448 Y123.484 E42.6900
G1 X142.380 Y123.466 E42.7255
G1 X135.260 Y123.397 E42.9623
G1 X119.425 Y123.397 E43.4890
G1 X116.350 Y123.366 E43.5913
G1 X115.837 Y122.444 E43.6264
G1 X112.337 Y116.243 E43.8632
G1 X104.419 Y102.529 E44.3899
G1 X102.927 Y99.884 E44.4909
G1 X103.457 Y98.999 E44.5252
G1 X105.450 Y95.623 E44.6556
G0 X106.438 Y94.721 F10800
G1 X107.412 Y93.069 E44.7194 F300
G1 X115.330 Y79.355 E45.2461
G1 X116.787 Y76.894 E45.3413
G1 X119.761 Y76.925 E45.4402
G1 X135.599 Y76.924 E45.9670
G1 X142.682 Y76.993 E46.2025
G1 X143.408 Y77.005 E46.2267
G1 X143.822 Y77.751 E46.2551
G1 X147.325 Y83.954 E46.4920
G1 X155.242 Y97.667 E47.0186
G1 X156.619 Y100.110 E47.1119
G1 X156.207 Y100.797 E47.1386
G1 X152.588 Y106.931 E47.3754
G1 X144.670 Y120.645 E47.9021
G1 X143.228 Y123.084 E47.9964
G1 X142.385 Y123.070 E48.0244
G1 X135.262 Y123.001 E48.2614
G1 X119.427 Y123.001 E48.7880
G1 X116.580 Y122.972 E48.8827
G1 X116.178 Y122.248 E48.9103
G1 X112.676 Y116.045 E49.1472
G1 X104.758 Y102.331 E49.6739
G1 X103.381 Y99.890 E49.7671
G1 X103.793 Y99.203 E49.7938
G1 X106.337 Y94.891 E49.9603
G0 X107.325 Y93.989 F10800
G1 X107.749 Y93.271 E49.9880 F300
G1 X115.667 Y79.556 E50.5147
G1 X117.008 Y77.292 E50.6023
G1 X119.759 Y77.321 E50.6938
G1 X135.598 Y77.320 E51.2206
G1 X142.677 Y77.388 E51.4560
G1 X143.176 Y77.397 E51.4726
G1 X143.481 Y77.946 E51.4935
G1 X146.987 Y84.152 E51.7306
G1 X154.903 Y97.865 E52.2572
G1 X156.165 Y100.104 E52.3427
G1 X155.872 Y100.593 E52.3617
G1 X152.251 Y106.729 E52.5987
G1 X144.333 Y120.444 E53.1254
G1 X143.008 Y122.685 E53.2120
G1 X142.390 Y122.675 E53.2325
G1 X135.264 Y122.605 E53.4696
G1 X119.429 Y122.605 E53.9962
G1 X116.810 Y122.579 E54.0833
G1 X116.519 Y122.053 E54.1033
G1 X113.015 Y115.847 E54.3403
G1 X105.097 Y102.134 E54.8670
G1 X103.835 Y99.896 E54.9525
G1 X104.128 Y99.407 E54.9714
G1 X107.225 Y94.159 E55.1741
G0 X108.213 Y93.253 F10800
G1 X116.004 Y79.758 E55.6924 F300
G1 X117.228 Y77.690 E55.7723
G1 X119.757 Y77.717 E55.8564
G1 X135.596 Y77.715 E56.3832
G1 X142.672 Y77.784 E56.6186
G1 X142.945 Y77.789 E56.6277
G1 X143.141 Y78.141 E56.6411
G1 X146.648 Y84.350 E56.8783
G1 X154.564 Y98.062 E57.4049
G1 X155.711 Y100.098 E57.4826
G1 X155.536 Y100.389 E57.4939
G1 X151.913 Y106.528 E57.7310
G1 X143.996 Y120.242 E58.2577
G1 X142.788 Y122.285 E58.3366
G1 X142.395 Y122.279 E58.3497
G1 X135.266 Y122.209 E58.5868
G1 X119.431 Y122.209 E59.1135
G1 X117.041 Y122.185 E59.1930
G1 X116.859 Y121.858 E59.2054
G1 X113.354 Y115.649 E59.4425
G1 X105.436 Y101.936 E59.9692
G1 X104.289 Y99.902 E60.0469
G1 X104.464 Y99.611 E60.0582
G1 X108.087 Y93.472 E60.2953
G1 X108.114 Y93.424 E60.2971
G0 X109.094 Y92.512 F10800
G1 X116.341 Y79.959 E60.7792 F300
G1 X117.449 Y78.089 E60.8515
G1 X119.755 Y78.113 E60.9282
G1 X135.594 Y78.111 E61.4550
G1 X142.714 Y78.180 E61.6919
G1 X142.800 Y78.336 E61.6978
G1 X146.309 Y84.548 E61.9351
G1 X154.225 Y98.260 E62.4617
G1 X155.257 Y100.092 E62.5316
G1 X151.576 Y106.327 E62.7724
G1 X143.659 Y120.041 E63.2991
G1 X142.568 Y121.886 E63.3704
G1 X135.267 Y121.813 E63.6132
G1 X119.433 Y121.813 E64.1399
G1 X117.271 Y121.791 E64.2118
G1 X113.693 Y115.451 E64.4539
G1 X105.775 Y101.738 E64.9806
G1 X104.743 Y99.908 E65.0505
G1 X108.424 Y93.673 E65.2913
G1 X108.995 Y92.683 E65.3293
G0 X109.975 Y91.772 F10800
G1 X116.679 Y80.160 E65.7752 F300
G1 X117.669 Y78.487 E65.8399
G1 X119.753 Y78.509 E65.9092
G1 X135.592 Y78.507 E66.4361
G1 X142.484 Y78.574 E66.6653
G1 X145.970 Y84.746 E66.9010
G1 X153.886 Y98.458 E67.4276
G1 X154.804 Y100.087 E67.4898
G1 X151.239 Y106.125 E67.7231
G1 X143.322 Y119.840 E68.2498
G1 X142.347 Y121.488 E68.3134
G1 X135.269 Y121.417 E68.5489
G1 X119.435 Y121.417 E69.0755
G1 X117.500 Y121.398 E69.1399
G1 X114.032 Y115.254 E69.3745
G1 X106.114 Y101.540 E69.9012
G1 X105.196 Y99.913 E69.9634
G1 X108.761 Y93.875 E70.1966
G1 X109.876 Y91.943 E70.2708
G0 X110.856 Y91.031 F10800
G1 X117.016 Y80.362 E70.6805 F300
G1 X117.890 Y78.885 E70.7376
G1 X119.751 Y78.905 E70.7995
G1 X135.590 Y78.902 E71.3263
G1 X142.255 Y78.968 E71.5480
G1 X145.631 Y84.944 E71.7763
G1 X153.546 Y98.656 E72.3029
G1 X154.351 Y100.082 E72.3574
G1 X150.902 Y105.924 E72.5830
G1 X142.985 Y119.638 E73.1097
G1 X142.127 Y121.090 E73.1658
G1 X135.271 Y121.021 E73.3938
G1 X119.437 Y121.021 E73.9204
G1 X117.729 Y121.004 E73.9773
G1 X114.371 Y115.056 E74.2045
G1 X106.453 Y101.342 E74.7311
G1 X105.650 Y99.917 E74.7856
G1 X109.098 Y94.076 E75.0112
G1 X110.757 Y91.202 E75.1215
G0 X111.736 Y90.291 F10800
G1 X117.353 Y80.563 E75.4951 F300
G1 X118.110 Y79.283 E75.5446
G1 X119.748 Y79.301 E75.5991
G1 X135.589 Y79.298 E76.1259
G1 X142.027 Y79.361 E76.3401
G1 X145.292 Y85.142 E76.5609
G1 X153.207 Y98.853 E77.0875
G1 X153.897 Y100.077 E77.1342
G1 X150.565 Y105.723 E77.3523
G1 X142.648 Y119.437 E77.8789
G1 X141.906 Y120.692 E77.9274
G1 X135.273 Y120.625 E78.1480
G1 X119.439 Y120.625 E78.6747
G1 X117.957 Y120.611 E78.7240
G1 X114.711 Y114.858 E78.9437
G1 X106.792 Y101.145 E79.4704
G1 X106.103 Y99.922 E79.5171
G1 X109.435 Y94.277 E79.7351
G1 X111.638 Y90.462 E79.8816
G0 X112.617 Y89.550 F10800
G1 X117.690 Y80.765 E80.2190 F300
G1 X118.331 Y79.682 E80.2609
G1 X119.746 Y79.697 E80.3080
G1 X135.587 Y79.694 E80.8348
G1 X141.799 Y79.755 E81.0414
G1 X144.953 Y85.340 E81.2548
G1 X152.868 Y99.051 E81.7814
G1 X153.444 Y100.073 E81.8204
G1 X150.228 Y105.521 E82.0308
G1 X142.311 Y119.235 E82.5575
G1 X141.685 Y120.294 E82.5984
G1 X135.275 Y120.229 E82.8116
G1 X119.441 Y120.229 E83.3382
G1 X118.186 Y120.217 E83.3800
G1 X115.050 Y114.660 E83.5922
G1 X107.132 Y100.947 E84.1189
G1 X106.556 Y99.927 E84.1579
G1 X109.772 Y94.479 E84.3683
G1 X112.519 Y89.721 E84.5510
G0 X113.498 Y88.810 F10800
G1 X118.027 Y80.966 E84.8522 F300
G1 X118.551 Y80.080 E84.8865
G1 X119.744 Y80.093 E84.9261
G1 X135.585 Y80.089 E85.4530
G1 X141.570 Y80.149 E85.6521
G1 X144.615 Y85.538 E85.8580
G1 X152.529 Y99.249 E86.3845
G1 X152.991 Y100.068 E86.4158
G1 X149.891 Y105.320 E86.6186
G1 X141.974 Y119.034 E87.1453
G1 X141.464 Y119.896 E87.1786
G1 X135.278 Y119.833 E87.3844
G1 X119.443 Y119.833 E87.9111
G1 X118.414 Y119.823 E87.9453
G1 X115.389 Y114.462 E88.1500
G1 X107.470 Y100.749 E88.6767
G1 X107.009 Y99.931 E88.7079
G1 X110.109 Y94.680 E88.9107
G1 X113.399 Y88.981 E89.1296
G0 X114.379 Y88.070 F10800
G1 X118.364 Y81.168 E89.3947 F300
G1 X118.772 Y80.478 E89.4213
G1 X119.741 Y80.489 E89.4536
G1 X135.583 Y80.485 E89.9805
G1 X141.342 Y80.542 E90.1720
G1 X144.276 Y85.736 E90.3704
G1 X152.190 Y99.446 E90.8970
G1 X152.538 Y100.063 E90.9205
G1 X149.554 Y105.119 E91.1158
G1 X141.637 Y118.832 E91.6425
G1 X141.244 Y119.498 E91.6682
G1 X135.280 Y119.437 E91.8665
G1 X119.445 Y119.437 E92.3932
G1 X118.643 Y119.430 E92.4199
G1 X115.728 Y114.264 E92.6171
G1 X107.810 Y100.551 E93.1438
G1 X107.462 Y99.936 E93.1673
G1 X110.446 Y94.881 E93.3625
G1 X114.280 Y88.240 E93.6176
G0 X115.260 Y87.329 F10800
G1 X118.701 Y81.369 E93.8465 F300
G1 X118.992 Y80.876 E93.8655
G1 X119.739 Y80.885 E93.8903
G1 X135.581 Y80.881 E94.4172
G1 X141.114 Y80.936 E94.6013
G1 X143.937 Y85.934 E94.7922
G1 X151.851 Y99.644 E95.3187
G1 X152.085 Y100.059 E95.3345
G1 X149.217 Y104.917 E95.5222
G1 X141.300 Y118.631 E96.0489
G1 X141.023 Y119.100 E96.0670
G1 X135.282 Y119.042 E96.2579
G1 X119.447 Y119.042 E96.7846
G1 X118.872 Y119.036 E96.8037
G1 X116.067 Y114.066 E96.9935
G1 X108.149 Y100.353 E97.5202
G1 X107.916 Y99.940 E97.5360
G1 X110.783 Y95.083 E97.7236
G1 X115.161 Y87.500 E98.0148
G0 X116.141 Y86.589 F10800
G1 X119.038 Y81.570 E98.2075 F300
G1 X119.213 Y81.275 E98.2189
G1 X119.737 Y81.281 E98.2364
G1 X135.579 Y81.277 E98.7633
G1 X140.885 Y81.330 E98.9398
G1 X143.598 Y86.132 E99.1232
G1 X151.512 Y99.842 E99.6497
G1 X151.632 Y100.054 E99.6578
G1 X148.880 Y104.716 E99.8379
G1 X140.963 Y118.430 E100.3646
G1 X140.802 Y118.702 E100.3751
G1 X135.284 Y118.646 E100.5586
G1 X119.449 Y118.646 E101.0853
G1 X119.100 Y118.642 E101.0969
G1 X116.406 Y113.868 E101.2792
G1 X108.488 Y100.155 E101.8059
G1 X108.369 Y99.945 E101.8139
G1 X111.120 Y95.284 E101.9939
G1 X116.042 Y86.760 E102.3213
G0 X117.021 Y85.848 F10800
G1 X119.375 Y81.771 E102.4779 F300
G1 X119.433 Y81.673 E102.4817
G1 X119.734 Y81.676 E102.4917
G1 X135.577 Y81.673 E103.0186
G1 X140.657 Y81.723 E103.1876
G1 X143.259 Y86.330 E103.3636
G1 X151.178 Y100.050 E103.8905
G1 X148.543 Y104.515 E104.0629
G1 X140.626 Y118.229 E104.5896
G1 X140.581 Y118.304 E104.5925
G1 X135.286 Y118.250 E104.7686
G1 X119.450 Y118.250 E105.2953
G1 X119.329 Y118.249 E105.2994
G1 X116.745 Y113.670 E105.4742
G1 X108.822 Y99.949 E106.0012
G1 X111.457 Y95.485 E106.1736
G1 X116.923 Y86.019 E106.5371
G0 X117.902 Y85.108 F10800
G1 X119.655 Y82.072 E106.6538 F300
G1 X119.732 Y82.072 E106.6563
G1 X135.575 Y82.069 E107.1832
G1 X140.428 Y82.117 E107.3447
G1 X142.920 Y86.528 E107.5132
G1 X150.724 Y100.048 E108.0324
G1 X148.206 Y104.313 E108.1971
G1 X140.359 Y117.906 E108.7191
G1 X135.288 Y117.854 E108.8878
G1 X119.557 Y117.854 E109.4110
G1 X117.084 Y113.472 E109.5784
G1 X109.277 Y99.951 E110.0977
G1 X111.794 Y95.687 E110.2624
G1 X117.804 Y85.279 E110.6621
G0 X118.783 Y84.367 F10800
G1 X119.880 Y82.468 E110.7350 F300
G1 X135.573 Y82.465 E111.2570
G1 X140.200 Y82.510 E111.4109
G1 X142.581 Y86.726 E111.5719
G1 X150.269 Y100.045 E112.0834
G1 X147.868 Y104.112 E112.2405
G1 X140.135 Y117.508 E112.7549
G1 X135.290 Y117.458 E112.9161
G1 X119.784 Y117.458 E113.4318
G1 X117.424 Y113.274 E113.5916
G1 X109.731 Y99.953 E114.1032
G1 X112.132 Y95.888 E114.2602
G1 X118.684 Y84.538 E114.6961
G0 X119.664 Y83.627 F10800
G1 X120.104 Y82.864 E114.7254 F300
G1 X135.571 Y82.860 E115.2398
G1 X139.972 Y82.904 E115.3862
G1 X142.242 Y86.924 E115.5398
G1 X149.815 Y100.043 E116.0436
G1 X147.531 Y103.911 E116.1930
G1 X139.912 Y117.109 E116.6999
G1 X135.292 Y117.062 E116.8535
G1 X120.011 Y117.062 E117.3618
G1 X117.763 Y113.076 E117.5140
G1 X110.186 Y99.956 E118.0179
G1 X112.469 Y96.089 E118.1672
G1 X119.565 Y83.798 E118.6393
G0 X120.427 Y83.260 F10800
G1 X135.569 Y83.256 E119.1429 F300
G1 X139.743 Y83.298 E119.2818
G1 X141.904 Y87.122 E119.4278
G1 X149.360 Y100.040 E119.9239
G1 X147.194 Y103.709 E120.0656
G1 X139.689 Y116.711 E120.5650
G1 X135.294 Y116.666 E120.7111
G1 X120.239 Y116.666 E121.2119
G1 X118.102 Y112.878 E121.3565
G1 X110.641 Y99.958 E121.8528
G1 X112.806 Y96.291 E121.9944
G1 X120.280 Y83.345 E122.4916
G0 X121.504 Y83.655 F10800
G1 X135.567 Y83.652 E122.9593 F300
G1 X139.515 Y83.691 E123.0907
G1 X141.565 Y87.320 E123.2293
G1 X148.905 Y100.038 E123.7177
G1 X146.857 Y103.508 E123.8517
G1 X139.465 Y116.313 E124.3435
G1 X135.296 Y116.270 E124.4821
G1 X120.466 Y116.270 E124.9754
G1 X118.441 Y112.680 E125.1125
G1 X111.095 Y99.960 E125.6010
G1 X113.143 Y96.492 E125.7350
G1 X120.554 Y83.655 E126.2280
G1 X121.308 Y83.655 E126.2531
G0 X122.580 Y84.051 F10800
G1 X135.565 Y84.048 E126.6849 F300
G1 X139.287 Y84.085 E126.8087
G1 X141.226 Y87.518 E126.9399
G1 X148.451 Y100.036 E127.4206
G1 X146.520 Y103.307 E127.5469
G1 X139.242 Y115.915 E128.0311
G1 X135.298 Y115.874 E128.1623
G1 X120.693 Y115.874 E128.6480
G1 X118.780 Y112.482 E128.7776
G1 X111.550 Y99.962 E129.2584
G1 X113.480 Y96.693 E129.3847
G1 X120.779 Y84.051 E129.8702
G1 X122.385 Y84.051 E129.9236
G0 X123.657 Y84.446 F10800
G1 X135.563 Y84.444 E130.3196 F300
G1 X139.058 Y84.479 E130.4359
G1 X140.887 Y87.716 E130.5595
G1 X147.996 Y100.034 E131.0326
G1 X146.183 Y103.106 E131.1512
G1 X139.019 Y115.516 E131.6278
G1 X135.300 Y115.478 E131.7515
G1 X120.921 Y115.478 E132.2298
G1 X119.119 Y112.284 E132.3518
G1 X112.004 Y99.964 E132.8249
G1 X113.817 Y96.894 E132.9435
G1 X121.004 Y84.447 E133.4216
G1 X123.461 Y84.446 E133.5033
G0 X124.733 Y84.842 F10800
G1 X135.561 Y84.840 E133.8634 F300
G1 X138.830 Y84.872 E133.9722
G1 X140.548 Y87.914 E134.0884
G1 X147.542 Y100.032 E134.5537
G1 X145.846 Y102.904 E134.6646
G1 X138.795 Y115.118 E135.1337
G1 X135.302 Y115.082 E135.2499
G1 X121.148 Y115.082 E135.7207
G1 X119.458 Y112.086 E135.8351
G1 X112.459 Y99.967 E136.3005
G1 X114.154 Y97.096 E136.4114
G1 X121.229 Y84.842 E136.8820
G1 X124.538 Y84.842 E136.9921
G0 X125.810 Y85.237 F10800
G1 X135.559 Y85.236 E137.3163 F300
G1 X138.601 Y85.266 E137.4175
G1 X140.209 Y88.112 E137.5263
G1 X147.087 Y100.029 E137.9839
G1 X145.509 Y102.703 E138.0872
G1 X138.572 Y114.720 E138.5487
G1 X135.304 Y114.686 E138.6574
G1 X121.375 Y114.686 E139.1207
G1 X119.797 Y111.888 E139.2275
G1 X112.914 Y99.969 E139.6853
G1 X114.491 Y97.297 E139.7885
G1 X121.453 Y85.238 E140.2516
G1 X125.614 Y85.237 E140.3900
G0 X126.886 Y85.633 F10800
G1 X135.557 Y85.631 E140.6784 F300
G1 X138.373 Y85.659 E140.7721
G1 X139.870 Y88.310 E140.8733
G1 X146.633 Y100.027 E141.3233
G1 X145.172 Y102.502 E141.4189
G1 X138.349 Y114.322 E141.8728
G1 X135.306 Y114.290 E141.9740
G1 X121.603 Y114.290 E142.4298
G1 X120.136 Y111.690 E142.5291
G1 X113.368 Y99.971 E142.9792
G1 X114.828 Y97.498 E143.0747
G1 X121.678 Y85.634 E143.5304
G1 X126.691 Y85.633 E143.6971
G0 X127.963 Y86.029 F10800
G1 X135.554 Y86.027 E143.9496 F300
G1 X138.145 Y86.053 E144.0357
G1 X139.532 Y88.508 E144.1295
G1 X146.178 Y100.025 E144.5718
G1 X144.835 Y102.300 E144.6597
G1 X138.126 Y113.923 E145.1060
G1 X135.308 Y113.894 E145.1997
G1 X121.830 Y113.894 E145.6480
G1 X120.475 Y111.492 E145.7398
G1 X113.823 Y99.973 E146.1822
G1 X115.165 Y97.700 E146.2700
G1 X121.903 Y86.030 E146.7182
G1 X127.767 Y86.029 E146.9132
G0 X129.040 Y86.424 F10800
G1 X135.552 Y86.423 E147.1299 F300
G1 X137.916 Y86.447 E147.2085
G1 X139.193 Y88.706 E147.2948
G1 X145.724 Y100.022 E147.7294
G1 X144.498 Y102.099 E147.8096
G1 X137.902 Y113.525 E148.2484
G1 X135.310 Y113.498 E148.3346
G1 X122.058 Y113.498 E148.7754
G1 X120.814 Y111.294 E148.8595
G1 X114.277 Y99.976 E149.2943
G1 X115.502 Y97.901 E149.3744
G1 X122.128 Y86.425 E149.8152
G1 X128.844 Y86.424 E150.0385
G0 X130.116 Y86.820 F10800
G1 X135.550 Y86.819 E150.2193 F300
G1 X137.688 Y86.840 E150.2904
G1 X138.854 Y88.904 E150.3692
G1 X145.269 Y100.020 E150.7961
G1 X144.161 Y101.898 E150.8686
G1 X137.679 Y113.127 E151.2998
G1 X135.312 Y113.102 E151.3785
G1 X122.285 Y113.102 E151.8118
G1 X121.154 Y111.097 E151.8884
G1 X114.732 Y99.978 E152.3155
G1 X115.839 Y98.102 E152.3879
G1 X122.353 Y86.821 E152.8212
G1 X129.920 Y86.820 E153.0729
G0 X131.193 Y87.215 F10800
G1 X135.548 Y87.215 E153.2178 F300
G1 X137.460 Y87.234 E153.2813
G1 X138.515 Y89.102 E153.3527
G1 X144.815 Y100.018 E153.7719
G1 X143.823 Y101.697 E153.8368
G1 X137.456 Y112.728 E154.2604
G1 X135.314 Y112.706 E154.3316
G1 X122.512 Y112.706 E154.7574
G1 X121.493 Y110.899 E154.8265
G1 X115.187 Y99.980 E155.2458
G1 X116.177 Y98.304 E155.3106
G1 X122.577 Y87.217 E155.7364
G1 X130.997 Y87.215 E156.0164
G0 X132.269 Y87.611 F10800
G1 X135.546 Y87.611 E156.1254 F300
G1 X137.231 Y87.628 E156.1815
G1 X138.176 Y89.300 E156.2454
G1 X144.361 Y100.015 E156.6569
G1 X143.486 Y101.495 E156.7140
G1 X137.232 Y112.330 E157.1301
G1 X135.316 Y112.310 E157.1939
G1 X122.740 Y112.310 E157.6122
G1 X121.832 Y110.701 E157.6736
G1 X115.641 Y99.982 E158.0853
G1 X116.514 Y98.505 E158.1424
G1 X122.802 Y87.612 E158.5607
G1 X132.073 Y87.611 E158.8691
G0 X133.346 Y88.007 F10800
G1 X135.544 Y88.006 E158.9422 F300
G1 X137.003 Y88.021 E158.9907
G1 X137.837 Y89.498 E159.0471
G1 X143.906 Y100.013 E159.4509
G1 X143.149 Y101.294 E159.5004
G1 X137.009 Y111.932 E159.9089
G1 X135.318 Y111.914 E159.9652
G1 X122.967 Y111.914 E160.3760
G1 X122.171 Y110.503 E160.4299
G1 X116.096 Y99.985 E160.8339
G1 X116.851 Y98.706 E160.8833
G1 X123.027 Y88.008 E161.2941
G1 X133.150 Y88.007 E161.6308
G0 X134.422 Y88.403 F10800
G1 X135.542 Y88.402 E161.6681 F300
G1 X136.774 Y88.415 E161.7091
G1 X137.498 Y89.696 E161.7580
G1 X143.452 Y100.010 E162.1541
G1 X142.812 Y101.093 E162.1959
G1 X136.786 Y111.534 E162.5969
G1 X135.320 Y111.519 E162.6456
G1 X123.194 Y111.519 E163.0489
G1 X122.510 Y110.305 E163.0953
G1 X116.550 Y99.987 E163.4916
G1 X117.188 Y98.908 E163.5333
G1 X123.252 Y88.404 E163.9367
G1 X134.227 Y88.403 E164.3017
G0 X135.499 Y88.798 F10800
G1 X135.539 Y88.798 E164.3031 F300
G1 X136.546 Y88.808 E164.3365
G1 X137.159 Y89.894 E164.3780
G1 X142.997 Y100.008 E164.7664
G1 X142.475 Y100.892 E164.8006
G1 X136.563 Y111.135 E165.1939
G1 X135.322 Y111.123 E165.2352
G1 X123.422 Y111.123 E165.6310
G1 X122.849 Y110.107 E165.6698
G1 X117.005 Y99.989 E166.0584
G1 X117.525 Y99.109 E166.0924
G1 X123.477 Y88.799 E166.4883
G1 X135.303 Y88.798 E166.8817
G0 X136.366 Y89.288 F10800
G1 X136.821 Y90.092 E166.9124 F300
G1 X142.542 Y100.006 E167.2931
G1 X142.138 Y100.691 E167.3196
G1 X136.339 Y110.737 E167.7054
G1 X135.324 Y110.727 E167.7392
G1 X123.649 Y110.727 E168.1275
G1 X123.188 Y109.909 E168.1587
G1 X117.460 Y99.991 E168.5396
G1 X117.862 Y99.310 E168.5659
G1 X123.701 Y89.195 E168.9544
G1 X135.537 Y89.194 E169.3481
G1 X136.220 Y89.201 E169.3708
G0 X136.531 Y90.375 F10800
G1 X142.088 Y100.003 E169.7405 F300
G1 X141.800 Y100.490 E169.7593
G1 X136.116 Y110.339 E170.1375
G1 X135.326 Y110.331 E170.1638
G1 X123.876 Y110.331 E170.5446
G1 X123.527 Y109.711 E170.5683
G1 X117.914 Y99.994 E170.9415
G1 X118.199 Y99.512 E170.9601
G1 X123.926 Y89.591 E171.3411
G1 X135.535 Y89.590 E171.7273
G1 X136.089 Y89.596 E171.7457
G1 X136.433 Y90.204 E171.7689
G0 X136.736 Y91.515 F10800
G1 X141.633 Y100.001 E172.0948 F300
G1 X141.463 Y100.288 E172.1059
G1 X135.893 Y109.941 E172.4766
G1 X135.328 Y109.935 E172.4954
G1 X124.104 Y109.935 E172.8687
G1 X123.866 Y109.514 E172.8847
G1 X118.369 Y99.996 E173.2503
G1 X118.536 Y99.713 E173.2612
G1 X124.151 Y89.986 E173.6348
G1 X135.533 Y89.986 E174.0133
G1 X135.861 Y89.989 E174.0243
G1 X136.143 Y90.487 E174.0433
G1 X136.637 Y91.344 E174.0762
G0 X136.940 Y92.654 F10800
G1 X141.178 Y99.999 E174.3582 F300
G1 X141.126 Y100.087 E174.3616
G1 X135.669 Y109.542 E174.7247
G1 X135.329 Y109.539 E174.7360
G1 X124.331 Y109.539 E175.1018
G1 X124.205 Y109.316 E175.1103
G1 X118.824 Y99.998 E175.4682
G1 X118.873 Y99.914 E175.4715
G1 X124.376 Y90.382 E175.8375
G1 X135.531 Y90.382 E176.2086
G1 X135.633 Y90.383 E176.2120
G1 X135.804 Y90.685 E176.2235
G1 X136.841 Y92.483 E176.2925
G0 X137.145 Y93.794 F10800
G1 X140.725 Y99.998 E176.5308 F300
G1 X135.446 Y109.144 E176.8820
G1 X135.331 Y109.143 E176.8858
G1 X124.545 Y109.118 E177.2446
G1 X119.278 Y99.999 E177.5949
G1 X124.600 Y90.778 E177.9490
G1 X135.405 Y90.778 E178.3084
G1 X135.465 Y90.883 E178.3124
G1 X137.046 Y93.623 E178.4176
G0 X137.349 Y94.933 F10800
G1 X140.271 Y99.998 E178.6121 F300
G1 X135.222 Y108.747 E178.9480
G1 X124.769 Y108.722 E179.2957
G1 X119.731 Y99.999 E179.6308
G1 X124.825 Y91.174 E179.9697
G1 X135.180 Y91.174 E180.3141
G1 X137.250 Y94.763 E180.4519
G0 X137.553 Y96.073 F10800
G1 X139.818 Y99.998 E180.6026 F300
G1 X134.998 Y108.350 E180.9233
G1 X124.994 Y108.327 E181.2560
G1 X120.184 Y99.999 E181.5759
G1 X125.050 Y91.570 E181.8996
G1 X134.955 Y91.570 E182.2291
G1 X137.455 Y95.902 E182.3954
G0 X137.758 Y97.213 F10800
G1 X139.365 Y99.998 E182.5024 F300
G1 X134.773 Y107.954 E182.8079
G1 X125.219 Y107.932 E183.1256
G1 X120.637 Y99.999 E183.4303
G1 X125.275 Y91.966 E183.7389
G1 X134.730 Y91.966 E184.0533
G1 X137.659 Y97.042 E184.2483
G0 X137.962 Y98.353 F10800
G1 X138.912 Y99.998 E184.3114 F300
G1 X134.549 Y107.557 E184.6018
G1 X125.444 Y107.536 E184.9046
G1 X121.091 Y99.999 E185.1941
G1 X125.499 Y92.362 E185.4874
G1 X134.505 Y92.362 E185.7869
G1 X137.864 Y98.182 E186.0104
G0 X138.167 Y99.492 F10800
G1 X138.459 Y99.998 E186.0298 F300
G1 X134.324 Y107.161 E186.3049
G1 X125.669 Y107.141 E186.5928
G1 X121.544 Y99.999 E186.8671
G1 X125.724 Y92.758 E187.1452
G1 X134.280 Y92.758 E187.4298
G1 X138.068 Y99.321 E187.6819
G0 X137.870 Y100.233 F10800
G1 X134.100 Y106.765 E187.9327 F300
G1 X125.894 Y106.746 E188.2056
G1 X121.997 Y99.999 E188.4648
G1 X125.949 Y93.154 E188.7277
G1 X134.056 Y93.154 E188.9973
G1 X138.005 Y99.998 E189.2601
G1 X137.968 Y100.062 E189.2626
G0 X136.989 Y100.973 F10800
G1 X133.876 Y106.368 E189.4698 F300
G1 X126.119 Y106.350 E189.7278
G1 X122.450 Y99.999 E189.9717
G1 X126.173 Y93.550 E190.2194
G1 X133.831 Y93.550 E190.4741
G1 X137.552 Y99.998 E190.7217
G1 X137.088 Y100.803 E190.7526
G0 X136.108 Y101.714 F10800
G1 X133.651 Y105.972 E190.9161 F300
G1 X126.343 Y105.955 E191.1592
G1 X122.904 Y99.999 E191.3879
G1 X126.398 Y93.945 E191.6204
G1 X133.606 Y93.945 E191.8601
G1 X137.099 Y99.998 E192.0926
G1 X136.207 Y101.543 E192.1519
G0 X135.228 Y102.455 F10800
G1 X133.427 Y105.575 E192.2717 F300
G1 X126.568 Y105.559 E192.4999
G1 X123.357 Y99.999 E192.7134
G1 X126.623 Y94.341 E192.9307
G1 X133.381 Y94.341 E193.1555
G1 X136.646 Y99.998 E193.3727
G1 X135.326 Y102.284 E193.4605
G0 X134.347 Y103.195 F10800
G1 X133.203 Y105.179 E193.5366 F300
G1 X126.793 Y105.164 E193.7498
G1 X123.810 Y99.999 E193.9482
G1 X126.848 Y94.737 E194.1503
G1 X133.156 Y94.737 E194.3601
G1 X136.193 Y99.998 E194.5621
G1 X134.446 Y103.025 E194.6783
G0 X133.467 Y103.936 F10800
G1 X132.978 Y104.782 E194.7108 F300
G1 X127.018 Y104.768 E194.9091
G1 X124.264 Y99.999 E195.0922
G1 X127.072 Y95.133 E195.2791
G1 X132.932 Y95.133 E195.4740
G1 X135.740 Y99.998 E195.6608
G1 X133.565 Y103.765 E195.8055
G0 X132.656 Y104.386 F10800
G1 X127.243 Y104.373 E195.9855 F300
G1 X124.717 Y99.999 E196.1535
G1 X127.297 Y95.529 E196.3252
G1 X132.707 Y95.529 E196.5051
G1 X135.286 Y99.998 E196.6767
G1 X132.803 Y104.300 E196.8419
G0 X131.580 Y103.987 F10800
G1 X127.468 Y103.978 E196.9787 F300
G1 X125.170 Y99.999 E197.1315
G1 X127.522 Y95.925 E197.2880
G1 X132.482 Y95.925 E197.4529
G1 X134.833 Y99.998 E197.6093
G1 X132.530 Y103.989 E197.7626
G1 X131.776 Y103.988 E197.7877
G0 X130.505 Y103.589 F10800
G1 X127.693 Y103.582 E197.8812 F300
G1 X125.624 Y99.999 E198.0188
G1 X127.746 Y96.321 E198.1601
G1 X132.258 Y96.321 E198.3101
G1 X134.380 Y99.998 E198.4513
G1 X132.305 Y103.593 E198.5894
G1 X130.701 Y103.589 E198.6427
G0 X129.429 Y103.190 F10800
G1 X127.918 Y103.187 E198.6930 F300
G1 X126.077 Y99.999 E198.8155
G1 X127.971 Y96.717 E198.9415
G1 X132.033 Y96.717 E199.0766
G1 X133.927 Y99.998 E199.2026
G1 X132.081 Y103.196 E199.3254
G1 X129.625 Y103.191 E199.4071
G0 X128.354 Y102.792 F10800
G1 X128.143 Y102.791 E199.4141 F300
G1 X126.530 Y99.999 E199.5214
G1 X128.196 Y97.113 E199.6322
G1 X131.808 Y97.113 E199.7523
G1 X133.474 Y99.998 E199.8631
G1 X131.856 Y102.800 E199.9707
G1 X128.549 Y102.792 E200.0807
G0 X128.044 Y101.836 F10800
G1 X126.983 Y99.999 E200.1513 F300
G1 X128.420 Y97.509 E200.2469
G1 X131.584 Y97.509 E200.3521
G1 X133.020 Y99.998 E200.4477
G1 X131.632 Y102.403 E200.5401
G1 X128.367 Y102.396 E200.6486
G1 X128.143 Y102.007 E200.6636
G0 X127.839 Y100.697 F10800
G1 X127.436 Y99.999 E200.6904 F300
G1 X128.645 Y97.905 E200.7708
G1 X131.359 Y97.905 E200.8611
G1 X132.567 Y99.998 E200.9414
G1 X131.408 Y102.007 E201.0186
G1 X128.592 Y102.001 E201.1122
G1 X127.938 Y100.868 E201.1558
G0 X127.939 Y99.913 F10800
G1 X128.870 Y98.301 E201.2177 F300
G1 X131.135 Y98.301 E201.2930
G1 X132.114 Y99.998 E201.3582
G1 X131.183 Y101.611 E201.4201
G1 X128.817 Y101.605 E201.4988
G1 X127.939 Y100.084 E201.5572
G0 X128.820 Y99.173 F10800
G1 X129.094 Y98.697 E201.5755 F300
G1 X130.910 Y98.697 E201.6359
G1 X131.661 Y99.998 E201.6859
G1 X130.959 Y101.214 E201.7326
G1 X129.042 Y101.210 E201.7963
G1 X128.343 Y99.999 E201.8429
G1 X128.721 Y99.344 E201.8680
G0 X129.626 Y99.093 F10800
G1 X130.685 Y99.093 E201.9033 F300
G1 X131.208 Y99.998 E201.9380
G1 X130.734 Y100.818 E201.9695
G1 X129.267 Y100.814 E202.0183
G1 X128.796 Y99.999 E202.0496
G1 X129.319 Y99.093 E202.0844
G1 X129.430 Y99.093 E202.0881
G0 X130.510 Y99.574 F10800
G1 X130.755 Y99.998 E202.1044 F300
G1 X130.510 Y100.421 E202.1207
G1 X129.492 Y100.419 E202.1545
G1 X129.249 Y99.999 E202.1707
G1 X129.543 Y99.489 E202.1903
G1 X130.363 Y99.489 E202.2175
G0 X130.188 Y100.024 F10800
G1 X129.717 Y100.023 E202.2332 F300
G1 X129.768 Y99.885 E202.2381
G1 X130.236 Y99.885 E202.2537
G1 X130.253 Y99.932 E202.2553
; ------------------------------------
; Layer #1
; ------------------------------------
G21 ; mm
G90 ; abs
G92 E0 ; reset extr
M106 S0
;segType:Perimeter
G0 F4800 E-1.0000
G0 F2400 Z0.400
G0 X100.759 Y99.951 F10800
G0 F4800 E0.0000
G1 X100.167 Y99.564 E0.0235 F2159
G1 X100.855 Y98.501 E0.0656
G1 X101.782 Y96.975 E0.1250
G1 X102.688 Y95.445 E0.1842
G1 X109.907 Y83.213 E0.6565
G1 X110.751 Y81.752 E0.7127
G1 X114.362 Y75.644 E0.9487
G1 X115.084 Y74.433 E0.9956
G1 X115.402 Y73.944 E1.0150
G1 X116.015 Y73.971 E1.0354
G1 X117.444 Y73.988 E1.0829
G1 X124.548 Y74.060 E1.3192
G1 X126.235 Y74.060 E1.3753
G1 X140.429 Y74.197 E1.8474
G1 X142.201 Y74.218 E1.9064
G1 X143.970 Y74.259 E1.9652
G1 X145.268 Y74.331 E2.0085
G1 X145.873 Y75.512 E2.0526
G1 X146.731 Y77.078 E2.1120
G1 X147.603 Y78.628 E2.1712
G1 X154.586 Y90.996 E2.6436
G1 X155.430 Y92.456 E2.6997
G1 X158.914 Y98.638 E2.9357
G1 X159.602 Y99.869 E2.9826
G1 X159.865 Y100.386 E3.0019
G1 X159.145 Y101.499 E3.0460
G1 X158.218 Y103.025 E3.1053
G1 X157.312 Y104.555 E3.1645
G1 X150.093 Y116.787 E3.6369
G1 X149.250 Y118.248 E3.6930
G1 X145.639 Y124.356 E3.9290
G1 X144.916 Y125.567 E3.9759
G1 X144.599 Y126.055 E3.9953
G1 X143.272 Y125.988 E4.0394
G1 X141.487 Y125.949 E4.0988
G1 X139.709 Y125.929 E4.1580
G1 X125.507 Y125.793 E4.6304
G1 X123.820 Y125.793 E4.6865
G1 X116.724 Y125.719 E4.9225
G1 X115.314 Y125.700 E4.9694
G1 X114.732 Y125.669 E4.9888
G1 X114.128 Y124.488 E5.0329
G1 X113.269 Y122.922 E5.0923
G1 X112.397 Y121.372 E5.1515
G1 X105.414 Y109.004 E5.6239
G1 X104.570 Y107.543 E5.6800
G1 X101.086 Y101.362 E5.9160
G1 X100.398 Y100.131 E5.9629
G1 X100.162 Y99.666 E5.9802
G1 X100.790 Y99.344
;segType:Loop
G0 X101.059 Y98.924 F10800
G1 X101.193 Y98.718 E5.9884 F3600
G1 X102.124 Y97.185 E6.0481
G1 X103.031 Y95.652 E6.1073
G1 X110.251 Y83.419 E6.5797
G1 X111.095 Y81.958 E6.6359
G1 X114.704 Y75.852 E6.8718
G1 X115.422 Y74.649 E6.9184
G1 X115.611 Y74.358 E6.9299
G1 X116.004 Y74.375 E6.9430
G1 X117.440 Y74.392 E6.9908
G1 X124.546 Y74.464 E7.2271
G1 X126.233 Y74.464 E7.2832
G1 X140.425 Y74.601 E7.7553
G1 X142.194 Y74.622 E7.8141
G1 X143.955 Y74.663 E7.8727
G1 X145.018 Y74.722 E7.9081
G1 X145.520 Y75.703 E7.9448
G1 X146.382 Y77.276 E8.0044
G1 X147.255 Y78.828 E8.0637
G1 X154.240 Y91.198 E8.5361
G1 X155.083 Y92.659 E8.5922
G1 X158.566 Y98.837 E8.8281
G1 X159.250 Y100.061 E8.8748
G1 X159.403 Y100.362 E8.8860
G1 X158.807 Y101.283 E8.9225
G1 X157.876 Y102.816 E8.9821
G1 X156.969 Y104.348 E9.0413
G1 X149.749 Y116.581 E9.5138
G1 X148.905 Y118.042 E9.5699
G1 X145.296 Y124.148 E9.8058
G1 X144.578 Y125.351 E9.8524
G1 X144.390 Y125.640 E9.8639
G1 X143.287 Y125.584 E9.9006
G1 X141.494 Y125.544 E9.9603
G1 X139.713 Y125.524 E10.0195
G1 X125.509 Y125.388 E10.4920
G1 X123.822 Y125.388 E10.5481
G1 X116.729 Y125.315 E10.7840
G1 X115.328 Y125.296 E10.8306
G1 X114.982 Y125.277 E10.8421
G1 X114.480 Y124.297 E10.8788
G1 X113.618 Y122.724 E10.9384
G1 X112.745 Y121.172 E10.9977
G1 X105.760 Y108.802 E11.4701
G1 X104.917 Y107.341 E11.5262
G1 X101.434 Y101.163 E11.7621
G1 X100.750 Y99.939 E11.8088
G1 X100.597 Y99.638 E11.8200
G1 X100.952 Y99.090 E11.8417
;segType:HShell
G0 X101.966 Y98.210 F10800
G1 X102.462 Y97.392 E11.8735 F1800
G1 X103.371 Y95.857 E11.9329
G1 X110.592 Y83.622 E12.4054
G1 X111.436 Y82.161 E12.4615
G1 X115.044 Y76.058 E12.6973
G1 X115.818 Y74.767 E12.7474
G1 X115.993 Y74.775 E12.7532
G1 X117.435 Y74.792 E12.8012
G1 X124.544 Y74.865 E13.0376
G1 X126.231 Y74.865 E13.0937
G1 X140.421 Y75.002 E13.5657
G1 X142.188 Y75.022 E13.6245
G1 X143.939 Y75.063 E13.6827
G1 X144.770 Y75.109 E13.7104
G1 X145.171 Y75.892 E13.7397
G1 X146.037 Y77.472 E13.7996
G1 X146.911 Y79.027 E13.8589
G1 X153.897 Y91.398 E14.3315
G1 X154.741 Y92.859 E14.3876
G1 X158.222 Y99.035 E14.6234
G1 X158.946 Y100.338 E14.6730
G1 X158.473 Y101.068 E14.7019
G1 X157.537 Y102.608 E14.7618
G1 X156.629 Y104.143 E14.8211
G1 X149.408 Y116.378 E15.2937
G1 X148.565 Y117.838 E15.3497
G1 X144.957 Y123.942 E15.5856
G1 X144.184 Y125.229 E15.6355
G1 X143.301 Y125.184 E15.6649
G1 X141.501 Y125.144 E15.7248
G1 X139.717 Y125.124 E15.7841
G1 X125.511 Y124.988 E16.2566
G1 X123.824 Y124.988 E16.3127
G1 X116.734 Y124.915 E16.5486
G1 X115.229 Y124.890 E16.5986
G1 X114.829 Y124.108 E16.6278
G1 X113.963 Y122.528 E16.6878
G1 X113.089 Y120.973 E16.7471
G1 X106.103 Y108.602 E17.2196
G1 X105.259 Y107.141 E17.2757
G1 X101.778 Y100.965 E17.5115
G1 X101.054 Y99.662 E17.5611
G1 X101.527 Y98.932 E17.5900
G1 X101.863 Y98.379 E17.6116
G0 X102.847 Y97.513 F10800
G1 X103.707 Y96.061 E17.6677 F1800
G1 X110.929 Y83.824 E18.1403
G1 X111.773 Y82.363 E18.1964
G1 X115.379 Y76.262 E18.4321
G1 X116.034 Y75.171 E18.4744
G1 X117.431 Y75.188 E18.5209
G1 X124.542 Y75.260 E18.7574
G1 X126.229 Y75.260 E18.8135
G1 X140.417 Y75.397 E19.2855
G1 X142.181 Y75.418 E19.3441
G1 X143.924 Y75.458 E19.4021
G1 X144.525 Y75.492 E19.4222
G1 X144.826 Y76.079 E19.4441
G1 X145.696 Y77.666 E19.5043
G1 X146.571 Y79.223 E19.5637
G1 X153.558 Y91.596 E20.0363
G1 X154.401 Y93.056 E20.0924
G1 X157.881 Y99.230 E20.3281
G1 X158.488 Y100.322 E20.3697
G1 X158.142 Y100.856 E20.3908
G1 X157.203 Y102.403 E20.4510
G1 X156.293 Y103.939 E20.5104
G1 X149.071 Y116.176 E20.9830
G1 X148.228 Y117.637 E21.0391
G1 X144.621 Y123.738 E21.2748
G1 X143.970 Y124.821 E21.3169
G1 X143.315 Y124.788 E21.3387
G1 X141.507 Y124.749 E21.3988
G1 X139.721 Y124.728 E21.4582
G1 X125.513 Y124.592 E21.9308
G1 X123.826 Y124.592 E21.9869
G1 X116.739 Y124.519 E22.2227
G1 X115.469 Y124.498 E22.2649
G1 X115.174 Y123.921 E22.2864
G1 X114.304 Y122.334 E22.3466
G1 X113.429 Y120.777 E22.4060
G1 X106.442 Y108.404 E22.8787
G1 X105.598 Y106.944 E22.9348
G1 X102.119 Y100.770 E23.1704
G1 X101.512 Y99.678 E23.2120
G1 X101.858 Y99.144 E23.2331
G1 X102.746 Y97.682 E23.2901
G0 X103.736 Y96.782 F10800
G1 X104.043 Y96.264 E23.3101 F1800
G1 X111.266 Y84.025 E23.7828
G1 X112.110 Y82.564 E23.8389
G1 X115.714 Y76.467 E24.0745
G1 X116.253 Y75.570 E24.1092
G1 X117.427 Y75.584 E24.1483
G1 X124.540 Y75.656 E24.3849
G1 X126.227 Y75.656 E24.4410
G1 X140.413 Y75.793 E24.9128
G1 X142.174 Y75.813 E24.9714
G1 X143.909 Y75.854 E25.0291
G1 X144.281 Y75.875 E25.0415
G1 X144.481 Y76.266 E25.0562
G1 X145.354 Y77.860 E25.1166
G1 X146.231 Y79.418 E25.1761
G1 X153.219 Y91.794 E25.6488
G1 X154.062 Y93.254 E25.7049
G1 X157.541 Y99.425 E25.9405
G1 X158.030 Y100.307 E25.9740
G1 X157.812 Y100.644 E25.9874
G1 X156.868 Y102.198 E26.0479
G1 X155.957 Y103.736 E26.1073
G1 X148.734 Y115.975 E26.5800
G1 X147.891 Y117.435 E26.6361
G1 X144.286 Y123.533 E26.8717
G1 X143.757 Y124.414 E26.9059
G1 X143.329 Y124.393 E26.9201
G1 X141.513 Y124.353 E26.9805
G1 X139.725 Y124.333 E27.0400
G1 X125.514 Y124.196 E27.5127
G1 X123.828 Y124.196 E27.5688
G1 X116.744 Y124.123 E27.8044
G1 X115.710 Y124.106 E27.8388
G1 X115.519 Y123.734 E27.8527
G1 X114.646 Y122.140 E27.9131
G1 X113.769 Y120.582 E27.9726
G1 X106.781 Y108.206 E28.4453
G1 X105.937 Y106.746 E28.5014
G1 X102.459 Y100.575 E28.7370
G1 X101.970 Y99.693 E28.7705
G1 X102.188 Y99.356 E28.7839
G1 X103.132 Y97.803 E28.8444
G1 X103.636 Y96.952 E28.8772
G0 X104.625 Y96.051 F10800
G1 X111.603 Y84.226 E29.3339 F1800
G1 X112.447 Y82.765 E29.3900
G1 X116.050 Y76.671 E29.6255
G1 X116.471 Y75.968 E29.6527
G1 X117.423 Y75.980 E29.6844
G1 X124.538 Y76.052 E29.9211
G1 X126.226 Y76.052 E29.9772
G1 X140.409 Y76.189 E30.4489
G1 X142.168 Y76.209 E30.5074
G1 X144.036 Y76.258 E30.5696
G1 X144.136 Y76.453 E30.5769
G1 X145.013 Y78.053 E30.6376
G1 X145.891 Y79.614 E30.6972
G1 X152.880 Y91.992 E31.1700
G1 X153.723 Y93.452 E31.2260
G1 X157.200 Y99.619 E31.4615
G1 X157.573 Y100.291 E31.4870
G1 X157.481 Y100.432 E31.4926
G1 X156.533 Y101.993 E31.5534
G1 X155.621 Y103.533 E31.6129
G1 X148.397 Y115.774 E32.0857
G1 X147.554 Y117.234 E32.1417
G1 X143.951 Y123.329 E32.3772
G1 X143.543 Y124.007 E32.4035
G1 X143.343 Y123.997 E32.4102
G1 X141.520 Y123.957 E32.4709
G1 X139.729 Y123.937 E32.5304
G1 X125.516 Y123.800 E33.0032
G1 X123.830 Y123.800 E33.0593
G1 X116.749 Y123.728 E33.2948
G1 X115.950 Y123.714 E33.3214
G1 X115.864 Y123.547 E33.3276
G1 X114.987 Y121.947 E33.3883
G1 X114.109 Y120.386 E33.4479
G1 X107.120 Y108.008 E33.9207
G1 X106.277 Y106.548 E33.9768
G1 X102.800 Y100.380 E34.2122
G1 X102.428 Y99.709 E34.2378
G1 X102.519 Y99.569 E34.2433
G1 X103.467 Y98.008 E34.3041
G1 X104.379 Y96.467 E34.3636
G1 X104.524 Y96.221 E34.3732
G0 X105.513 Y95.319 F10800
G1 X111.940 Y84.428 E34.7938 F1800
G1 X112.784 Y82.967 E34.8499
G1 X116.385 Y76.875 E35.0852
G1 X116.690 Y76.367 E35.1050
G1 X124.536 Y76.448 E35.3659
G1 X126.224 Y76.448 E35.4221
G1 X140.405 Y76.585 E35.8937
G1 X142.160 Y76.605 E35.9522
G1 X143.795 Y76.647 E36.0065
G1 X144.672 Y78.247 E36.0672
G1 X145.551 Y79.810 E36.1269
G1 X152.541 Y92.190 E36.5997
G1 X153.384 Y93.650 E36.6558
G1 X156.859 Y99.814 E36.8912
G1 X157.116 Y100.277 E36.9087
G1 X156.198 Y101.787 E36.9675
G1 X155.285 Y103.330 E37.0272
G1 X148.060 Y115.572 E37.5000
G1 X147.216 Y117.033 E37.5561
G1 X143.615 Y123.125 E37.7914
G1 X143.330 Y123.601 E37.8099
G1 X141.526 Y123.561 E37.8699
G1 X139.733 Y123.541 E37.9295
G1 X125.518 Y123.404 E38.4023
G1 X123.832 Y123.404 E38.4584
G1 X116.754 Y123.332 E38.6938
G1 X116.188 Y123.322 E38.7127
G1 X115.328 Y121.753 E38.7722
G1 X114.449 Y120.190 E38.8318
G1 X107.459 Y107.810 E39.3047
G1 X106.616 Y106.350 E39.3608
G1 X103.141 Y100.186 E39.5961
G1 X102.884 Y99.723 E39.6137
G1 X103.801 Y98.213 E39.6725
G1 X104.715 Y96.670 E39.7321
G1 X105.412 Y95.489 E39.7778
G0 X106.400 Y94.587 F10800
G1 X112.277 Y84.629 E40.1623 F1800
G1 X113.121 Y83.168 E40.2184
G1 X116.720 Y77.079 E40.4537
G1 X116.909 Y76.765 E40.4659
G1 X124.534 Y76.844 E40.7195
G1 X126.222 Y76.844 E40.7756
G1 X140.400 Y76.980 E41.2473
G1 X142.153 Y77.001 E41.3056
G1 X143.561 Y77.037 E41.3524
G1 X144.330 Y78.441 E41.4056
G1 X145.211 Y80.006 E41.4654
G1 X152.202 Y92.388 E41.9383
G1 X153.045 Y93.847 E41.9944
G1 X156.519 Y100.009 E42.2296
G1 X156.662 Y100.268 E42.2395
G1 X155.864 Y101.582 E42.2906
G1 X154.949 Y103.127 E42.3503
G1 X147.723 Y115.371 E42.8232
G1 X146.879 Y116.831 E42.8793
G1 X143.280 Y122.920 E43.1145
G1 X143.112 Y123.200 E43.1254
G1 X141.532 Y123.166 E43.1779
G1 X139.737 Y123.145 E43.2377
G1 X125.520 Y123.008 E43.7106
G1 X123.834 Y123.008 E43.7666
G1 X116.760 Y122.936 E44.0019
G1 X116.421 Y122.930 E44.0132
G1 X115.670 Y121.559 E44.0652
G1 X114.789 Y119.994 E44.1249
G1 X107.798 Y107.612 E44.5979
G1 X106.955 Y106.152 E44.6539
G1 X103.481 Y99.991 E44.8892
G1 X103.338 Y99.732 E44.8990
G1 X104.136 Y98.419 E44.9502
G1 X105.051 Y96.873 E45.0099
G1 X106.300 Y94.757 E45.0916
G0 X107.288 Y93.855 F10800
G1 X112.614 Y84.830 E45.4402 F1800
G1 X113.458 Y83.369 E45.4963
G1 X117.128 Y77.163 E45.7361
G1 X124.532 Y77.240 E45.9824
G1 X126.220 Y77.239 E46.0385
G1 X140.396 Y77.376 E46.5100
G1 X142.146 Y77.396 E46.5682
G1 X143.327 Y77.427 E46.6075
G1 X143.989 Y78.634 E46.6533
G1 X144.871 Y80.202 E46.7131
G1 X151.863 Y92.586 E47.1862
G1 X152.706 Y94.045 E47.2422
G1 X156.208 Y100.259 E47.4794
G1 X155.529 Y101.377 E47.5229
G1 X154.613 Y102.924 E47.5827
G1 X147.386 Y115.170 E48.0557
G1 X146.542 Y116.630 E48.1118
G1 X142.895 Y122.799 E48.3501
G1 X141.539 Y122.770 E48.3953
G1 X139.742 Y122.750 E48.4550
G1 X125.521 Y122.612 E48.9280
G1 X123.836 Y122.612 E48.9841
G1 X116.654 Y122.539 E49.2230
G1 X116.011 Y121.365 E49.2675
G1 X115.130 Y119.798 E49.3273
G1 X108.137 Y107.414 E49.8003
G1 X107.294 Y105.954 E49.8564
G1 X103.792 Y99.741 E50.0936
G1 X104.471 Y98.624 E50.1371
G1 X105.387 Y97.076 E50.1969
G1 X107.188 Y94.025 E50.3147
G0 X108.176 Y93.123 F10800
G1 X112.951 Y85.031 E50.6272 F1800
G1 X113.795 Y83.571 E50.6833
G1 X117.348 Y77.561 E50.9156
G1 X124.530 Y77.636 E51.1544
G1 X126.218 Y77.635 E51.2106
G1 X140.392 Y77.772 E51.6820
G1 X142.139 Y77.792 E51.7401
G1 X143.093 Y77.817 E51.7719
G1 X143.648 Y78.828 E51.8102
G1 X144.530 Y80.398 E51.8701
G1 X151.524 Y92.784 E52.3432
G1 X152.367 Y94.243 E52.3993
G1 X155.753 Y100.251 E52.6287
G1 X155.194 Y101.172 E52.6645
G1 X154.277 Y102.721 E52.7244
G1 X147.049 Y114.969 E53.1974
G1 X146.205 Y116.429 E53.2535
G1 X142.676 Y122.399 E53.4841
G1 X141.546 Y122.374 E53.5217
G1 X139.746 Y122.354 E53.5816
G1 X125.523 Y122.216 E54.0547
G1 X123.838 Y122.216 E54.1107
G1 X116.886 Y122.145 E54.3420
G1 X116.353 Y121.172 E54.3789
G1 X115.470 Y119.602 E54.4388
G1 X108.476 Y107.216 E54.9119
G1 X107.633 Y105.756 E54.9679
G1 X104.247 Y99.749 E55.1973
G1 X104.806 Y98.829 E55.2331
G1 X105.723 Y97.279 E55.2930
G1 X108.076 Y93.293 E55.4470
G0 X109.064 Y92.391 F10800
G1 X113.288 Y85.233 E55.7234 F1800
G1 X114.132 Y83.772 E55.7795
G1 X117.569 Y77.959 E56.0041
G1 X124.528 Y78.032 E56.2356
G1 X126.216 Y78.031 E56.2917
G1 X140.388 Y78.167 E56.7631
G1 X142.131 Y78.188 E56.8211
G1 X142.859 Y78.207 E56.8453
G1 X143.306 Y79.022 E56.8763
G1 X144.190 Y80.594 E56.9362
G1 X151.186 Y92.982 E57.4094
G1 X152.028 Y94.441 E57.4655
G1 X155.299 Y100.243 E57.6870
G1 X154.859 Y100.966 E57.7151
G1 X153.941 Y102.518 E57.7751
G1 X146.712 Y114.767 E58.2482
G1 X145.868 Y116.228 E58.3043
G1 X142.456 Y121.998 E58.5272
G1 X141.552 Y121.979 E58.5573
G1 X139.750 Y121.958 E58.6173
G1 X125.525 Y121.820 E59.0904
G1 X123.840 Y121.820 E59.1464
G1 X117.118 Y121.752 E59.3700
G1 X116.694 Y120.978 E59.3994
G1 X115.810 Y119.406 E59.4594
G1 X108.815 Y107.018 E59.9325
G1 X107.972 Y105.559 E59.9886
G1 X104.701 Y99.757 E60.2101
G1 X105.140 Y99.034 E60.2382
G1 X106.059 Y97.482 E60.2982
G1 X108.964 Y92.561 E60.4883
G0 X109.952 Y91.659 F10800
G1 X113.625 Y85.434 E60.7287 F1800
G1 X114.469 Y83.974 E60.7848
G1 X117.790 Y78.358 E61.0018
G1 X124.526 Y78.428 E61.2259
G1 X126.214 Y78.427 E61.2820
G1 X140.384 Y78.563 E61.7533
G1 X142.124 Y78.583 E61.8112
G1 X142.625 Y78.596 E61.8279
G1 X142.965 Y79.216 E61.8514
G1 X143.850 Y80.790 E61.9114
G1 X150.847 Y93.180 E62.3847
G1 X151.689 Y94.639 E62.4407
G1 X154.844 Y100.236 E62.6544
G1 X154.525 Y100.761 E62.6748
G1 X153.605 Y102.314 E62.7349
G1 X146.375 Y114.566 E63.2080
G1 X145.531 Y116.026 E63.2641
G1 X142.237 Y121.598 E63.4794
G1 X141.558 Y121.583 E63.5020
G1 X139.754 Y121.563 E63.5620
G1 X125.527 Y121.424 E64.0352
G1 X123.842 Y121.424 E64.0913
G1 X117.350 Y121.358 E64.3072
G1 X117.036 Y120.784 E64.3290
G1 X116.150 Y119.210 E64.3890
G1 X109.154 Y106.820 E64.8623
G1 X108.311 Y105.361 E64.9184
G1 X105.156 Y99.764 E65.1320
G1 X105.475 Y99.240 E65.1524
G1 X106.395 Y97.686 E65.2125
G1 X109.851 Y91.829 E65.4387
G0 X110.840 Y90.927 F10800
G1 X113.963 Y85.635 E65.6431 F1800
G1 X114.806 Y84.175 E65.6991
G1 X118.010 Y78.756 E65.9085
G1 X124.524 Y78.824 E66.1252
G1 X126.212 Y78.823 E66.1814
G1 X140.380 Y78.959 E66.6526
G1 X142.391 Y78.986 E66.7195
G1 X142.624 Y79.410 E66.7356
G1 X143.510 Y80.986 E66.7957
G1 X150.508 Y93.378 E67.2691
G1 X151.351 Y94.837 E67.3251
G1 X154.389 Y100.228 E67.5309
G1 X153.268 Y102.111 E67.6038
G1 X146.037 Y114.365 E68.0770
G1 X145.194 Y115.825 E68.1331
G1 X142.018 Y121.197 E68.3407
G1 X141.565 Y121.187 E68.3558
G1 X139.758 Y121.167 E68.4159
G1 X125.529 Y121.028 E68.8892
G1 X123.844 Y121.028 E68.9452
G1 X117.582 Y120.965 E69.1535
G1 X117.377 Y120.591 E69.1677
G1 X116.490 Y119.014 E69.2278
G1 X109.493 Y106.622 E69.7012
G1 X108.650 Y105.163 E69.7572
G1 X105.611 Y99.772 E69.9630
G1 X105.810 Y99.445 E69.9758
G1 X106.732 Y97.889 E70.0359
G1 X110.739 Y91.097 E70.2982
G0 X111.727 Y90.196 F10800
G1 X114.300 Y85.837 E70.4665 F1800
G1 X115.143 Y84.376 E70.5226
G1 X118.231 Y79.154 E70.7244
G1 X124.522 Y79.220 E70.9337
G1 X126.210 Y79.219 E70.9898
G1 X140.376 Y79.354 E71.4610
G1 X142.159 Y79.379 E71.5203
G1 X143.170 Y81.182 E71.5890
G1 X150.169 Y93.576 E72.0625
G1 X151.011 Y95.035 E72.1185
G1 X153.935 Y100.223 E72.3166
G1 X152.933 Y101.908 E72.3818
G1 X145.700 Y114.163 E72.8551
G1 X144.858 Y115.623 E72.9111
G1 X141.799 Y120.797 E73.1110
G1 X139.762 Y120.771 E73.1788
G1 X125.530 Y120.633 E73.6522
G1 X123.846 Y120.633 E73.7082
G1 X117.814 Y120.571 E73.9088
G1 X116.830 Y118.818 E73.9757
G1 X109.832 Y106.424 E74.4491
G1 X108.989 Y104.965 E74.5051
G1 X106.066 Y99.779 E74.7031
G1 X107.068 Y98.092 E74.7684
G1 X111.627 Y90.366 E75.0668
G0 X112.615 Y89.464 F10800
G1 X114.637 Y86.038 E75.1991 F1800
G1 X115.480 Y84.578 E75.2552
G1 X118.451 Y79.552 E75.4493
G1 X124.520 Y79.616 E75.6512
G1 X126.209 Y79.615 E75.7073
G1 X140.371 Y79.750 E76.1784
G1 X141.929 Y79.771 E76.2302
G1 X142.830 Y81.377 E76.2915
G1 X149.830 Y93.774 E76.7650
G1 X150.672 Y95.233 E76.8210
G1 X153.482 Y100.217 E77.0113
G1 X152.597 Y101.705 E77.0689
G1 X145.363 Y113.962 E77.5423
G1 X144.521 Y115.422 E77.5983
G1 X141.578 Y120.398 E77.7906
G1 X139.766 Y120.376 E77.8509
G1 X125.532 Y120.237 E78.3243
G1 X123.848 Y120.237 E78.3803
G1 X118.043 Y120.178 E78.5734
G1 X117.170 Y118.622 E78.6327
G1 X110.171 Y106.226 E79.1062
G1 X109.328 Y104.767 E79.1623
G1 X106.520 Y99.784 E79.3525
G1 X107.403 Y98.295 E79.4101
G1 X112.515 Y89.634 E79.7446
G0 X113.503 Y88.732 F10800
G1 X114.974 Y86.239 E79.8409 F1800
G1 X115.817 Y84.779 E79.8970
G1 X118.672 Y79.951 E80.0835
G1 X124.518 Y80.012 E80.2780
G1 X126.207 Y80.011 E80.3341
G1 X140.366 Y80.146 E80.8051
G1 X141.699 Y80.164 E80.8495
G1 X142.490 Y81.573 E80.9032
G1 X149.491 Y93.972 E81.3768
G1 X150.333 Y95.431 E81.4328
G1 X153.028 Y100.212 E81.6154
G1 X152.261 Y101.501 E81.6653
G1 X145.026 Y113.761 E82.1387
G1 X144.184 Y115.220 E82.1948
G1 X141.358 Y120.000 E82.3794
G1 X139.771 Y119.980 E82.4322
G1 X125.534 Y119.841 E82.9058
G1 X123.850 Y119.841 E82.9618
G1 X118.272 Y119.784 E83.1473
G1 X117.511 Y118.427 E83.1991
G1 X110.510 Y106.028 E83.6726
G1 X109.668 Y104.570 E83.7287
G1 X106.973 Y99.790 E83.9112
G1 X107.739 Y98.499 E83.9611
G1 X113.403 Y88.902 E84.3317
G0 X114.391 Y88.000 F10800
G1 X115.311 Y86.441 E84.3919 F1800
G1 X116.154 Y84.980 E84.4480
G1 X118.892 Y80.349 E84.6270
G1 X124.516 Y80.408 E84.8140
G1 X126.205 Y80.407 E84.8702
G1 X140.362 Y80.541 E85.3411
G1 X141.470 Y80.557 E85.3779
G1 X142.150 Y81.769 E85.4241
G1 X149.152 Y94.170 E85.8978
G1 X149.994 Y95.628 E85.9538
G1 X152.574 Y100.207 E86.1286
G1 X151.925 Y101.298 E86.1709
G1 X144.689 Y113.560 E86.6444
G1 X143.847 Y115.019 E86.7005
G1 X141.137 Y119.601 E86.8775
G1 X139.775 Y119.584 E86.9228
G1 X125.536 Y119.445 E87.3964
G1 X123.852 Y119.445 E87.4524
G1 X118.501 Y119.391 E87.6304
G1 X117.851 Y118.231 E87.6746
G1 X110.849 Y105.830 E88.1483
G1 X110.006 Y104.372 E88.2043
G1 X107.427 Y99.795 E88.3791
G1 X108.075 Y98.702 E88.4213
G1 X114.290 Y88.170 E88.8281
G0 X115.279 Y87.268 F10800
G1 X115.648 Y86.642 E88.8522 F1800
G1 X116.491 Y85.182 E88.9083
G1 X119.113 Y80.747 E89.0797
G1 X124.514 Y80.804 E89.2593
G1 X126.203 Y80.803 E89.3155
G1 X140.357 Y80.937 E89.7863
G1 X141.240 Y80.949 E89.8156
G1 X141.809 Y81.964 E89.8544
G1 X148.813 Y94.368 E90.3281
G1 X149.655 Y95.826 E90.3841
G1 X152.121 Y100.201 E90.5512
G1 X151.589 Y101.094 E90.5857
G1 X144.352 Y113.358 E91.0594
G1 X143.510 Y114.818 E91.1154
G1 X140.917 Y119.202 E91.2848
G1 X139.779 Y119.189 E91.3227
G1 X125.537 Y119.049 E91.7964
G1 X123.854 Y119.049 E91.8524
G1 X118.731 Y118.997 E92.0228
G1 X118.191 Y118.035 E92.0595
G1 X111.188 Y105.632 E92.5332
G1 X110.346 Y104.174 E92.5892
G1 X107.880 Y99.800 E92.7562
G1 X108.411 Y98.905 E92.7908
G1 X115.178 Y87.438 E93.2337
G0 X116.165 Y86.531 F10800
G1 X116.829 Y85.383 E93.2778 F1800
G1 X119.334 Y81.145 E93.4415
G1 X124.512 Y81.200 E93.6138
G1 X126.201 Y81.198 E93.6700
G1 X140.353 Y81.333 E94.1407
G1 X141.010 Y81.342 E94.1625
G1 X141.469 Y82.160 E94.1937
G1 X148.474 Y94.566 E94.6676
G1 X149.316 Y96.024 E94.7236
G1 X151.667 Y100.196 E94.8829
G1 X151.254 Y100.891 E94.9098
G1 X144.015 Y113.157 E95.3835
G1 X143.172 Y114.616 E95.4395
G1 X140.696 Y118.804 E95.6013
G1 X139.784 Y118.793 E95.6317
G1 X125.539 Y118.653 E96.1055
G1 X123.856 Y118.653 E96.1614
G1 X118.960 Y118.603 E96.3243
G1 X118.531 Y117.839 E96.3535
G1 X111.527 Y105.434 E96.8273
G1 X110.685 Y103.976 E96.8833
G1 X108.333 Y99.805 E97.0425
G1 X108.747 Y99.109 E97.0695
G1 X115.985 Y86.843 E97.5431
G1 X116.067 Y86.702 E97.5486
G0 X117.046 Y85.791 F10800
G1 X117.166 Y85.584 E97.5565 F1800
G1 X119.554 Y81.544 E97.7126
G1 X124.510 Y81.596 E97.8774
G1 X126.200 Y81.594 E97.9337
G1 X140.348 Y81.728 E98.4043
G1 X140.780 Y81.734 E98.4186
G1 X141.129 Y82.356 E98.4423
G1 X148.135 Y94.764 E98.9163
G1 X148.977 Y96.222 E98.9723
G1 X151.213 Y100.190 E99.1238
G1 X150.918 Y100.688 E99.1430
G1 X143.678 Y112.956 E99.6168
G1 X142.835 Y114.415 E99.6729
G1 X140.476 Y118.405 E99.8270
G1 X139.788 Y118.397 E99.8499
G1 X125.541 Y118.257 E100.3238
G1 X123.858 Y118.257 E100.3798
G1 X119.189 Y118.210 E100.5351
G1 X118.871 Y117.643 E100.5567
G1 X111.866 Y105.236 E101.0306
G1 X111.024 Y103.778 E101.0866
G1 X108.787 Y99.810 E101.2381
G1 X109.082 Y99.312 E101.2574
G1 X116.322 Y87.045 E101.7311
G1 X116.948 Y85.962 E101.7727
G0 X117.933 Y85.058 F10800
G1 X119.775 Y81.942 E101.8931 F1800
G1 X124.508 Y81.992 E102.0505
G1 X126.198 Y81.990 E102.1068
G1 X140.343 Y82.124 E102.5773
G1 X140.550 Y82.127 E102.5841
G1 X140.789 Y82.552 E102.6004
G1 X147.796 Y94.962 E103.0743
G1 X148.638 Y96.420 E103.1303
G1 X150.760 Y100.185 E103.2741
G1 X150.582 Y100.484 E103.2857
G1 X143.341 Y112.755 E103.7596
G1 X142.499 Y114.214 E103.8156
G1 X140.255 Y118.007 E103.9622
G1 X139.792 Y118.001 E103.9776
G1 X125.543 Y117.861 E104.4515
G1 X123.860 Y117.861 E104.5075
G1 X119.418 Y117.816 E104.6552
G1 X119.211 Y117.447 E104.6693
G1 X112.205 Y105.038 E105.1433
G1 X111.363 Y103.580 E105.1993
G1 X109.240 Y99.815 E105.3430
G1 X109.418 Y99.515 E105.3547
G1 X116.659 Y87.246 E105.8285
G1 X117.503 Y85.786 E105.8846
G1 X117.832 Y85.228 E105.9061
G0 X118.821 Y84.327 F10800
G1 X119.996 Y82.340 E105.9829 F1800
G1 X124.506 Y82.388 E106.1329
G1 X126.196 Y82.386 E106.1891
G1 X140.321 Y82.520 E106.6589
G1 X140.449 Y82.748 E106.6676
G1 X147.457 Y95.160 E107.1417
G1 X148.299 Y96.618 E107.1977
G1 X150.306 Y100.180 E107.3337
G1 X143.004 Y112.553 E107.8116
G1 X142.161 Y114.012 E107.8676
G1 X140.035 Y117.609 E108.0066
G1 X125.545 Y117.465 E108.4885
G1 X123.862 Y117.465 E108.5445
G1 X119.647 Y117.422 E108.6847
G1 X112.544 Y104.840 E109.1653
G1 X111.702 Y103.382 E109.2213
G1 X109.694 Y99.820 E109.3573
G1 X116.996 Y87.447 E109.8351
G1 X117.840 Y85.987 E109.8912
G1 X118.721 Y84.497 E109.9488
G0 X119.709 Y83.596 F10800
G1 X120.216 Y82.738 E109.9819 F1800
G1 X124.504 Y82.783 E110.1245
G1 X126.194 Y82.782 E110.1808
G1 X140.109 Y82.944 E110.6436
G1 X147.118 Y95.358 E111.1177
G1 X147.960 Y96.816 E111.1737
G1 X149.853 Y100.175 E111.3020
G1 X142.667 Y112.352 E111.7723
G1 X141.824 Y113.811 E111.8283
G1 X139.814 Y117.210 E111.9596
G1 X125.547 Y117.069 E112.4342
G1 X123.865 Y117.069 E112.4902
G1 X119.876 Y117.029 E112.6228
G1 X112.883 Y104.642 E113.0959
G1 X112.041 Y103.184 E113.1519
G1 X110.147 Y99.825 E113.2802
G1 X117.333 Y87.649 E113.7505
G1 X118.177 Y86.188 E113.8065
G1 X119.609 Y83.766 E113.9001
G0 X120.535 Y83.138 F10800
G1 X124.502 Y83.179 E114.0321 F1800
G1 X126.192 Y83.178 E114.0883
G1 X139.880 Y83.337 E114.5436
G1 X146.779 Y95.556 E115.0103
G1 X147.621 Y97.014 E115.0663
G1 X149.400 Y100.171 E115.1868
G1 X142.330 Y112.151 E115.6495
G1 X141.487 Y113.610 E115.7055
G1 X139.594 Y116.812 E115.8293
G1 X125.549 Y116.673 E116.2964
G1 X123.867 Y116.673 E116.3524
G1 X120.104 Y116.635 E116.4775
G1 X113.222 Y104.445 E116.9431
G1 X112.380 Y102.986 E116.9992
G1 X110.600 Y99.830 E117.1197
G1 X117.670 Y87.850 E117.5823
G1 X118.514 Y86.389 E117.6384
G1 X120.387 Y83.222 E117.7608
G0 X121.607 Y83.545 F10800
G1 X124.499 Y83.575 E117.8570 F1800
G1 X126.190 Y83.574 E117.9133
G1 X139.651 Y83.730 E118.3610
G1 X146.440 Y95.753 E118.8203
G1 X147.282 Y97.212 E118.8763
G1 X148.947 Y100.166 E118.9890
G1 X141.992 Y111.949 E119.4441
G1 X141.150 Y113.408 E119.5002
G1 X139.373 Y116.414 E119.6163
G1 X125.551 Y116.277 E120.0760
G1 X123.869 Y116.277 E120.1320
G1 X120.333 Y116.242 E120.2496
G1 X113.562 Y104.247 E120.7077
G1 X112.719 Y102.788 E120.7638
G1 X111.053 Y99.834 E120.8766
G1 X118.008 Y88.051 E121.3316
G1 X118.851 Y86.591 E121.3877
G1 X120.658 Y83.535 E121.5058
G1 X121.411 Y83.543 E121.5309
G0 X122.679 Y83.952 F10800
G1 X124.497 Y83.971 E121.5913 F1800
G1 X126.187 Y83.970 E121.6475
G1 X139.422 Y84.123 E122.0878
G1 X146.101 Y95.951 E122.5395
G1 X146.943 Y97.410 E122.5955
G1 X148.493 Y100.161 E122.7006
G1 X141.655 Y111.748 E123.1481
G1 X140.813 Y113.207 E123.2041
G1 X139.152 Y116.016 E123.3127
G1 X125.553 Y115.881 E123.7650
G1 X123.871 Y115.881 E123.8210
G1 X120.561 Y115.848 E123.9310
G1 X113.900 Y104.049 E124.3817
G1 X113.058 Y102.590 E124.4377
G1 X111.506 Y99.839 E124.5428
G1 X118.345 Y88.253 E124.9902
G1 X119.188 Y86.792 E125.0463
G1 X120.878 Y83.933 E125.1568
G1 X122.484 Y83.950 E125.2102
G0 X123.752 Y84.359 F10800
G1 X124.495 Y84.367 E125.2349 F1800
G1 X126.185 Y84.366 E125.2911
G1 X139.193 Y84.516 E125.7238
G1 X145.761 Y96.149 E126.1681
G1 X146.603 Y97.607 E126.2241
G1 X148.040 Y100.157 E126.3215
G1 X141.318 Y111.547 E126.7614
G1 X140.476 Y113.006 E126.8174
G1 X138.931 Y115.618 E126.9183
G1 X125.555 Y115.485 E127.3633
G1 X123.873 Y115.485 E127.4192
G1 X120.789 Y115.454 E127.5218
G1 X114.239 Y103.851 E127.9650
G1 X113.397 Y102.392 E128.0210
G1 X111.960 Y99.843 E128.1183
G1 X118.682 Y88.454 E128.5582
G1 X119.525 Y86.993 E128.6143
G1 X121.099 Y84.332 E128.7171
G1 X123.556 Y84.357 E128.7988
G0 X124.829 Y84.763 F10800
G1 X126.183 Y84.762 E128.8439 F1800
G1 X138.964 Y84.909 E129.2690
G1 X145.423 Y96.347 E129.7059
G1 X146.265 Y97.805 E129.7619
G1 X147.587 Y100.152 E129.8515
G1 X140.981 Y111.346 E130.2838
G1 X140.139 Y112.804 E130.3398
G1 X138.711 Y115.220 E130.4332
G1 X125.557 Y115.089 E130.8707
G1 X123.875 Y115.089 E130.9266
G1 X121.018 Y115.061 E131.0217
G1 X114.578 Y103.653 E131.4574
G1 X113.736 Y102.194 E131.5134
G1 X112.413 Y99.848 E131.6030
G1 X119.019 Y88.655 E132.0352
G1 X119.862 Y87.195 E132.0913
G1 X121.320 Y84.730 E132.1866
G1 X124.493 Y84.763 E132.2922
G1 X124.633 Y84.763 E132.2968
G0 X125.905 Y85.158 F10800
G1 X126.181 Y85.158 E132.3059 F1800
G1 X138.736 Y85.303 E132.7236
G1 X145.084 Y96.545 E133.1530
G1 X145.925 Y98.003 E133.2090
G1 X147.134 Y100.147 E133.2908
G1 X140.644 Y111.144 E133.7155
G1 X139.802 Y112.603 E133.7716
G1 X138.490 Y114.822 E133.8573
G1 X125.559 Y114.693 E134.2874
G1 X123.877 Y114.693 E134.3434
G1 X121.246 Y114.667 E134.4309
G1 X114.918 Y103.455 E134.8591
G1 X114.075 Y101.996 E134.9151
G1 X112.866 Y99.853 E134.9970
G1 X119.356 Y88.857 E135.4217
G1 X120.199 Y87.396 E135.4778
G1 X121.540 Y85.128 E135.5654
G1 X124.491 Y85.159 E135.6635
G1 X125.710 Y85.158 E135.7041
G0 X126.977 Y85.563 F10800
G1 X138.507 Y85.696 E136.0876 F1800
G1 X144.745 Y96.743 E136.5095
G1 X145.586 Y98.201 E136.5655
G1 X146.681 Y100.143 E136.6397
G1 X140.307 Y110.943 E137.0568
G1 X139.465 Y112.401 E137.1128
G1 X138.269 Y114.424 E137.1910
G1 X125.561 Y114.297 E137.6136
G1 X123.879 Y114.297 E137.6696
G1 X121.474 Y114.273 E137.7496
G1 X115.257 Y103.257 E138.1703
G1 X114.414 Y101.799 E138.2263
G1 X113.319 Y99.857 E138.3005
G1 X119.693 Y89.058 E138.7175
G1 X120.536 Y87.597 E138.7736
G1 X121.761 Y85.526 E138.8536
G1 X124.489 Y85.555 E138.9444
G1 X126.178 Y85.554 E139.0006
G1 X126.782 Y85.561 E139.0207
G0 X128.049 Y85.971 F10800
G1 X138.278 Y86.089 E139.3609 F1800
G1 X144.406 Y96.941 E139.7754
G1 X145.247 Y98.399 E139.8314
G1 X146.228 Y100.138 E139.8978
G1 X139.970 Y110.742 E140.3073
G1 X139.128 Y112.200 E140.3633
G1 X138.048 Y114.026 E140.4339
G1 X125.563 Y113.901 E140.8492
G1 X123.881 Y113.901 E140.9051
G1 X121.703 Y113.880 E140.9776
G1 X115.596 Y103.059 E141.3908
G1 X114.753 Y101.601 E141.4468
G1 X113.772 Y99.862 E141.5133
G1 X120.030 Y89.259 E141.9227
G1 X120.874 Y87.799 E141.9788
G1 X121.981 Y85.925 E142.0512
G1 X124.487 Y85.951 E142.1346
G1 X126.176 Y85.950 E142.1908
G1 X127.854 Y85.969 E142.2466
G0 X129.121 Y86.380 F10800
G1 X138.050 Y86.482 E142.5435 F1800
G1 X144.067 Y97.139 E142.9506
G1 X144.908 Y98.596 E143.0066
G1 X145.774 Y100.133 E143.0653
G1 X139.633 Y110.540 E143.4672
G1 X138.791 Y111.998 E143.5232
G1 X137.828 Y113.628 E143.5861
G1 X125.565 Y113.505 E143.9940
G1 X123.883 Y113.505 E144.0500
G1 X121.931 Y113.486 E144.1149
G1 X115.935 Y102.861 E144.5207
G1 X115.092 Y101.403 E144.5767
G1 X114.225 Y99.867 E144.6354
G1 X120.367 Y89.461 E145.0372
G1 X121.211 Y88.000 E145.0933
G1 X122.202 Y86.323 E145.1581
G1 X124.485 Y86.347 E145.2341
G1 X126.174 Y86.346 E145.2902
G1 X128.926 Y86.377 E145.3818
G0 X130.193 Y86.788 F10800
G1 X137.821 Y86.875 E145.6355 F1800
G1 X143.728 Y97.337 E146.0351
G1 X144.569 Y98.794 E146.0910
G1 X145.321 Y100.129 E146.1420
G1 X139.296 Y110.339 E146.5363
G1 X138.454 Y111.797 E146.5923
G1 X137.607 Y113.230 E146.6477
G1 X125.567 Y113.110 E147.0482
G1 X123.885 Y113.110 E147.1041
G1 X122.160 Y113.092 E147.1615
G1 X116.274 Y102.663 E147.5598
G1 X115.431 Y101.205 E147.6158
G1 X114.679 Y99.871 E147.6668
G1 X120.704 Y89.662 E148.0610
G1 X121.548 Y88.201 E148.1171
G1 X122.423 Y86.721 E148.1743
G1 X124.483 Y86.743 E148.2429
G1 X126.171 Y86.742 E148.2990
G1 X129.997 Y86.785 E148.4263
G0 X131.265 Y87.196 F10800
G1 X137.592 Y87.268 E148.6367 F1800
G1 X143.389 Y97.535 E149.0289
G1 X144.230 Y98.992 E149.0848
G1 X144.868 Y100.124 E149.1280
G1 X138.959 Y110.138 E149.5148
G1 X138.117 Y111.596 E149.5708
G1 X137.386 Y112.832 E149.6185
G1 X125.569 Y112.714 E150.0116
G1 X123.887 Y112.714 E150.0675
G1 X122.388 Y112.699 E150.1174
G1 X116.613 Y102.465 E150.5082
G1 X115.770 Y101.007 E150.5642
G1 X115.132 Y99.876 E150.6074
G1 X121.041 Y89.863 E150.9941
G1 X121.885 Y88.403 E151.0502
G1 X122.643 Y87.119 E151.0998
G1 X124.481 Y87.139 E151.1609
G1 X126.169 Y87.138 E151.2171
G1 X131.069 Y87.194 E151.3801
G0 X132.337 Y87.604 F10800
G1 X137.363 Y87.661 E151.5472 F1800
G1 X143.050 Y97.733 E151.9319
G1 X143.891 Y99.190 E151.9879
G1 X144.415 Y100.120 E152.0234
G1 X138.622 Y109.937 E152.4025
G1 X137.780 Y111.395 E152.4585
G1 X137.165 Y112.434 E152.4986
G1 X125.571 Y112.318 E152.8843
G1 X123.889 Y112.318 E152.9402
G1 X122.617 Y112.305 E152.9826
G1 X116.952 Y102.267 E153.3659
G1 X116.110 Y100.809 E153.4219
G1 X115.585 Y99.880 E153.4574
G1 X121.378 Y90.064 E153.8365
G1 X122.222 Y88.604 E153.8926
G1 X122.864 Y87.518 E153.9346
G1 X124.479 Y87.535 E153.9883
G1 X126.167 Y87.534 E154.0444
G1 X132.141 Y87.602 E154.2432
G0 X133.409 Y88.012 F10800
G1 X137.135 Y88.054 E154.3671 F1800
G1 X142.711 Y97.931 E154.7443
G1 X143.552 Y99.388 E154.8003
G1 X143.962 Y100.115 E154.8280
G1 X138.285 Y109.735 E155.1996
G1 X137.443 Y111.193 E155.2555
G1 X136.945 Y112.036 E155.2881
G1 X125.573 Y111.922 E155.6663
G1 X123.891 Y111.922 E155.7223
G1 X122.845 Y111.912 E155.7571
G1 X117.291 Y102.069 E156.1330
G1 X116.449 Y100.611 E156.1890
G1 X116.038 Y99.884 E156.2167
G1 X121.715 Y90.266 E156.5882
G1 X122.559 Y88.805 E156.6443
G1 X123.085 Y87.916 E156.6787
G1 X124.477 Y87.931 E156.7250
G1 X126.165 Y87.930 E156.7811
G1 X133.213 Y88.010 E157.0156
G0 X134.481 Y88.420 F10800
G1 X136.906 Y88.448 E157.0962 F1800
G1 X142.372 Y98.129 E157.4660
G1 X143.213 Y99.585 E157.5219
G1 X143.509 Y100.111 E157.5420
G1 X137.947 Y109.534 E157.9059
G1 X137.106 Y110.992 E157.9619
G1 X136.724 Y111.638 E157.9869
G1 X125.575 Y111.526 E158.3577
G1 X123.893 Y111.526 E158.4137
G1 X123.074 Y111.518 E158.4409
G1 X117.630 Y101.871 E158.8093
G1 X116.788 Y100.413 E158.8653
G1 X116.491 Y99.889 E158.8854
G1 X122.053 Y90.467 E159.2492
G1 X122.896 Y89.007 E159.3053
G1 X123.305 Y88.314 E159.3321
G1 X124.475 Y88.327 E159.3710
G1 X126.163 Y88.325 E159.4271
G1 X134.285 Y88.418 E159.6973
G0 X135.553 Y88.828 F10800
G1 X136.677 Y88.841 E159.7347 F1800
G1 X142.033 Y98.327 E160.0970
G1 X143.056 Y100.106 E160.1652
G1 X137.610 Y109.333 E160.5216
G1 X136.769 Y110.791 E160.5776
G1 X136.503 Y111.240 E160.5949
G1 X125.577 Y111.130 E160.9583
G1 X123.894 Y111.130 E161.0143
G1 X123.302 Y111.124 E161.0340
G1 X117.969 Y101.673 E161.3949
G1 X116.945 Y99.893 E161.4632
G1 X122.390 Y90.668 E161.8195
G1 X123.233 Y89.208 E161.8756
G1 X123.526 Y88.713 E161.8948
G1 X124.473 Y88.723 E161.9263
G1 X126.161 Y88.721 E161.9824
G1 X135.358 Y88.826 E162.2883
G0 X136.497 Y89.320 F10800
G1 X141.694 Y98.525 E162.6399 F1800
G1 X142.601 Y100.103 E162.7004
G1 X137.273 Y109.132 E163.0491
G1 X136.282 Y110.842 E163.1148
G1 X125.579 Y110.734 E163.4708
G1 X123.531 Y110.730 E163.5390
G1 X118.308 Y101.475 E163.8924
G1 X117.399 Y99.895 E163.9531
G1 X122.727 Y90.870 E164.3017
G1 X123.747 Y89.111 E164.3693
G1 X124.471 Y89.119 E164.3934
G1 X126.159 Y89.117 E164.4495
G1 X136.351 Y89.233 E164.7885
G0 X136.691 Y90.462 F10800
G1 X141.355 Y98.722 E165.1040 F1800
G1 X142.147 Y100.100 E165.1569
G1 X136.936 Y108.930 E165.4979
G1 X136.059 Y110.444 E165.5561
G1 X125.582 Y110.338 E165.9046
G1 X123.758 Y110.335 E165.9653
G1 X118.647 Y101.278 E166.3112
G1 X117.853 Y99.898 E166.3641
G1 X123.064 Y91.071 E166.7050
G1 X123.969 Y89.509 E166.7651
G1 X124.469 Y89.515 E166.7817
G1 X126.157 Y89.513 E166.8378
G1 X136.220 Y89.628 E167.1725
G1 X136.594 Y90.290 E167.1978
G0 X136.885 Y91.604 F10800
G1 X141.016 Y98.920 E167.4773 F1800
G1 X141.692 Y100.098 E167.5225
G1 X136.599 Y108.728 E167.8558
G1 X135.836 Y110.046 E167.9064
G1 X125.584 Y109.942 E168.2474
G1 X123.986 Y109.939 E168.3006
G1 X118.986 Y101.080 E168.6390
G1 X118.308 Y99.901 E168.6842
G1 X123.400 Y91.273 E169.0174
G1 X124.192 Y89.907 E169.0699
G1 X126.155 Y89.909 E169.1352
G1 X135.991 Y90.021 E169.4624
G1 X136.788 Y91.432 E169.5163
G0 X137.079 Y92.745 F10800
G1 X140.676 Y99.117 E169.7596 F1800
G1 X141.238 Y100.095 E169.7972
G1 X136.262 Y108.527 E170.1228
G1 X135.613 Y109.648 E170.1659
G1 X125.586 Y109.546 E170.4994
G1 X124.213 Y109.544 E170.5451
G1 X119.325 Y100.882 E170.8759
G1 X118.762 Y99.904 E170.9134
G1 X123.737 Y91.475 E171.2390
G1 X124.416 Y90.303 E171.2840
G1 X126.153 Y90.305 E171.3418
G1 X135.763 Y90.415 E171.6614
G1 X136.982 Y92.573 E171.7439
G0 X137.272 Y93.887 F10800
G1 X140.337 Y99.315 E171.9512 F1800
G1 X140.784 Y100.092 E171.9810
G1 X135.925 Y108.326 E172.2990
G1 X135.390 Y109.250 E172.3345
G1 X125.589 Y109.150 E172.6605
G1 X124.441 Y109.149 E172.6987
G1 X119.664 Y100.685 E173.0219
G1 X119.216 Y99.906 E173.0518
G1 X124.074 Y91.676 E173.3697
G1 X124.641 Y90.699 E173.4072
G1 X126.150 Y90.701 E173.4574
G1 X135.534 Y90.808 E173.7696
G1 X137.175 Y93.715 E173.8806
G0 X137.466 Y95.028 F10800
G1 X139.998 Y99.512 E174.0519 F1800
G1 X140.330 Y100.090 E174.0740
G1 X135.588 Y108.124 E174.3843
G1 X135.167 Y108.852 E174.4123
G1 X125.591 Y108.754 E174.7308
G1 X124.669 Y108.753 E174.7615
G1 X120.003 Y100.487 E175.0772
G1 X119.671 Y99.909 E175.0993
G1 X124.411 Y91.878 E175.4095
G1 X124.864 Y91.096 E175.4396
G1 X126.147 Y91.097 E175.4823
G1 X135.306 Y91.201 E175.7869
G1 X137.369 Y94.856 E175.9265
G0 X137.660 Y96.170 F10800
G1 X139.659 Y99.710 E176.0617 F1800
G1 X139.876 Y100.087 E176.0762
G1 X135.251 Y107.923 E176.3788
G1 X134.944 Y108.454 E176.3992
G1 X125.593 Y108.358 E176.7102
G1 X124.896 Y108.357 E176.7334
G1 X120.342 Y100.289 E177.0416
G1 X120.125 Y99.911 E177.0561
G1 X124.748 Y92.079 E177.3585
G1 X125.089 Y91.492 E177.3811
G1 X126.145 Y91.493 E177.4163
G1 X135.077 Y91.595 E177.7134
G1 X137.563 Y95.998 E177.8816
G0 X137.854 Y97.311 F10800
G1 X139.320 Y99.907 E177.9807 F1800
G1 X139.421 Y100.084 E177.9875
G1 X134.914 Y107.722 E178.2825
G1 X134.720 Y108.056 E178.2953
G1 X125.596 Y107.962 E178.5988
G1 X125.123 Y107.962 E178.6145
G1 X120.682 Y100.091 E178.9151
G1 X120.579 Y99.914 E178.9219
G1 X125.085 Y92.281 E179.2167
G1 X125.313 Y91.888 E179.2318
G1 X126.142 Y91.889 E179.2594
G1 X134.848 Y91.988 E179.5490
G1 X137.757 Y97.139 E179.7458
G0 X138.048 Y98.453 F10800
G1 X138.967 Y100.081 E179.8080 F1800
G1 X134.577 Y107.520 E180.0953
G1 X134.497 Y107.658 E180.1006
G1 X125.598 Y107.566 E180.3966
G1 X125.351 Y107.566 E180.4048
G1 X121.034 Y99.917 E180.6969
G1 X125.421 Y92.482 E180.9840
G1 X125.536 Y92.284 E180.9917
G1 X126.140 Y92.285 E181.0117
G1 X134.620 Y92.382 E181.2938
G1 X137.951 Y98.281 E181.5191
G0 X138.242 Y99.594 F10800
G1 X138.514 Y100.077 E181.5376 F1800
G1 X134.275 Y107.259 E181.8150
G1 X125.600 Y107.170 E182.1035
G1 X121.487 Y99.921 E182.3807
G1 X125.760 Y92.680 E182.6604
G1 X126.137 Y92.681 E182.6729
G1 X134.391 Y92.775 E182.9475
G1 X138.145 Y99.423 E183.2014
G0 X137.907 Y100.332 F10800
G1 X134.054 Y106.861 E183.4535 F1800
G1 X125.828 Y106.777 E183.7271
G1 X121.940 Y99.925 E183.9892
G1 X125.982 Y93.076 E184.2537
G1 X126.135 Y93.077 E184.2587
G1 X134.162 Y93.168 E184.5257
G1 X138.061 Y100.072 E184.7894
G1 X138.008 Y100.162 E184.7929
G0 X137.020 Y101.064 F10800
G1 X133.833 Y106.463 E185.0014 F1800
G1 X126.056 Y106.383 E185.2601
G1 X122.394 Y99.929 E185.5069
G1 X126.204 Y93.473 E185.7562
G1 X133.934 Y93.561 E186.0134
G1 X137.607 Y100.068 E186.2619
G1 X137.120 Y100.894 E186.2938
G0 X136.132 Y101.796 F10800
G1 X133.612 Y106.065 E186.4587 F1800
G1 X126.284 Y105.990 E186.7024
G1 X122.847 Y99.933 E186.9340
G1 X126.425 Y93.872 E187.1681
G1 X133.705 Y93.955 E187.4103
G1 X137.154 Y100.063 E187.6436
G1 X136.232 Y101.626 E187.7040
G0 X135.244 Y102.527 F10800
G1 X133.391 Y105.667 E187.8252 F1800
G1 X126.512 Y105.596 E188.0540
G1 X123.301 Y99.937 E188.2705
G1 X126.645 Y94.270 E188.4893
G1 X133.477 Y94.348 E188.7165
G1 X136.701 Y100.059 E188.9347
G1 X135.344 Y102.358 E189.0234
G0 X134.356 Y103.259 F10800
G1 X133.170 Y105.269 E189.1010 F1800
G1 X126.740 Y105.203 E189.3149
G1 X123.755 Y99.941 E189.5162
G1 X126.866 Y94.668 E189.7198
G1 X133.248 Y94.741 E189.9320
G1 X136.248 Y100.054 E190.1350
G1 X134.457 Y103.089 E190.2522
G0 X133.469 Y103.991 F10800
G1 X132.949 Y104.871 E190.2862 F1800
G1 X126.968 Y104.810 E190.4851
G1 X124.208 Y99.945 E190.6712
G1 X127.087 Y95.067 E190.8595
G1 X133.019 Y95.134 E191.0569
G1 X135.795 Y100.050 E191.2446
G1 X133.569 Y103.821 E191.3903
G0 X132.630 Y104.472 F10800
G1 X127.196 Y104.416 E191.5710 F1800
G1 X124.662 Y99.949 E191.7419
G1 X127.308 Y95.465 E191.9150
G1 X132.791 Y95.527 E192.0974
G1 X135.341 Y100.046 E192.2700
G1 X132.778 Y104.388 E192.4377
G0 X131.558 Y104.066 F10800
G1 X127.425 Y104.023 E192.5752 F1800
G1 X125.115 Y99.952 E192.7308
G1 X127.528 Y95.863 E192.8888
G1 X132.562 Y95.921 E193.0562
G1 X134.888 Y100.041 E193.2136
G1 X132.507 Y104.075 E193.3694
G1 X131.754 Y104.068 E193.3944
G0 X130.485 Y103.659 F10800
G1 X127.653 Y103.629 E193.4887 F1800
G1 X125.569 Y99.956 E193.6291
G1 X127.749 Y96.261 E193.7718
G1 X132.333 Y96.314 E193.9243
G1 X134.435 Y100.037 E194.0665
G1 X132.286 Y103.677 E194.2071
G1 X130.681 Y103.661 E194.2605
G0 X129.413 Y103.252 F10800
G1 X127.881 Y103.236 E194.3115 F1800
G1 X126.022 Y99.960 E194.4367
G1 X127.970 Y96.660 E194.5642
G1 X132.104 Y96.707 E194.7017
G1 X133.982 Y100.032 E194.8287
G1 X132.065 Y103.279 E194.9541
G1 X129.609 Y103.254 E195.0358
G0 X128.341 Y102.845 F10800
G1 X128.109 Y102.843 E195.0435 F1800
G1 X126.476 Y99.964 E195.1536
G1 X128.191 Y97.058 E195.2658
G1 X131.876 Y97.100 E195.3884
G1 X133.529 Y100.028 E195.5003
G1 X131.844 Y102.881 E195.6105
G1 X128.536 Y102.847 E195.7205
G0 X128.028 Y101.905 F10800
G1 X126.929 Y99.968 E195.7946 F1800
G1 X128.411 Y97.456 E195.8916
G1 X131.647 Y97.493 E195.9992
G1 X133.075 Y100.024 E196.0958
G1 X131.623 Y102.483 E196.1908
G1 X128.337 Y102.449 E196.3001
G1 X128.125 Y102.076 E196.3144
G0 X127.832 Y100.764 F10800
G1 X127.383 Y99.972 E196.3447 F1800
G1 X128.632 Y97.854 E196.4264
G1 X131.418 Y97.886 E196.5191
G1 X132.622 Y100.019 E196.6006
G1 X131.402 Y102.085 E196.6803
G1 X128.565 Y102.056 E196.7747
G1 X127.929 Y100.935 E196.8176
G0 X127.886 Y99.891 F10800
G1 X128.853 Y98.253 E196.8808 F1800
G1 X131.189 Y98.280 E196.9585
G1 X132.169 Y100.015 E197.0248
G1 X131.181 Y101.687 E197.0894
G1 X128.793 Y101.663 E197.1688
G1 X127.885 Y100.062 E197.2300
G0 X128.774 Y99.159 F10800
G1 X129.074 Y98.651 E197.2497 F1800
G1 X130.960 Y98.673 E197.3124
G1 X131.715 Y100.010 E197.3635
G1 X130.960 Y101.289 E197.4129
G1 X129.021 Y101.269 E197.4774
G1 X128.290 Y99.980 E197.5267
G1 X128.674 Y99.329 E197.5518
G0 X129.561 Y99.052 F10800
G1 X130.731 Y99.066 E197.5908 F1800
G1 X131.262 Y100.006 E197.6267
G1 X130.739 Y100.891 E197.6609
G1 X129.250 Y100.876 E197.7104
G1 X128.743 Y99.984 E197.7446
G1 X129.295 Y99.049 E197.7806
G1 X129.365 Y99.050 E197.7830
G0 X130.551 Y99.545 F10800
G1 X130.809 Y100.001 E197.8004 F1800
G1 X130.519 Y100.493 E197.8194
G1 X129.477 Y100.482 E197.8540
G1 X129.197 Y99.988 E197.8730
G1 X129.516 Y99.448 E197.8938
G1 X130.405 Y99.458 E197.9234
G0 X130.200 Y100.094 F10800
G1 X129.706 Y100.089 E197.9398 F1800
G1 X129.650 Y99.991 E197.9436
G1 X129.736 Y99.846 E197.9492
G1 X130.274 Y99.852 E197.9671
G1 X130.356 Y99.997 E197.9726
G1 X130.356 Y99.997
; ------------------------------------
; Layer #2
; ------------------------------------
G21 ; mm
G90 ; abs
G92 E0 ; reset extr
M106 S0
;segType:Perimeter
G0 F4800 E-1.0000
G0 F2400 Z0.600
G0 X100.710 Y99.750 F10800
G0 F4800 E0.0000
G1 X100.118 Y99.364 E0.0235 F2159
G1 X100.607 Y98.597 E0.0538
G1 X101.197 Y97.699 E0.0895
G1 X102.586 Y95.411 E0.1785
G1 X103.946 Y93.116 E0.2672
G1 X108.427 Y85.523 E0.5605
G1 X110.377 Y82.331 E0.6849
G1 X110.847 Y81.632 E0.7129
G1 X111.713 Y80.199 E0.7686
G1 X113.957 Y76.404 E0.9152
G1 X115.041 Y74.586 E0.9856
G1 X115.550 Y73.803 E1.0167
G1 X116.525 Y73.845 E1.0492
G1 X118.667 Y73.871 E1.1204
G1 X123.076 Y73.915 E1.2671
G1 X124.734 Y73.951 E1.3222
G1 X125.569 Y74.009 E1.3501
G1 X129.330 Y74.099 E1.4752
G1 X138.146 Y74.185 E1.7684
G1 X140.804 Y74.216 E1.8569
G1 X143.459 Y74.278 E1.9452
G1 X145.465 Y74.389 E2.0120
G1 X145.913 Y75.250 E2.0443
G1 X146.396 Y76.210 E2.0800
G1 X147.683 Y78.557 E2.1691
G1 X148.990 Y80.881 E2.2578
G1 X153.326 Y88.559 E2.5510
G1 X155.115 Y91.844 E2.6754
G1 X155.486 Y92.600 E2.7035
G1 X156.294 Y94.067 E2.7592
G1 X158.458 Y97.907 E2.9058
G1 X159.491 Y99.755 E2.9762
G1 X159.914 Y100.586 E3.0072
G1 X159.393 Y101.403 E3.0394
G1 X158.803 Y102.301 E3.0751
G1 X157.414 Y104.589 E3.1642
G1 X156.054 Y106.884 E3.2529
G1 X151.573 Y114.477 E3.5461
G1 X149.623 Y117.669 E3.6705
G1 X149.153 Y118.368 E3.6986
G1 X148.287 Y119.802 E3.7543
G1 X146.043 Y123.596 E3.9009
G1 X144.959 Y125.414 E3.9713
G1 X144.450 Y126.197 E4.0023
G1 X143.479 Y126.155 E4.0347
G1 X142.406 Y126.093 E4.0704
G1 X139.730 Y126.034 E4.1594
G1 X137.064 Y126.004 E4.2481
G1 X128.247 Y125.920 E4.5414
G1 X124.508 Y125.827 E4.6658
G1 X123.667 Y125.770 E4.6938
G1 X121.993 Y125.736 E4.7495
G1 X117.585 Y125.690 E4.8961
G1 X115.468 Y125.661 E4.9665
G1 X114.535 Y125.611 E4.9976
G1 X114.087 Y124.750 E5.0299
G1 X113.604 Y123.790 E5.0657
G1 X112.317 Y121.443 E5.1547
G1 X111.010 Y119.119 E5.2434
G1 X106.674 Y111.441 E5.5367
G1 X104.885 Y108.156 E5.6611
G1 X104.514 Y107.400 E5.6891
G1 X103.706 Y105.933 E5.7448
G1 X101.542 Y102.093 E5.8914
G1 X100.509 Y100.245 E5.9618
G1 X100.113 Y99.467 E5.9908
G1 X100.740 Y99.141
;segType:Loop
G0 X100.996 Y98.736 F10800
G1 X101.534 Y97.917 E6.0234 F3600
G1 X102.928 Y95.620 E6.1128
G1 X104.289 Y93.324 E6.2016
G1 X108.769 Y85.733 E6.4947
G1 X110.713 Y82.551 E6.6187
G1 X111.183 Y81.851 E6.6468
G1 X112.055 Y80.408 E6.7029
G1 X114.300 Y76.613 E6.8495
G1 X115.379 Y74.801 E6.9197
G1 X115.760 Y74.217 E6.9429
G1 X116.514 Y74.250 E6.9680
G1 X118.663 Y74.275 E7.0395
G1 X123.070 Y74.320 E7.1860
G1 X124.716 Y74.355 E7.2408
G1 X125.550 Y74.413 E7.2686
G1 X129.323 Y74.504 E7.3941
G1 X138.142 Y74.589 E7.6875
G1 X140.797 Y74.620 E7.7758
G1 X143.444 Y74.682 E7.8638
G1 X145.217 Y74.780 E7.9229
G1 X145.558 Y75.436 E7.9475
G1 X146.043 Y76.400 E7.9834
G1 X147.334 Y78.755 E8.0727
G1 X148.643 Y81.082 E8.1615
G1 X152.977 Y88.757 E8.4547
G1 X154.761 Y92.032 E8.5787
G1 X155.132 Y92.789 E8.6068
G1 X155.945 Y94.266 E8.6628
G1 X158.110 Y98.107 E8.8095
G1 X159.139 Y99.947 E8.8796
G1 X159.452 Y100.563 E8.9026
G1 X159.058 Y101.182 E8.9270
G1 X158.466 Y102.083 E8.9629
G1 X157.072 Y104.380 E9.0522
G1 X155.711 Y106.676 E9.1410
G1 X151.231 Y114.267 E9.4342
G1 X149.287 Y117.449 E9.5582
G1 X148.817 Y118.149 E9.5862
G1 X147.945 Y119.592 E9.6423
G1 X145.700 Y123.387 E9.7890
G1 X144.621 Y125.198 E9.8591
G1 X144.240 Y125.783 E9.8823
G1 X143.499 Y125.751 E9.9070
G1 X142.422 Y125.689 E9.9429
G1 X139.737 Y125.629 E10.0322
G1 X137.068 Y125.599 E10.1210
G1 X128.253 Y125.515 E10.4141
G1 X124.526 Y125.423 E10.5382
G1 X123.684 Y125.366 E10.5662
G1 X121.999 Y125.331 E10.6223
G1 X117.590 Y125.286 E10.7689
G1 X115.482 Y125.256 E10.8391
G1 X114.783 Y125.219 E10.8623
G1 X114.442 Y124.564 E10.8869
G1 X113.957 Y123.600 E10.9228
G1 X112.666 Y121.245 E11.0121
G1 X111.357 Y118.918 E11.1009
G1 X107.023 Y111.243 E11.3941
G1 X105.239 Y107.968 E11.5181
G1 X104.868 Y107.211 E11.5462
G1 X104.055 Y105.734 E11.6022
G1 X101.890 Y101.893 E11.7489
G1 X100.861 Y100.053 E11.8190
G1 X100.548 Y99.437 E11.8420
G1 X100.889 Y98.902 E11.8631
G0 X101.919 Y98.048 F10800
;segType:HShell
G1 X103.267 Y95.828 E11.9495 F1800
G1 X104.629 Y93.529 E12.0383
G1 X109.107 Y85.940 E12.3314
G1 X111.045 Y82.769 E12.4551
G1 X111.515 Y82.068 E12.4831
G1 X112.394 Y80.615 E12.5396
G1 X114.639 Y76.819 E12.6863
G1 X115.714 Y75.015 E12.7561
G1 X115.967 Y74.626 E12.7716
G1 X116.503 Y74.650 E12.7894
G1 X118.658 Y74.675 E12.8611
G1 X123.064 Y74.720 E13.0076
G1 X124.699 Y74.755 E13.0620
G1 X125.532 Y74.813 E13.0898
G1 X129.317 Y74.904 E13.2157
G1 X138.138 Y74.989 E13.5091
G1 X140.791 Y75.020 E13.5974
G1 X143.429 Y75.082 E13.6851
G1 X144.971 Y75.167 E13.7365
G1 X145.693 Y76.588 E13.7895
G1 X146.989 Y78.950 E13.8791
G1 X148.299 Y81.280 E13.9680
G1 X152.632 Y88.953 E14.2611
G1 X154.410 Y92.217 E14.3847
G1 X154.782 Y92.975 E14.4128
G1 X155.600 Y94.462 E14.4693
G1 X157.766 Y98.304 E14.6160
G1 X158.790 Y100.137 E14.6858
G1 X158.996 Y100.541 E14.7009
G1 X158.132 Y101.868 E14.7535
G1 X156.733 Y104.172 E14.8432
G1 X155.371 Y106.471 E14.9320
G1 X150.893 Y114.060 E15.2251
G1 X148.955 Y117.231 E15.3488
G1 X148.484 Y117.932 E15.3768
G1 X147.606 Y119.385 E15.4333
G1 X145.361 Y123.181 E15.5800
G1 X144.286 Y124.985 E15.6498
G1 X144.033 Y125.374 E15.6653
G1 X142.437 Y125.289 E15.7184
G1 X139.744 Y125.229 E15.8080
G1 X137.072 Y125.199 E15.8969
G1 X128.260 Y125.115 E16.1900
G1 X124.544 Y125.023 E16.3136
G1 X123.701 Y124.966 E16.3417
G1 X122.005 Y124.931 E16.3981
G1 X117.595 Y124.885 E16.5448
G1 X115.495 Y124.857 E16.6147
G1 X115.028 Y124.832 E16.6302
G1 X114.307 Y123.412 E16.6832
G1 X113.011 Y121.049 E16.7728
G1 X111.701 Y118.720 E16.8617
G1 X107.368 Y111.047 E17.1548
G1 X105.590 Y107.783 E17.2784
G1 X105.218 Y107.025 E17.3065
G1 X104.400 Y105.538 E17.3630
G1 X102.234 Y101.695 E17.5097
G1 X101.209 Y99.863 E17.5795
G1 X101.004 Y99.459 E17.5945
G1 X101.814 Y98.215 E17.6439
G0 X102.816 Y97.327 F10800
G1 X103.601 Y96.033 E17.6943 F1800
G1 X104.965 Y93.733 E17.7832
G1 X109.442 Y86.146 E18.0762
G1 X111.374 Y82.984 E18.1995
G1 X111.845 Y82.282 E18.2276
G1 X112.729 Y80.820 E18.2844
G1 X114.975 Y77.022 E18.4311
G1 X116.045 Y75.226 E18.5007
G1 X116.172 Y75.031 E18.5084
G1 X116.493 Y75.046 E18.5191
G1 X118.654 Y75.071 E18.5910
G1 X123.057 Y75.116 E18.7375
G1 X124.681 Y75.150 E18.7915
G1 X125.514 Y75.208 E18.8193
G1 X129.310 Y75.299 E18.9455
G1 X138.134 Y75.385 E19.2390
G1 X140.784 Y75.416 E19.3272
G1 X143.413 Y75.477 E19.4147
G1 X144.726 Y75.550 E19.4584
G1 X145.348 Y76.774 E19.5041
G1 X146.648 Y79.144 E19.5940
G1 X147.959 Y81.476 E19.6829
G1 X152.290 Y89.147 E19.9759
G1 X154.063 Y92.401 E20.0992
G1 X154.435 Y93.159 E20.1273
G1 X155.259 Y94.656 E20.1841
G1 X157.426 Y98.500 E20.3308
G1 X158.446 Y100.325 E20.4004
G1 X158.543 Y100.516 E20.4075
G1 X157.802 Y101.656 E20.4527
G1 X156.399 Y103.966 E20.5427
G1 X155.035 Y106.267 E20.6316
G1 X150.558 Y113.855 E20.9246
G1 X148.627 Y117.016 E21.0478
G1 X148.155 Y117.717 E21.0760
G1 X147.271 Y119.181 E21.1328
G1 X145.026 Y122.978 E21.2795
G1 X143.955 Y124.774 E21.3491
G1 X143.829 Y124.966 E21.3567
G1 X142.452 Y124.893 E21.4026
G1 X139.750 Y124.834 E21.4925
G1 X137.076 Y124.803 E21.5814
G1 X128.267 Y124.719 E21.8745
G1 X124.562 Y124.627 E21.9977
G1 X123.718 Y124.570 E22.0258
G1 X122.011 Y124.536 E22.0826
G1 X117.599 Y124.490 E22.2294
G1 X115.508 Y124.461 E22.2990
G1 X115.274 Y124.448 E22.3068
G1 X114.652 Y123.225 E22.3524
G1 X113.352 Y120.855 E22.4423
G1 X112.041 Y118.524 E22.5312
G1 X107.709 Y110.854 E22.8242
G1 X105.937 Y107.599 E22.9475
G1 X105.565 Y106.841 E22.9756
G1 X104.741 Y105.343 E23.0324
G1 X102.574 Y101.500 E23.1792
G1 X101.554 Y99.675 E23.2487
G1 X101.457 Y99.484 E23.2559
G1 X102.198 Y98.344 E23.3011
G1 X102.713 Y97.496 E23.3341
G0 X103.713 Y96.606 F10800
G1 X103.936 Y96.238 E23.3484 F1800
G1 X105.301 Y93.936 E23.4374
G1 X109.776 Y86.351 E23.7304
G1 X111.703 Y83.199 E23.8532
G1 X112.174 Y82.497 E23.8813
G1 X113.064 Y81.025 E23.9386
G1 X115.310 Y77.226 E24.0853
G1 X116.377 Y75.437 E24.1546
G1 X118.650 Y75.467 E24.2302
G1 X123.051 Y75.511 E24.3766
G1 X124.664 Y75.545 E24.4303
G1 X125.496 Y75.603 E24.4580
G1 X129.304 Y75.695 E24.5847
G1 X138.129 Y75.781 E24.8783
G1 X140.778 Y75.812 E24.9663
G1 X143.398 Y75.873 E25.0535
G1 X144.480 Y75.933 E25.0896
G1 X145.003 Y76.961 E25.1279
G1 X146.306 Y79.338 E25.2181
G1 X147.618 Y81.672 E25.3072
G1 X151.949 Y89.341 E25.6001
G1 X153.716 Y92.584 E25.7229
G1 X154.089 Y93.344 E25.7511
G1 X154.918 Y94.850 E25.8083
G1 X157.085 Y98.695 E25.9551
G1 X158.090 Y100.493 E26.0236
G1 X157.471 Y101.443 E26.0613
G1 X156.064 Y103.761 E26.1515
G1 X154.699 Y106.064 E26.2405
G1 X150.223 Y113.649 E26.5334
G1 X148.298 Y116.800 E26.6563
G1 X147.826 Y117.503 E26.6844
G1 X146.936 Y118.976 E26.7417
G1 X144.690 Y122.774 E26.8884
G1 X143.626 Y124.559 E26.9575
G1 X142.466 Y124.498 E26.9962
G1 X139.757 Y124.438 E27.0863
G1 X137.080 Y124.407 E27.1753
G1 X128.273 Y124.324 E27.4683
G1 X124.580 Y124.232 E27.5911
G1 X123.735 Y124.174 E27.6193
G1 X122.017 Y124.140 E27.6765
G1 X117.604 Y124.094 E27.8233
G1 X115.519 Y124.065 E27.8926
G1 X114.997 Y123.039 E27.9309
G1 X113.693 Y120.661 E28.0211
G1 X112.382 Y118.328 E28.1101
G1 X108.051 Y110.660 E28.4030
G1 X106.284 Y107.416 E28.5259
G1 X105.911 Y106.656 E28.5540
G1 X105.082 Y105.149 E28.6112
G1 X102.915 Y101.304 E28.7580
G1 X101.910 Y99.507 E28.8265
G1 X102.529 Y98.557 E28.8642
G1 X103.610 Y96.775 E28.9336
G0 X104.606 Y95.879 F10800
G1 X105.637 Y94.139 E29.0008 F1800
G1 X110.111 Y86.557 E29.2936
G1 X112.031 Y83.414 E29.4161
G1 X112.503 Y82.711 E29.4443
G1 X113.399 Y81.229 E29.5019
G1 X115.646 Y77.429 E29.6487
G1 X116.596 Y75.835 E29.7104
G1 X118.645 Y75.862 E29.7786
G1 X123.045 Y75.907 E29.9249
G1 X124.646 Y75.941 E29.9782
G1 X125.478 Y75.999 E30.0059
G1 X129.297 Y76.091 E30.1330
G1 X138.125 Y76.176 E30.4266
G1 X140.771 Y76.207 E30.5146
G1 X143.383 Y76.269 E30.6015
G1 X144.235 Y76.316 E30.6299
G1 X144.658 Y77.148 E30.6610
G1 X145.965 Y79.532 E30.7514
G1 X147.278 Y81.868 E30.8405
G1 X151.607 Y89.534 E31.1334
G1 X153.369 Y92.768 E31.2558
G1 X153.742 Y93.528 E31.2840
G1 X154.577 Y95.044 E31.3416
G1 X156.745 Y98.890 E31.4884
G1 X157.631 Y100.477 E31.5489
G1 X157.141 Y101.231 E31.5788
G1 X155.729 Y103.556 E31.6692
G1 X154.363 Y105.861 E31.7584
G1 X149.889 Y113.444 E32.0512
G1 X147.969 Y116.585 E32.1737
G1 X147.497 Y117.289 E32.2018
G1 X146.601 Y118.771 E32.2595
G1 X144.355 Y122.570 E32.4062
G1 X143.412 Y124.151 E32.4675
G1 X142.481 Y124.102 E32.4985
G1 X139.763 Y124.042 E32.5889
G1 X137.084 Y124.012 E32.6780
G1 X128.280 Y123.928 E32.9708
G1 X124.598 Y123.836 E33.0934
G1 X123.752 Y123.779 E33.1215
G1 X122.023 Y123.744 E33.1791
G1 X117.608 Y123.698 E33.3259
G1 X115.759 Y123.673 E33.3874
G1 X115.342 Y122.853 E33.4180
G1 X114.035 Y120.468 E33.5085
G1 X112.722 Y118.132 E33.5976
G1 X108.392 Y110.466 E33.8904
G1 X106.631 Y107.232 E34.0129
G1 X106.258 Y106.472 E34.0411
G1 X105.423 Y104.955 E34.0987
G1 X103.255 Y101.109 E34.2455
G1 X102.368 Y99.523 E34.3059
G1 X102.859 Y98.769 E34.3358
G1 X104.271 Y96.444 E34.4263
G1 X104.505 Y96.048 E34.4416
G0 X105.495 Y95.148 F10800
G1 X105.973 Y94.342 E34.4728 F1800
G1 X110.445 Y86.762 E34.7655
G1 X112.360 Y83.630 E34.8876
G1 X112.832 Y82.926 E34.9158
G1 X113.734 Y81.434 E34.9738
G1 X115.981 Y77.633 E35.1207
G1 X116.816 Y76.234 E35.1748
G1 X118.640 Y76.258 E35.2355
G1 X123.038 Y76.303 E35.3818
G1 X124.629 Y76.336 E35.4347
G1 X125.460 Y76.394 E35.4624
G1 X129.290 Y76.486 E35.5899
G1 X138.121 Y76.572 E35.8836
G1 X140.764 Y76.603 E35.9715
G1 X143.368 Y76.664 E36.0581
G1 X143.989 Y76.698 E36.0788
G1 X144.312 Y77.334 E36.1026
G1 X145.623 Y79.726 E36.1933
G1 X146.938 Y82.064 E36.2825
G1 X151.266 Y89.728 E36.5752
G1 X153.022 Y92.951 E36.6973
G1 X153.396 Y93.712 E36.7255
G1 X154.236 Y95.239 E36.7835
G1 X156.405 Y99.086 E36.9304
G1 X157.173 Y100.461 E36.9828
G1 X156.810 Y101.018 E37.0049
G1 X155.395 Y103.351 E37.0956
G1 X154.027 Y105.658 E37.1848
G1 X149.554 Y113.238 E37.4776
G1 X147.641 Y116.370 E37.5996
G1 X147.168 Y117.074 E37.6279
G1 X146.266 Y118.567 E37.6858
G1 X144.019 Y122.367 E37.8327
G1 X143.198 Y123.744 E37.8860
G1 X142.496 Y123.706 E37.9094
G1 X139.770 Y123.647 E38.0001
G1 X137.088 Y123.616 E38.0893
G1 X128.287 Y123.532 E38.3820
G1 X124.616 Y123.441 E38.5042
G1 X123.770 Y123.383 E38.5324
G1 X122.028 Y123.349 E38.5903
G1 X117.613 Y123.302 E38.7372
G1 X116.000 Y123.280 E38.7908
G1 X115.688 Y122.666 E38.8137
G1 X114.376 Y120.274 E38.9045
G1 X113.062 Y117.936 E38.9937
G1 X108.734 Y110.273 E39.2864
G1 X106.978 Y107.049 E39.4085
G1 X106.604 Y106.288 E39.4367
G1 X105.764 Y104.760 E39.4947
G1 X103.595 Y100.914 E39.6415
G1 X102.827 Y99.539 E39.6939
G1 X103.190 Y98.982 E39.7160
G1 X104.605 Y96.649 E39.8068
G1 X105.394 Y95.318 E39.8583
G0 X106.359 Y94.460 F10800
G1 X110.780 Y86.967 E40.1476 F1800
G1 X112.689 Y83.845 E40.2693
G1 X113.161 Y83.140 E40.2976
G1 X114.069 Y81.639 E40.3559
G1 X116.317 Y77.837 E40.5028
G1 X117.035 Y76.633 E40.5494
G1 X118.636 Y76.654 E40.6027
G1 X123.032 Y76.698 E40.7489
G1 X124.611 Y76.732 E40.8014
G1 X125.442 Y76.790 E40.8291
G1 X129.284 Y76.882 E40.9570
G1 X138.117 Y76.968 E41.2508
G1 X140.757 Y76.999 E41.3386
G1 X143.352 Y77.060 E41.4249
G1 X143.744 Y77.081 E41.4380
G1 X143.967 Y77.520 E41.4543
G1 X145.282 Y79.920 E41.5453
G1 X146.598 Y82.260 E41.6346
G1 X150.925 Y89.922 E41.9273
G1 X152.675 Y93.135 E42.0490
G1 X153.049 Y93.897 E42.0772
G1 X153.894 Y95.433 E42.1355
G1 X156.064 Y99.281 E42.2825
G1 X156.715 Y100.446 E42.3268
G1 X156.480 Y100.806 E42.3411
G1 X155.060 Y103.145 E42.4322
G1 X153.691 Y105.455 E42.5215
G1 X149.220 Y113.033 E42.8141
G1 X147.312 Y116.155 E42.9358
G1 X146.838 Y116.860 E42.9640
G1 X145.931 Y118.362 E43.0224
G1 X143.683 Y122.163 E43.1693
G1 X142.984 Y123.336 E43.2147
G1 X142.510 Y123.310 E43.2305
G1 X139.776 Y123.251 E43.3215
G1 X137.093 Y123.220 E43.4107
G1 X128.293 Y123.137 E43.7034
G1 X124.634 Y123.046 E43.8251
G1 X123.787 Y122.987 E43.8534
G1 X122.034 Y122.953 E43.9117
G1 X117.618 Y122.907 E44.0586
G1 X116.240 Y122.887 E44.1044
G1 X116.033 Y122.479 E44.1196
G1 X114.718 Y120.080 E44.2106
G1 X113.402 Y117.740 E44.2999
G1 X109.075 Y110.079 E44.5925
G1 X107.325 Y106.865 E44.7143
G1 X106.951 Y106.103 E44.7425
G1 X106.106 Y104.566 E44.8008
G1 X103.936 Y100.718 E44.9478
G1 X103.285 Y99.555 E44.9921
G1 X103.520 Y99.194 E45.0064
G1 X104.940 Y96.854 E45.0974
G1 X106.259 Y94.630 E45.1835
G0 X107.247 Y93.728 F10800
G1 X111.114 Y87.173 E45.4366 F1800
G1 X113.017 Y84.060 E45.5579
G1 X113.491 Y83.354 E45.5862
G1 X114.404 Y81.843 E45.6449
G1 X116.652 Y78.041 E45.7919
G1 X117.254 Y77.032 E45.8309
G1 X118.631 Y77.049 E45.8767
G1 X123.026 Y77.094 E46.0229
G1 X124.593 Y77.127 E46.0751
G1 X125.424 Y77.185 E46.1028
G1 X129.277 Y77.278 E46.2310
G1 X138.113 Y77.364 E46.5249
G1 X140.750 Y77.394 E46.6126
G1 X143.337 Y77.456 E46.6986
G1 X143.499 Y77.465 E46.7040
G1 X143.622 Y77.707 E46.7130
G1 X144.941 Y80.114 E46.8043
G1 X146.258 Y82.456 E46.8937
G1 X150.583 Y90.115 E47.1863
G1 X152.328 Y93.318 E47.3076
G1 X152.703 Y94.081 E47.3359
G1 X153.553 Y95.627 E47.3945
G1 X155.724 Y99.477 E47.5415
G1 X156.256 Y100.430 E47.5778
G1 X156.149 Y100.594 E47.5844
G1 X154.726 Y102.940 E47.6756
G1 X153.355 Y105.252 E47.7650
G1 X148.885 Y112.827 E48.0576
G1 X146.983 Y115.940 E48.1789
G1 X146.509 Y116.645 E48.2072
G1 X145.596 Y118.157 E48.2659
G1 X143.348 Y121.959 E48.4128
G1 X142.770 Y122.928 E48.4503
G1 X142.525 Y122.915 E48.4585
G1 X139.782 Y122.855 E48.5498
G1 X137.097 Y122.825 E48.6391
G1 X128.300 Y122.741 E48.9317
G1 X124.652 Y122.650 E49.0530
G1 X123.804 Y122.592 E49.0813
G1 X122.040 Y122.557 E49.1400
G1 X117.623 Y122.511 E49.2869
G1 X116.481 Y122.495 E49.3249
G1 X116.378 Y122.293 E49.3324
G1 X115.059 Y119.886 E49.4237
G1 X113.742 Y117.544 E49.5131
G1 X109.417 Y109.886 E49.8056
G1 X107.672 Y106.682 E49.9270
G1 X107.297 Y105.919 E49.9552
G1 X106.447 Y104.372 E50.0140
G1 X104.276 Y100.523 E50.1609
G1 X103.744 Y99.570 E50.1972
G1 X103.851 Y99.406 E50.2037
G1 X105.275 Y97.060 E50.2950
G1 X106.645 Y94.748 E50.3844
G1 X107.147 Y93.898 E50.4172
G0 X108.135 Y92.996 F10800
G1 X111.449 Y87.378 E50.6342 F1800
G1 X113.346 Y84.275 E50.7551
G1 X113.820 Y83.569 E50.7834
G1 X114.739 Y82.048 E50.8425
G1 X116.988 Y78.245 E50.9895
G1 X117.474 Y77.430 E51.0210
G1 X118.627 Y77.445 E51.0594
G1 X123.019 Y77.490 E51.2055
G1 X124.576 Y77.523 E51.2573
G1 X125.406 Y77.581 E51.2850
G1 X129.271 Y77.673 E51.4135
G1 X138.109 Y77.759 E51.7075
G1 X140.744 Y77.790 E51.7951
G1 X143.277 Y77.893 E51.8795
G1 X144.599 Y80.307 E51.9710
G1 X145.918 Y82.651 E52.0605
G1 X150.242 Y90.309 E52.3530
G1 X151.981 Y93.502 E52.4739
G1 X152.356 Y94.265 E52.5022
G1 X153.212 Y95.821 E52.5613
G1 X155.383 Y99.672 E52.7083
G1 X155.799 Y100.415 E52.7366
G1 X154.391 Y102.735 E52.8268
G1 X153.019 Y105.049 E52.9163
G1 X148.550 Y112.622 E53.2088
G1 X146.655 Y115.724 E53.3297
G1 X146.180 Y116.431 E53.3580
G1 X145.261 Y117.953 E53.4171
G1 X143.012 Y121.756 E53.5641
G1 X142.539 Y122.519 E53.5940
G1 X139.789 Y122.460 E53.6854
G1 X137.101 Y122.429 E53.7749
G1 X128.306 Y122.345 E54.0674
G1 X124.670 Y122.255 E54.1884
G1 X123.821 Y122.196 E54.2167
G1 X122.046 Y122.161 E54.2757
G1 X117.627 Y122.115 E54.4227
G1 X116.721 Y122.103 E54.4528
G1 X115.401 Y119.692 E54.5442
G1 X114.082 Y117.349 E54.6337
G1 X109.758 Y109.692 E54.9261
G1 X108.019 Y106.498 E55.0471
G1 X107.644 Y105.735 E55.0754
G1 X106.788 Y104.178 E55.1345
G1 X104.617 Y100.327 E55.2815
G1 X104.202 Y99.585 E55.3098
G1 X105.609 Y97.265 E55.4000
G1 X106.981 Y94.951 E55.4895
G1 X108.034 Y93.166 E55.5584
G0 X109.022 Y92.264 F10800
G1 X111.783 Y87.584 E55.7392 F1800
G1 X113.675 Y84.491 E55.8598
G1 X114.149 Y83.783 E55.8881
G1 X115.074 Y82.253 E55.9476
G1 X117.323 Y78.448 E56.0946
G1 X117.693 Y77.829 E56.1186
G1 X118.622 Y77.841 E56.1495
G1 X123.013 Y77.885 E56.2955
G1 X124.558 Y77.918 E56.3469
G1 X125.388 Y77.976 E56.3746
G1 X129.264 Y78.069 E56.5035
G1 X138.105 Y78.155 E56.7976
G1 X140.733 Y78.186 E56.8850
G1 X143.041 Y78.280 E56.9619
G1 X144.258 Y80.501 E57.0461
G1 X145.578 Y82.847 E57.1356
G1 X149.900 Y90.502 E57.4280
G1 X151.634 Y93.685 E57.5486
G1 X152.010 Y94.450 E57.5769
G1 X152.871 Y96.016 E57.6364
G1 X155.043 Y99.867 E57.7834
G1 X155.344 Y100.407 E57.8040
G1 X154.056 Y102.529 E57.8866
G1 X152.683 Y104.846 E57.9761
G1 X148.216 Y112.417 E58.2685
G1 X146.326 Y115.509 E58.3890
G1 X145.851 Y116.216 E58.4174
G1 X144.926 Y117.748 E58.4769
G1 X142.679 Y121.549 E58.6237
G1 X142.325 Y122.119 E58.6460
G1 X139.795 Y122.064 E58.7302
G1 X137.105 Y122.033 E58.8197
G1 X128.313 Y121.950 E59.1121
G1 X124.688 Y121.859 E59.2327
G1 X123.838 Y121.800 E59.2611
G1 X122.052 Y121.766 E59.3205
G1 X117.632 Y121.720 E59.4675
G1 X116.954 Y121.710 E59.4901
G1 X115.742 Y119.498 E59.5739
G1 X114.422 Y117.153 E59.6635
G1 X110.099 Y109.498 E59.9558
G1 X108.366 Y106.315 E60.0764
G1 X107.990 Y105.550 E60.1047
G1 X107.129 Y103.984 E60.1642
G1 X104.957 Y100.132 E60.3113
G1 X104.656 Y99.593 E60.3318
G1 X105.944 Y97.470 E60.4144
G1 X107.317 Y95.154 E60.5039
G1 X108.922 Y92.434 E60.6090
G0 X109.910 Y91.532 F10800
G1 X112.118 Y87.789 E60.7535 F1800
G1 X114.003 Y84.706 E60.8737
G1 X114.478 Y83.998 E60.9021
G1 X115.409 Y82.457 E60.9620
G1 X117.659 Y78.652 E61.1090
G1 X117.912 Y78.228 E61.1254
G1 X118.618 Y78.237 E61.1489
G1 X123.007 Y78.281 E61.2949
G1 X124.541 Y78.314 E61.3459
G1 X125.370 Y78.371 E61.3735
G1 X129.257 Y78.465 E61.5029
G1 X138.101 Y78.551 E61.7970
G1 X140.723 Y78.582 E61.8843
G1 X142.805 Y78.666 E61.9536
G1 X143.916 Y80.695 E62.0305
G1 X145.238 Y83.043 E62.1201
G1 X149.559 Y90.696 E62.4124
G1 X151.287 Y93.869 E62.5326
G1 X151.663 Y94.634 E62.5610
G1 X152.530 Y96.210 E62.6208
G1 X154.890 Y100.398 E62.7807
G1 X153.721 Y102.324 E62.8556
G1 X152.347 Y104.642 E62.9452
G1 X147.881 Y112.211 E63.2375
G1 X145.998 Y115.293 E63.3577
G1 X145.522 Y116.002 E63.3861
G1 X144.591 Y117.543 E63.4460
G1 X142.345 Y121.342 E63.5927
G1 X142.112 Y121.718 E63.6074
G1 X139.802 Y121.668 E63.6843
G1 X137.109 Y121.638 E63.7739
G1 X128.320 Y121.554 E64.0662
G1 X124.706 Y121.464 E64.1864
G1 X123.855 Y121.405 E64.2148
G1 X122.058 Y121.370 E64.2746
G1 X117.637 Y121.324 E64.4216
G1 X117.186 Y121.318 E64.4366
G1 X116.083 Y119.305 E64.5130
G1 X114.763 Y116.957 E64.6026
G1 X110.441 Y109.305 E64.8949
G1 X108.713 Y106.131 E65.0151
G1 X108.337 Y105.366 E65.0434
G1 X107.470 Y103.790 E65.1033
G1 X105.110 Y99.601 E65.2631
G1 X106.279 Y97.675 E65.3381
G1 X107.653 Y95.358 E65.4277
G1 X109.810 Y91.702 E65.5689
G0 X110.798 Y90.800 F10800
G1 X112.453 Y87.995 E65.6772 F1800
G1 X114.332 Y84.921 E65.7970
G1 X114.807 Y84.212 E65.8254
G1 X115.744 Y82.662 E65.8856
G1 X118.131 Y78.626 E66.0416
G1 X123.000 Y78.677 E66.2035
G1 X124.523 Y78.709 E66.2542
G1 X125.352 Y78.767 E66.2818
G1 X129.251 Y78.861 E66.4115
G1 X138.097 Y78.946 E66.7058
G1 X140.713 Y78.977 E66.7928
G1 X142.569 Y79.053 E66.8546
G1 X143.575 Y80.888 E66.9242
G1 X144.897 Y83.239 E67.0139
G1 X149.218 Y90.890 E67.3061
G1 X150.940 Y94.053 E67.4259
G1 X151.317 Y94.818 E67.4543
G1 X152.189 Y96.404 E67.5145
G1 X154.435 Y100.391 E67.6667
G1 X153.387 Y102.119 E67.7340
G1 X152.011 Y104.439 E67.8237
G1 X147.546 Y112.006 E68.1159
G1 X145.670 Y115.078 E68.2356
G1 X145.192 Y115.787 E68.2640
G1 X144.256 Y117.339 E68.3243
G1 X142.011 Y121.136 E68.4710
G1 X141.898 Y121.317 E68.4781
G1 X139.808 Y121.273 E68.5477
G1 X137.113 Y121.242 E68.6373
G1 X128.326 Y121.158 E68.9296
G1 X124.725 Y121.068 E69.0494
G1 X123.872 Y121.009 E69.0778
G1 X122.064 Y120.974 E69.1380
G1 X117.418 Y120.925 E69.2925
G1 X116.425 Y119.111 E69.3613
G1 X115.103 Y116.761 E69.4510
G1 X110.782 Y109.111 E69.7432
G1 X109.060 Y105.947 E69.8630
G1 X108.683 Y105.182 E69.8914
G1 X107.811 Y103.595 E69.9516
G1 X105.565 Y99.609 E70.1038
G1 X106.613 Y97.881 E70.1710
G1 X107.989 Y95.561 E70.2607
G1 X110.697 Y90.970 E70.4380
G0 X111.685 Y90.068 F10800
G1 X112.787 Y88.200 E70.5101 F1800
G1 X114.661 Y85.136 E70.6296
G1 X115.136 Y84.427 E70.6580
G1 X116.080 Y82.867 E70.7186
G1 X118.352 Y79.024 E70.8671
G1 X122.994 Y79.072 E71.0215
G1 X124.506 Y79.104 E71.0718
G1 X125.334 Y79.162 E71.0994
G1 X129.244 Y79.256 E71.2295
G1 X138.093 Y79.342 E71.5238
G1 X140.703 Y79.373 E71.6106
G1 X142.334 Y79.439 E71.6649
G1 X143.234 Y81.082 E71.7272
G1 X144.557 Y83.435 E71.8170
G1 X148.876 Y91.083 E72.1092
G1 X150.593 Y94.236 E72.2286
G1 X150.970 Y95.003 E72.2570
G1 X151.848 Y96.598 E72.3175
G1 X153.981 Y100.383 E72.4621
G1 X153.052 Y101.914 E72.5216
G1 X151.675 Y104.236 E72.6114
G1 X147.212 Y111.800 E72.9035
G1 X145.341 Y114.862 E73.0228
G1 X144.863 Y115.573 E73.0513
G1 X143.920 Y117.134 E73.1120
G1 X141.684 Y120.917 E73.2581
G1 X139.814 Y120.877 E73.3204
G1 X137.117 Y120.846 E73.4101
G1 X128.333 Y120.763 E73.7022
G1 X124.743 Y120.673 E73.8217
G1 X123.889 Y120.613 E73.8502
G1 X122.069 Y120.579 E73.9107
G1 X117.651 Y120.532 E74.0577
G1 X116.766 Y118.917 E74.1189
G1 X115.443 Y116.565 E74.2087
G1 X111.124 Y108.918 E74.5008
G1 X109.407 Y105.764 E74.6202
G1 X109.030 Y104.997 E74.6486
G1 X108.152 Y103.401 E74.7092
G1 X106.020 Y99.616 E74.8537
G1 X106.948 Y98.086 E74.9132
G1 X108.325 Y95.764 E75.0030
G1 X111.585 Y90.238 E75.2164
G0 X112.573 Y89.336 F10800
G1 X113.122 Y88.406 E75.2523 F1800
G1 X114.989 Y85.351 E75.3714
G1 X115.466 Y84.641 E75.3998
G1 X116.415 Y83.072 E75.4608
G1 X118.573 Y79.422 E75.6019
G1 X122.988 Y79.468 E75.7487
G1 X124.488 Y79.500 E75.7986
G1 X125.315 Y79.558 E75.8262
G1 X129.237 Y79.652 E75.9567
G1 X138.089 Y79.738 E76.2511
G1 X140.693 Y79.769 E76.3377
G1 X142.098 Y79.826 E76.3845
G1 X142.893 Y81.276 E76.4395
G1 X144.217 Y83.631 E76.5294
G1 X148.535 Y91.277 E76.8214
G1 X150.247 Y94.420 E76.9405
G1 X150.624 Y95.187 E76.9689
G1 X151.507 Y96.793 E77.0298
G1 X153.526 Y100.376 E77.1666
G1 X152.717 Y101.708 E77.2185
G1 X151.339 Y104.033 E77.3084
G1 X146.877 Y111.595 E77.6004
G1 X145.013 Y114.647 E77.7193
G1 X144.534 Y115.359 E77.7479
G1 X143.585 Y116.929 E77.8089
G1 X141.465 Y120.516 E77.9475
G1 X139.821 Y120.481 E78.0022
G1 X137.121 Y120.451 E78.0920
G1 X128.340 Y120.367 E78.3841
G1 X124.761 Y120.278 E78.5031
G1 X123.906 Y120.218 E78.5316
G1 X122.075 Y120.183 E78.5925
G1 X117.883 Y120.138 E78.7320
G1 X117.108 Y118.723 E78.7856
G1 X115.783 Y116.369 E78.8755
G1 X111.465 Y108.724 E79.1675
G1 X109.754 Y105.580 E79.2866
G1 X109.376 Y104.813 E79.3150
G1 X108.494 Y103.207 E79.3760
G1 X106.474 Y99.623 E79.5128
G1 X107.283 Y98.291 E79.5646
G1 X108.661 Y95.967 E79.6545
G1 X112.473 Y89.506 E79.9040
G0 X113.461 Y88.604 F10800
G1 X115.318 Y85.567 E80.0224 F1800
G1 X115.795 Y84.856 E80.0509
G1 X116.750 Y83.277 E80.1122
G1 X118.793 Y79.821 E80.2458
G1 X122.982 Y79.864 E80.3851
G1 X124.470 Y79.895 E80.4346
G1 X125.297 Y79.953 E80.4622
G1 X129.231 Y80.048 E80.5931
G1 X138.085 Y80.133 E80.8876
G1 X140.683 Y80.164 E80.9740
G1 X141.862 Y80.212 E81.0132
G1 X142.551 Y81.470 E81.0609
G1 X143.877 Y83.827 E81.1509
G1 X148.193 Y91.471 E81.4428
G1 X149.900 Y94.603 E81.5615
G1 X150.277 Y95.371 E81.5900
G1 X151.165 Y96.987 E81.6513
G1 X153.071 Y100.369 E81.7804
G1 X152.382 Y101.503 E81.8245
G1 X151.003 Y103.830 E81.9145
G1 X146.543 Y111.389 E82.2064
G1 X144.684 Y114.431 E82.3250
G1 X144.205 Y115.144 E82.3536
G1 X143.250 Y116.725 E82.4150
G1 X141.246 Y120.116 E82.5460
G1 X139.827 Y120.085 E82.5932
G1 X137.125 Y120.055 E82.6831
G1 X128.346 Y119.971 E82.9751
G1 X124.780 Y119.882 E83.0937
G1 X123.924 Y119.822 E83.1223
G1 X122.081 Y119.787 E83.1836
G1 X118.115 Y119.745 E83.3155
G1 X117.449 Y118.529 E83.3616
G1 X116.123 Y116.173 E83.4515
G1 X111.806 Y108.530 E83.7434
G1 X110.100 Y105.397 E83.8621
G1 X109.723 Y104.629 E83.8906
G1 X108.835 Y103.013 E83.9519
G1 X106.929 Y99.631 E84.0810
G1 X107.618 Y98.497 E84.1251
G1 X108.997 Y96.170 E84.2151
G1 X113.360 Y88.774 E84.5007
G0 X114.360 Y87.886 F10800
G1 X115.647 Y85.782 E84.5828 F1800
G1 X116.124 Y85.070 E84.6113
G1 X117.085 Y83.482 E84.6730
G1 X119.014 Y80.219 E84.7991
G1 X122.976 Y80.260 E84.9309
G1 X124.453 Y80.291 E84.9800
G1 X125.279 Y80.349 E85.0075
G1 X129.224 Y80.443 E85.1388
G1 X138.081 Y80.529 E85.4334
G1 X140.672 Y80.560 E85.5196
G1 X141.627 Y80.599 E85.5513
G1 X142.210 Y81.664 E85.5917
G1 X143.537 Y84.023 E85.6818
G1 X147.852 Y91.664 E85.9736
G1 X149.553 Y94.787 E86.0919
G1 X149.931 Y95.556 E86.1204
G1 X150.824 Y97.181 E86.1821
G1 X152.616 Y100.361 E86.3035
G1 X152.048 Y101.298 E86.3399
G1 X150.666 Y103.627 E86.4300
G1 X146.208 Y111.184 E86.7218
G1 X144.356 Y114.216 E86.8400
G1 X143.876 Y114.930 E86.8686
G1 X142.915 Y116.520 E86.9304
G1 X141.027 Y119.715 E87.0539
G1 X139.833 Y119.690 E87.0936
G1 X137.129 Y119.659 E87.1835
G1 X128.353 Y119.575 E87.4754
G1 X124.798 Y119.487 E87.5937
G1 X123.941 Y119.426 E87.6223
G1 X122.086 Y119.392 E87.6840
G1 X118.347 Y119.352 E87.8083
G1 X117.790 Y118.336 E87.8469
G1 X116.463 Y115.977 E87.9369
G1 X112.148 Y108.337 E88.2287
G1 X110.447 Y105.213 E88.3470
G1 X110.069 Y104.444 E88.3755
G1 X109.176 Y102.818 E88.4372
G1 X107.384 Y99.639 E88.5586
G1 X107.952 Y98.702 E88.5951
G1 X109.334 Y96.373 E88.6851
G1 X113.791 Y88.816 E88.9769
G1 X114.257 Y88.055 E89.0066
G0 X115.259 Y87.169 F10800
G1 X115.975 Y85.997 E89.0523 F1800
G1 X116.453 Y85.285 E89.0808
G1 X117.420 Y83.687 E89.1429
G1 X119.235 Y80.617 E89.2616
G1 X122.970 Y80.655 E89.3858
G1 X124.435 Y80.686 E89.4346
G1 X125.261 Y80.744 E89.4621
