; GCode generated by CraftWare

G28 X0 Y0
G28 Z0

M190 S60 ;set bed temp (wait)
M109 S215 ;set head temp (wait)
; ------------------------------------
; Layer #0
; ------------------------------------
G21 ; mm
G90 ; abs
G92 E0 ; reset extr
M106 S0
G0 F4800 E-1.0000
G0 F2400 Z0.200
G0 X-18.346 Y5.076 F10800
G0 X-3.517 Y-25.253
G0 F4800 E0.0000
;segType:HShell
G1 X-28.837 Y0.351 E1.1977 F600
;segType:Perimeter
G0 X-29.185 Y0.137 F10800
G1 X-29.785 Y-0.237 E1.2212 F359
G1 X-29.488 Y-0.696 E1.2393
G1 X-29.023 Y-1.461 E1.2691
G1 X-28.570 Y-2.227 E1.2987
G1 X-24.958 Y-8.346 E1.5351
G1 X-17.040 Y-22.061 E2.0618
G1 X-15.234 Y-25.116 E2.1798
G1 X-14.747 Y-25.915 E2.2109
G1 X-14.495 Y-25.904 E2.2193
G1 X-10.224 Y-25.859 E2.3614
G1 X5.612 Y-25.859 E2.8881
G1 X12.712 Y-25.791 E3.1243
G1 X13.598 Y-25.781 E3.1537
G1 X14.481 Y-25.760 E3.1831
G1 X15.072 Y-25.727 E3.2028
G1 X15.349 Y-25.186 E3.2230
G1 X15.779 Y-24.401 E3.2528
G1 X16.215 Y-23.625 E3.2824
G1 X19.709 Y-17.438 E3.5187
G1 X27.627 Y-3.723 E4.0454
G1 X29.370 Y-0.632 E4.1635
G1 X29.817 Y0.187 E4.1945
G1 X29.488 Y0.696 E4.2146
G1 X29.024 Y1.461 E4.2444
G1 X28.570 Y2.227 E4.2740
G1 X24.958 Y8.346 E4.5103
G1 X17.040 Y22.061 E5.0371
G1 X15.234 Y25.116 E5.1551
G1 X14.747 Y25.914 E5.1862
G1 X14.139 Y25.884 E5.2064
G1 X13.245 Y25.864 E5.2362
G1 X12.354 Y25.853 E5.2658
G1 X5.249 Y25.786 E5.5022
G1 X-10.587 Y25.786 E6.0289
G1 X-14.136 Y25.749 E6.1469
G1 X-15.072 Y25.727 E6.1780
G1 X-15.348 Y25.186 E6.1982
G1 X-15.779 Y24.401 E6.2280
G1 X-16.215 Y23.625 E6.2576
G1 X-19.709 Y17.438 E6.4940
G1 X-27.627 Y3.723 E7.0207
G1 X-29.370 Y0.632 E7.1387
G1 X-29.789 Y-0.135 E7.1678
G1 X-29.163 Y-0.462
;segType:Loop
G0 X-28.898 Y-0.894 F10800
G1 X-28.681 Y-1.251 E7.1817 F600
G1 X-28.226 Y-2.019 E7.2114
G1 X-24.614 Y-8.141 E7.4478
G1 X-16.696 Y-21.855 E7.9745
G1 X-14.892 Y-24.906 E8.0924
G1 X-14.505 Y-25.499 E8.1159
G1 X-10.226 Y-25.455 E8.2583
G1 X5.610 Y-25.455 E8.7850
G1 X12.708 Y-25.386 E9.0211
G1 X13.592 Y-25.376 E9.0505
G1 X14.466 Y-25.356 E9.0795
G1 X14.821 Y-25.336 E9.0914
G1 X14.996 Y-24.995 E9.1041
G1 X15.430 Y-24.203 E9.1342
G1 X15.868 Y-23.425 E9.1639
G1 X19.362 Y-17.236 E9.4003
G1 X27.281 Y-3.521 E9.9270
G1 X29.021 Y-0.434 E10.0449
G1 X29.350 Y0.170 E10.0677
G1 X29.150 Y0.479 E10.0800
G1 X28.681 Y1.251 E10.1100
G1 X28.226 Y2.019 E10.1397
G1 X24.614 Y8.141 E10.3761
G1 X16.696 Y21.855 E10.9029
G1 X14.892 Y24.906 E11.0207
G1 X14.531 Y25.498 E11.0438
G1 X14.154 Y25.479 E11.0564
G1 X13.251 Y25.459 E11.0864
G1 X12.358 Y25.449 E11.1161
G1 X5.251 Y25.381 E11.3525
G1 X-10.585 Y25.381 E11.8792
G1 X-14.130 Y25.345 E11.9971
G1 X-14.825 Y25.328 E12.0202
G1 X-14.996 Y24.995 E12.0327
G1 X-15.430 Y24.203 E12.0627
G1 X-15.868 Y23.425 E12.0924
G1 X-19.362 Y17.235 E12.3288
G1 X-27.281 Y3.521 E12.8555
G1 X-29.021 Y0.434 E12.9734
G1 X-29.350 Y-0.170 E12.9963
G1 X-29.150 Y-0.479 E13.0086
G1 X-29.001 Y-0.725 E13.0181
;segType:HShell
G0 X-28.586 Y-1.023 F10800
G1 X-4.625 Y-25.253 E14.1515 F600
G1 X-5.178 Y-25.253
G1 X-27.755 Y-2.423 E15.2194
G0 X-26.936 Y-3.811 F10800
G1 X-5.732 Y-25.253 E16.2224 F600
G1 X-6.285 Y-25.253
G1 X-26.117 Y-5.200 E17.1604
G0 X-28.636 Y0.707 F10800
G1 X-2.964 Y-25.253 E18.3747 F600
G1 X-2.410 Y-25.253
G1 X-28.436 Y1.064 E19.6058
G1 X-28.235 Y1.420
G1 X-1.857 Y-25.253 E20.8534
G1 X-1.303 Y-25.253
G1 X-28.034 Y1.777 E22.1178
G1 X-27.833 Y2.133
G1 X-0.750 Y-25.253 E23.3989
G1 X-0.196 Y-25.253
G1 X-27.632 Y2.490 E24.6966
G1 X-27.431 Y2.847
G1 X0.358 Y-25.253 E26.0110
G1 X0.911 Y-25.253
G1 X-27.230 Y3.203 E27.3421
G1 X-27.027 Y3.558
G1 X1.465 Y-25.253 E28.6898
G1 X2.018 Y-25.253
G1 X-26.823 Y3.912 E30.0540
G1 X-26.619 Y4.265
G1 X2.572 Y-25.253 E31.4348
G1 X3.126 Y-25.253
G1 X-26.415 Y4.619 E32.8321
G1 X-26.211 Y4.972
G1 X3.679 Y-25.253 E34.2460
G1 X4.233 Y-25.253
G1 X-26.007 Y5.326 E35.6763
G1 X-25.803 Y5.679
G1 X4.786 Y-25.253 E37.1232
G1 X5.340 Y-25.253
G1 X-25.599 Y6.033 E38.5867
G1 X-25.395 Y6.386
G1 X5.891 Y-25.250 E40.0665
G1 X6.439 Y-25.245
G1 X-25.191 Y6.739 E41.5627
G1 X-24.987 Y7.093
G1 X6.988 Y-25.239 E43.0751
G1 X7.536 Y-25.234
G1 X-24.783 Y7.446 E44.6038
G1 X-24.579 Y7.800
G1 X8.084 Y-25.229 E46.1488
G1 X8.633 Y-25.223
G1 X-24.375 Y8.153 E47.7100
G1 X-24.171 Y8.507
G1 X9.181 Y-25.218 E49.2876
G1 X9.729 Y-25.213
G1 X-23.966 Y8.860 E50.8814
G1 X-23.762 Y9.214
G1 X10.278 Y-25.207 E52.4915
G1 X10.826 Y-25.202
G1 X-23.558 Y9.567 E54.1180
G1 X-23.354 Y9.920
G1 X11.374 Y-25.197 E55.7606
G1 X11.923 Y-25.191
G1 X-23.150 Y10.274 E57.4196
G1 X-22.946 Y10.627
G1 X12.471 Y-25.186 E59.0949
G1 X13.019 Y-25.180
G1 X-22.742 Y10.981 E60.7864
G1 X-22.538 Y11.334
G1 X13.566 Y-25.174 E62.4942
G1 X14.104 Y-25.158
G1 X-22.334 Y11.688 E64.2177
G1 X-22.130 Y12.041
G1 X14.642 Y-25.142 E65.9571
G1 X14.872 Y-24.815
G1 X-21.926 Y12.394 E67.6976
G1 X-21.722 Y12.748
G1 X15.067 Y-24.453 E69.4378
G1 X15.263 Y-24.091
G1 X-21.518 Y13.101 E71.1776
G1 X-21.314 Y13.455
G1 X15.464 Y-23.734 E72.9172
G1 X15.664 Y-23.377
G1 X-21.110 Y13.808 E74.6566
G1 X-20.906 Y14.162
G1 X15.865 Y-23.021 E76.3959
G1 X16.067 Y-22.664
G1 X-20.701 Y14.515 E78.1351
G1 X-20.497 Y14.869
G1 X16.268 Y-22.308 E79.8741
G1 X16.469 Y-21.952
G1 X-20.293 Y15.222 E81.6130
G1 X-20.089 Y15.575
G1 X16.670 Y-21.595 E83.3517
G1 X16.871 Y-21.239
G1 X-19.885 Y15.929 E85.0903
G1 X-19.681 Y16.282
G1 X17.073 Y-20.883 E86.8288
G1 X17.274 Y-20.526
G1 X-19.477 Y16.636 E88.5672
G1 X-19.273 Y16.989
G1 X17.475 Y-20.170 E90.3054
G1 X17.676 Y-19.814
G1 X-19.071 Y17.344 E92.0435
G1 X-18.869 Y17.701
G1 X17.878 Y-19.457 E93.7817
G1 X18.079 Y-19.101
G1 X-18.668 Y18.057 E95.5199
G1 X-18.467 Y18.413
G1 X18.280 Y-18.745 E97.2580
G1 X18.481 Y-18.388
G1 X-18.266 Y18.770 E98.9962
G1 X-18.065 Y19.126
G1 X18.682 Y-18.032 E100.7343
G1 X18.884 Y-17.676
G1 X-17.863 Y19.482 E102.4725
G1 X-17.662 Y19.839
G1 X19.085 Y-17.319 E104.2107
G1 X19.287 Y-16.965
G1 X-17.461 Y20.195 E105.9489
G1 X-17.260 Y20.551
G1 X19.492 Y-16.611 E107.6873
G1 X19.696 Y-16.258
G1 X-17.059 Y20.908 E109.4258
G1 X-16.857 Y21.264
G1 X19.900 Y-15.904 E111.1644
G1 X20.104 Y-15.551
G1 X-16.656 Y21.620 E112.9032
G1 X-16.455 Y21.977
G1 X20.308 Y-15.197 E114.6421
G1 X20.512 Y-14.844
G1 X-16.254 Y22.333 E116.3811
G1 X-16.053 Y22.689
G1 X20.716 Y-14.491 E118.1203
G1 X20.920 Y-14.137
G1 X-15.851 Y23.046 E119.8596
G1 X-15.650 Y23.402
G1 X21.124 Y-13.784 E121.5990
G1 X21.328 Y-13.430
G1 X-15.450 Y23.759 E123.3386
G1 X-15.249 Y24.116
G1 X21.532 Y-13.077 E125.0784
G1 X21.736 Y-12.723
G1 X-15.054 Y24.478 E126.8186
G1 X-14.858 Y24.840
G1 X21.940 Y-12.370 E128.5592
G1 X22.144 Y-12.016
G1 X-14.593 Y25.131 E130.2969
G1 X-14.051 Y25.143
G1 X22.348 Y-11.663 E132.0186
G1 X22.552 Y-11.310
G1 X-13.503 Y25.149 E133.7240
G1 X-12.955 Y25.154
G1 X22.756 Y-10.956 E135.4132
G1 X22.960 Y-10.603
G1 X-12.407 Y25.160 E137.0860
G1 X-11.858 Y25.166
G1 X23.165 Y-10.249 E138.7427
G1 X23.369 Y-9.896
G1 X-11.310 Y25.171 E140.3830
G1 X-10.762 Y25.177
G1 X23.573 Y-9.542 E142.0071
G1 X23.777 Y-9.189
G1 X-10.211 Y25.179 E143.6147
G1 X-9.657 Y25.179
G1 X23.981 Y-8.835 E145.2058
G1 X24.185 Y-8.482
G1 X-9.103 Y25.179 E146.7803
G1 X-8.550 Y25.179
G1 X24.389 Y-8.129 E148.3384
G1 X24.593 Y-7.775
G1 X-7.996 Y25.179 E149.8799
G1 X-7.443 Y25.179
G1 X24.797 Y-7.422 E151.4048
G1 X25.001 Y-7.068
G1 X-6.889 Y25.179 E152.9132
G1 X-6.335 Y25.179
G1 X25.205 Y-6.715 E154.4051
G1 X25.409 Y-6.361
G1 X-5.782 Y25.179 E155.8805
G1 X-5.228 Y25.179
G1 X25.613 Y-6.008 E157.3393
G1 X25.817 Y-5.654
G1 X-4.675 Y25.179 E158.7816
G1 X-4.121 Y25.179
G1 X26.021 Y-5.301 E160.2074
G1 X26.225 Y-4.947
G1 X-3.567 Y25.179 E161.6166
G1 X-3.014 Y25.179
G1 X26.429 Y-4.594 E163.0093
G1 X26.634 Y-4.241
G1 X-2.460 Y25.179 E164.3855
G1 X-1.907 Y25.179
G1 X26.838 Y-3.887 E165.7451
G1 X27.042 Y-3.534
G1 X-1.353 Y25.179 E167.0882
G1 X-0.800 Y25.179
G1 X27.244 Y-3.178 E168.4147
G1 X27.445 Y-2.822
G1 X-0.246 Y25.179 E169.7244
G1 X0.308 Y25.179
G1 X27.646 Y-2.465 E171.0176
G1 X27.847 Y-2.109
G1 X0.861 Y25.179 E172.2940
G1 X1.415 Y25.179
G1 X28.048 Y-1.752 E173.5537
G1 X28.249 Y-1.395
G1 X1.968 Y25.179 E174.7968
G1 X2.522 Y25.179
G1 X28.450 Y-1.039 E176.0232
G1 X28.651 Y-0.682
G1 X3.076 Y25.179 E177.2329
G1 X3.629 Y25.179
G1 X28.851 Y-0.326 E178.4259
G1 X29.048 Y0.035
G1 X4.183 Y25.179 E179.6021
G1 X4.736 Y25.179
G1 X28.523 Y1.126 E180.7272
G0 X27.698 Y2.520 F10800
G1 X5.290 Y25.179 E181.7872 F600
G1 X5.838 Y25.184
G1 X26.879 Y3.908 E182.7824
G0 X26.060 Y5.296 F10800
G1 X6.386 Y25.190 E183.7130 F600
G1 X6.935 Y25.195
G1 X25.240 Y6.685 E184.5788
G0 X24.422 Y8.072 F10800
G1 X7.483 Y25.200 E185.3801 F600
G1 X8.032 Y25.205
G1 X23.646 Y9.417 E186.1186
G0 X22.869 Y10.762 F10800
G1 X8.580 Y25.211 E186.7945 F600
G1 X9.129 Y25.216
G1 X22.092 Y12.107 E187.4077
G0 X20.539 Y14.797 F10800
G1 X10.225 Y25.226 E187.8955 F600
G1 X9.677 Y25.221
G1 X21.316 Y13.452 E188.4461
G0 X19.763 Y16.142 F10800
G1 X10.774 Y25.232 E188.8713 F600
G1 X11.322 Y25.237
G1 X18.986 Y17.487 E189.2338
G0 X18.210 Y18.832 F10800
G1 X11.871 Y25.242 E189.5336 F600
G1 X12.419 Y25.247
G1 X17.433 Y20.177 E189.7708
G0 X16.656 Y21.522 F10800
G1 X12.966 Y25.254 E189.9453 F600
G1 X13.509 Y25.264
G1 X15.841 Y22.906 E190.0557
G0 X15.018 Y24.298 F10800
G1 X14.048 Y25.280 E190.1016 F600
G0 X-24.478 Y-7.976 F10800
G1 X-7.393 Y-25.253 E190.9097 F600
G1 X-6.839 Y-25.253
G1 X-25.297 Y-6.588 E191.7828
G0 X-23.700 Y-9.323 F10800
G1 X-7.946 Y-25.253 E192.5280 F600
G1 X-8.500 Y-25.253
G1 X-22.923 Y-10.668 E193.2102
G0 X-22.147 Y-12.013 F10800
G1 X-9.053 Y-25.253 E193.8295 F600
G1 X-9.607 Y-25.253
G1 X-21.370 Y-13.358 E194.3859
G0 X-20.593 Y-14.703 F10800
G1 X-10.161 Y-25.253 E194.8794 F600
G1 X-10.709 Y-25.258
G1 X-19.817 Y-16.048 E195.3102
G0 X-19.040 Y-17.393 F10800
G1 X-11.257 Y-25.263 E195.6784 F600
G1 X-11.805 Y-25.269
G1 X-18.264 Y-18.738 E195.9839
G0 X-17.487 Y-20.083 F10800
G1 X-12.353 Y-25.275 E196.2267 F600
G1 X-12.901 Y-25.280
G1 X-16.711 Y-21.428 E196.4069
G0 X-15.899 Y-22.809 F10800
G1 X-13.449 Y-25.286 E196.5228 F600
G1 X-13.997 Y-25.292
G1 X-15.075 Y-24.201 E196.5738
G0 X-4.071 Y-25.253 F10800
G1 X-29.035 Y-0.010 E197.7546 F600
; ------------------------------------
; Layer #1
; ------------------------------------
G21 ; mm
G90 ; abs
G92 E0 ; reset extr
M106 S0
;segType:HShell
G0 F4800 E-1.0000
G0 F2400 Z0.400
G0 X-3.666 Y25.194 F10800
G0 F4800 E0.0000
G1 X-29.075 Y-0.499 E1.2019 F3600
;segType:Perimeter
G0 X-29.241 Y-0.049 F10800
G1 X-29.833 Y-0.436 E1.2254 F2159
G1 X-29.145 Y-1.499 E1.2675
G1 X-28.218 Y-3.025 E1.3269
G1 X-27.312 Y-4.555 E1.3860
G1 X-20.093 Y-16.787 E1.8584
G1 X-19.249 Y-18.248 E1.9145
G1 X-15.638 Y-24.356 E2.1505
G1 X-14.916 Y-25.567 E2.1974
G1 X-14.598 Y-26.056 E2.2168
G1 X-13.985 Y-26.029 E2.2373
G1 X-12.556 Y-26.012 E2.2848
G1 X-5.452 Y-25.940 E2.5211
G1 X-3.765 Y-25.940 E2.5772
G1 X10.429 Y-25.803 E3.0493
G1 X12.201 Y-25.782 E3.1082
G1 X13.970 Y-25.741 E3.1671
G1 X15.268 Y-25.669 E3.2103
G1 X15.873 Y-24.488 E3.2545
G1 X16.731 Y-22.922 E3.3139
G1 X17.603 Y-21.372 E3.3730
G1 X24.586 Y-9.004 E3.8454
G1 X25.430 Y-7.544 E3.9015
G1 X28.914 Y-1.362 E4.1375
G1 X29.602 Y-0.131 E4.1844
G1 X29.865 Y0.386 E4.2037
G1 X29.145 Y1.499 E4.2478
G1 X28.218 Y3.025 E4.3072
G1 X27.312 Y4.555 E4.3663
G1 X20.093 Y16.787 E4.8387
G1 X19.250 Y18.248 E4.8948
G1 X15.639 Y24.356 E5.1309
G1 X14.916 Y25.567 E5.1777
G1 X14.599 Y26.055 E5.1971
G1 X13.272 Y25.988 E5.2413
G1 X11.487 Y25.949 E5.3007
G1 X9.709 Y25.929 E5.3598
G1 X-4.493 Y25.793 E5.8322
G1 X-6.180 Y25.793 E5.8883
G1 X-13.276 Y25.719 E6.1243
G1 X-14.686 Y25.700 E6.1712
G1 X-15.268 Y25.669 E6.1907
G1 X-15.872 Y24.488 E6.2348
G1 X-16.731 Y22.922 E6.2942
G1 X-17.603 Y21.372 E6.3533
G1 X-24.586 Y9.004 E6.8257
G1 X-25.430 Y7.543 E6.8818
G1 X-28.914 Y1.362 E7.1178
G1 X-29.602 Y0.131 E7.1647
G1 X-29.838 Y-0.334 E7.1821
G1 X-29.210 Y-0.656
;segType:Loop
G0 X-28.941 Y-1.076 F10800
G1 X-28.807 Y-1.282 E7.1903 F3600
G1 X-27.876 Y-2.815 E7.2499
G1 X-26.969 Y-4.348 E7.3091
G1 X-19.749 Y-16.581 E7.7816
G1 X-18.905 Y-18.042 E7.8377
G1 X-15.296 Y-24.148 E8.0736
G1 X-14.578 Y-25.351 E8.1202
G1 X-14.389 Y-25.642 E8.1318
G1 X-13.996 Y-25.625 E8.1449
G1 X-12.560 Y-25.608 E8.1926
G1 X-5.454 Y-25.536 E8.4290
G1 X-3.767 Y-25.536 E8.4851
G1 X10.425 Y-25.399 E8.9571
G1 X12.194 Y-25.378 E9.0160
G1 X13.955 Y-25.337 E9.0746
G1 X15.018 Y-25.278 E9.1100
G1 X15.520 Y-24.297 E9.1466
G1 X16.382 Y-22.724 E9.2063
G1 X17.255 Y-21.172 E9.2655
G1 X24.240 Y-8.802 E9.7380
G1 X25.083 Y-7.341 E9.7941
G1 X28.566 Y-1.163 E10.0300
G1 X29.250 Y0.061 E10.0766
G1 X29.403 Y0.362 E10.0879
G1 X28.807 Y1.283 E10.1243
G1 X27.876 Y2.816 E10.1840
G1 X26.969 Y4.348 E10.2432
G1 X19.749 Y16.581 E10.7157
G1 X18.905 Y18.042 E10.7718
G1 X15.296 Y24.148 E11.0077
G1 X14.578 Y25.351 E11.0543
G1 X14.390 Y25.640 E11.0657
G1 X13.287 Y25.584 E11.1025
G1 X11.494 Y25.544 E11.1621
G1 X9.713 Y25.524 E11.2214
G1 X-4.491 Y25.388 E11.6938
G1 X-6.178 Y25.388 E11.7499
G1 X-13.271 Y25.315 E11.9859
G1 X-14.672 Y25.296 E12.0325
G1 X-15.018 Y25.277 E12.0440
G1 X-15.520 Y24.297 E12.0806
G1 X-16.382 Y22.724 E12.1403
G1 X-17.255 Y21.172 E12.1995
G1 X-24.240 Y8.802 E12.6720
G1 X-25.083 Y7.341 E12.7281
G1 X-28.566 Y1.163 E12.9640
G1 X-29.250 Y-0.061 E13.0106
G1 X-29.403 Y-0.362 E13.0219
G1 X-29.048 Y-0.910 E13.0436
;segType:HShell
G0 X-28.856 Y-0.838 F10800
G1 X-3.107 Y25.199 E14.2615 F3600
G1 X-2.548 Y25.204
G1 X-28.637 Y-1.176 E15.4955
G1 X-28.426 Y-1.523
G1 X-1.990 Y25.210 E16.7460
G1 X-1.431 Y25.215
G1 X-28.216 Y-1.870 E18.0130
G1 X-28.005 Y-2.216
G1 X-0.872 Y25.221 E19.2964
G1 X-0.313 Y25.226
G1 X-27.794 Y-2.563 E20.5963
G1 X-27.586 Y-2.912
G1 X0.246 Y25.231 E21.9128
G1 X0.805 Y25.237
G1 X-27.378 Y-3.262 E23.2458
G1 X-27.171 Y-3.612
G1 X1.364 Y25.242 E24.5956
G1 X1.923 Y25.247
G1 X-26.964 Y-3.962 E25.9619
G1 X-26.757 Y-4.313
G1 X2.481 Y25.253 E27.3449
G1 X3.040 Y25.258
G1 X-26.550 Y-4.663 E28.7445
G1 X-26.343 Y-5.014
G1 X3.599 Y25.263 E30.1608
G1 X4.158 Y25.269
G1 X-26.136 Y-5.364 E31.5938
G1 X-25.929 Y-5.715
G1 X4.717 Y25.274 E33.0433
G1 X5.276 Y25.279
G1 X-25.722 Y-6.065 E34.5096
G1 X-25.515 Y-6.416
G1 X5.835 Y25.285 E35.9924
G1 X6.394 Y25.290
G1 X-25.308 Y-6.767 E37.4920
G1 X-25.101 Y-7.117
G1 X6.953 Y25.295 E39.0082
G1 X7.511 Y25.301
G1 X-24.895 Y-7.468 E40.5410
G1 X-24.688 Y-7.818
G1 X8.070 Y25.306 E42.0905
G1 X8.629 Y25.311
G1 X-24.481 Y-8.169 E43.6566
G1 X-24.274 Y-8.519
G1 X9.188 Y25.317 E45.2394
G1 X9.747 Y25.322
G1 X-24.067 Y-8.870 E46.8388
G1 X-23.860 Y-9.221
G1 X10.307 Y25.329 E48.4549
G1 X10.867 Y25.335
G1 X-23.653 Y-9.571 E50.0877
G1 X-23.446 Y-9.922
G1 X11.427 Y25.341 E51.7373
G1 X11.992 Y25.353
G1 X-23.239 Y-10.272 E53.4037
G1 X-23.033 Y-10.623
G1 X12.558 Y25.366 E55.0872
G1 X13.124 Y25.378
G1 X-22.826 Y-10.974 E56.7876
G1 X-22.619 Y-11.324
G1 X13.701 Y25.402 E58.5056
G1 X14.284 Y25.432
G1 X-22.412 Y-11.675 E60.2413
G1 X-22.205 Y-12.025
G1 X14.500 Y25.090 E61.9775
G1 X14.708 Y24.741
G1 X-21.998 Y-12.376 E63.7137
G1 X-21.791 Y-12.726
G1 X14.917 Y24.392 E65.4501
G1 X15.125 Y24.043
G1 X-21.584 Y-13.077 E67.1864
G1 X-21.377 Y-13.428
G1 X15.332 Y23.693 E68.9228
G1 X15.539 Y23.342
G1 X-21.170 Y-13.778 E70.6592
G1 X-20.964 Y-14.129
G1 X15.746 Y22.992 E72.3956
G1 X15.953 Y22.641
G1 X-20.757 Y-14.479 E74.1320
G1 X-20.550 Y-14.830
G1 X16.160 Y22.291 E75.8684
G1 X16.368 Y21.941
G1 X-20.343 Y-15.180 E77.6049
G1 X-20.136 Y-15.531
G1 X16.575 Y21.590 E79.3413
G1 X16.782 Y21.240
G1 X-19.929 Y-15.882 E81.0778
G1 X-19.722 Y-16.232
G1 X16.989 Y20.890 E82.8142
G1 X17.196 Y20.539
G1 X-19.516 Y-16.584 E84.5507
G1 X-19.312 Y-16.937
G1 X17.403 Y20.189 E86.2874
G1 X17.610 Y19.839
G1 X-19.108 Y-17.290 E88.0242
G1 X-18.904 Y-17.644
G1 X17.817 Y19.488 E89.7611
G1 X18.024 Y19.138
G1 X-18.699 Y-17.997 E91.4981
G1 X-18.492 Y-18.347
G1 X18.232 Y18.787 E93.2352
G1 X18.439 Y18.437
G1 X-18.285 Y-18.697 E94.9722
G1 X-18.078 Y-19.048
G1 X18.646 Y18.087 E96.7093
G1 X18.851 Y17.735
G1 X-17.871 Y-19.398 E98.4462
G1 X-17.663 Y-19.748
G1 X19.055 Y17.381 E100.1831
G1 X19.259 Y17.028
G1 X-17.456 Y-20.099 E101.9197
G1 X-17.249 Y-20.449
G1 X19.464 Y16.675 E103.6563
G1 X19.669 Y16.322
G1 X-17.042 Y-20.799 E105.3928
G1 X-16.835 Y-21.150
G1 X19.876 Y15.972 E107.1292
G1 X20.083 Y15.621
G1 X-16.628 Y-21.500 E108.8656
G1 X-16.421 Y-21.850
G1 X20.290 Y15.271 E110.6021
G1 X20.496 Y14.920
G1 X-16.214 Y-22.201 E112.3385
G1 X-16.006 Y-22.551
G1 X20.703 Y14.570 E114.0749
G1 X20.910 Y14.219
G1 X-15.799 Y-22.901 E115.8113
G1 X-15.592 Y-23.252
G1 X21.117 Y13.868 E117.5477
G1 X21.324 Y13.518
G1 X-15.385 Y-23.602 E119.2840
G1 X-15.178 Y-23.952
G1 X21.531 Y13.167 E121.0204
G1 X21.738 Y12.817
G1 X-14.970 Y-24.302 E122.7567
G1 X-14.762 Y-24.651
G1 X21.945 Y12.466 E124.4929
G1 X22.152 Y12.115
G1 X-14.554 Y-25.000 E126.2291
G1 X-14.342 Y-25.346
G1 X22.359 Y11.765 E127.9651
G1 X22.565 Y11.414
G1 X-13.862 Y-25.421 E129.6881
G1 X-13.302 Y-25.414
G1 X22.772 Y11.064 E131.3945
G1 X22.979 Y10.713
G1 X-12.742 Y-25.408 E133.0841
G1 X-12.182 Y-25.402
G1 X23.186 Y10.363 E134.7571
G1 X23.393 Y10.012
G1 X-11.623 Y-25.396 E136.4134
G1 X-11.064 Y-25.390
G1 X23.600 Y9.661 E138.0530
G1 X23.807 Y9.311
G1 X-10.505 Y-25.385 E139.6760
G1 X-9.946 Y-25.379
G1 X24.014 Y8.960 E141.2823
G1 X24.221 Y8.610
G1 X-9.386 Y-25.373 E142.8720
G1 X-8.827 Y-25.368
G1 X24.428 Y8.259 E144.4449
G1 X24.634 Y7.909
G1 X-8.268 Y-25.362 E146.0012
G1 X-7.709 Y-25.356
G1 X24.841 Y7.558 E147.5409
G1 X25.048 Y7.207
G1 X-7.150 Y-25.351 E149.0639
G1 X-6.590 Y-25.345
G1 X25.255 Y6.857 E150.5702
G1 X25.462 Y6.506
G1 X-6.031 Y-25.339 E152.0598
G1 X-5.472 Y-25.334
G1 X25.669 Y6.156 E153.5328
G1 X25.876 Y5.805
G1 X-4.918 Y-25.333 E154.9894
G1 X-4.365 Y-25.333
G1 X26.083 Y5.455 E156.4296
G1 X26.290 Y5.104
G1 X-3.811 Y-25.333 E157.8534
G1 X-3.253 Y-25.328
G1 X26.496 Y4.753 E159.2605
G1 X26.703 Y4.403
G1 X-2.694 Y-25.323 E160.6510
G1 X-2.135 Y-25.318
G1 X26.911 Y4.053 E162.0249
G1 X27.118 Y3.702
G1 X-1.576 Y-25.312 E163.3821
G1 X-1.017 Y-25.307
G1 X27.325 Y3.352 E164.7227
G1 X27.533 Y3.002
G1 X-0.458 Y-25.301 E166.0467
G1 X0.101 Y-25.296
G1 X27.740 Y2.653 E167.3541
G1 X27.951 Y2.306
G1 X0.660 Y-25.291 E168.6449
G1 X1.219 Y-25.285
G1 X28.162 Y1.959 E169.9194
G1 X28.372 Y1.612
G1 X1.778 Y-25.280 E171.1773
G1 X2.337 Y-25.274
G1 X28.583 Y1.265 E172.4188
G1 X28.800 Y0.925
G1 X2.896 Y-25.269 E173.6440
G1 X3.455 Y-25.264
G1 X29.019 Y0.587 E174.8532
G1 X28.977 Y-0.015
G1 X4.014 Y-25.258 E176.0341
G1 X4.573 Y-25.253
G1 X28.256 Y-1.304 E177.1543
G0 X27.522 Y-2.606 F10800
G1 X5.131 Y-25.247 E178.2134 F3600
G1 X5.690 Y-25.242
G1 X26.788 Y-3.908 E179.2114
G0 X26.055 Y-5.210 F10800
G1 X6.249 Y-25.237 E180.1482 F3600
G1 X6.808 Y-25.231
G1 X25.321 Y-6.511 E181.0238
G0 X24.568 Y-7.832 F10800
G1 X7.367 Y-25.226 E181.8374 F3600
G1 X7.926 Y-25.220
G1 X23.805 Y-9.164 E182.5885
G0 X23.069 Y-10.468 F10800
G1 X8.485 Y-25.215 E183.2783 F3600
G1 X9.044 Y-25.210
G1 X22.332 Y-11.773 E183.9069
G0 X21.595 Y-13.078 F10800
G1 X9.603 Y-25.204 E184.4741 F3600
G1 X10.162 Y-25.199
G1 X20.858 Y-14.383 E184.9800
G0 X20.122 Y-15.687 F10800
G1 X10.721 Y-25.193 E185.4247 F3600
G1 X11.281 Y-25.186
G1 X19.385 Y-16.992 E185.8080
G0 X18.648 Y-18.297 F10800
G1 X11.841 Y-25.180 E186.1300 F3600
G1 X12.404 Y-25.171
G1 X17.911 Y-19.602 E186.3905
G0 X17.175 Y-20.906 F10800
G1 X12.970 Y-25.158 E186.5893 F3600
G1 X13.537 Y-25.145
G1 X16.444 Y-22.205 E186.7268
G0 X15.742 Y-23.475 F10800
G1 X14.109 Y-25.126 E186.8041 F3600
G1 X14.695 Y-25.094
G1 X15.093 Y-24.690 E186.8229
G0 X-28.067 Y1.640 F10800
G1 X-4.781 Y25.186 E187.9244 F3600
G1 X-5.335 Y25.186
G1 X-27.333 Y2.941 E188.9649
G0 X-26.600 Y4.243 F10800
G1 X-5.888 Y25.186 E189.9446 F3600
G1 X-6.445 Y25.183
G1 X-25.866 Y5.545 E190.8632
G0 X-24.368 Y8.179 F10800
G1 X-7.563 Y25.172 E191.6581 F3600
G1 X-7.004 Y25.177
G1 X-25.132 Y6.846 E192.5156
G0 X-22.879 Y10.804 F10800
G1 X-8.682 Y25.160 E193.1871 F3600
G1 X-8.123 Y25.166
G1 X-23.616 Y9.500 E193.9199
G0 X-22.142 Y12.109 F10800
G1 X-9.241 Y25.154 E194.5301 F3600
G1 X-9.801 Y25.148
G1 X-21.405 Y13.414 E195.0790
G0 X-20.668 Y14.719 F10800
G1 X-10.360 Y25.143 E195.5666 F3600
G1 X-10.919 Y25.137
G1 X-19.932 Y16.024 E195.9929
G0 X-19.195 Y17.328 F10800
G1 X-11.479 Y25.131 E196.3579 F3600
G1 X-12.038 Y25.125
G1 X-18.458 Y18.633 E196.6616
G0 X-17.721 Y19.938 F10800
G1 X-12.597 Y25.119 E196.9039 F3600
G1 X-13.157 Y25.114
G1 X-16.985 Y21.242 E197.0850
G0 X-16.256 Y22.540 F10800
G1 X-13.717 Y25.106 E197.2051 F3600
G1 X-14.278 Y25.099
G1 X-15.564 Y23.799 E197.2659
G0 X-14.940 Y24.989 F10800
G1 X-14.847 Y25.084 E197.2703 F3600
G0 X-4.225 Y25.188 F10800
G1 X-28.792 Y0.346 E198.4324 F3600
; ------------------------------------
; Layer #2
; ------------------------------------
G21 ; mm
G90 ; abs
G92 E0 ; reset extr
M106 S0
;segType:HShell
G0 F4800 E-1.0000
G0 F2400 Z0.600
G0 X-4.491 Y-25.387 F10800
G0 F4800 E0.0000
G1 X-29.164 Y-0.439 E1.1670 F3600
;segType:Perimeter
G0 X-29.290 Y-0.250 F10800
G1 X-29.882 Y-0.636 E1.1905 F2159
G1 X-29.393 Y-1.403 E1.2208
G1 X-28.803 Y-2.301 E1.2565
G1 X-27.414 Y-4.589 E1.3456
G1 X-26.054 Y-6.884 E1.4343
G1 X-21.573 Y-14.477 E1.7275
G1 X-19.623 Y-17.669 E1.8519
G1 X-19.153 Y-18.368 E1.8800
G1 X-18.287 Y-19.801 E1.9357
G1 X-16.043 Y-23.596 E2.0823
G1 X-14.959 Y-25.414 E2.1527
G1 X-14.450 Y-26.197 E2.1838
G1 X-13.475 Y-26.155 E2.2162
G1 X-11.333 Y-26.129 E2.2875
G1 X-6.924 Y-26.085 E2.4341
G1 X-5.266 Y-26.049 E2.4893
G1 X-4.431 Y-25.991 E2.5171
G1 X-0.670 Y-25.901 E2.6422
G1 X8.146 Y-25.815 E2.9355
G1 X10.804 Y-25.784 E3.0239
G1 X13.459 Y-25.722 E3.1122
G1 X15.465 Y-25.611 E3.1790
G1 X15.913 Y-24.750 E3.2113
G1 X16.396 Y-23.790 E3.2471
G1 X17.683 Y-21.443 E3.3361
G1 X18.990 Y-19.119 E3.4248
G1 X23.326 Y-11.441 E3.7181
G1 X25.115 Y-8.156 E3.8425
G1 X25.486 Y-7.400 E3.8705
G1 X26.294 Y-5.933 E3.9262
G1 X28.458 Y-2.093 E4.0728
G1 X29.491 Y-0.245 E4.1432
G1 X29.914 Y0.586 E4.1742
G1 X29.393 Y1.403 E4.2064
G1 X28.803 Y2.301 E4.2422
G1 X27.414 Y4.589 E4.3312
G1 X26.054 Y6.884 E4.4199
G1 X21.573 Y14.477 E4.7132
G1 X19.623 Y17.669 E4.8376
G1 X19.153 Y18.368 E4.8656
G1 X18.287 Y19.801 E4.9213
G1 X16.043 Y23.596 E5.0679
G1 X14.959 Y25.414 E5.1383
G1 X14.450 Y26.197 E5.1694
G1 X13.479 Y26.155 E5.2017
G1 X12.406 Y26.093 E5.2375
G1 X9.730 Y26.034 E5.3265
G1 X7.064 Y26.004 E5.4152
G1 X-1.753 Y25.920 E5.7084
G1 X-5.492 Y25.827 E5.8328
G1 X-6.333 Y25.770 E5.8609
G1 X-8.007 Y25.736 E5.9166
G1 X-12.415 Y25.690 E6.0632
G1 X-14.532 Y25.661 E6.1336
G1 X-15.465 Y25.611 E6.1647
G1 X-15.913 Y24.750 E6.1970
G1 X-16.396 Y23.790 E6.2327
G1 X-17.683 Y21.443 E6.3217
G1 X-18.990 Y19.119 E6.4104
G1 X-23.326 Y11.441 E6.7037
G1 X-25.115 Y8.156 E6.8281
G1 X-25.486 Y7.400 E6.8561
G1 X-26.294 Y5.933 E6.9118
G1 X-28.458 Y2.093 E7.0584
G1 X-29.491 Y0.245 E7.1288
G1 X-29.887 Y-0.533 E7.1579
G1 X-29.260 Y-0.859
;segType:Loop
G0 X-29.004 Y-1.264 F10800
G1 X-28.466 Y-2.083 E7.1905 F3600
G1 X-27.072 Y-4.380 E7.2798
G1 X-25.711 Y-6.676 E7.3686
G1 X-21.231 Y-14.268 E7.6618
G1 X-19.287 Y-17.449 E7.7858
G1 X-18.817 Y-18.149 E7.8138
G1 X-17.945 Y-19.592 E7.8699
G1 X-15.700 Y-23.387 E8.0166
G1 X-14.621 Y-25.199 E8.0867
G1 X-14.240 Y-25.783 E8.1099
G1 X-13.486 Y-25.750 E8.1350
G1 X-11.337 Y-25.725 E8.2065
G1 X-6.930 Y-25.680 E8.3531
G1 X-5.284 Y-25.645 E8.4079
G1 X-4.450 Y-25.587 E8.4357
G1 X-0.677 Y-25.496 E8.5612
G1 X8.142 Y-25.411 E8.8545
G1 X10.797 Y-25.380 E8.9428
G1 X13.444 Y-25.318 E9.0309
G1 X15.217 Y-25.220 E9.0899
G1 X15.558 Y-24.564 E9.1145
G1 X16.043 Y-23.600 E9.1504
G1 X17.334 Y-21.245 E9.2398
G1 X18.643 Y-18.918 E9.3285
G1 X22.977 Y-11.243 E9.6217
G1 X24.761 Y-7.968 E9.7457
G1 X25.132 Y-7.211 E9.7738
G1 X25.945 Y-5.734 E9.8299
G1 X28.110 Y-1.893 E9.9765
G1 X29.139 Y-0.053 E10.0466
G1 X29.452 Y0.563 E10.0696
G1 X29.058 Y1.182 E10.0940
G1 X28.466 Y2.083 E10.1299
G1 X27.072 Y4.380 E10.2192
G1 X25.711 Y6.676 E10.3080
G1 X21.231 Y14.268 E10.6012
G1 X19.287 Y17.449 E10.7252
G1 X18.817 Y18.149 E10.7533
G1 X17.945 Y19.592 E10.8093
G1 X15.700 Y23.387 E10.9560
G1 X14.621 Y25.198 E11.0261
G1 X14.240 Y25.783 E11.0493
G1 X13.499 Y25.751 E11.0740
G1 X12.422 Y25.689 E11.1099
G1 X9.737 Y25.629 E11.1992
G1 X7.068 Y25.599 E11.2880
G1 X-1.747 Y25.515 E11.5812
G1 X-5.474 Y25.423 E11.7052
G1 X-6.316 Y25.366 E11.7333
G1 X-8.001 Y25.331 E11.7893
G1 X-12.410 Y25.286 E11.9360
G1 X-14.518 Y25.256 E12.0061
G1 X-15.217 Y25.219 E12.0294
G1 X-15.558 Y24.564 E12.0539
G1 X-16.043 Y23.600 E12.0898
G1 X-17.334 Y21.245 E12.1792
G1 X-18.643 Y18.918 E12.2680
G1 X-22.977 Y11.243 E12.5611
G1 X-24.761 Y7.968 E12.6851
G1 X-25.132 Y7.211 E12.7132
G1 X-25.945 Y5.734 E12.7693
G1 X-28.110 Y1.893 E12.9159
G1 X-29.139 Y0.053 E12.9860
G1 X-29.452 Y-0.563 E13.0090
G1 X-29.111 Y-1.098 E13.0301
G0 X-28.492 Y-1.678 F10800
;segType:HShell
G1 X-5.009 Y-25.423 E14.1409 F3600
G1 X-5.538 Y-25.448
G1 X-27.573 Y-3.167 E15.1832
G0 X-26.706 Y-4.604 F10800
G1 X-6.080 Y-25.460 E16.1588 F3600
G1 X-6.623 Y-25.471
G1 X-25.878 Y-6.000 E17.0696
G0 X-24.236 Y-8.780 F10800
G1 X-7.715 Y-25.486 E17.8510 F3600
G1 X-7.167 Y-25.480
G1 X-25.056 Y-7.392 E18.6972
G0 X-23.417 Y-10.168 F10800
G1 X-8.263 Y-25.492 E19.4140 F3600
G1 X-8.812 Y-25.497
G1 X-22.598 Y-11.556 E20.0661
G0 X-20.055 Y-15.807 F10800
G1 X-10.456 Y-25.514 E20.5201 F3600
G1 X-11.004 Y-25.519
G1 X-19.160 Y-17.273 E20.9059
G0 X-21.779 Y-12.945 F10800
G1 X-9.360 Y-25.503 E21.4933 F3600
G1 X-9.908 Y-25.508
G1 X-20.950 Y-14.342 E22.0156
G0 X-17.323 Y-20.249 F10800
G1 X-12.099 Y-25.532 E22.2627 F3600
G1 X-11.552 Y-25.525
G1 X-18.168 Y-18.835 E22.5757
G0 X-16.500 Y-21.641 F10800
G1 X-12.646 Y-25.538 E22.7580 F3600
G1 X-13.193 Y-25.545
G1 X-15.676 Y-23.034 E22.8754
G0 X-14.839 Y-24.440 F10800
G1 X-13.733 Y-25.559 E22.9278 F3600
G0 X-3.952 Y-25.373 F10800
G1 X-28.976 Y-0.069 E24.1114 F3600
G1 X-28.777 Y0.289
G1 X-3.411 Y-25.360 E25.3112
G1 X-2.871 Y-25.347
G1 X-28.577 Y0.647 E26.5272
G1 X-28.377 Y1.005
G1 X-2.330 Y-25.334 E27.7592
G1 X-1.789 Y-25.321
G1 X-28.177 Y1.362 E29.0074
G1 X-27.977 Y1.720
G1 X-1.248 Y-25.308 E30.2717
G1 X-0.708 Y-25.295
G1 X-27.777 Y2.077 E31.5521
G1 X-27.576 Y2.433
G1 X-0.160 Y-25.289 E32.8489
G1 X0.389 Y-25.284
G1 X-27.375 Y2.790 E34.1621
G1 X-27.174 Y3.146
G1 X0.937 Y-25.279 E35.4918
G1 X1.485 Y-25.273
G1 X-26.973 Y3.503 E36.8379
G1 X-26.772 Y3.860
G1 X2.034 Y-25.268 E38.2004
G1 X2.582 Y-25.263
G1 X-26.571 Y4.216 E39.5793
G1 X-26.370 Y4.573
G1 X3.130 Y-25.257 E40.9747
G1 X3.679 Y-25.252
G1 X-26.169 Y4.929 E42.3865
G1 X-25.968 Y5.286
G1 X4.227 Y-25.247 E43.8147
G1 X4.775 Y-25.241
G1 X-25.767 Y5.642 E45.2593
G1 X-25.569 Y6.002
G1 X5.324 Y-25.236 E46.7206
G1 X5.872 Y-25.231
G1 X-25.371 Y6.362 E48.1984
G1 X-25.173 Y6.721
G1 X6.420 Y-25.225 E49.6928
G1 X6.969 Y-25.220
G1 X-24.975 Y7.081 E51.2037
G1 X-24.790 Y7.454
G1 X7.517 Y-25.215 E52.7319
G1 X8.065 Y-25.209
G1 X-24.606 Y7.828 E54.2772
G1 X-24.411 Y8.190
G1 X8.613 Y-25.203 E55.8393
G1 X9.160 Y-25.197
G1 X-24.215 Y8.551 E57.4180
G1 X-24.018 Y8.912
G1 X9.707 Y-25.190 E59.0132
G1 X10.254 Y-25.184
G1 X-23.822 Y9.273 E60.6250
G1 X-23.625 Y9.634
G1 X10.802 Y-25.178 E62.2534
G1 X11.343 Y-25.165
G1 X-23.428 Y9.995 E63.8981
G1 X-23.232 Y10.356
G1 X11.884 Y-25.152 E65.5591
G1 X12.425 Y-25.140
G1 X-23.035 Y10.717 E67.2364
G1 X-22.839 Y11.078
G1 X12.966 Y-25.127 E68.9300
G1 X13.505 Y-25.112
G1 X-22.638 Y11.435 E70.6396
G1 X-22.437 Y11.792
G1 X14.030 Y-25.083 E72.3646
G1 X14.555 Y-25.054
G1 X-22.236 Y12.148 E74.1048
G1 X-22.035 Y12.504
G1 X15.080 Y-25.025 E75.8603
G1 X15.279 Y-24.666
G1 X-21.833 Y12.861 E77.6157
G1 X-21.632 Y13.217
G1 X15.467 Y-24.298 E79.3706
G1 X15.654 Y-23.927
G1 X-21.431 Y13.573 E81.1247
G1 X-21.230 Y13.930
G1 X15.841 Y-23.555 E82.8782
G1 X16.037 Y-23.194
G1 X-21.028 Y14.286 E84.6314
G1 X-20.827 Y14.642
G1 X16.234 Y-22.834 E86.3844
G1 X16.432 Y-22.474
G1 X-20.626 Y14.998 E88.1373
G1 X-20.425 Y15.355
G1 X16.629 Y-22.114 E89.8900
G1 X16.827 Y-21.754
G1 X-20.223 Y15.711 E91.6425
G1 X-20.022 Y16.067
G1 X17.024 Y-21.394 E93.3948
G1 X17.223 Y-21.034
G1 X-19.821 Y16.424 E95.1470
G1 X-19.620 Y16.780
G1 X17.423 Y-20.678 E96.8992
G1 X17.624 Y-20.321
G1 X-19.419 Y17.136 E98.6513
G1 X-19.217 Y17.493
G1 X17.825 Y-19.964 E100.4034
G1 X18.025 Y-19.607
G1 X-19.016 Y17.849 E102.1555
G1 X-18.815 Y18.205
G1 X18.226 Y-19.250 E103.9076
G1 X18.427 Y-18.893
G1 X-18.614 Y18.562 E105.6596
G1 X-18.413 Y18.918
G1 X18.628 Y-18.537 E107.4117
G1 X18.829 Y-18.180
G1 X-18.212 Y19.275 E109.1637
G1 X-18.011 Y19.632
G1 X19.030 Y-17.824 E110.9158
G1 X19.231 Y-17.468
G1 X-17.811 Y19.989 E112.6679
G1 X-17.610 Y20.346
G1 X19.433 Y-17.111 E114.4201
G1 X19.634 Y-16.755
G1 X-17.409 Y20.703 E116.1722
G1 X-17.209 Y21.059
G1 X19.835 Y-16.399 E117.9244
G1 X20.036 Y-16.042
G1 X-17.010 Y21.419 E119.6768
G1 X-16.813 Y21.779
G1 X20.237 Y-15.686 E121.4293
G1 X20.439 Y-15.330
G1 X-16.615 Y22.139 E123.1820
G1 X-16.418 Y22.499
G1 X20.640 Y-14.973 E124.9348
G1 X20.841 Y-14.617
G1 X-16.220 Y22.859 E126.6878
G1 X-16.023 Y23.219
G1 X21.042 Y-14.261 E128.4411
G1 X21.244 Y-13.905
G1 X-15.828 Y23.581 E130.1946
G1 X-15.641 Y23.953
G1 X21.445 Y-13.548 E131.9488
G1 X21.646 Y-13.192
G1 X-15.455 Y24.324 E133.7036
G1 X-15.265 Y24.692
G1 X21.847 Y-12.836 E135.4591
G1 X22.048 Y-12.479
G1 X-15.042 Y25.026 E137.2135
G1 X-14.516 Y25.054
G1 X22.250 Y-12.123 E138.9525
G1 X22.451 Y-11.767
G1 X-13.970 Y25.062 E140.6753
G1 X-13.424 Y25.069
G1 X22.652 Y-11.410 E142.3817
G1 X22.852 Y-11.053
G1 X-12.878 Y25.077 E144.0717
G1 X-12.331 Y25.084
G1 X23.049 Y-10.692 E145.7452
G1 X23.245 Y-10.331
G1 X-11.783 Y25.090 E147.4021
G1 X-11.235 Y25.095
G1 X23.442 Y-9.970 E149.0424
G1 X23.639 Y-9.609
G1 X-10.688 Y25.101 E150.6661
G1 X-10.140 Y25.107
G1 X23.835 Y-9.248 E152.2731
G1 X24.032 Y-8.887
G1 X-9.592 Y25.113 E153.8635
G1 X-9.044 Y25.118
G1 X24.229 Y-8.526 E155.4373
G1 X24.425 Y-8.165
G1 X-8.496 Y25.124 E156.9945
G1 X-7.948 Y25.130
G1 X24.619 Y-7.802 E158.5350
G1 X24.803 Y-7.427
G1 X-7.406 Y25.141 E160.0585
G1 X-6.863 Y25.152
G1 X24.989 Y-7.056 E161.5651
G1 X25.187 Y-6.696
G1 X-6.320 Y25.163 E163.0554
G1 X-5.801 Y25.198
G1 X25.385 Y-6.337 E164.5305
G1 X25.583 Y-5.977
G1 X-5.274 Y25.225 E165.9900
G1 X-4.734 Y25.239
G1 X25.781 Y-5.617 E167.4334
G1 X25.982 Y-5.261
G1 X-4.194 Y25.252 E168.8607
G1 X-3.653 Y25.266
G1 X26.183 Y-4.904 E170.2720
G1 X26.384 Y-4.548
G1 X-3.113 Y25.279 E171.6672
G1 X-2.573 Y25.292
G1 X26.585 Y-4.191 E173.0464
G1 X26.786 Y-3.835
G1 X-2.032 Y25.306 E174.4095
G1 X-1.488 Y25.316
G1 X26.987 Y-3.478 E175.7564
G1 X27.188 Y-3.122
G1 X-0.940 Y25.321 E177.0868
G1 X-0.392 Y25.326
G1 X27.389 Y-2.765 E178.4009
G1 X27.590 Y-2.408
G1 X0.157 Y25.331 E179.6985
G1 X0.705 Y25.336
G1 X27.791 Y-2.052 E180.9796
G1 X27.991 Y-1.695
G1 X1.254 Y25.342 E182.2443
G1 X1.802 Y25.347
G1 X28.191 Y-1.337 E183.4925
G1 X28.391 Y-0.980
G1 X2.351 Y25.352 E184.7243
G1 X2.899 Y25.357
G1 X28.591 Y-0.622 E185.9395
G1 X28.791 Y-0.264
G1 X3.448 Y25.362 E187.1383
G1 X3.996 Y25.368
G1 X28.989 Y0.095 E188.3205
G1 X29.177 Y0.465
G1 X4.544 Y25.373 E189.4856
G1 X5.093 Y25.378
G1 X28.415 Y1.795 E190.5888
G0 X27.512 Y3.268 F10800
G1 X5.641 Y25.383 E191.6233 F3600
G1 X6.190 Y25.388
G1 X26.648 Y4.702 E192.5910
G0 X24.998 Y7.489 F10800
G1 X7.286 Y25.399 E193.4288 F3600
G1 X6.738 Y25.394
G1 X25.820 Y6.098 E194.3314
G0 X24.179 Y8.877 F10800
G1 X7.834 Y25.406 E195.1045 F3600
G1 X8.381 Y25.412
G1 X23.360 Y10.265 E195.8130
G0 X22.541 Y11.654 F10800
G1 X8.928 Y25.418 E196.4569 F3600
G1 X9.476 Y25.424
G1 X21.721 Y13.042 E197.0361
G0 X19.993 Y15.910 F10800
G1 X10.562 Y25.446 E197.4822 F3600
G1 X10.020 Y25.434
G1 X20.887 Y14.445 E197.9962
G0 X19.091 Y17.381 F10800
G1 X11.104 Y25.457 E198.3740 F3600
G1 X11.646 Y25.469
G1 X18.107 Y18.936 E198.6796
G0 X17.266 Y20.346 F10800
G1 X12.187 Y25.481 E198.9199 F3600
G1 X12.719 Y25.503
G1 X16.443 Y21.738 E199.0960
G0 X14.781 Y24.538 F10800
G1 X13.770 Y25.560 E199.1438 F3600
G1 X13.243 Y25.533
G1 X15.619 Y23.131 E199.2562
; ------------------------------------
; Layer #3
; ------------------------------------
G21 ; mm
G90 ; abs
G92 E0 ; reset extr
M106 S255
;segType:HShell
G0 F4800 E-1.0000
G0 F2400 Z0.800
G0 X-22.980 Y-10.570 F10800
G0 F4800 E0.0000
G1 X-23.173 Y-10.765 E0.0092 F3600
G1 X-23.385 Y-10.419
G1 X-23.184 Y-10.216 E0.0186
G1 X-23.388 Y-9.863
G1 X-23.592 Y-10.069 E0.0283
G1 X-23.799 Y-9.719
G1 X-23.592 Y-9.509 E0.0381
G1 X-23.796 Y-9.156
G1 X-24.006 Y-9.368 E0.0480
G1 X-24.213 Y-9.018
G1 X-24.000 Y-8.802 E0.0581
G1 X-24.204 Y-8.449
G1 X-24.420 Y-8.667 E0.0683
G1 X-24.627 Y-8.317
G1 X-24.408 Y-8.096 E0.0786
G1 X-24.615 Y-7.745
G1 X-24.835 Y-7.967 E0.0891
G1 X-25.042 Y-7.617
G1 X-24.822 Y-7.394 E0.0995
G1 X-25.028 Y-7.043
G1 X-25.250 Y-7.267 E0.1099
G1 X-25.457 Y-6.917
G1 X-25.235 Y-6.693 E0.1204
G1 X-25.442 Y-6.342
G1 X-25.664 Y-6.567 E0.1309
G1 X-25.872 Y-6.217
G1 X-25.649 Y-5.992 E0.1415
G1 X-25.856 Y-5.641
G1 X-26.079 Y-5.867 E0.1520
G1 X-26.289 Y-5.519
G1 X-26.063 Y-5.290 E0.1627
G1 X-26.270 Y-4.940
G1 X-26.500 Y-5.173 E0.1736
G1 X-26.711 Y-4.826
G1 X-26.477 Y-4.589 E0.1847
G1 X-26.684 Y-4.239
G1 X-26.921 Y-4.479 E0.1959
G1 X-27.132 Y-4.132
G1 X-26.891 Y-3.888 E0.2073
G1 X-27.097 Y-3.538
G1 X-27.342 Y-3.785 E0.2189
G1 X-27.553 Y-3.439
G1 X-27.304 Y-3.187 E0.2307
G1 X-27.511 Y-2.836
G1 X-27.764 Y-3.092 E0.2426
G1 X-27.975 Y-2.746
G1 X-27.718 Y-2.486 E0.2548
G1 X-27.925 Y-2.135
G1 X-28.196 Y-2.409 E0.2676
G1 X-28.417 Y-2.073
G1 X-28.132 Y-1.785 E0.2811
G1 X-28.339 Y-1.435
G1 X-28.638 Y-1.737 E0.2952
G1 X-28.857 Y-1.398
G1 X-28.548 Y-1.086 E0.3098
G1 X-28.760 Y-0.741
G1 X-29.074 Y-1.058 E0.3247
G1 X-29.212 Y-0.637
G1 X-28.883 Y-0.305 E0.3402
;segType:Perimeter
G0 X-29.338 Y-0.449 F10800
G1 X-29.930 Y-0.835 E0.3637 F2159
G1 X-29.246 Y-1.907 E0.4060
G1 X-28.460 Y-3.105 E0.4537
G1 X-26.608 Y-6.154 E0.5723
G1 X-24.797 Y-9.212 E0.6905
G1 X-23.909 Y-10.715 E0.7486
G1 X-19.743 Y-17.535 E1.0144
G1 X-19.234 Y-18.278 E1.0443
G1 X-18.740 Y-19.030 E1.0743
G1 X-16.893 Y-22.083 E1.1930
G1 X-16.448 Y-22.836 E1.2220
G1 X-15.003 Y-25.261 E1.3160
G1 X-14.302 Y-26.339 E1.3587
G1 X-12.964 Y-26.280 E1.4032
G1 X-9.238 Y-26.237 E1.5272
G1 X-5.690 Y-26.162 E1.6452
G1 X-4.532 Y-26.092 E1.6838
G1 X-3.910 Y-26.038 E1.7046
G1 X4.116 Y-25.845 E1.9716
G1 X5.863 Y-25.828 E2.0297
G1 X9.407 Y-25.786 E2.1476
G1 X12.949 Y-25.704 E2.2654
G1 X14.373 Y-25.622 E2.3129
G1 X15.662 Y-25.553 E2.3558
G1 X16.277 Y-24.371 E2.4001
G1 X16.920 Y-23.091 E2.4477
G1 X18.635 Y-19.964 E2.5664
G1 X20.378 Y-16.865 E2.6846
G1 X21.236 Y-15.345 E2.7427
G1 X25.059 Y-8.327 E3.0085
G1 X25.448 Y-7.515 E3.0384
G1 X25.853 Y-6.711 E3.0684
G1 X27.573 Y-3.585 E3.1871
G1 X29.380 Y-0.359 E3.3100
G1 X29.962 Y0.785 E3.3527
G1 X29.246 Y1.907 E3.3970
G1 X28.460 Y3.105 E3.4446
G1 X26.608 Y6.154 E3.5633
G1 X24.797 Y9.212 E3.6815
G1 X23.910 Y10.715 E3.7396
G1 X19.743 Y17.535 E4.0054
G1 X19.234 Y18.278 E4.0353
G1 X18.739 Y19.030 E4.0653
G1 X16.893 Y22.083 E4.1839
G1 X16.448 Y22.836 E4.2130
G1 X15.003 Y25.261 E4.3069
G1 X14.302 Y26.339 E4.3497
G1 X12.969 Y26.280 E4.3940
G1 X11.539 Y26.198 E4.4417
G1 X7.973 Y26.119 E4.5603
G1 X4.419 Y26.079 E4.6785
G1 X2.673 Y26.062 E4.7366
G1 X-5.316 Y25.864 E5.0024
G1 X-6.214 Y25.794 E5.0324
G1 X-7.113 Y25.743 E5.0623
G1 X-10.681 Y25.670 E5.1810
G1 X-11.554 Y25.661 E5.2100
G1 X-14.378 Y25.622 E5.3040
G1 X-15.662 Y25.553 E5.3467
G1 X-16.277 Y24.371 E5.3911
G1 X-16.920 Y23.091 E5.4387
G1 X-18.635 Y19.964 E5.5573
G1 X-20.378 Y16.865 E5.6756
G1 X-21.236 Y15.345 E5.7336
G1 X-25.059 Y8.327 E5.9994
G1 X-25.448 Y7.515 E6.0294
G1 X-25.852 Y6.711 E6.0593
G1 X-27.573 Y3.585 E6.1780
G1 X-28.002 Y2.823 E6.2071
G1 X-29.380 Y0.359 E6.3010
G1 X-29.935 Y-0.733 E6.3417
G1 X-29.308 Y-1.058
;segType:Loop
G0 X-29.042 Y-1.481 F10800
G1 X-28.911 Y-1.686 E6.3498 F3600
G1 X-28.123 Y-2.887 E6.3976
G1 X-26.267 Y-5.944 E6.5165
G1 X-24.454 Y-9.004 E6.6348
G1 X-23.567 Y-10.505 E6.6928
G1 X-19.408 Y-17.314 E6.9582
G1 X-18.903 Y-18.051 E6.9879
G1 X-18.402 Y-18.813 E7.0182
G1 X-16.551 Y-21.874 E7.1372
G1 X-16.105 Y-22.627 E7.1663
G1 X-14.664 Y-25.046 E7.2600
G1 X-14.092 Y-25.925 E7.2948
G1 X-12.975 Y-25.875 E7.3320
G1 X-9.244 Y-25.833 E7.4561
G1 X-5.706 Y-25.758 E7.5738
G1 X-4.561 Y-25.689 E7.6120
G1 X-3.932 Y-25.634 E7.6330
G1 X4.109 Y-25.441 E7.9005
G1 X5.859 Y-25.423 E7.9587
G1 X9.400 Y-25.382 E8.0765
G1 X12.933 Y-25.300 E8.1940
G1 X15.414 Y-25.161 E8.2767
G1 X15.921 Y-24.185 E8.3133
G1 X16.567 Y-22.902 E8.3611
G1 X18.287 Y-19.765 E8.4800
G1 X20.030 Y-16.665 E8.5983
G1 X20.887 Y-15.147 E8.6563
G1 X24.704 Y-8.141 E8.9217
G1 X25.090 Y-7.335 E8.9514
G1 X25.499 Y-6.520 E8.9817
G1 X27.225 Y-3.387 E9.1007
G1 X29.028 Y-0.167 E9.2235
G1 X29.500 Y0.763 E9.2581
G1 X28.912 Y1.686 E9.2945
G1 X28.123 Y2.887 E9.3423
G1 X26.266 Y5.944 E9.4613
G1 X24.454 Y9.004 E9.5796
G1 X23.568 Y10.505 E9.6376
G1 X19.408 Y17.314 E9.9029
G1 X18.903 Y18.051 E9.9326
G1 X18.402 Y18.813 E9.9630
G1 X16.550 Y21.874 E10.0820
G1 X16.105 Y22.627 E10.1111
G1 X14.664 Y25.045 E10.2047
G1 X14.092 Y25.925 E10.2396
G1 X12.989 Y25.876 E10.2763
G1 X11.555 Y25.793 E10.3241
G1 X7.980 Y25.714 E10.4430
G1 X4.423 Y25.674 E10.5613
G1 X2.680 Y25.658 E10.6193
G1 X-5.296 Y25.460 E10.8847
G1 X-6.187 Y25.391 E10.9144
G1 X-7.098 Y25.338 E10.9447
G1 X-10.674 Y25.265 E11.0637
G1 X-11.549 Y25.256 E11.0928
G1 X-14.364 Y25.217 E11.1865
G1 X-15.414 Y25.161 E11.2214
G1 X-15.922 Y24.185 E11.2580
G1 X-16.567 Y22.902 E11.3058
G1 X-18.287 Y19.766 E11.4247
G1 X-20.030 Y16.665 E11.5431
G1 X-20.887 Y15.147 E11.6010
G1 X-24.704 Y8.141 E11.8664
G1 X-25.089 Y7.335 E11.8961
G1 X-25.499 Y6.521 E11.9264
G1 X-27.225 Y3.386 E12.0454
G1 X-27.654 Y2.624 E12.0745
G1 X-29.028 Y0.167 E12.1682
G1 X-29.500 Y-0.763 E12.2028
G1 X-29.148 Y-1.315 E12.2246
;segType:Infill
G0 X-28.244 Y-1.596 F10800
G1 X27.873 Y-1.596 E14.0911 F5400
;segType:HShell
G0 X27.314 Y-2.817 F10800
G1 X27.209 Y-2.923 E14.0960 F3600
G0 X26.609 Y-4.090 F10800
G1 X26.519 Y-4.180 E14.1003 F3600
G0 X27.778 Y-1.788 F10800
G1 X28.037 Y-1.526 E14.1125 F3600
G0 X28.760 Y-0.235 F10800
G1 X28.432 Y-0.567 E14.1281 F3600
G0 X28.918 Y0.484 F10800
G1 X29.235 Y0.805 E14.1431 F3600
G1 X29.018 Y1.146
G1 X28.705 Y0.830 E14.1578
G1 X28.494 Y1.175
G1 X28.801 Y1.486 E14.1724
G1 X28.581 Y1.823
G1 X28.286 Y1.525 E14.1863
G1 X28.079 Y1.875
G1 X28.360 Y2.160 E14.1997
G1 X28.139 Y2.496
G1 X27.872 Y2.226 E14.2123
G1 X27.665 Y2.576
G1 X27.920 Y2.834 E14.2244
G1 X27.709 Y3.181
G1 X27.458 Y2.927 E14.2363
G1 X27.251 Y3.277
G1 X27.499 Y3.528 E14.2480
G1 X27.288 Y3.875
G1 X27.044 Y3.628 E14.2595
G1 X26.837 Y3.979
G1 X27.078 Y4.221 E14.2709
G1 X26.867 Y4.568
G1 X26.630 Y4.329 E14.2821
G1 X26.424 Y4.680
G1 X26.656 Y4.915 E14.2931
G1 X26.446 Y5.262
G1 X26.217 Y5.030 E14.3039
G1 X26.010 Y5.381
G1 X26.235 Y5.609 E14.3146
G1 X26.026 Y5.957
G1 X25.803 Y5.731 E14.3251
G1 X25.596 Y6.082
G1 X25.818 Y6.307 E14.3356
G1 X25.611 Y6.657
G1 X25.389 Y6.433 E14.3461
G1 X25.182 Y6.783
G1 X25.404 Y7.007 E14.3566
G1 X25.196 Y7.357
G1 X24.975 Y7.134 E14.3671
G1 X24.768 Y7.484
G1 X24.989 Y7.707 E14.3775
G1 X24.781 Y8.057
G1 X24.561 Y7.835 E14.3879
G1 X24.356 Y8.187
G1 X24.574 Y8.407 E14.3982
G1 X24.367 Y8.758
G1 X24.152 Y8.540 E14.4084
G1 X23.948 Y8.893
G1 X24.160 Y9.108 E14.4184
G1 X23.953 Y9.458
G1 X23.744 Y9.247 E14.4283
G1 X23.540 Y9.600
G1 X23.746 Y9.809 E14.4381
G1 X23.539 Y10.159
G1 X23.335 Y9.954 E14.4477
G1 X23.131 Y10.307
G1 X23.330 Y10.508 E14.4571
G1 X23.119 Y10.854
G1 X22.927 Y10.661 E14.4661
G1 X22.723 Y11.014
G1 X22.907 Y11.200 E14.4749
G1 X22.696 Y11.546
G1 X22.519 Y11.368 E14.4832
G1 X22.315 Y11.721
G1 X22.485 Y11.893 E14.4913
G1 X22.273 Y12.239
G1 X22.111 Y12.074 E14.4989
G1 X21.907 Y12.428
G1 X22.062 Y12.585 E14.5063
G1 X21.851 Y12.931
G1 X21.703 Y12.781 E14.5132
G1 X21.499 Y13.135
G1 X21.639 Y13.277 E14.5199
G1 X21.428 Y13.623
G1 X21.295 Y13.488 E14.5262
G1 X21.091 Y13.842
G1 X21.216 Y13.969 E14.5321
G1 X21.005 Y14.315
G1 X20.887 Y14.195 E14.5377
G1 X20.683 Y14.549
G1 X20.794 Y14.661 E14.5430
G1 X20.582 Y15.007
G1 X20.479 Y14.902 E14.5479
G1 X20.275 Y15.255
G1 X20.371 Y15.353 E14.5524
G1 X20.160 Y15.699
G1 X20.070 Y15.609 E14.5566
G1 X19.866 Y15.962
G1 X19.948 Y16.045 E14.5605
G1 X19.737 Y16.391
G1 X19.662 Y16.316 E14.5640
G1 X19.458 Y16.669
G1 X19.525 Y16.737 E14.5672
;segType:Infill
G0 X18.111 Y18.924 F10800
G1 X18.111 Y-19.044 E15.8300 F5400
;segType:HShell
G0 X18.461 Y-19.046 F10800
G1 X17.642 Y-19.874 E15.8687 F3600
G1 X17.753 Y-20.322
G1 X16.906 Y-21.179 E15.9088
G1 X17.064 Y-21.578
G1 X16.169 Y-22.483 E15.9512
;segType:Infill
G0 X16.200 Y-22.429 F10800
G1 X-15.926 Y-22.429 E17.0196 F5400
;segType:HShell
G0 X-15.463 Y-23.121 F10800
G1 X-15.534 Y-23.193 E17.0230 F3600
G1 X-15.326 Y-23.542
G1 X-15.240 Y-23.456 E17.0271
G1 X-15.028 Y-23.800
G1 X-15.118 Y-23.892 E17.0313
G1 X-14.910 Y-24.241
G1 X-14.820 Y-24.150 E17.0356
G1 X-14.611 Y-24.498
G1 X-14.702 Y-24.590 E17.0399
G1 X-14.493 Y-24.940
G1 X-14.391 Y-24.836 E17.0448
G1 X-14.171 Y-25.174
G1 X-14.274 Y-25.277 E17.0496
G1 X-14.054 Y-25.615
G1 X-13.732 Y-25.289 E17.0648
G1 X-13.173 Y-25.283
G1 X-13.584 Y-25.700 E17.0843
G1 X-13.006 Y-25.674
G1 X-12.613 Y-25.277 E17.1029
G1 X-12.054 Y-25.272
G1 X-12.445 Y-25.667 E17.1214
G1 X-11.885 Y-25.661
G1 X-11.494 Y-25.266 E17.1399
G1 X-10.935 Y-25.260
G1 X-11.325 Y-25.654 E17.1583
G1 X-10.765 Y-25.648
G1 X-10.376 Y-25.254 E17.1768
G1 X-9.821 Y-25.253
G1 X-10.205 Y-25.642 E17.1950
G1 X-9.646 Y-25.635
G1 X-9.267 Y-25.253 E17.2129
G1 X-8.713 Y-25.253
G1 X-9.084 Y-25.627 E17.2304
G1 X-8.519 Y-25.615
G1 X-8.160 Y-25.253 E17.2474
G1 X-7.606 Y-25.253
G1 X-7.953 Y-25.603 E17.2638
G1 X-7.388 Y-25.591
G1 X-7.053 Y-25.253 E17.2796
G1 X-6.499 Y-25.253
G1 X-6.822 Y-25.579 E17.2949
G1 X-6.257 Y-25.567
G1 X-5.946 Y-25.253 E17.3096
G1 X-5.392 Y-25.253
G1 X-5.690 Y-25.554 E17.3237
G1 X-5.102 Y-25.519
G1 X-4.838 Y-25.253 E17.3361
G1 X-4.285 Y-25.253
G1 X-4.511 Y-25.482 E17.3468
G1 X-3.908 Y-25.431
G1 X-3.731 Y-25.253 E17.3552
G1 X-3.178 Y-25.253
G1 X-3.341 Y-25.418 E17.3629
G1 X-2.774 Y-25.404
G1 X-2.624 Y-25.253 E17.3700
G1 X-2.070 Y-25.253
G1 X-2.207 Y-25.390 E17.3764
G1 X-1.639 Y-25.377
G1 X-1.517 Y-25.253 E17.3822
G1 X-0.963 Y-25.253
G1 X-1.072 Y-25.363 E17.3874
G1 X-0.505 Y-25.349
G1 X-0.410 Y-25.253 E17.3919
G1 X0.144 Y-25.253
G1 X0.062 Y-25.336 E17.3958
G1 X0.629 Y-25.322
G1 X0.698 Y-25.253 E17.3991
;segType:Infill
G0 X-2.492 Y-25.253 F10800
G1 X-2.492 Y25.179 E19.0764 F5400
G0 X1.629 Y25.179 F10800
G1 X1.629 Y-25.253 E20.7538 F5400
G0 X5.749 Y-25.222 F10800
G1 X5.749 Y25.183 E22.4303 F5400
G0 X9.870 Y25.223 F10800
G1 X9.870 Y-25.077 E24.1032 F5400
;segType:HShell
G0 X8.014 Y-25.131 F10800
G1 X7.950 Y-25.197 E24.1063 F3600
G1 X8.510 Y-25.190
G1 X8.590 Y-25.109 E24.1101
G1 X9.159 Y-25.093
G1 X9.070 Y-25.184 E24.1143
G1 X9.633 Y-25.174
G1 X9.725 Y-25.080 E24.1187
G1 X10.292 Y-25.067
G1 X10.199 Y-25.161 E24.1231
G1 X10.766 Y-25.148
G1 X10.859 Y-25.054 E24.1275
G1 X11.427 Y-25.040
G1 X11.332 Y-25.135 E24.1320
G1 X11.899 Y-25.121
G1 X12.014 Y-25.006 E24.1374
G1 X12.601 Y-24.972
G1 X12.466 Y-25.108 E24.1438
G1 X13.036 Y-25.091
G1 X13.188 Y-24.938 E24.1509
G1 X13.775 Y-24.904
G1 X13.622 Y-25.059 E24.1582
G1 X14.208 Y-25.026
G1 X14.360 Y-24.873 E24.1654
G1 X14.794 Y-24.994
G1 X15.805 Y-23.971 E24.2132
G0 X16.378 Y-22.832 F10800
G1 X15.435 Y-23.785 E24.2578 F3600
;segType:Infill
G0 X13.990 Y-24.892 F10800
G1 X13.990 Y25.278 E25.9265 F5400
G0 X15.275 Y23.404 F10800
G1 X-15.649 Y23.404 E26.9550 F5400
;segType:HShell
G0 X-15.248 Y24.119 F10800
G1 X-16.230 Y23.125 E27.0015 F3600
G1 X-15.979 Y22.819
G1 X-16.886 Y21.902 E27.0444
G1 X-16.716 Y21.515
G1 X-17.575 Y20.645 E27.0851
G1 X-17.453 Y20.210
G1 X-18.273 Y19.380 E27.1239
G0 X-19.003 Y18.082 F10800
G1 X-18.189 Y18.905 E27.1624 F3600
;segType:Infill
G0 X-18.002 Y19.237 F10800
G1 X17.905 Y19.237 E28.3566 F5400
;segType:HShell
G0 X15.406 Y23.208 F10800
G1 X15.481 Y23.283 E28.3602 F3600
G1 X15.273 Y23.632
G1 X15.183 Y23.542 E28.3644
G1 X14.974 Y23.891
G1 X15.064 Y23.982 E28.3686
G1 X14.856 Y24.331
G1 X14.766 Y24.240 E28.3729
G1 X14.554 Y24.585
G1 X14.648 Y24.680 E28.3774
G1 X14.437 Y25.026
G1 X14.334 Y24.923 E28.3822
G1 X14.115 Y25.261
G1 X14.217 Y25.364 E28.3870
G1 X13.998 Y25.702
G1 X13.567 Y25.266 E28.4074
G1 X13.001 Y25.254
G1 X13.435 Y25.693 E28.4279
G1 X12.854 Y25.665
G1 X12.441 Y25.248 E28.4475
G1 X11.882 Y25.242
G1 X12.268 Y25.632 E28.4657
G1 X11.681 Y25.598
G1 X11.323 Y25.237 E28.4826
G1 X10.764 Y25.231
G1 X11.110 Y25.581 E28.4990
G1 X10.545 Y25.569
G1 X10.206 Y25.226 E28.5150
G1 X9.647 Y25.221
G1 X9.979 Y25.556 E28.5307
G1 X9.413 Y25.544
G1 X9.088 Y25.215 E28.5461
G1 X8.529 Y25.210
G1 X8.847 Y25.531 E28.5611
G1 X8.281 Y25.519
G1 X7.970 Y25.205 E28.5758
G1 X7.411 Y25.199
G1 X7.718 Y25.509 E28.5903
G1 X7.158 Y25.503
G1 X6.852 Y25.194 E28.6048
G1 X6.293 Y25.189
G1 X6.598 Y25.497 E28.6192
G1 X6.038 Y25.490
G1 X5.734 Y25.183 E28.6336
G1 X5.176 Y25.179
G1 X5.478 Y25.484 E28.6478
G1 X4.918 Y25.478
G1 X4.623 Y25.179 E28.6618
G1 X4.069 Y25.179
G1 X4.359 Y25.471 E28.6755
G1 X3.800 Y25.466
G1 X3.516 Y25.179 E28.6889
G1 X2.962 Y25.179
G1 X3.241 Y25.461 E28.7021
G1 X2.682 Y25.456
G1 X2.408 Y25.179 E28.7151
G1 X1.855 Y25.179
G1 X2.115 Y25.442 E28.7274
G1 X1.547 Y25.427
G1 X1.301 Y25.179 E28.7390
G1 X0.748 Y25.179
G1 X0.980 Y25.413 E28.7500
G1 X0.412 Y25.399
G1 X0.194 Y25.179 E28.7603
G1 X-0.360 Y25.179
G1 X-0.155 Y25.385 E28.7700
G1 X-0.723 Y25.371
G1 X-0.913 Y25.179 E28.7790
G1 X-1.467 Y25.179
G1 X-1.291 Y25.357 E28.7873
G1 X-1.858 Y25.343
G1 X-2.020 Y25.179 E28.7950
G1 X-2.574 Y25.179
G1 X-2.426 Y25.329 E28.8020
G1 X-2.993 Y25.315
G1 X-3.128 Y25.179 E28.8084
G1 X-3.681 Y25.179
G1 X-3.561 Y25.300 E28.8140
G1 X-4.128 Y25.286
G1 X-4.235 Y25.179 E28.8191
G1 X-4.788 Y25.179
G1 X-4.696 Y25.272 E28.8234
G1 X-5.263 Y25.258
G1 X-5.342 Y25.179 E28.8272
;segType:Infill
G0 X-6.612 Y25.157 F10800
G1 X-6.612 Y-25.253 E30.5038 F5400
G0 X-10.733 Y-25.258 F10800
G1 X-10.733 Y25.026 E32.1762 F5400
;segType:HShell
G0 X-12.209 Y24.952 F10800
G1 X-12.118 Y25.044 E32.1806 F3600
G1 X-12.679 Y25.037
G1 X-12.801 Y24.914 E32.1863
G1 X-13.363 Y24.905
G1 X-13.240 Y25.030 E32.1922
G1 X-13.801 Y25.022
G1 X-13.926 Y24.895 E32.1981
G1 X-14.510 Y24.864
G1 X-14.362 Y25.015 E32.2052
G1 X-14.946 Y24.984
G1 X-15.651 Y24.271 E32.2385
;segType:Infill
G0 X-14.853 Y24.846 F10800
G1 X-14.853 Y-24.093 E33.8662 F5400
G0 X-18.515 Y-18.262 F10800
G1 X18.553 Y-18.262 E35.0991 F5400
;segType:HShell
G0 X18.379 Y-18.569 F10800
G1 X19.191 Y-17.748 E35.1375 F3600
G0 X19.922 Y-16.450 F10800
G1 X19.116 Y-17.264 E35.1756 F3600
G0 X19.889 Y-15.923 F10800
G1 X20.659 Y-15.145 E35.2120 F3600
G1 X20.665 Y-14.578
G1 X21.342 Y-13.894 E35.2440
;segType:Infill
G0 X20.944 Y-14.095 F10800
G1 X-20.944 Y-14.095 E36.6372 F5400
;segType:HShell
G0 X-22.776 Y-10.923 F10800
G1 X-22.962 Y-11.111 E36.6460 F3600
G1 X-22.751 Y-11.457
G1 X-22.572 Y-11.277 E36.6544
G1 X-22.368 Y-11.630
G1 X-22.539 Y-11.803 E36.6625
G1 X-22.328 Y-12.149
G1 X-22.164 Y-11.983 E36.6703
G1 X-21.960 Y-12.337
G1 X-22.116 Y-12.495 E36.6777
G1 X-21.905 Y-12.842
G1 X-21.755 Y-12.690 E36.6848
G1 X-21.551 Y-13.044
G1 X-21.694 Y-13.188 E36.6915
G1 X-21.482 Y-13.534
G1 X-21.347 Y-13.397 E36.6979
G1 X-21.143 Y-13.751
G1 X-21.271 Y-13.880 E36.7039
G1 X-21.059 Y-14.226
G1 X-20.939 Y-14.104 E36.7096
G1 X-20.735 Y-14.458
G1 X-20.848 Y-14.572 E36.7150
G1 X-20.637 Y-14.918
G1 X-20.531 Y-14.811 E36.7199
G1 X-20.327 Y-15.164
G1 X-20.425 Y-15.264 E36.7246
G1 X-20.214 Y-15.610
G1 X-20.123 Y-15.518 E36.7289
G1 X-19.919 Y-15.871
G1 X-20.003 Y-15.956 E36.7329
G1 X-19.791 Y-16.302
G1 X-19.715 Y-16.225 E36.7365
G1 X-19.511 Y-16.578
G1 X-19.580 Y-16.648 E36.7397
;segType:Infill
G0 X-18.974 Y-17.508 F10800
G1 X-18.974 Y17.516 E37.9046 F5400
;segType:HShell
G0 X-18.926 Y17.600 F10800
G1 X-19.733 Y16.784 E37.9428 F3600
G1 X-19.689 Y16.269
G1 X-20.469 Y15.480 E37.9797
G0 X-21.168 Y14.214 F10800
G1 X-20.465 Y14.924 E38.0130 F3600
;segType:Infill
G0 X-20.381 Y15.071 F10800
G1 X20.381 Y15.071 E39.3687 F5400
G0 X22.231 Y11.866 F10800
G1 X22.231 Y-11.865 E40.1580 F5400
;segType:HShell
G0 X22.021 Y-12.648 F10800
G1 X21.442 Y-13.233 E40.1854 F3600
G0 X22.218 Y-11.888 F10800
G1 X22.700 Y-11.401 E40.2081 F3600
G1 X22.995 Y-10.543
G1 X23.378 Y-10.155 E40.2263
G0 X24.548 Y-7.853 F10800
G1 X24.687 Y-7.712 E40.2328 F3600
G0 X24.057 Y-8.909 F10800
G1 X23.772 Y-9.198 E40.2464 F3600
;segType:Infill
G0 X23.349 Y-9.929 F10800
G1 X-23.350 Y-9.929 E41.7996 F5400
G1 X-23.094 Y-10.371 E41.8166
G1 X-23.094 Y10.371 E42.5065
;segType:HShell
G0 X-23.204 Y10.476 F10800
G1 X-22.795 Y10.889 E42.5258 F3600
G1 X-22.525 Y11.722
G1 X-22.018 Y12.234 E42.5498
G0 X-21.242 Y13.579 F10800
G1 X-21.846 Y12.968 E42.5784 F3600
;segType:Infill
G0 X-22.786 Y10.904 F10800
G1 X22.787 Y10.904 E44.0941 F5400
G0 X25.209 Y6.738 F10800
G1 X-25.164 Y6.738 E45.7696 F5400
;segType:HShell
G0 X-23.883 Y9.229 F10800
G1 X-23.572 Y9.544 E45.7843 F3600
G0 X-24.348 Y8.199 F10800
G1 X-24.553 Y7.992 E45.7940 F3600
G0 X-26.355 Y4.490 F10800
G1 X-26.430 Y4.415 E45.7975 F3600
G0 X-27.031 Y3.247 F10800
G1 X-27.129 Y3.148 E45.8021 F3600
;segType:Infill
G0 X-27.215 Y2.912 F10800
G1 X-27.215 Y-3.339 E46.0100 F5400
G0 X-25.785 Y-5.762 F10800
G1 X25.676 Y-5.762 E47.7216 F5400
G0 X26.352 Y-4.497 F10800
G1 X26.352 Y4.801 E48.0308 F5400
G0 X27.668 Y2.571 F10800
G1 X-27.391 Y2.571 E49.8621 F5400
;segType:HShell
G0 X-27.636 Y2.076 F10800
G1 X-27.855 Y1.854 E49.8725 F3600
G0 X-28.247 Y0.898 F10800
G1 X-28.574 Y0.567 E49.8880 F3600
; ------------------------------------
; Layer #4
; ------------------------------------
G21 ; mm
G90 ; abs
G92 E0 ; reset extr
M106 S255
;segType:HShell
G0 F4800 E-1.0000
G0 F2400 Z1.000
G0 X-4.323 Y-25.557 F10800
G0 F4800 E0.0000
G1 X-29.094 Y-0.510 E1.1717 F3600
;segType:Perimeter
G0 X-29.385 Y-0.648 F10800
G1 X-29.978 Y-1.034 E1.1952 F2159
G1 X-29.100 Y-2.412 E1.2495
G1 X-28.117 Y-3.908 E1.3090
G1 X-25.803 Y-7.718 E1.4573
G1 X-24.900 Y-9.243 E1.5163
G1 X-24.423 Y-9.983 E1.5455
G1 X-24.167 Y-10.357 E1.5606
G1 X-19.863 Y-17.401 E1.8352
G1 X-19.318 Y-18.183 E1.8669
G1 X-18.327 Y-19.691 E1.9269
G1 X-16.552 Y-22.623 E2.0409
G1 X-16.313 Y-22.982 E2.0552
G1 X-15.045 Y-25.108 E2.1376
G1 X-14.153 Y-26.480 E2.1920
G1 X-12.455 Y-26.405 E2.2485
G1 X-9.962 Y-26.376 E2.3315
G1 X-9.427 Y-26.345 E2.3493
G1 X-6.116 Y-26.274 E2.4594
G1 X-4.339 Y-26.168 E2.5186
G1 X-3.387 Y-26.085 E2.5504
G1 X4.889 Y-25.885 E2.8257
G1 X5.332 Y-25.850 E2.8405
G1 X6.236 Y-25.809 E2.8706
G1 X8.010 Y-25.788 E2.9296
G1 X12.438 Y-25.685 E3.0770
G1 X14.220 Y-25.582 E3.1363
G1 X15.859 Y-25.495 E3.1909
G1 X16.640 Y-23.992 E3.2473
G1 X17.445 Y-22.393 E3.3068
G1 X19.588 Y-18.484 E3.4550
G1 X20.457 Y-16.939 E3.5140
G1 X20.859 Y-16.156 E3.5433
G1 X21.055 Y-15.747 E3.5584
G1 X25.004 Y-8.498 E3.8329
G1 X25.408 Y-7.635 E3.8646
G1 X26.218 Y-6.022 E3.9246
G1 X27.870 Y-3.020 E4.0386
G1 X28.061 Y-2.633 E4.0530
G1 X29.269 Y-0.472 E4.1353
G1 X30.010 Y0.984 E4.1897
G1 X29.100 Y2.412 E4.2460
G1 X28.117 Y3.908 E4.3055
G1 X25.804 Y7.717 E4.4537
G1 X24.900 Y9.243 E4.5127
G1 X24.423 Y9.983 E4.5420
G1 X24.167 Y10.357 E4.5571
G1 X19.863 Y17.401 E4.8316
G1 X19.318 Y18.183 E4.8633
G1 X18.327 Y19.691 E4.9233
G1 X16.552 Y22.623 E5.0373
G1 X16.313 Y22.982 E5.0517
G1 X15.045 Y25.108 E5.1340
G1 X14.153 Y26.480 E5.1884
G1 X12.459 Y26.405 E5.2448
G1 X10.672 Y26.302 E5.3044
G1 X6.216 Y26.204 E5.4526
G1 X4.443 Y26.184 E5.5116
G1 X3.564 Y26.141 E5.5409
G1 X3.112 Y26.106 E5.5559
G1 X-5.141 Y25.901 E5.8305
G1 X-6.091 Y25.820 E5.8622
G1 X-7.892 Y25.715 E5.9222
G1 X-11.318 Y25.644 E6.0362
G1 X-11.749 Y25.617 E6.0506
G1 X-14.224 Y25.582 E6.1329
G1 X-15.859 Y25.495 E6.1873
G1 X-16.640 Y23.992 E6.2437
G1 X-17.445 Y22.393 E6.3032
G1 X-19.588 Y18.485 E6.4515
G1 X-20.457 Y16.939 E6.5105
G1 X-20.859 Y16.156 E6.5397
G1 X-21.055 Y15.747 E6.5548
G1 X-25.004 Y8.498 E6.8294
G1 X-25.408 Y7.635 E6.8611
G1 X-26.218 Y6.022 E6.9211
G1 X-27.870 Y3.020 E7.0351
G1 X-28.061 Y2.633 E7.0494
G1 X-29.269 Y0.472 E7.1318
G1 X-29.983 Y-0.932 E7.1841
G1 X-29.356 Y-1.257
;segType:Loop
G0 X-29.090 Y-1.680 F10800
G1 X-28.765 Y-2.191 E7.2043 F3600
G1 X-27.780 Y-3.690 E7.2639
G1 X-25.462 Y-7.508 E7.4125
G1 X-24.561 Y-9.029 E7.4713
G1 X-24.091 Y-9.758 E7.5001
G1 X-23.832 Y-10.135 E7.5154
G1 X-19.529 Y-17.178 E7.7899
G1 X-18.988 Y-17.955 E7.8214
G1 X-17.989 Y-19.474 E7.8818
G1 X-16.216 Y-22.404 E7.9957
G1 X-15.976 Y-22.764 E8.0101
G1 X-14.707 Y-24.892 E8.0925
G1 X-13.944 Y-26.066 E8.1391
G1 X-12.465 Y-26.001 E8.1883
G1 X-9.975 Y-25.971 E8.2711
G1 X-9.442 Y-25.940 E8.2889
G1 X-6.132 Y-25.870 E8.3990
G1 X-4.368 Y-25.764 E8.4578
G1 X-3.409 Y-25.681 E8.4898
G1 X4.868 Y-25.481 E8.7652
G1 X5.307 Y-25.446 E8.7798
G1 X6.225 Y-25.404 E8.8104
G1 X8.003 Y-25.384 E8.8695
G1 X12.422 Y-25.281 E9.0166
G1 X14.198 Y-25.178 E9.0757
G1 X15.610 Y-25.104 E9.1228
G1 X16.285 Y-23.806 E9.1714
G1 X17.091 Y-22.203 E9.2311
G1 X19.239 Y-18.286 E9.3796
G1 X20.106 Y-16.746 E9.4384
G1 X20.501 Y-15.975 E9.4673
G1 X20.699 Y-15.561 E9.4825
G1 X24.647 Y-8.314 E9.7570
G1 X25.049 Y-7.457 E9.7885
G1 X25.865 Y-5.832 E9.8490
G1 X27.516 Y-2.831 E9.9629
G1 X27.708 Y-2.443 E9.9773
G1 X28.917 Y-0.280 E10.0597
G1 X29.548 Y0.962 E10.1060
G1 X28.765 Y2.191 E10.1545
G1 X27.780 Y3.690 E10.2142
G1 X25.462 Y7.508 E10.3627
G1 X24.561 Y9.029 E10.4215
G1 X24.091 Y9.757 E10.4504
G1 X23.832 Y10.135 E10.4656
G1 X19.529 Y17.178 E10.7401
G1 X18.988 Y17.955 E10.7716
G1 X17.989 Y19.474 E10.8320
G1 X16.216 Y22.404 E10.9460
G1 X15.976 Y22.764 E10.9604
G1 X14.707 Y24.892 E11.0428
G1 X13.944 Y26.066 E11.0893
G1 X12.479 Y26.001 E11.1381
G1 X10.688 Y25.898 E11.1978
G1 X6.223 Y25.799 E11.3463
G1 X4.455 Y25.780 E11.4051
G1 X3.589 Y25.737 E11.4340
G1 X3.132 Y25.702 E11.4492
G1 X-5.119 Y25.497 E11.7237
G1 X-6.062 Y25.417 E11.7552
G1 X-7.876 Y25.311 E11.8156
G1 X-11.301 Y25.240 E11.9296
G1 X-11.733 Y25.212 E11.9440
G1 X-14.211 Y25.178 E12.0264
G1 X-15.610 Y25.103 E12.0730
G1 X-16.285 Y23.806 E12.1216
G1 X-17.091 Y22.203 E12.1813
G1 X-19.239 Y18.287 E12.3299
G1 X-20.105 Y16.746 E12.3887
G1 X-20.501 Y15.975 E12.4175
G1 X-20.699 Y15.561 E12.4327
G1 X-24.647 Y8.314 E12.7072
G1 X-25.049 Y7.457 E12.7387
G1 X-25.865 Y5.832 E12.7992
G1 X-27.516 Y2.831 E12.9131
G1 X-27.708 Y2.443 E12.9275
G1 X-28.917 Y0.280 E13.0099
G1 X-29.548 Y-0.962 E13.0563
G1 X-29.196 Y-1.514 E13.0780
;segType:HShell
G0 X-28.498 Y-2.232 F10800
G1 X-5.367 Y-25.622 E14.1721 F3600
G1 X-5.889 Y-25.653
G1 X-27.443 Y-3.858 E15.1917
G0 X-26.563 Y-5.308 F10800
G1 X-6.422 Y-25.674 E16.1443 F3600
G1 X-6.964 Y-25.686
G1 X-25.682 Y-6.759 E17.0297
G0 X-24.831 Y-8.179 F10800
G1 X-7.507 Y-25.697 E17.8492 F3600
G1 X-8.049 Y-25.709
G1 X-23.902 Y-9.678 E18.5990
G0 X-22.940 Y-11.211 F10800
G1 X-8.591 Y-25.720 E19.2777 F3600
G1 X-9.133 Y-25.732
G1 X-22.045 Y-12.675 E19.8885
G0 X-21.150 Y-14.140 F10800
G1 X-9.668 Y-25.751 E20.4316 F3600
G1 X-10.201 Y-25.772
G1 X-20.255 Y-15.605 E20.9072
G0 X-18.171 Y-18.832 F10800
G1 X-11.295 Y-25.785 E21.2324 F3600
G1 X-10.748 Y-25.778
G1 X-19.360 Y-17.070 E21.6398
G0 X-17.226 Y-20.347 F10800
G1 X-11.842 Y-25.791 E21.8944 F3600
G1 X-12.390 Y-25.798
G1 X-16.353 Y-21.790 E22.0819
G0 X-14.596 Y-24.686 F10800
G1 X-13.453 Y-25.842 E22.1360 F3600
G1 X-12.923 Y-25.818
G1 X-15.437 Y-23.276 E22.2549
G0 X-4.844 Y-25.590 F10800
G1 X-29.282 Y-0.880 E23.4108 F3600
G1 X-28.906 Y-0.140
G1 X-3.813 Y-25.513 E24.5977
G1 X-3.297 Y-25.476
G1 X-28.716 Y0.228 E25.8000
G1 X-28.516 Y0.586
G1 X-2.756 Y-25.463 E27.0185
G1 X-2.215 Y-25.450
G1 X-28.316 Y0.943 E28.2531
G1 X-28.116 Y1.301
G1 X-1.675 Y-25.437 E29.5038
G1 X-1.134 Y-25.424
G1 X-27.916 Y1.659 E30.7707
G1 X-27.717 Y2.016
G1 X-0.593 Y-25.411 E32.0536
G1 X-0.053 Y-25.398
G1 X-27.518 Y2.375 E33.3528
G1 X-27.333 Y2.748
G1 X0.488 Y-25.385 E34.6687
G1 X1.029 Y-25.372
G1 X-27.135 Y3.108 E36.0009
G1 X-26.937 Y3.467
G1 X1.570 Y-25.358 E37.3493
G1 X2.110 Y-25.345
G1 X-26.739 Y3.827 E38.7139
G1 X-26.542 Y4.187
G1 X2.651 Y-25.332 E40.0947
G1 X3.192 Y-25.319
G1 X-26.344 Y4.546 E41.4918
G1 X-26.146 Y4.906
G1 X3.732 Y-25.306 E42.9050
G1 X4.273 Y-25.293
G1 X-25.948 Y5.266 E44.3345
G1 X-25.750 Y5.625
G1 X4.814 Y-25.280 E45.7802
G1 X5.330 Y-25.243
G1 X-25.560 Y5.993 E47.2413
G1 X-25.374 Y6.364
G1 X5.860 Y-25.219 E48.7187
G1 X6.396 Y-25.200
G1 X-25.187 Y6.736 E50.2126
G1 X-25.001 Y7.107
G1 X6.943 Y-25.194 E51.7235
G1 X7.490 Y-25.188
G1 X-24.817 Y7.481 E53.2517
G1 X-24.639 Y7.860
G1 X8.037 Y-25.181 E54.7973
G1 X8.578 Y-25.168
G1 X-24.460 Y8.239 E56.3600
G1 X-24.263 Y8.600
G1 X9.119 Y-25.155 E57.9389
G1 X9.660 Y-25.143
G1 X-24.066 Y8.961 E59.5342
G1 X-23.870 Y9.322
G1 X10.201 Y-25.130 E61.1458
G1 X10.743 Y-25.118
G1 X-23.673 Y9.683 E62.7737
G1 X-23.476 Y10.044
G1 X11.284 Y-25.105 E64.4179
G1 X11.825 Y-25.093
G1 X-23.280 Y10.405 E66.0784
G1 X-23.083 Y10.766
G1 X12.366 Y-25.080 E67.7551
G1 X12.891 Y-25.051
G1 X-22.887 Y11.127 E69.4475
G1 X-22.690 Y11.488
G1 X13.415 Y-25.021 E71.1552
G1 X13.939 Y-24.991
G1 X-22.493 Y11.849 E72.8785
G1 X-22.297 Y12.210
G1 X14.464 Y-24.962 E74.6173
G1 X14.990 Y-24.934
G1 X-22.100 Y12.571 E76.3716
G1 X-21.903 Y12.932
G1 X15.497 Y-24.887 E78.1407
G1 X15.688 Y-24.520
G1 X-21.707 Y13.293 E79.9095
G1 X-21.510 Y13.653
G1 X15.878 Y-24.153 E81.6780
G1 X16.069 Y-23.787
G1 X-21.314 Y14.014 E83.4462
G1 X-21.117 Y14.375
G1 X16.257 Y-23.416 E85.2140
G1 X16.443 Y-23.045
G1 X-20.920 Y14.736 E86.9814
G1 X-20.724 Y15.097
G1 X16.630 Y-22.674 E88.7482
G1 X16.817 Y-22.303
G1 X-20.527 Y15.458 E90.5146
G1 X-20.346 Y15.835
G1 X17.008 Y-21.937 E92.2815
G1 X17.206 Y-21.577
G1 X-20.158 Y16.205 E94.0488
G1 X-19.969 Y16.573
G1 X17.403 Y-21.217 E95.8165
G1 X17.601 Y-20.857
G1 X-19.770 Y16.932 E97.5842
G1 X-19.570 Y17.289
G1 X17.798 Y-20.497 E99.3518
G1 X17.996 Y-20.137
G1 X-19.369 Y17.646 E101.1191
G1 X-19.168 Y18.003
G1 X18.193 Y-19.776 E102.8864
G1 X18.390 Y-19.416
G1 X-18.969 Y18.361 E104.6535
G1 X-18.772 Y18.721
G1 X18.588 Y-19.056 E106.4207
G1 X18.785 Y-18.696
G1 X-18.574 Y19.082 E108.1878
G1 X-18.377 Y19.442
G1 X18.983 Y-18.336 E109.9549
G1 X19.182 Y-17.978
G1 X-18.179 Y19.802 E111.7222
G1 X-17.982 Y20.162
G1 X19.383 Y-17.621 E113.4895
G1 X19.584 Y-17.264
G1 X-17.784 Y20.522 E115.2571
G1 X-17.587 Y20.882
G1 X19.785 Y-16.908 E117.0248
G1 X19.982 Y-16.547
G1 X-17.389 Y21.242 E118.7925
G1 X-17.192 Y21.602
G1 X20.171 Y-16.179 E120.5598
G1 X20.359 Y-15.809
G1 X-16.994 Y21.962 E122.3266
G1 X-16.803 Y22.329
G1 X20.541 Y-15.433 E124.0930
G1 X20.737 Y-15.072
G1 X-16.617 Y22.700 E125.8599
G1 X-16.430 Y23.071
G1 X20.934 Y-14.711 E127.6273
G1 X21.131 Y-14.350
G1 X-16.243 Y23.442 E129.3951
G1 X-16.056 Y23.812
G1 X21.327 Y-13.989 E131.1633
G1 X21.524 Y-13.628
G1 X-15.865 Y24.179 E132.9319
G1 X-15.674 Y24.546
G1 X21.721 Y-13.267 E134.7007
G1 X21.917 Y-12.906
G1 X-15.479 Y24.908 E136.4695
G1 X-14.953 Y24.936
G1 X22.114 Y-12.545 E138.2228
G1 X22.310 Y-12.184
G1 X-14.427 Y24.964 E139.9605
G1 X-13.889 Y24.980
G1 X22.507 Y-11.823 E141.6821
G1 X22.704 Y-11.462
G1 X-13.343 Y24.988 E143.3871
G1 X-12.797 Y24.995
G1 X22.900 Y-11.102 E145.0756
G1 X23.097 Y-10.741
G1 X-12.251 Y25.003 E146.7476
G1 X-11.706 Y25.012
G1 X23.294 Y-10.380 E148.4032
G1 X23.490 Y-10.019
G1 X-11.181 Y25.040 E150.0431
G1 X-10.639 Y25.052
G1 X23.687 Y-9.658 E151.6667
G1 X23.883 Y-9.297
G1 X-10.096 Y25.063 E153.2740
G1 X-9.554 Y25.074
G1 X24.080 Y-8.936 E154.8649
G1 X24.277 Y-8.575
G1 X-9.011 Y25.085 E156.4394
G1 X-8.469 Y25.097
G1 X24.473 Y-8.213 E157.9976
G1 X24.651 Y-7.834
G1 X-7.926 Y25.108 E159.5385
G1 X-7.401 Y25.136
G1 X24.829 Y-7.454 E161.0630
G1 X25.014 Y-7.081
G1 X-6.877 Y25.167 E162.5715
G1 X-6.354 Y25.197
G1 X25.200 Y-6.710 E164.0640
G1 X25.387 Y-6.338
G1 X-5.835 Y25.233 E165.5408
G1 X-5.325 Y25.276
G1 X25.573 Y-5.967 E167.0023
G1 X25.764 Y-5.600
G1 X-4.797 Y25.302 E168.4478
G1 X-4.257 Y25.316
G1 X25.962 Y-5.241 E169.8772
G1 X26.160 Y-4.881
G1 X-3.716 Y25.329 E171.2903
G1 X-3.176 Y25.343
G1 X26.357 Y-4.521 E172.6873
G1 X26.555 Y-4.162
G1 X-2.636 Y25.356 E174.0680
G1 X-2.095 Y25.369
G1 X26.753 Y-3.802 E175.4326
G1 X26.951 Y-3.442
G1 X-1.555 Y25.383 E176.7810
G1 X-1.015 Y25.396
G1 X27.149 Y-3.083 E178.1131
G1 X27.346 Y-2.722
G1 X-0.474 Y25.410 E179.4291
G1 X0.066 Y25.423
G1 X27.531 Y-2.349 E180.7282
G1 X27.731 Y-1.991
G1 X0.606 Y25.437 E182.0112
G1 X1.147 Y25.450
G1 X27.931 Y-1.634 E183.2781
G1 X28.130 Y-1.276
G1 X1.687 Y25.463 E184.5289
G1 X2.227 Y25.477
G1 X28.330 Y-0.918 E185.7636
G1 X28.530 Y-0.561
G1 X2.768 Y25.490 E186.9822
G1 X3.300 Y25.512
G1 X28.730 Y-0.203 E188.1850
G1 X28.919 Y0.166
G1 X3.820 Y25.546 E189.3722
G1 X4.348 Y25.572
G1 X29.107 Y0.536 E190.5434
G1 X29.295 Y0.905
G1 X4.891 Y25.582 E191.6977
G1 X5.438 Y25.588
G1 X28.421 Y2.349 E192.7848
G0 X27.382 Y3.959 F10800
G1 X5.986 Y25.595 E193.7969 F3600
G1 X6.530 Y25.604
G1 X26.501 Y5.410 E194.7415
G0 X25.620 Y6.860 F10800
G1 X7.072 Y25.616 E195.6188 F3600
G1 X7.614 Y25.628
G1 X24.773 Y8.276 E196.4305
G0 X23.814 Y9.806 F10800
G1 X8.155 Y25.640 E197.1712 F3600
G1 X8.697 Y25.652
G1 X22.877 Y11.313 E197.8419
G0 X21.982 Y12.778 F10800
G1 X9.239 Y25.664 E198.4447 F3600
G1 X9.781 Y25.676
G1 X21.088 Y14.242 E198.9795
G0 X20.193 Y15.707 F10800
G1 X10.323 Y25.688 E199.4464 F3600
G1 X10.859 Y25.705
G1 X19.268 Y17.202 E199.8441
G0 X17.165 Y20.448 F10800
G1 X11.906 Y25.766 E200.0929 F3600
G1 X11.383 Y25.735
G1 X18.095 Y18.948 E200.4104
G0 X16.292 Y21.891 F10800
G1 X12.430 Y25.796 E200.5931 F3600
G1 X12.960 Y25.820
G1 X15.378 Y23.374 E200.7074
G0 X14.538 Y24.784 F10800
G1 X13.490 Y25.843 E200.7570 F3600
; ------------------------------------
; Layer #5
; ------------------------------------
G21 ; mm
G90 ; abs
G92 E0 ; reset extr
M106 S255
;segType:HShell
G0 F4800 E-1.0000
G0 F2400 Z1.200
G0 X-2.927 Y25.381 F10800
G0 F4800 E0.0000
G1 X-29.287 Y-1.273 E1.2468 F3600
;segType:Perimeter
G0 X-29.434 Y-0.848 F10800
G1 X-30.026 Y-1.234 E1.2703 F2159
G1 X-28.953 Y-2.916 E1.3367
G1 X-27.774 Y-4.711 E1.4081
G1 X-25.458 Y-8.526 E1.5566
G1 X-25.213 Y-8.888 E1.5711
G1 X-24.331 Y-10.256 E1.6252
G1 X-23.737 Y-11.123 E1.6602
G1 X-19.983 Y-17.269 E1.8997
G1 X-19.248 Y-18.323 E1.9425
G1 X-17.914 Y-20.352 E2.0232
G1 X-16.554 Y-22.596 E2.1105
G1 X-15.996 Y-23.432 E2.1439
G1 X-15.088 Y-24.955 E2.2029
G1 X-14.005 Y-26.621 E2.2690
G1 X-11.944 Y-26.530 E2.3376
G1 X-10.160 Y-26.509 E2.3970
G1 X-9.166 Y-26.443 E2.4301
G1 X-6.541 Y-26.387 E2.5174
G1 X-4.703 Y-26.281 E2.5786
G1 X-4.146 Y-26.243 E2.5972
G1 X-2.864 Y-26.132 E2.6400
G1 X4.355 Y-25.958 E2.8802
G1 X5.389 Y-25.875 E2.9147
G1 X7.037 Y-25.800 E2.9696
G1 X7.482 Y-25.770 E2.9844
G1 X11.928 Y-25.666 E3.1323
G1 X14.066 Y-25.543 E3.2035
G1 X16.055 Y-25.437 E3.2698
G1 X17.004 Y-23.613 E3.3382
G1 X17.969 Y-21.695 E3.4096
G1 X20.115 Y-17.780 E3.5581
G1 X20.306 Y-17.388 E3.5726
G1 X21.049 Y-15.940 E3.6267
G1 X21.503 Y-14.992 E3.6617
G1 X24.948 Y-8.668 E3.9012
G1 X25.494 Y-7.504 E3.9440
G1 X26.584 Y-5.334 E4.0247
G1 X27.848 Y-3.034 E4.1120
G1 X28.293 Y-2.134 E4.1454
G1 X29.158 Y-0.586 E4.2044
G1 X30.058 Y1.184 E4.2704
G1 X28.953 Y2.917 E4.3388
G1 X27.774 Y4.711 E4.4102
G1 X25.457 Y8.526 E4.5587
G1 X25.213 Y8.888 E4.5732
G1 X24.331 Y10.256 E4.6273
G1 X23.737 Y11.123 E4.6623
G1 X19.983 Y17.269 E4.9018
G1 X19.248 Y18.323 E4.9445
G1 X17.914 Y20.352 E5.0253
G1 X16.554 Y22.596 E5.1126
G1 X15.996 Y23.432 E5.1460
G1 X15.088 Y24.955 E5.2050
G1 X14.005 Y26.621 E5.2711
G1 X11.949 Y26.530 E5.3395
G1 X9.805 Y26.407 E5.4109
G1 X5.343 Y26.308 E5.5594
G1 X4.907 Y26.277 E5.5739
G1 X3.282 Y26.198 E5.6280
G1 X2.233 Y26.117 E5.6630
G1 X-4.966 Y25.938 E5.9025
G1 X-6.246 Y25.829 E5.9453
G1 X-8.671 Y25.688 E6.0261
G1 X-11.294 Y25.633 E6.1133
G1 X-12.296 Y25.567 E6.1467
G1 X-14.070 Y25.543 E6.2057
G1 X-16.055 Y25.437 E6.2718
G1 X-17.004 Y23.612 E6.3403
G1 X-17.969 Y21.694 E6.4117
G1 X-20.115 Y17.780 E6.5601
G1 X-20.306 Y17.387 E6.5747
G1 X-21.049 Y15.940 E6.6288
G1 X-21.503 Y14.992 E6.6638
G1 X-24.948 Y8.668 E6.9033
G1 X-25.494 Y7.504 E6.9460
G1 X-26.584 Y5.334 E7.0268
G1 X-27.848 Y3.035 E7.1141
G1 X-28.293 Y2.134 E7.1475
G1 X-29.158 Y0.586 E7.2065
G1 X-30.031 Y-1.131 E7.2705
G1 X-29.404 Y-1.456
;segType:Loop
G0 X-29.138 Y-1.879 F10800
G1 X-28.618 Y-2.695 E7.3027 F3600
G1 X-27.437 Y-4.493 E7.3742
G1 X-25.122 Y-8.306 E7.5226
G1 X-24.880 Y-8.664 E7.5370
G1 X-23.999 Y-10.030 E7.5910
G1 X-23.402 Y-10.902 E7.6262
G1 X-19.649 Y-17.046 E7.8656
G1 X-18.918 Y-18.094 E7.9082
G1 X-17.576 Y-20.134 E7.9894
G1 X-16.217 Y-22.377 E8.0766
G1 X-15.659 Y-23.214 E8.1100
G1 X-14.750 Y-24.740 E8.1691
G1 X-13.795 Y-26.207 E8.2273
G1 X-11.955 Y-26.126 E8.2886
G1 X-10.175 Y-26.105 E8.3478
G1 X-9.183 Y-26.039 E8.3809
G1 X-6.557 Y-25.983 E8.4682
G1 X-4.728 Y-25.877 E8.5292
G1 X-4.176 Y-25.840 E8.5476
G1 X-2.886 Y-25.728 E8.5906
G1 X4.335 Y-25.554 E8.8309
G1 X5.365 Y-25.471 E8.8652
G1 X7.015 Y-25.396 E8.9202
G1 X7.463 Y-25.365 E8.9351
G1 X11.911 Y-25.262 E9.0831
G1 X14.044 Y-25.139 E9.1542
G1 X15.807 Y-25.046 E9.2129
G1 X16.648 Y-23.427 E9.2736
G1 X17.615 Y-21.505 E9.3451
G1 X19.760 Y-17.593 E9.4935
G1 X19.949 Y-17.205 E9.5079
G1 X20.692 Y-15.759 E9.5619
G1 X21.148 Y-14.806 E9.5971
G1 X24.592 Y-8.484 E9.8365
G1 X25.135 Y-7.326 E9.8791
G1 X26.231 Y-5.144 E9.9603
G1 X27.494 Y-2.846 E10.0475
G1 X27.939 Y-1.944 E10.0809
G1 X28.806 Y-0.394 E10.1400
G1 X29.596 Y1.161 E10.1980
G1 X28.618 Y2.695 E10.2585
G1 X27.437 Y4.493 E10.3301
G1 X25.122 Y8.306 E10.4785
G1 X24.880 Y8.664 E10.4928
G1 X23.999 Y10.030 E10.5469
G1 X23.402 Y10.902 E10.5820
G1 X19.649 Y17.046 E10.8215
G1 X18.918 Y18.094 E10.8640
G1 X17.576 Y20.134 E10.9452
G1 X16.217 Y22.377 E11.0324
G1 X15.659 Y23.214 E11.0659
G1 X14.750 Y24.740 E11.1250
G1 X13.795 Y26.207 E11.1832
G1 X11.969 Y26.126 E11.2440
G1 X9.821 Y26.003 E11.3155
G1 X5.361 Y25.904 E11.4639
G1 X4.930 Y25.874 E11.4783
G1 X3.307 Y25.794 E11.5323
G1 X2.253 Y25.712 E11.5675
G1 X-4.944 Y25.534 E11.8069
G1 X-6.218 Y25.425 E11.8495
G1 X-8.655 Y25.284 E11.9307
G1 X-11.277 Y25.228 E12.0179
G1 X-12.281 Y25.163 E12.0513
G1 X-14.057 Y25.139 E12.1104
G1 X-15.807 Y25.046 E12.1687
G1 X-16.648 Y23.427 E12.2294
G1 X-17.615 Y21.505 E12.3010
G1 X-19.760 Y17.593 E12.4493
G1 X-19.949 Y17.205 E12.4637
G1 X-20.692 Y15.759 E12.5178
G1 X-21.148 Y14.806 E12.5529
G1 X-24.592 Y8.483 E12.7924
G1 X-25.135 Y7.326 E12.8349
G1 X-26.231 Y5.144 E12.9161
G1 X-27.494 Y2.846 E13.0033
G1 X-27.939 Y1.944 E13.0368
G1 X-28.806 Y0.394 E13.0958
G1 X-29.596 Y-1.161 E13.1538
G1 X-29.244 Y-1.713 E13.1756
;segType:HShell
G0 X-29.070 Y-1.613 F10800
G1 X-2.360 Y25.396 E14.4390 F3600
G1 X-1.792 Y25.410
G1 X-28.853 Y-1.954 E15.7190
G1 X-28.636 Y-2.294
G1 X-1.225 Y25.424 E17.0156
G1 X-0.657 Y25.438
G1 X-28.418 Y-2.634 E18.3287
G1 X-28.197 Y-2.970
G1 X-0.089 Y25.452 E19.6582
G1 X0.478 Y25.466
G1 X-27.976 Y-3.307 E21.0041
G1 X-27.755 Y-3.643
G1 X1.046 Y25.480 E22.3664
G1 X1.613 Y25.494
G1 X-27.534 Y-3.979 E23.7451
G1 X-27.313 Y-4.316
G1 X2.181 Y25.508 E25.1402
G1 X2.776 Y25.550
G1 X-27.101 Y-4.661 E26.5534
G1 X-26.890 Y-5.007
G1 X3.373 Y25.595 E27.9849
G1 X3.955 Y25.623
G1 X-26.680 Y-5.354 E29.4339
G1 X-26.469 Y-5.701
G1 X4.537 Y25.652 E30.9005
G1 X5.123 Y25.685
G1 X-26.258 Y-6.048 E32.3849
G1 X-26.048 Y-6.395
G1 X5.701 Y25.709 E33.8867
G1 X6.267 Y25.722
G1 X-25.837 Y-6.742 E35.4052
G1 X-25.627 Y-7.088
G1 X6.833 Y25.734 E36.9406
G1 X7.399 Y25.747
G1 X-25.416 Y-7.435 E38.4928
G1 X-25.205 Y-7.782
G1 X7.965 Y25.759 E40.0618
G1 X8.531 Y25.772
G1 X-24.995 Y-8.129 E41.6476
G1 X-24.773 Y-8.464
G1 X9.097 Y25.785 E43.2496
G1 X9.663 Y25.797
G1 X-24.553 Y-8.801 E44.8680
G1 X-24.334 Y-9.140
G1 X10.244 Y25.825 E46.5036
G1 X10.831 Y25.858
G1 X-24.116 Y-9.479 E48.1566
G1 X-23.897 Y-9.818
G1 X11.418 Y25.892 E49.8270
G1 X12.004 Y25.925
G1 X-23.673 Y-10.151 E51.5146
G1 X-23.447 Y-10.482
G1 X12.583 Y25.951 E53.2188
G1 X13.162 Y25.977
G1 X-23.221 Y-10.814 E54.9398
G1 X-23.010 Y-11.160
G1 X13.710 Y25.971 E56.6766
G1 X13.929 Y25.633
G1 X-22.798 Y-11.506 E58.4139
G1 X-22.587 Y-11.852
G1 X14.149 Y25.295 E60.1515
G1 X14.369 Y24.957
G1 X-22.375 Y-12.198 E61.8895
G1 X-22.164 Y-12.544
G1 X14.588 Y24.619 E63.6279
G1 X14.796 Y24.270
G1 X-21.953 Y-12.890 E65.3662
G1 X-21.741 Y-13.236
G1 X15.004 Y23.921 E67.1042
G1 X15.212 Y23.572
G1 X-21.530 Y-13.582 E68.8422
G1 X-21.318 Y-13.928
G1 X15.421 Y23.222 E70.5800
G1 X15.639 Y22.883
G1 X-21.107 Y-14.274 E72.3181
G1 X-20.896 Y-14.620
G1 X15.862 Y22.549 E74.0567
G1 X16.083 Y22.212
G1 X-20.684 Y-14.966 E75.7958
G1 X-20.473 Y-15.312
G1 X16.293 Y21.865 E77.5349
G1 X16.503 Y21.518
G1 X-20.261 Y-15.658 E79.2739
G1 X-20.050 Y-16.004
G1 X16.714 Y21.171 E81.0128
G1 X16.924 Y20.824
G1 X-19.839 Y-16.350 E82.7517
G1 X-19.627 Y-16.696
G1 X17.134 Y20.477 E84.4905
G1 X17.345 Y20.130
G1 X-19.410 Y-17.036 E86.2291
G1 X-19.181 Y-17.365
G1 X17.563 Y19.790 E87.9671
G1 X17.784 Y19.454
G1 X-18.953 Y-17.693 E89.7048
G1 X-18.725 Y-18.023
G1 X18.005 Y19.118 E91.4421
G1 X18.226 Y18.782
G1 X-18.504 Y-18.359 E93.1794
G1 X-18.283 Y-18.695
G1 X18.447 Y18.445 E94.9168
G1 X18.668 Y18.109
G1 X-18.062 Y-19.031 E96.6541
G1 X-17.841 Y-19.368
G1 X18.894 Y17.778 E98.3917
G1 X19.123 Y17.449
G1 X-17.619 Y-19.704 E100.1296
G1 X-17.399 Y-20.040
G1 X19.351 Y17.121 E101.8679
G1 X19.573 Y16.785
G1 X-17.188 Y-20.388 E103.6068
G1 X-16.978 Y-20.735
G1 X19.784 Y16.439 E105.3456
G1 X19.996 Y16.093
G1 X-16.768 Y-21.082 E107.0846
G1 X-16.557 Y-21.429
G1 X20.207 Y15.747 E108.8236
G1 X20.418 Y15.401
G1 X-16.347 Y-21.776 E110.5626
G1 X-16.137 Y-22.123
G1 X20.630 Y15.055 E112.3017
G1 X20.841 Y14.709
G1 X-15.919 Y-22.463 E114.0405
G1 X-15.696 Y-22.797
G1 X21.053 Y14.363 E115.7787
G1 X21.264 Y14.017
G1 X-15.474 Y-23.133 E117.5165
G1 X-15.266 Y-23.482
G1 X21.475 Y13.671 E119.2544
G1 X21.687 Y13.325
G1 X-15.058 Y-23.831 E120.9924
G1 X-14.850 Y-24.180
G1 X21.898 Y12.979 E122.7306
G1 X22.110 Y12.633
G1 X-14.641 Y-24.529 E124.4690
G1 X-14.425 Y-24.871
G1 X22.321 Y12.287 E126.2071
G1 X22.532 Y11.941
G1 X-14.206 Y-25.208 E127.9448
G1 X-13.986 Y-25.546
G1 X22.744 Y11.595 E129.6822
G1 X22.955 Y11.249
G1 X-13.766 Y-25.884 E131.4191
G1 X-13.311 Y-25.983
G1 X23.167 Y10.903 E133.1445
G1 X23.388 Y10.567
G1 X-12.732 Y-25.958 E134.8530
G1 X-12.154 Y-25.932
G1 X23.615 Y10.236 E136.5449
G1 X23.841 Y9.905
G1 X-11.587 Y-25.919 E138.2207
G1 X-11.027 Y-25.913
G1 X24.060 Y9.566 E139.8803
G1 X24.278 Y9.228
G1 X-10.467 Y-25.906 E141.5238
G1 X-9.891 Y-25.883
G1 X24.497 Y8.889 E143.1503
G1 X24.715 Y8.550
G1 X-9.298 Y-25.844 E144.7592
G1 X-8.728 Y-25.827
G1 X24.940 Y8.217 E146.3516
G1 X25.151 Y7.871
G1 X-8.162 Y-25.815 E147.9274
G1 X-7.597 Y-25.803
G1 X25.362 Y7.524 E149.4863
G1 X25.572 Y7.178
G1 X-7.031 Y-25.791 E151.0285
G1 X-6.462 Y-25.775
G1 X25.783 Y6.831 E152.5537
G1 X25.993 Y6.484
G1 X-5.875 Y-25.741 E154.0611
G1 X-5.288 Y-25.707
G1 X26.204 Y6.137 E155.5507
G1 X26.415 Y5.790
G1 X-4.700 Y-25.673 E157.0225
G1 X-4.105 Y-25.631
G1 X26.625 Y5.443 E158.4761
G1 X26.836 Y5.097
G1 X-3.500 Y-25.578 E159.9110
G1 X-2.894 Y-25.526
G1 X27.047 Y4.750 E161.3272
G1 X27.257 Y4.403
G1 X-2.327 Y-25.512 E162.7265
G1 X-1.760 Y-25.498
G1 X27.477 Y4.066 E164.1095
G1 X27.698 Y3.730
G1 X-1.193 Y-25.485 E165.4760
G1 X-0.626 Y-25.471
G1 X27.919 Y3.393 E166.8262
G1 X28.140 Y3.057
G1 X-0.058 Y-25.457 E168.1601
G1 X0.509 Y-25.444
G1 X28.361 Y2.720 E169.4775
G1 X28.580 Y2.382
G1 X1.076 Y-25.430 E170.7784
G1 X1.643 Y-25.416
G1 X28.797 Y2.041 E172.0628
G1 X29.014 Y1.701
G1 X2.210 Y-25.402 E173.3307
G1 X2.777 Y-25.389
G1 X29.231 Y1.361 E174.5820
G1 X29.143 Y0.713
G1 X3.344 Y-25.375 E175.8023
G1 X3.912 Y-25.361
G1 X28.541 Y-0.457 E176.9673
G0 X27.821 Y-1.744 F10800
G1 X4.488 Y-25.338 E178.0710 F3600
G1 X5.089 Y-25.290
G1 X27.240 Y-2.892 E179.1187
G0 X26.547 Y-4.152 F10800
G1 X5.678 Y-25.255 E180.1058 F3600
G1 X6.258 Y-25.228
G1 X25.890 Y-5.377 E181.0344
G0 X25.319 Y-6.514 F10800
G1 X6.837 Y-25.202 E181.9086 F3600
G1 X7.427 Y-25.165
G1 X24.774 Y-7.625 E182.7291
G0 X24.224 Y-8.741 F10800
G1 X7.995 Y-25.151 E183.4967 F3600
G1 X8.562 Y-25.138
G1 X23.545 Y-9.987 E184.2055
G0 X22.187 Y-12.479 F10800
G1 X9.695 Y-25.111 E184.7963 F3600
G1 X9.128 Y-25.124
G1 X22.866 Y-11.233 E185.4461
G0 X21.508 Y-13.726 F10800
G1 X10.261 Y-25.098 E185.9781 F3600
G1 X10.828 Y-25.085
G1 X20.862 Y-14.938 E186.4527
G0 X20.318 Y-16.049 F10800
G1 X11.395 Y-25.072 E186.8748 F3600
G1 X11.963 Y-25.057
G1 X19.724 Y-17.209 E187.2419
G0 X19.076 Y-18.424 F10800
G1 X12.550 Y-25.023 E187.5505 F3600
G1 X13.137 Y-24.989
G1 X18.387 Y-19.681 E187.7989
G0 X17.698 Y-20.937 F10800
G1 X13.724 Y-24.955 E187.9868 F3600
G1 X14.310 Y-24.923
G1 X17.081 Y-22.120 E188.1179
G0 X16.508 Y-23.260 F10800
G1 X14.894 Y-24.892 E188.1943 F3600
G1 X15.479 Y-24.860
G1 X15.897 Y-24.438 E188.2140
G0 X-28.356 Y0.788 F10800
G1 X-4.062 Y25.353 E189.3631 F3600
G1 X-4.630 Y25.339
G1 X-27.666 Y2.046 E190.4527
G0 X-27.062 Y3.216 F10800
G1 X-5.214 Y25.308 E191.4862 F3600
G1 X-5.819 Y25.256
G1 X-26.369 Y4.476 E192.4582
G0 X-25.743 Y5.669 F10800
G1 X-6.417 Y25.211 E193.3723 F3600
G1 X-7.004 Y25.177
G1 X-25.172 Y6.806 E194.2317
G0 X-24.645 Y7.899 F10800
G1 X-7.592 Y25.143 E195.0383 F3600
G1 X-8.179 Y25.109
G1 X-24.049 Y9.062 E195.7889
G0 X-23.370 Y10.308 F10800
G1 X-8.762 Y25.079 E196.4799 F3600
G1 X-9.327 Y25.067
G1 X-22.691 Y11.554 E197.1120
G0 X-21.333 Y14.047 F10800
G1 X-10.458 Y25.043 E197.6264 F3600
G1 X-9.893 Y25.055
G1 X-22.012 Y12.800 E198.1997
G0 X-20.729 Y15.218 F10800
G1 X-11.023 Y25.031 E198.6587 F3600
G1 X-11.604 Y25.005
G1 X-20.163 Y16.349 E199.0636
G0 X-19.586 Y17.493 F10800
G1 X-12.195 Y24.966 E199.4132 F3600
G1 X-12.760 Y24.954
G1 X-18.898 Y18.748 E199.7035
G0 X-17.520 Y21.261 F10800
G1 X-13.883 Y24.939 E199.8756 F3600
G1 X-13.322 Y24.947
G1 X-18.209 Y20.004 E200.1068
G0 X-16.933 Y22.414 F10800
G1 X-14.461 Y24.915 E200.2237 F3600
G1 X-15.045 Y24.884
G1 X-16.352 Y23.562 E200.2856
G0 X-15.739 Y24.742 F10800
G1 X-15.629 Y24.852 E200.2907 F3600
G0 X-3.495 Y25.367 F10800
G1 X-28.992 Y-0.416 E201.4968 F3600
; ------------------------------------
; Layer #6
; ------------------------------------
G21 ; mm
G90 ; abs
G92 E0 ; reset extr
M106 S255
;segType:HShell
G0 F4800 E-1.0000
G0 F2400 Z1.400
G0 X-27.666 Y-2.514 F10800
G0 F4800 E0.0000
G1 X-29.211 Y-0.951 E0.0731 F3600
;segType:Loop
G0 X-29.186 Y-2.079 F10800
G1 X-28.472 Y-3.199 E0.1173 F3600
G1 X-27.094 Y-5.296 E0.2008
G1 X-25.692 Y-7.605 E0.2906
G1 X-25.140 Y-8.472 E0.3248
G1 X-24.716 Y-9.049 E0.3486
G1 X-23.908 Y-10.303 E0.3982
G1 X-22.972 Y-11.668 E0.4533
G1 X-19.768 Y-16.913 E0.6577
G1 X-18.848 Y-18.234 E0.7112
G1 X-17.164 Y-20.795 E0.8132
G1 X-16.219 Y-22.351 E0.8737
G1 X-15.342 Y-23.664 E0.9263
G1 X-14.792 Y-24.587 E0.9620
G1 X-13.647 Y-26.348 E1.0319
G1 X-11.445 Y-26.251 E1.1052
G1 X-10.373 Y-26.238 E1.1408
G1 X-8.813 Y-26.134 E1.1928
G1 X-6.982 Y-26.095 E1.2537
G1 X-4.678 Y-25.963 E1.3305
G1 X-3.982 Y-25.916 E1.3537
G1 X-2.364 Y-25.775 E1.4077
G1 X3.801 Y-25.626 E1.6128
G1 X5.422 Y-25.496 E1.6669
G1 X6.912 Y-25.428 E1.7165
G1 X7.627 Y-25.349 E1.7404
G1 X8.722 Y-25.306 E1.7769
G1 X11.401 Y-25.244 E1.8660
G1 X13.890 Y-25.100 E1.9489
G1 X16.003 Y-24.988 E2.0193
G1 X17.012 Y-23.048 E2.0921
G1 X18.139 Y-20.806 E2.1755
G1 X19.438 Y-18.438 E2.2653
G1 X19.913 Y-17.526 E2.2995
G1 X20.200 Y-16.871 E2.3233
G1 X20.882 Y-15.544 E2.3730
G1 X21.597 Y-14.050 E2.4280
G1 X24.537 Y-8.654 E2.6324
G1 X25.221 Y-7.196 E2.6860
G1 X26.597 Y-4.456 E2.7879
G1 X27.472 Y-2.860 E2.8485
G1 X28.171 Y-1.445 E2.9010
G1 X28.695 Y-0.507 E2.9367
G1 X29.644 Y1.360 E3.0064
G1 X28.472 Y3.199 E3.0789
G1 X27.094 Y5.296 E3.1624
G1 X25.692 Y7.605 E3.2522
G1 X25.140 Y8.472 E3.2864
G1 X24.716 Y9.049 E3.3102
G1 X23.908 Y10.303 E3.3598
G1 X22.972 Y11.668 E3.4149
G1 X19.768 Y16.913 E3.6193
G1 X18.848 Y18.234 E3.6729
G1 X17.164 Y20.795 E3.7748
G1 X16.219 Y22.351 E3.8354
G1 X15.343 Y23.664 E3.8879
G1 X14.792 Y24.587 E3.9236
G1 X13.647 Y26.348 E3.9935
G1 X11.459 Y26.252 E4.0663
G1 X8.954 Y26.108 E4.1498
G1 X6.254 Y26.048 E4.2396
G1 X5.226 Y26.003 E4.2738
G1 X4.515 Y25.925 E4.2976
G1 X3.025 Y25.851 E4.3472
G1 X1.375 Y25.723 E4.4023
G1 X-4.769 Y25.571 E4.6067
G1 X-6.374 Y25.434 E4.6603
G1 X-9.434 Y25.256 E4.7622
G1 X-11.254 Y25.216 E4.8227
G1 X-12.829 Y25.114 E4.8752
G1 X-13.903 Y25.099 E4.9110
G1 X-16.003 Y24.988 E4.9809
G1 X-17.012 Y23.048 E5.0537
G1 X-18.139 Y20.806 E5.1371
G1 X-19.438 Y18.438 E5.2270
G1 X-19.913 Y17.526 E5.2611
G1 X-20.200 Y16.871 E5.2849
G1 X-20.882 Y15.544 E5.3346
G1 X-21.597 Y14.050 E5.3896
G1 X-24.537 Y8.654 E5.5940
G1 X-25.221 Y7.196 E5.6476
G1 X-26.597 Y4.456 E5.7495
G1 X-27.472 Y2.860 E5.8101
G1 X-28.171 Y1.445 E5.8626
G1 X-28.695 Y0.507 E5.8983
G1 X-29.644 Y-1.360 E5.9680
G1 X-29.292 Y-1.912 E5.9898
;segType:Perimeter
G0 X-29.482 Y-1.047 F10800
G1 X-30.074 Y-1.433 E6.0133 F2159
G1 X-28.807 Y-3.420 E6.0917
G1 X-27.432 Y-5.514 E6.1750
G1 X-26.031 Y-7.820 E6.2647
G1 X-25.469 Y-8.703 E6.2995
G1 X-25.045 Y-9.280 E6.3234
G1 X-24.240 Y-10.528 E6.3728
G1 X-23.307 Y-11.890 E6.4277
G1 X-20.102 Y-17.136 E6.6321
G1 X-19.178 Y-18.462 E6.6859
G1 X-17.501 Y-21.013 E6.7874
G1 X-16.555 Y-22.570 E6.8480
G1 X-15.680 Y-23.882 E6.9005
G1 X-15.131 Y-24.803 E6.9361
G1 X-13.856 Y-26.762 E7.0139
G1 X-11.434 Y-26.656 E7.0945
G1 X-10.357 Y-26.643 E7.1303
G1 X-8.795 Y-26.539 E7.1824
G1 X-6.967 Y-26.500 E7.2432
G1 X-4.654 Y-26.366 E7.3203
G1 X-3.952 Y-26.319 E7.3437
G1 X-2.342 Y-26.179 E7.3974
G1 X3.821 Y-26.030 E7.6025
G1 X5.447 Y-25.900 E7.6567
G1 X6.943 Y-25.831 E7.7065
G1 X7.656 Y-25.752 E7.7304
G1 X8.734 Y-25.710 E7.7663
G1 X11.417 Y-25.648 E7.8555
G1 X13.912 Y-25.504 E7.9387
G1 X16.252 Y-25.379 E8.0166
G1 X17.367 Y-23.233 E8.0970
G1 X18.493 Y-20.996 E8.1803
G1 X19.790 Y-18.630 E8.2701
G1 X20.273 Y-17.702 E8.3049
G1 X20.561 Y-17.046 E8.3287
G1 X21.240 Y-15.725 E8.3781
G1 X21.952 Y-14.236 E8.4330
G1 X24.893 Y-8.838 E8.6375
G1 X25.580 Y-7.374 E8.6912
G1 X26.950 Y-4.646 E8.7928
G1 X27.826 Y-3.049 E8.8534
G1 X28.524 Y-1.635 E8.9058
G1 X29.047 Y-0.699 E8.9415
G1 X30.106 Y1.383 E9.0192
G1 X28.807 Y3.420 E9.0995
G1 X27.432 Y5.514 E9.1828
G1 X26.031 Y7.820 E9.2726
G1 X25.469 Y8.703 E9.3074
G1 X25.045 Y9.280 E9.3312
G1 X24.240 Y10.528 E9.3806
G1 X23.307 Y11.890 E9.4355
G1 X20.102 Y17.136 E9.6400
G1 X19.178 Y18.462 E9.6937
G1 X17.501 Y21.013 E9.7953
G1 X16.555 Y22.570 E9.8559
G1 X15.680 Y23.882 E9.9083
G1 X15.131 Y24.803 E9.9440
G1 X13.856 Y26.762 E10.0217
G1 X11.438 Y26.656 E10.1022
G1 X8.938 Y26.512 E10.1855
G1 X6.241 Y26.452 E10.2753
G1 X5.196 Y26.407 E10.3100
G1 X4.483 Y26.328 E10.3339
G1 X3.000 Y26.255 E10.3833
G1 X1.355 Y26.128 E10.4382
G1 X-4.791 Y25.975 E10.6426
G1 X-6.402 Y25.838 E10.6964
G1 X-9.450 Y25.661 E10.7979
G1 X-11.271 Y25.620 E10.8585
G1 X-12.844 Y25.519 E10.9110
G1 X-13.916 Y25.504 E10.9466
G1 X-16.251 Y25.379 E11.0244
G1 X-17.367 Y23.233 E11.1049
G1 X-18.493 Y20.996 E11.1882
G1 X-19.790 Y18.630 E11.2779
G1 X-20.273 Y17.702 E11.3127
G1 X-20.561 Y17.046 E11.3365
G1 X-21.240 Y15.725 E11.3859
G1 X-21.952 Y14.236 E11.4408
G1 X-24.893 Y8.838 E11.6453
G1 X-25.580 Y7.374 E11.6991
G1 X-26.950 Y4.646 E11.8006
G1 X-27.826 Y3.049 E11.8612
G1 X-28.524 Y1.635 E11.9136
G1 X-29.047 Y0.699 E11.9493
G1 X-30.079 Y-1.330 E12.0250
G1 X-29.452 Y-1.656
;segType:HShell
G0 X-28.486 Y-2.804 F10800
G1 X-25.864 Y-5.455 E12.1490 F3600
G0 X-26.765 Y-3.985 F10800
G1 X-29.399 Y-1.320 E12.2736 F3600
G1 X-29.023 Y-0.581
G1 X-28.445 Y-1.166 E12.3010
G1 X-28.268 Y-0.785
G1 X-28.835 Y-0.211 E12.3278
G1 X-28.647 Y0.158
G1 X-28.079 Y-0.416 E12.3547
G1 X-27.890 Y-0.048
G1 X-28.456 Y0.524 E12.3815
G1 X-28.256 Y0.882
G1 X-27.701 Y0.321 E12.4077
G1 X-27.512 Y0.689
G1 X-28.056 Y1.240 E12.4335
G1 X-27.867 Y1.608
G1 X-27.323 Y1.058 E12.4592
G1 X-27.134 Y1.427
G1 X-27.682 Y1.982 E12.4851
G1 X-27.498 Y2.355
G1 X-26.945 Y1.795 E12.5113
G1 X-26.756 Y2.164
G1 X-27.314 Y2.728 E12.5377
G1 X-27.117 Y3.090
G1 X-26.567 Y2.533 E12.5638
G1 X-26.378 Y2.901
G1 X-26.920 Y3.450 E12.5894
G1 X-26.722 Y3.810
G1 X-26.189 Y3.270 E12.6147
G1 X-25.999 Y3.639
G1 X-26.525 Y4.170 E12.6395
G1 X-26.333 Y4.535
G1 X-25.810 Y4.007 E12.6642
G1 X-25.621 Y4.376
G1 X-26.146 Y4.906 E12.6891
G1 X-25.960 Y5.278
G1 X-25.432 Y4.744 E12.7140
G1 X-25.243 Y5.113
G1 X-25.773 Y5.649 E12.7391
G1 X-25.587 Y6.020
G1 X-25.054 Y5.482 E12.7642
G1 X-24.865 Y5.850
G1 X-25.400 Y6.391 E12.7896
G1 X-25.214 Y6.763
G1 X-24.676 Y6.219 E12.8150
G1 X-24.487 Y6.588
G1 X-25.028 Y7.135 E12.8406
G1 X-24.850 Y7.514
G1 X-24.298 Y6.956 E12.8667
G1 X-24.109 Y7.325
G1 X-24.672 Y7.894 E12.8933
G1 X-24.494 Y8.273
G1 X-23.920 Y7.694 E12.9204
G1 X-23.731 Y8.062
G1 X-24.311 Y8.649 E12.9478
G1 X-24.114 Y9.010
G1 X-23.542 Y8.431 E12.9749
G1 X-23.353 Y8.799
G1 X-23.918 Y9.370 E13.0016
G1 X-23.721 Y9.731
G1 X-23.164 Y9.168 E13.0280
G1 X-22.975 Y9.537
G1 X-23.524 Y10.092 E13.0539
G1 X-23.328 Y10.453
G1 X-22.786 Y9.905 E13.0796
G1 X-22.597 Y10.274
G1 X-23.131 Y10.814 E13.1049
G1 X-22.935 Y11.175
G1 X-22.414 Y10.649 E13.1295
G1 X-22.234 Y11.027
G1 X-22.738 Y11.536 E13.1533
G1 X-22.541 Y11.897
G1 X-22.053 Y11.404 E13.1764
G1 X-21.860 Y11.768
G1 X-22.345 Y12.258 E13.1993
G1 X-22.148 Y12.619
G1 X-21.666 Y12.132 E13.2222
G1 X-21.472 Y12.496
G1 X-21.951 Y12.980 E13.2448
G1 X-21.755 Y13.341
G1 X-21.279 Y12.860 E13.2673
G1 X-21.085 Y13.224
G1 X-21.558 Y13.702 E13.2897
G1 X-21.366 Y14.068
G1 X-20.892 Y13.588 E13.3122
G1 X-20.698 Y13.952
G1 X-21.186 Y14.445 E13.3352
G1 X-21.005 Y14.822
G1 X-20.504 Y14.316 E13.3589
G1 X-20.311 Y14.680
G1 X-20.825 Y15.199 E13.3832
G1 X-20.641 Y15.574
G1 X-20.117 Y15.044 E13.4080
G1 X-19.924 Y15.408
G1 X-20.452 Y15.942 E13.4330
G1 X-20.263 Y16.311
G1 X-19.730 Y15.772 E13.4582
G1 X-19.536 Y16.136
G1 X-20.073 Y16.679 E13.4836
G1 X-19.898 Y17.061
G1 X-19.343 Y16.500 E13.5099
G1 X-19.149 Y16.864
G1 X-19.727 Y17.449 E13.5372
G1 X-19.536 Y17.815
G1 X-18.958 Y17.230 E13.5646
G1 X-18.777 Y17.607
G1 X-19.345 Y18.182 E13.5914
G1 X-19.151 Y18.545
G1 X-18.581 Y17.969 E13.6184
G1 X-18.385 Y18.330
G1 X-18.953 Y18.905 E13.6453
G1 X-18.756 Y19.265
G1 X-18.189 Y18.692 E13.6721
G1 X-17.992 Y19.053
G1 X-18.558 Y19.625 E13.6988
G1 X-18.361 Y19.985
G1 X-17.796 Y19.414 E13.7256
G1 X-17.600 Y19.776
G1 X-18.163 Y20.345 E13.7522
G1 X-17.966 Y20.705
G1 X-17.404 Y20.137 E13.7788
G1 X-17.207 Y20.498
G1 X-17.779 Y21.076 E13.8058
G1 X-17.592 Y21.447
G1 X-17.011 Y20.860 E13.8333
G1 X-16.815 Y21.221
G1 X-17.406 Y21.818 E13.8613
G1 X-17.219 Y22.190
G1 X-16.619 Y21.582 E13.8897
G1 X-16.422 Y21.943
G1 X-17.033 Y22.561 E13.9186
G1 X-16.846 Y22.932
G1 X-16.226 Y22.305 E13.9479
G1 X-16.030 Y22.666
G1 X-16.655 Y23.299 E13.9775
G1 X-16.465 Y23.666
G1 X-15.833 Y23.027 E14.0074
G1 X-15.637 Y23.389
G1 X-16.274 Y24.033 E14.0375
G1 X-16.083 Y24.399
G1 X-15.441 Y23.750 E14.0678
G1 X-15.188 Y24.054
G1 X-15.892 Y24.766 E14.1011
G1 X-15.389 Y24.818
G1 X-14.672 Y24.092 E14.1351
G1 X-14.145 Y24.119
G1 X-14.864 Y24.846 E14.1690
G1 X-14.338 Y24.874
G1 X-13.618 Y24.146 E14.2031
G1 X-13.091 Y24.172
G1 X-13.808 Y24.898 E14.2370
G1 X-13.262 Y24.906
G1 X-12.563 Y24.199 E14.2701
G1 X-12.036 Y24.226
G1 X-12.721 Y24.919 E14.3025
G1 X-12.201 Y24.952
G1 X-11.509 Y24.252 E14.3353
G1 X-10.982 Y24.279
G1 X-11.681 Y24.986 E14.3683
G1 X-11.157 Y25.016
G1 X-10.454 Y24.306 E14.4016
G1 X-9.927 Y24.332
G1 X-10.615 Y25.028 E14.4341
G1 X-10.074 Y25.040
G1 X-9.400 Y24.359 E14.4660
G1 X-8.873 Y24.386
G1 X-9.532 Y25.052 E14.4972
G1 X-9.005 Y25.079
G1 X-8.345 Y24.412 E14.5283
G1 X-7.818 Y24.439
G1 X-8.481 Y25.109 E14.5597
G1 X-7.958 Y25.140
G1 X-7.291 Y24.466 E14.5912
G1 X-6.764 Y24.492
G1 X-7.434 Y25.170 E14.6230
G1 X-6.911 Y25.201
G1 X-6.236 Y24.519 E14.6548
G1 X-5.709 Y24.545
G1 X-6.387 Y25.231 E14.6869
G1 X-5.876 Y25.274
G1 X-5.182 Y24.572 E14.7197
G1 X-4.655 Y24.599
G1 X-5.365 Y25.317 E14.7533
G1 X-4.855 Y25.361
G1 X-4.127 Y24.625 E14.7877
G1 X-3.600 Y24.652
G1 X-4.320 Y25.380 E14.8218
G1 X-3.780 Y25.393
G1 X-3.081 Y24.687 E14.8548
G1 X-2.567 Y24.727
G1 X-3.239 Y25.407 E14.8866
G1 X-2.699 Y25.420
G1 X-2.049 Y24.763 E14.9174
G1 X-1.514 Y24.782
G1 X-2.159 Y25.433 E14.9479
G1 X-1.618 Y25.447
G1 X-0.980 Y24.801 E14.9781
G1 X-0.445 Y24.820
G1 X-1.078 Y25.460 E15.0080
G1 X-0.538 Y25.474
G1 X0.090 Y24.839 E15.0377
G1 X0.624 Y24.859
G1 X0.003 Y25.487 E15.0671
G1 X0.543 Y25.500
G1 X1.159 Y24.878 E15.0962
G1 X1.693 Y24.897
G1 X1.083 Y25.514 E15.1251
G1 X1.612 Y25.539
G1 X2.228 Y24.916 E15.1542
G1 X2.763 Y24.935
G1 X2.126 Y25.579 E15.1843
G1 X2.641 Y25.619
G1 X3.297 Y24.955 E15.2154
G1 X3.832 Y24.974
G1 X3.158 Y25.655 E15.2472
G1 X3.686 Y25.681
G1 X4.367 Y24.993 E15.2794
G1 X4.892 Y25.021
G1 X4.214 Y25.707 E15.3115
G1 X4.730 Y25.745
G1 X5.418 Y25.050 E15.3441
G1 X5.957 Y25.064
G1 X5.229 Y25.800 E15.3785
G1 X5.759 Y25.824
G1 X6.497 Y25.078 E15.4134
G1 X7.036 Y25.092
G1 X6.290 Y25.846 E15.4487
G1 X6.832 Y25.858
G1 X7.576 Y25.106 E15.4838
G1 X8.115 Y25.121
G1 X7.374 Y25.870 E15.5189
G1 X7.916 Y25.882
G1 X8.655 Y25.135 E15.5539
G1 X9.194 Y25.149
G1 X8.457 Y25.894 E15.5887
G1 X8.998 Y25.908
G1 X9.734 Y25.163 E15.6235
G1 X10.273 Y25.178
G1 X9.522 Y25.938 E15.6591
G1 X10.046 Y25.968
G1 X10.813 Y25.192 E15.6954
G1 X11.352 Y25.206
G1 X10.569 Y25.998 E15.7324
G1 X11.093 Y26.028
G1 X11.892 Y25.220 E15.7702
G1 X12.431 Y25.235
G1 X11.619 Y26.056 E15.8086
G1 X12.149 Y26.080
G1 X12.968 Y25.252 E15.8474
G1 X13.082 Y25.061
G1 X12.900 Y25.049 E15.8534
G1 X5.124 Y24.844
G1 X4.735 Y24.808 E15.8664
G1 X-2.140 Y24.561
G1 X-3.370 Y24.466 E15.9075
G1 X-14.826 Y23.887
G1 X-15.166 Y23.858 E15.9188
G1 X-15.235 Y23.717
G1 X-18.596 Y17.531 E16.1530
G1 X-18.818 Y17.070
G1 X-21.905 Y11.263 E16.3717
G1 X-22.349 Y10.327
G1 X-28.098 Y-0.883 E16.7907
G1 X-28.246 Y-1.202
G1 X-28.161 Y-1.329 E16.7958
G1 X-24.452 Y-7.385
G1 X-24.166 Y-7.803 E16.8126
G1 X-20.672 Y-13.395
G1 X-20.082 Y-14.249 E16.8471
G1 X-13.286 Y-24.771
G1 X-13.082 Y-25.061 E16.8589
G1 X-12.900 Y-25.049
G1 X-5.124 Y-24.844 E17.1176
G1 X-4.735 Y-24.808
G1 X2.140 Y-24.561 E17.3464
G1 X3.370 Y-24.466
G1 X14.826 Y-23.887 E17.7280
G1 X15.166 Y-23.858
G1 X15.235 Y-23.717 E17.7332
G1 X18.596 Y-17.531
G1 X18.818 Y-17.070 E17.7502
G1 X21.906 Y-11.263
G1 X22.475 Y-10.083 E17.7938
G1 X28.024 Y0.737
G1 X28.244 Y1.201 E17.8108
G1 X28.195 Y1.273
G1 X24.418 Y7.438 E18.0513
G1 X24.167 Y7.802
G1 X20.672 Y13.395 E18.2706
G1 X20.082 Y14.249
G1 X13.286 Y24.771 E18.6873
G1 X13.082 Y25.061
G0 X14.208 Y25.118 F10800
G1 X13.210 Y26.126 E18.7344 F3600
G1 X12.680 Y26.103
G1 X15.136 Y23.619 E18.8506
G0 X15.748 Y21.321 F10800
G1 X18.224 Y18.818 E18.9677 F3600
G0 X16.790 Y19.708 F10800
G1 X19.451 Y17.017 E19.0936 F3600
G0 X17.832 Y18.094 F10800
G1 X20.394 Y15.503 E19.2148 F3600
G1 X19.916 Y14.867
G1 X22.183 Y12.575 E19.3220
G1 X21.998 Y11.642
G1 X24.318 Y9.297 E19.4317
G1 X23.899 Y8.600
G1 X26.371 Y6.101 E19.5487
G0 X25.486 Y7.556 F10800
G1 X22.949 Y10.121 E19.6687 F3600
G1 X23.187 Y11.000
G1 X21.047 Y13.163 E19.7699
G1 X21.289 Y14.039
G1 X18.874 Y16.481 E19.8841
G0 X11.854 Y22.646 F10800
G1 X5.261 Y22.471 E20.1034 F2159
G1 X4.883 Y22.437 E20.1161
G1 X-2.007 Y22.190 E20.3454
G1 X-3.220 Y22.095 E20.3858
G1 X-13.725 Y21.564 E20.7357
G1 X-16.509 Y16.439 E20.9297
G1 X-16.726 Y15.988 E20.9463
G1 X-19.811 Y10.187 E21.1649
G1 X-20.247 Y9.267 E21.1987
G1 X-25.552 Y-1.078 E21.5854
G1 X-22.486 Y-6.084 E21.7806
G1 X-22.206 Y-6.493 E21.7971
G1 X-18.715 Y-12.080 E22.0162
G1 X-18.135 Y-12.920 E22.0502
G1 X-11.854 Y-22.646 E22.4353
G1 X-5.260 Y-22.471 E22.6546
G1 X-4.882 Y-22.437 E22.6673
G1 X2.007 Y-22.190 E22.8966
G1 X3.220 Y-22.095 E22.9370
G1 X13.725 Y-21.564 E23.2869
G1 X16.509 Y-16.439 E23.4809
G1 X16.726 Y-15.988 E23.4975
G1 X19.815 Y-10.179 E23.7163
G1 X20.377 Y-9.016 E23.7593
G1 X25.552 Y1.077 E24.1366
G1 X22.457 Y6.131 E24.3337
G1 X22.211 Y6.486 E24.3480
G1 X18.715 Y12.080 E24.5674
G1 X18.136 Y12.920 E24.6014
G1 X11.854 Y22.646 E24.9865
G0 X14.706 Y22.935 F10800
G1 X17.125 Y20.488 E25.1009 F3600
G0 X16.218 Y21.965 F10800
G1 X13.664 Y24.548 E25.2217 F3600
G1 X12.889 Y24.653
G1 X5.147 Y24.448 E25.4793
G1 X4.760 Y24.413
G1 X-2.118 Y24.166 E25.7082
G1 X-3.345 Y24.070
G1 X-14.800 Y23.492 E26.0897
G1 X-14.917 Y23.482
G1 X-18.248 Y17.349 E26.3218
G1 X-18.469 Y16.890
G1 X-21.556 Y11.084 E26.5405
G1 X-21.999 Y10.150
G1 X-27.747 Y-1.058 E26.9595
G1 X-27.798 Y-1.169
G1 X-24.124 Y-7.168 E27.1934
G1 X-23.839 Y-7.584
G1 X-20.345 Y-13.175 E27.4127
G1 X-19.758 Y-14.027
G1 X-12.962 Y-24.548 E27.8293
G1 X-12.889 Y-24.653
G1 X-5.147 Y-24.448 E28.0869
G1 X-4.760 Y-24.413
G1 X2.118 Y-24.166 E28.3158
G1 X3.345 Y-24.070
G1 X14.800 Y-23.492 E28.6973
G1 X14.917 Y-23.482
G1 X18.248 Y-17.349 E28.9294
G1 X18.469 Y-16.890
G1 X21.558 Y-11.082 E29.1482
G1 X22.126 Y-9.905
G1 X27.673 Y0.914 E29.5526
G1 X27.796 Y1.172
G1 X24.091 Y7.221 E29.7885
G1 X23.841 Y7.583
G1 X20.345 Y13.175 E30.0079
G1 X19.758 Y14.027
G1 X12.962 Y24.548 E30.4245
G1 X12.889 Y24.653
G0 X5.170 Y24.053 F10800
G1 X4.785 Y24.018 E30.4373 F2159
G1 X-2.096 Y23.771 E30.6663
G1 X-3.320 Y23.675 E30.7072
G1 X-14.676 Y23.102 E31.0854
G1 X-17.901 Y17.167 E31.3100
G1 X-18.121 Y16.709 E31.3269
G1 X-21.207 Y10.905 E31.5455
G1 X-21.649 Y9.974 E31.5798
G1 X-27.351 Y-1.147 E31.9955
G1 X-23.796 Y-6.951 E32.2218
G1 X-23.513 Y-7.366 E32.2386
G1 X-20.019 Y-12.956 E32.4578
G1 X-19.433 Y-13.806 E32.4921
G1 X-12.687 Y-24.251 E32.9057
G1 X-5.170 Y-24.053 E33.1558
G1 X-4.785 Y-24.018 E33.1687
G1 X2.096 Y-23.771 E33.3977
G1 X3.320 Y-23.675 E33.4385
G1 X14.676 Y-23.102 E33.8167
G1 X17.901 Y-17.167 E34.0414
G1 X18.121 Y-16.709 E34.0583
G1 X21.209 Y-10.901 E34.2770
G1 X21.776 Y-9.727 E34.3204
G1 X27.323 Y1.091 E34.7248
G1 X27.350 Y1.148 E34.7269
G1 X23.764 Y7.003 E34.9552
G1 X23.514 Y7.363 E34.9698
G1 X20.019 Y12.956 E35.1892
G1 X19.433 Y13.805 E35.2235
G1 X12.687 Y24.251 E35.6371
G1 X5.170 Y24.053 E35.8872
G1 X4.809 Y23.622 E35.9059
G1 X-2.073 Y23.376 E36.1349
G1 X-3.295 Y23.280 E36.1757
G1 X-14.439 Y22.717 E36.5468
G1 X-17.553 Y16.985 E36.7638
G1 X-17.772 Y16.529 E36.7806
G1 X-20.858 Y10.725 E36.9992
G1 X-21.298 Y9.797 E37.0334
G1 X-26.901 Y-1.130 E37.4418
G1 X-23.469 Y-6.734 E37.6604
G1 X-23.186 Y-7.148 E37.6771
G1 X-19.693 Y-12.737 E37.8963
G1 X-19.109 Y-13.584 E37.9305
G1 X-12.479 Y-23.850 E38.3370
G1 X-5.192 Y-23.657 E38.5794
G1 X-4.809 Y-23.622 E38.5922
G1 X2.074 Y-23.376 E38.8213
G1 X3.295 Y-23.280 E38.8620
G1 X14.439 Y-22.717 E39.2331
G1 X17.553 Y-16.985 E39.4501
G1 X17.772 Y-16.529 E39.4669
G1 X20.860 Y-10.721 E39.6857
G1 X21.426 Y-9.550 E39.7290
G1 X26.902 Y1.129 E40.1281
G1 X23.437 Y6.785 E40.3487
G1 X23.189 Y7.144 E40.3633
G1 X19.693 Y12.737 E40.5826
G1 X19.109 Y13.584 E40.6168
G1 X12.479 Y23.850 E41.0233
G1 X5.193 Y23.657 E41.2657
G1 X4.809 Y23.622 E41.2785
G0 X-2.051 Y22.981 F10800
G1 X-3.270 Y22.885 E41.3192 F2159
G1 X-14.201 Y22.333 E41.6832
G1 X-17.205 Y16.803 E41.8925
G1 X-17.423 Y16.349 E41.9093
G1 X-20.509 Y10.546 E42.1279
G1 X-20.948 Y9.620 E42.1620
G1 X-26.451 Y-1.113 E42.5632
G1 X-23.141 Y-6.517 E42.7740
G1 X-22.860 Y-6.929 E42.7905
G1 X-19.367 Y-12.518 E43.0097
G1 X-18.784 Y-13.363 E43.0439
G1 X-12.270 Y-23.449 E43.4432
G1 X-5.215 Y-23.262 E43.6779
G1 X-4.833 Y-23.227 E43.6907
G1 X2.052 Y-22.981 E43.9198
G1 X3.270 Y-22.885 E43.9605
G1 X14.201 Y-22.333 E44.3245
G1 X17.205 Y-16.803 E44.5338
G1 X17.423 Y-16.349 E44.5506
G1 X20.512 Y-10.540 E44.7694
G1 X21.076 Y-9.372 E44.8126
G1 X26.452 Y1.112 E45.2044
G1 X23.110 Y6.567 E45.4172
G1 X22.863 Y6.925 E45.4317
G1 X19.367 Y12.518 E45.6510
G1 X18.785 Y13.362 E45.6851
G1 X12.270 Y23.449 E46.0845
G1 X5.215 Y23.262 E46.3192
G1 X4.834 Y23.227 E46.3320
G1 X-2.051 Y22.981 E46.5611
G0 X-3.245 Y22.490 F10800
G1 X-13.963 Y21.949 E46.9181 F2159
G1 X-16.857 Y16.621 E47.1197
G1 X-17.075 Y16.168 E47.1364
G1 X-20.160 Y10.366 E47.3550
G1 X-20.598 Y9.443 E47.3890
G1 X-26.002 Y-1.095 E47.7829
G1 X-22.813 Y-6.300 E47.9859
G1 X-22.533 Y-6.711 E48.0024
G1 X-19.041 Y-12.299 E48.2216
G1 X-18.460 Y-13.141 E48.2556
G1 X-12.062 Y-23.047 E48.6478
G1 X-5.238 Y-22.867 E48.8749
G1 X-4.858 Y-22.832 E48.8876
G1 X2.030 Y-22.585 E49.1168
G1 X3.245 Y-22.490 E49.1574
G1 X13.963 Y-21.949 E49.5143
G1 X16.857 Y-16.621 E49.7159
G1 X17.075 Y-16.168 E49.7327
G1 X20.164 Y-10.360 E49.9515
G1 X20.727 Y-9.194 E49.9945
G1 X26.002 Y1.094 E50.3791
G1 X22.783 Y6.349 E50.5840
G1 X22.537 Y6.705 E50.5984
G1 X19.041 Y12.299 E50.8178
G1 X18.460 Y13.141 E50.8518
G1 X12.062 Y23.047 E51.2441
G1 X5.238 Y22.867 E51.4711
G1 X4.858 Y22.832 E51.4838
G1 X-2.029 Y22.585 E51.7130
G1 X-3.245 Y22.490 E51.7536
G0 X-3.120 Y20.514 F10800
G1 X-12.774 Y20.027 E52.0751 F2159
G1 X-15.118 Y15.711 E52.2385
G1 X-15.332 Y15.266 E52.2549
G1 X-18.415 Y9.469 E52.4733
G1 X-18.846 Y8.560 E52.5067
G1 X-23.752 Y-1.009 E52.8644
G1 X-21.175 Y-5.217 E53.0285
G1 X-20.900 Y-5.619 E53.0447
G1 X-17.410 Y-11.204 E53.2637
G1 X-16.837 Y-12.034 E53.2973
G1 X-11.021 Y-21.040 E53.6538
G1 X-5.350 Y-20.889 E53.8425
G1 X-4.980 Y-20.856 E53.8549
G1 X1.919 Y-20.610 E54.0845
G1 X3.120 Y-20.514 E54.1246
G1 X12.774 Y-20.027 E54.4461
G1 X15.118 Y-15.711 E54.6094
G1 X15.332 Y-15.266 E54.6258
G1 X18.421 Y-9.457 E54.8447
G1 X18.978 Y-8.304 E54.8873
G1 X23.753 Y1.008 E55.2353
G1 X21.149 Y5.260 E55.4012
G1 X20.907 Y5.609 E55.4153
G1 X17.410 Y11.204 E55.6347
G1 X16.838 Y12.034 E55.6683
G1 X11.021 Y21.040 E56.0249
G1 X5.351 Y20.889 E56.2135
G1 X4.980 Y20.856 E56.2259
G1 X-1.918 Y20.610 E56.4555
G1 X-3.120 Y20.514 E56.4956
G0 X-1.829 Y19.029 F10800
G1 X-3.019 Y18.933 E56.5353 F2159
G1 X-11.823 Y18.489 E56.8285
G1 X-13.727 Y14.983 E56.9612
G1 X-13.938 Y14.544 E56.9774
G1 X-17.019 Y8.751 E57.1956
G1 X-17.445 Y7.853 E57.2287
G1 X-21.953 Y-0.940 E57.5573
G1 X-19.865 Y-4.349 E57.6903
G1 X-19.593 Y-4.746 E57.7063
G1 X-16.106 Y-10.327 E57.9252
G1 X-15.539 Y-11.149 E57.9584
G1 X-10.189 Y-19.434 E58.2864
G1 X-5.440 Y-19.308 E58.4444
G1 X-5.076 Y-19.276 E58.4565
G1 X1.829 Y-19.029 E58.6864
G1 X3.019 Y-18.933 E58.7261
G1 X11.823 Y-18.489 E59.0193
G1 X13.727 Y-14.983 E59.1520
G1 X13.938 Y-14.545 E59.1682
G1 X17.027 Y-8.735 E59.3870
G1 X17.578 Y-7.593 E59.4292
G1 X21.953 Y0.939 E59.7481
G1 X19.841 Y4.388 E59.8826
G1 X19.604 Y4.731 E59.8965
G1 X16.106 Y10.327 E60.1160
G1 X15.539 Y11.148 E60.1491
G1 X10.189 Y19.434 E60.4772
G1 X5.440 Y19.308 E60.6352
G1 X5.076 Y19.276 E60.6473
G1 X-1.829 Y19.029 E60.8771
G0 X5.052 Y19.671 F10800
G1 X-1.851 Y19.424 E61.1069 F2159
G1 X-3.044 Y19.328 E61.1467
G1 X-12.061 Y18.874 E61.4470
G1 X-14.075 Y15.165 E61.5874
G1 X-14.287 Y14.725 E61.6036
G1 X-17.368 Y8.931 E61.8219
G1 X-17.795 Y8.029 E61.8550
G1 X-22.403 Y-0.957 E62.1909
G1 X-20.192 Y-4.566 E62.3317
G1 X-19.920 Y-4.965 E62.3477
G1 X-16.432 Y-10.546 E62.5667
G1 X-15.864 Y-11.370 E62.5999
G1 X-10.397 Y-19.835 E62.9351
G1 X-5.418 Y-19.703 E63.1008
G1 X-5.052 Y-19.671 E63.1130
G1 X1.852 Y-19.424 E63.3427
G1 X3.045 Y-19.329 E63.3826
G1 X12.061 Y-18.874 E63.6828
G1 X14.075 Y-15.165 E63.8232
G1 X14.287 Y-14.725 E63.8394
G1 X17.376 Y-8.916 E64.0583
G1 X17.928 Y-7.770 E64.1006
G1 X22.403 Y0.956 E64.4267
G1 X20.168 Y4.606 E64.5691
G1 X19.930 Y4.951 E64.5830
G1 X16.432 Y10.546 E64.8025
G1 X15.864 Y11.370 E64.8358
G1 X10.397 Y19.835 E65.1710
G1 X5.418 Y19.703 E65.3366
G1 X5.052 Y19.671 E65.3488
G0 X-1.941 Y21.005 F10800
G1 X-3.145 Y20.909 E65.3890 F2159
G1 X-13.012 Y20.411 E65.7176
G1 X-15.466 Y15.893 E65.8886
G1 X-15.681 Y15.446 E65.9051
G1 X-18.764 Y9.648 E66.1235
G1 X-19.196 Y8.737 E66.1571
G1 X-24.202 Y-1.026 E66.5220
G1 X-21.503 Y-5.433 E66.6939
G1 X-21.226 Y-5.838 E66.7102
G1 X-17.736 Y-11.423 E66.9292
G1 X-17.162 Y-12.256 E66.9629
G1 X-11.229 Y-21.441 E67.3266
G1 X-5.328 Y-21.285 E67.5229
G1 X-4.955 Y-21.251 E67.5353
G1 X1.941 Y-21.005 E67.7649
G1 X3.146 Y-20.909 E67.8050
G1 X13.012 Y-20.411 E68.1336
G1 X15.466 Y-15.893 E68.3046
G1 X15.681 Y-15.447 E68.3211
G1 X18.770 Y-9.638 E68.5399
G1 X19.327 Y-8.482 E68.5826
G1 X24.203 Y1.025 E68.9380
G1 X21.476 Y5.478 E69.1116
G1 X21.233 Y5.828 E69.1258
G1 X17.736 Y11.423 E69.3452
G1 X17.162 Y12.255 E69.3789
G1 X11.229 Y21.441 E69.7426
G1 X5.328 Y21.285 E69.9389
G1 X4.956 Y21.251 E69.9514
G1 X-1.941 Y21.005 E70.1809
G0 X4.932 Y21.647 F10800
G1 X-1.963 Y21.400 E70.4103 F2159
G1 X-3.170 Y21.304 E70.4506
G1 X-13.250 Y20.795 E70.7863
G1 X-15.814 Y16.075 E70.9650
G1 X-16.029 Y15.627 E70.9815
G1 X-19.113 Y9.828 E71.1999
G1 X-19.547 Y8.913 E71.2336
G1 X-24.652 Y-1.044 E71.6058
G1 X-21.830 Y-5.650 E71.7854
G1 X-21.553 Y-6.056 E71.8018
G1 X-18.062 Y-11.642 E72.0209
G1 X-17.486 Y-12.477 E72.0546
G1 X-11.437 Y-21.843 E72.4254
G1 X-5.306 Y-21.680 E72.6295
G1 X-4.931 Y-21.647 E72.6420
G1 X1.963 Y-21.400 E72.8714
G1 X3.170 Y-21.304 E72.9117
G1 X13.250 Y-20.795 E73.2474
G1 X15.814 Y-16.075 E73.4261
G1 X16.029 Y-15.627 E73.4426
G1 X19.118 Y-9.818 E73.6614
G1 X19.677 Y-8.660 E73.7042
G1 X24.652 Y1.043 E74.0668
G1 X21.803 Y5.695 E74.2483
G1 X21.559 Y6.047 E74.2625
G1 X18.062 Y11.642 E74.4820
G1 X17.487 Y12.477 E74.5157
G1 X11.437 Y21.843 E74.8866
G1 X5.306 Y21.680 E75.0906
G1 X4.932 Y21.647 E75.1031
G1 X5.283 Y22.076 E75.1215
G1 X4.907 Y22.042 E75.1341
G1 X-1.985 Y21.795 E75.3635
G1 X-3.195 Y21.699 E75.4038
G1 X-13.488 Y21.180 E75.7466
G1 X-16.162 Y16.257 E75.9329
G1 X-16.378 Y15.807 E75.9495
G1 X-19.462 Y10.007 E76.1680
G1 X-19.897 Y9.090 E76.2018
G1 X-25.102 Y-1.061 E76.5812
G1 X-22.158 Y-5.867 E76.7686
G1 X-21.880 Y-6.274 E76.7851
G1 X-18.389 Y-11.861 E77.0042
G1 X-17.811 Y-12.699 E77.0380
G1 X-11.645 Y-22.245 E77.4160
G1 X-5.283 Y-22.076 E77.6277
G1 X-4.907 Y-22.042 E77.6402
G1 X1.985 Y-21.795 E77.8696
G1 X3.195 Y-21.699 E77.9100
G1 X13.488 Y-21.180 E78.2527
G1 X16.162 Y-16.257 E78.4391
G1 X16.378 Y-15.808 E78.4556
G1 X19.467 Y-9.999 E78.6745
G1 X20.027 Y-8.838 E78.7173
G1 X25.102 Y1.060 E79.0873
G1 X22.130 Y5.913 E79.2766
G1 X21.885 Y6.267 E79.2909
G1 X18.389 Y11.861 E79.5103
G1 X17.811 Y12.698 E79.5441
G1 X11.645 Y22.245 E79.9221
G1 X5.283 Y22.076 E80.1338
G0 X5.396 Y20.099 F10800
G1 X5.028 Y20.066 E80.1461 F2159
G1 X-1.874 Y19.819 E80.3758
G1 X-3.070 Y19.723 E80.4157
G1 X-12.299 Y19.258 E80.7230
G1 X-14.423 Y15.347 E80.8711
G1 X-14.635 Y14.905 E80.8873
G1 X-17.717 Y9.110 E81.1056
G1 X-18.145 Y8.206 E81.1389
G1 X-22.853 Y-0.975 E81.4821
G1 X-20.520 Y-4.783 E81.6306
G1 X-20.246 Y-5.183 E81.6467
G1 X-16.758 Y-10.766 E81.8657
G1 X-16.188 Y-11.592 E81.8990
G1 X-10.605 Y-20.237 E82.2413
G1 X-5.395 Y-20.099 E82.4147
G1 X-5.028 Y-20.066 E82.4269
G1 X1.874 Y-19.819 E82.6567
G1 X3.070 Y-19.724 E82.6966
G1 X12.299 Y-19.258 E83.0039
G1 X14.423 Y-15.347 E83.1519
G1 X14.635 Y-14.905 E83.1682
G1 X17.724 Y-9.096 E83.3871
G1 X18.278 Y-7.948 E83.4294
G1 X22.853 Y0.974 E83.7629
G1 X20.495 Y4.824 E83.9131
G1 X20.256 Y5.170 E83.9271
G1 X16.758 Y10.766 E84.1466
G1 X16.189 Y11.591 E84.1799
G1 X10.605 Y20.237 E84.5222
G1 X5.396 Y20.099 E84.6956
G0 X10.813 Y20.638 F10800
G1 X5.373 Y20.494 E84.8766 F2159
G1 X5.004 Y20.461 E84.8889
G1 X-1.896 Y20.214 E85.1185
G1 X-3.095 Y20.119 E85.1585
G1 X-12.536 Y19.642 E85.4730
G1 X-14.771 Y15.529 E85.6287
G1 X-14.984 Y15.086 E85.6450
G1 X-18.066 Y9.290 E85.8633
G1 X-18.496 Y8.383 E85.8967
G1 X-23.302 Y-0.992 E86.2471
G1 X-20.847 Y-5.000 E86.4034
G1 X-20.573 Y-5.401 E86.4196
G1 X-17.084 Y-10.985 E86.6386
G1 X-16.513 Y-11.813 E86.6721
G1 X-10.813 Y-20.638 E87.0215
G1 X-5.373 Y-20.494 E87.2025
G1 X-5.004 Y-20.461 E87.2148
G1 X1.896 Y-20.214 E87.4445
G1 X3.095 Y-20.119 E87.4845
G1 X12.536 Y-19.642 E87.7989
G1 X14.771 Y-15.529 E87.9546
G1 X14.984 Y-15.086 E87.9709
G1 X18.073 Y-9.277 E88.1898
G1 X18.628 Y-8.126 E88.2322
G1 X23.303 Y0.991 E88.5730
G1 X20.822 Y5.042 E88.7310
G1 X20.581 Y5.389 E88.7451
G1 X17.084 Y10.985 E88.9645
G1 X16.513 Y11.813 E88.9980
G1 X10.813 Y20.638 E89.3474
G0 X9.981 Y19.032 F10800
G1 X5.463 Y18.912 E89.4978 F2159
G1 X5.100 Y18.880 E89.5099
G1 X-1.806 Y18.634 E89.7397
G1 X-2.994 Y18.538 E89.7794
G1 X-11.585 Y18.105 E90.0655
G1 X-13.379 Y14.801 E90.1905
G1 X-13.590 Y14.364 E90.2066
G1 X-16.670 Y8.572 E90.4248
G1 X-17.095 Y7.676 E90.4578
G1 X-21.503 Y-0.923 E90.7792
G1 X-19.537 Y-4.132 E90.9044
G1 X-19.266 Y-4.528 E90.9203
G1 X-15.780 Y-10.108 E91.1392
G1 X-15.215 Y-10.927 E91.1723
G1 X-9.981 Y-19.032 E91.4932
G1 X-5.462 Y-18.912 E91.6435
G1 X-5.100 Y-18.880 E91.6556
G1 X1.807 Y-18.634 E91.8855
G1 X2.994 Y-18.538 E91.9251
G1 X11.585 Y-18.105 E92.2112
G1 X13.379 Y-14.801 E92.3362
G1 X13.590 Y-14.364 E92.3524
G1 X16.679 Y-8.555 E92.5712
G1 X17.228 Y-7.415 E92.6133
G1 X21.503 Y0.922 E92.9249
G1 X19.514 Y4.171 E93.0516
G1 X19.278 Y4.512 E93.0654
G1 X15.780 Y10.108 E93.2849
G1 X15.215 Y10.927 E93.3180
G1 X9.981 Y19.032 E93.6389
G0 X5.485 Y18.517 F10800
G1 X5.124 Y18.485 E93.6509 F2159
G1 X-1.784 Y18.239 E93.8808
G1 X-2.969 Y18.143 E93.9204
G1 X-11.347 Y17.721 E94.1994
G1 X-13.032 Y14.619 E94.3168
G1 X-13.241 Y14.183 E94.3329
G1 X-16.321 Y8.392 E94.5510
G1 X-16.744 Y7.499 E94.5839
G1 X-21.053 Y-0.906 E94.8980
G1 X-19.209 Y-3.915 E95.0154
G1 X-18.940 Y-4.310 E95.0313
G1 X-15.453 Y-9.889 E95.2501
G1 X-14.890 Y-10.706 E95.2831
G1 X-9.772 Y-18.631 E95.5969
G1 X-5.484 Y-18.517 E95.7396
G1 X-5.124 Y-18.485 E95.7516
G1 X1.784 Y-18.239 E95.9815
G1 X2.969 Y-18.144 E96.0210
G1 X11.347 Y-17.721 E96.3001
G1 X13.032 Y-14.619 E96.4175
G1 X13.241 Y-14.184 E96.4335
G1 X16.330 Y-8.374 E96.6524
G1 X16.879 Y-7.237 E96.6944
G1 X21.054 Y0.905 E96.9987
G1 X19.188 Y3.953 E97.1175
G1 X18.952 Y4.292 E97.1313
G1 X15.453 Y9.889 E97.3508
G1 X14.891 Y10.706 E97.3838
G1 X9.772 Y18.631 E97.6976
G1 X5.485 Y18.517 E97.8402
G1 X5.148 Y18.090 E97.8583
G1 X-1.762 Y17.843 E98.0883
G1 X-2.944 Y17.748 E98.1277
G1 X-11.110 Y17.336 E98.3997
