; generated by Slic3r 1.2.9 on 2016-05-11 at 13:25:01

; external perimeters extrusion width = 0.40mm
; perimeters extrusion width = 0.67mm
; infill extrusion width = 0.67mm
; solid infill extrusion width = 0.67mm
; top infill extrusion width = 0.67mm
; support material extrusion width = 0.40mm

M107
M104 S210 ; set temperature
G28 ; home all axes
G1 X70Y70Z10 F5000 
M109 S210 ; wait for temperature to be reached
G21 ; set units to millimeters
G90 ; use absolute coordinates
M82 ; use absolute distances for extrusion
G92 E0
G1 E-2.00000 F4800.00000
G92 E0
G1 Z1.000 F3600.000
G1 X-0.288 Y40.675 F3600.000
G1 Z0.300 F3600.000
G1 E2.00000 F4800.00000
G1 X-3.071 Y40.634 E2.14541 F1200.000
G1 X-4.625 Y40.579 E2.22668
G1 X-7.726 Y40.405 E2.38896
G1 X-10.811 Y40.143 E2.55072
G1 X-13.874 Y39.794 E2.71175
G1 X-16.998 Y39.345 E2.87665
G1 X-19.996 Y38.821 E3.03564
G1 X-22.952 Y38.211 E3.19332
G1 X-25.860 Y37.518 E3.34951
G1 X-28.614 Y36.769 E3.49864
G1 X-30.017 Y36.351 E3.57511
G1 X-32.774 Y35.456 E3.72656
G1 X-35.462 Y34.480 E3.87597
G1 X-36.778 Y33.962 E3.94987
G1 X-38.075 Y33.424 E4.02321
G1 X-39.352 Y32.867 E4.09596
G1 X-40.607 Y32.291 E4.16813
G1 X-41.841 Y31.696 E4.23971
G1 X-43.053 Y31.082 E4.31070
G1 X-44.242 Y30.448 E4.38109
G1 X-45.408 Y29.796 E4.45088
G1 X-46.550 Y29.125 E4.52008
G1 X-47.667 Y28.436 E4.58866
G1 X-48.759 Y27.728 E4.65663
G1 X-49.824 Y27.002 E4.72399
G1 X-50.863 Y26.259 E4.79074
G1 X-51.875 Y25.497 E4.85690
G1 X-52.859 Y24.717 E4.92250
G1 X-53.814 Y23.919 E4.98753
G1 X-54.741 Y23.104 E5.05203
G1 X-55.638 Y22.271 E5.11596
G1 X-56.503 Y21.420 E5.17936
G1 X-57.338 Y20.553 E5.24223
G1 X-58.140 Y19.669 E5.30462
G1 X-58.909 Y18.767 E5.36655
G1 X-59.646 Y17.849 E5.42804
G1 X-60.347 Y16.913 E5.48913
G1 X-61.132 Y15.785 E5.56092
G1 X-61.759 Y14.809 E5.62153
G1 X-62.348 Y13.817 E5.68180
G1 X-62.898 Y12.811 E5.74173
G1 X-63.409 Y11.789 E5.80140
G1 X-63.879 Y10.754 E5.86081
G1 X-64.307 Y9.705 E5.92001
G1 X-64.612 Y8.878 E5.96603
G1 X-64.962 Y7.813 E6.02463
G1 X-65.269 Y6.737 E6.08307
G1 X-65.530 Y5.652 E6.14138
G1 X-65.747 Y4.559 E6.19959
G1 X-65.917 Y3.460 E6.25772
G1 X-66.041 Y2.355 E6.31580
G1 X-66.118 Y1.246 E6.37388
G1 X-66.147 Y-0.134 E6.44597
G1 X-66.118 Y-1.246 E6.50407
G1 X-66.064 Y-2.090 E6.54827
G1 X-65.951 Y-3.198 E6.60645
G1 X-65.791 Y-4.301 E6.66470
G1 X-65.585 Y-5.399 E6.72305
G1 X-65.333 Y-6.489 E6.78151
G1 X-65.035 Y-7.571 E6.84013
G1 X-64.693 Y-8.643 E6.89893
G1 X-64.219 Y-9.932 E6.97067
G1 X-63.784 Y-10.972 E7.02960
G1 X-63.308 Y-11.999 E7.08873
G1 X-62.792 Y-13.012 E7.14811
G1 X-62.237 Y-14.010 E7.20777
G1 X-61.644 Y-14.993 E7.26776
G1 X-61.014 Y-15.961 E7.32809
G1 X-60.347 Y-16.913 E7.38882
G1 X-59.768 Y-17.690 E7.43943
G1 X-59.033 Y-18.617 E7.50122
G1 X-58.265 Y-19.526 E7.56344
G1 X-57.463 Y-20.418 E7.62611
G1 X-56.629 Y-21.293 E7.68926
G1 X-55.763 Y-22.150 E7.75291
G1 X-54.866 Y-22.990 E7.81708
G1 X-53.940 Y-23.812 E7.88181
G1 X-52.983 Y-24.616 E7.94710
G1 X-51.998 Y-25.402 E8.01293
G1 X-50.985 Y-26.169 E8.07933
G1 X-49.944 Y-26.918 E8.14630
G1 X-48.878 Y-27.649 E8.21385
G1 X-47.785 Y-28.361 E8.28200
G1 X-46.550 Y-29.125 E8.35787
G1 X-45.408 Y-29.796 E8.42707
G1 X-44.242 Y-30.448 E8.49686
G1 X-43.053 Y-31.081 E8.56725
G1 X-41.841 Y-31.696 E8.63824
G1 X-40.607 Y-32.291 E8.70982
G1 X-39.352 Y-32.867 E8.78199
G1 X-38.075 Y-33.424 E8.85474
G1 X-36.779 Y-33.962 E8.92808
G1 X-35.462 Y-34.480 E9.00198
G1 X-34.127 Y-34.978 E9.07642
G1 X-31.404 Y-35.914 E9.22686
G1 X-28.614 Y-36.769 E9.37930
G1 X-25.860 Y-37.518 E9.52844
G1 X-24.412 Y-37.875 E9.60633
G1 X-21.479 Y-38.527 E9.76329
G1 X-18.502 Y-39.093 E9.92165
G1 X-15.485 Y-39.574 E10.08124
G1 X-12.346 Y-39.980 E10.24662
G1 X-9.271 Y-40.285 E10.40804
G1 X-6.177 Y-40.503 E10.57008
G1 X-3.070 Y-40.634 E10.73257
G1 X-1.513 Y-40.666 E10.81391
G1 X1.436 Y-40.667 E10.96800
G1 X4.625 Y-40.579 E11.13468 F1200.000
G1 X7.726 Y-40.405 E11.29697
G1 X10.901 Y-40.134 E11.46343
G1 X13.964 Y-39.783 E11.62453
G1 X15.485 Y-39.574 E11.70473
G1 X18.335 Y-39.122 E11.85549
G1 X21.386 Y-38.546 E12.01769
G1 X24.317 Y-37.898 E12.17451
G1 X27.196 Y-37.166 E12.32973
G1 X28.614 Y-36.769 E12.40666
G1 X30.116 Y-36.321 E12.48853
G1 X32.876 Y-35.421 E12.64018
G1 X34.230 Y-34.940 E12.71525
G1 X35.566 Y-34.440 E12.78982
G1 X36.884 Y-33.919 E12.86383
G1 X38.182 Y-33.379 E12.93727
G1 X39.459 Y-32.819 E13.01015
G1 X40.716 Y-32.240 E13.08245
G1 X41.951 Y-31.641 E13.15417
G1 X43.165 Y-31.023 E13.22531
G1 X44.242 Y-30.448 E13.28911
G1 X45.408 Y-29.796 E13.35890
G1 X46.550 Y-29.125 E13.42810
G1 X47.667 Y-28.436 E13.49668
G1 X48.759 Y-27.728 E13.56465
G1 X49.824 Y-27.002 E13.63200
G1 X50.863 Y-26.259 E13.69876
G1 X51.875 Y-25.497 E13.76492
G1 X52.859 Y-24.717 E13.83052
G1 X53.815 Y-23.919 E13.89555
G1 X54.741 Y-23.104 E13.96005
G1 X55.638 Y-22.270 E14.02400
G1 X56.503 Y-21.420 E14.08737
G1 X57.338 Y-20.553 E14.15025
G1 X58.140 Y-19.669 E14.21264
G1 X58.909 Y-18.767 E14.27456
G1 X59.646 Y-17.849 E14.33607
G1 X60.347 Y-16.913 E14.39716
G1 X61.132 Y-15.785 E14.46894
G1 X61.759 Y-14.809 E14.52955
G1 X62.348 Y-13.817 E14.58981
G1 X62.898 Y-12.810 E14.64976
G1 X63.409 Y-11.789 E14.70942
G1 X63.879 Y-10.754 E14.76882
G1 X64.307 Y-9.705 E14.82800
G1 X64.612 Y-8.878 E14.87404
G1 X64.962 Y-7.812 E14.93266
G1 X65.269 Y-6.737 E14.99109
G1 X65.530 Y-5.652 E15.04941
G1 X65.747 Y-4.559 E15.10762
G1 X65.917 Y-3.460 E15.16573
G1 X66.041 Y-2.355 E15.22382
G1 X66.118 Y-1.246 E15.28190
G1 X66.147 Y0.134 E15.35399
G1 X66.129 Y0.979 E15.39817
G1 X66.064 Y2.090 E15.45628
G1 X65.951 Y3.198 E15.51448
G1 X65.791 Y4.301 E15.57273
G1 X65.585 Y5.399 E15.63107
G1 X65.333 Y6.489 E15.68953
G1 X65.035 Y7.571 E15.74815
G1 X64.693 Y8.643 E15.80695
G1 X64.219 Y9.932 E15.87869
G1 X63.784 Y10.972 E15.93761
G1 X63.308 Y11.999 E15.99675
G1 X62.792 Y13.012 E16.05613
G1 X62.237 Y14.010 E16.11578
G1 X61.644 Y14.993 E16.17576
G1 X61.014 Y15.961 E16.23612
G1 X60.347 Y16.913 E16.29684
G1 X59.768 Y17.690 E16.34745
G1 X59.033 Y18.617 E16.40925
G1 X58.265 Y19.526 E16.47146
G1 X57.463 Y20.418 E16.53413
G1 X56.629 Y21.293 E16.59728
G1 X55.763 Y22.150 E16.66093
G1 X54.866 Y22.990 E16.72510
G1 X53.939 Y23.812 E16.78982
G1 X52.983 Y24.616 E16.85512
G1 X51.998 Y25.402 E16.92095
G1 X50.985 Y26.169 E16.98735
G1 X49.944 Y26.918 E17.05432
G1 X48.878 Y27.649 E17.12187
G1 X47.785 Y28.361 E17.19002
G1 X46.667 Y29.055 E17.25877
G1 X45.523 Y29.730 E17.32814
G1 X44.356 Y30.386 E17.39811
G1 X43.165 Y31.023 E17.46867
G1 X41.951 Y31.641 E17.53982
G1 X40.716 Y32.240 E17.61154
G1 X39.459 Y32.819 E17.68384
G1 X38.182 Y33.379 E17.75672
G1 X36.884 Y33.919 E17.83017
G1 X35.566 Y34.440 E17.90417
G1 X34.230 Y34.940 E17.97873
G1 X31.504 Y35.881 E18.12939
G1 X28.712 Y36.741 E18.28200
G1 X27.293 Y37.139 E18.35901
G1 X25.764 Y37.542 E18.44164
G1 X22.857 Y38.232 E18.59770
G1 X19.903 Y38.838 E18.75526
G1 X16.907 Y39.359 E18.91416
G1 X13.964 Y39.783 E19.06946
G1 X12.436 Y39.969 E19.14990
G1 X9.361 Y40.277 E19.31138
G1 X6.177 Y40.503 E19.47811
G1 X3.071 Y40.634 E19.64056
G1 X1.514 Y40.666 E19.72192
G1 X-0.228 Y40.675 E19.81290
G1 X-0.285 Y40.256 F3600.000
G1 X-3.062 Y40.215 E19.95799 F1200.000
G1 X-4.610 Y40.161 E20.03896
G1 X-7.700 Y39.987 E20.20062
G1 X-10.773 Y39.726 E20.36175
G1 X-13.823 Y39.379 E20.52215
G1 X-16.844 Y38.945 E20.68158
G1 X-19.828 Y38.426 E20.83983
G1 X-22.770 Y37.823 E20.99672
G1 X-25.663 Y37.135 E21.15209
G1 X-27.089 Y36.761 E21.22913
G1 X-28.592 Y36.339 E21.31068
G1 X-31.371 Y35.484 E21.46257
G1 X-34.083 Y34.548 E21.61246
G1 X-35.413 Y34.050 E21.68663
G1 X-36.723 Y33.532 E21.76024
G1 X-38.014 Y32.995 E21.83329
G1 X-39.284 Y32.439 E21.90575
G1 X-40.534 Y31.863 E21.97763
G1 X-41.762 Y31.268 E22.04892
G1 X-42.968 Y30.654 E22.11962
G1 X-44.151 Y30.021 E22.18973
G1 X-45.311 Y29.369 E22.25924
G1 X-46.446 Y28.699 E22.32813
G1 X-47.557 Y28.010 E22.39639
G1 X-48.641 Y27.303 E22.46404
G1 X-49.700 Y26.578 E22.53108
G1 X-50.732 Y25.835 E22.59752
G1 X-51.737 Y25.074 E22.66338
G1 X-52.714 Y24.295 E22.72865
G1 X-53.662 Y23.498 E22.79337
G1 X-54.581 Y22.684 E22.85750
G1 X-55.469 Y21.852 E22.92106
G1 X-56.326 Y21.003 E22.98409
G1 X-57.152 Y20.138 E23.04659
G1 X-57.945 Y19.255 E23.10860
G1 X-58.706 Y18.356 E23.17013
G1 X-59.432 Y17.439 E23.23123
G1 X-60.124 Y16.506 E23.29192
G1 X-60.780 Y15.558 E23.35217
G1 X-61.399 Y14.594 E23.41202
G1 X-61.981 Y13.615 E23.47150
G1 X-62.524 Y12.622 E23.53064
G1 X-63.028 Y11.615 E23.58949
G1 X-63.492 Y10.594 E23.64807
G1 X-63.914 Y9.560 E23.70642
G1 X-64.219 Y8.733 E23.75243
G1 X-64.564 Y7.684 E23.81017
G1 X-64.865 Y6.624 E23.86773
G1 X-65.123 Y5.556 E23.92514
G1 X-65.335 Y4.480 E23.98244
G1 X-65.503 Y3.397 E24.03965
G1 X-65.624 Y2.310 E24.09682
G1 X-65.700 Y1.219 E24.15397
G1 X-65.728 Y-0.125 E24.22419
G1 X-65.700 Y-1.219 E24.28135
G1 X-65.645 Y-2.063 E24.32556
G1 X-65.534 Y-3.153 E24.38280
G1 X-65.377 Y-4.239 E24.44013
G1 X-65.173 Y-5.319 E24.49756
G1 X-64.925 Y-6.393 E24.55512
G1 X-64.632 Y-7.458 E24.61284
G1 X-64.295 Y-8.514 E24.67076
G1 X-63.832 Y-9.772 E24.74078
G1 X-63.403 Y-10.798 E24.79887
G1 X-62.934 Y-11.810 E24.85719
G1 X-62.425 Y-12.810 E24.91577
G1 X-61.878 Y-13.795 E24.97466
G1 X-61.292 Y-14.766 E25.03388
G1 X-60.670 Y-15.722 E25.09347
G1 X-60.012 Y-16.663 E25.15348
G1 X-59.432 Y-17.439 E25.20409
G1 X-58.706 Y-18.355 E25.26518
G1 X-57.945 Y-19.255 E25.32672
G1 X-57.152 Y-20.138 E25.38873
G1 X-56.326 Y-21.003 E25.45123
G1 X-55.469 Y-21.852 E25.51425
G1 X-54.581 Y-22.684 E25.57782
G1 X-53.662 Y-23.498 E25.64195
G1 X-52.714 Y-24.295 E25.70667
G1 X-51.737 Y-25.074 E25.77194
G1 X-50.732 Y-25.835 E25.83780
G1 X-49.700 Y-26.578 E25.90424
G1 X-48.641 Y-27.303 E25.97128
G1 X-47.557 Y-28.010 E26.03892
G1 X-46.337 Y-28.764 E26.11383
G1 X-45.203 Y-29.431 E26.18256
G1 X-44.045 Y-30.079 E26.25190
G1 X-42.863 Y-30.708 E26.32185
G1 X-41.659 Y-31.319 E26.39241
G1 X-40.432 Y-31.911 E26.46356
G1 X-39.184 Y-32.484 E26.53532
G1 X-37.915 Y-33.037 E26.60767
G1 X-36.625 Y-33.572 E26.68061
G1 X-35.315 Y-34.087 E26.75412
G1 X-33.987 Y-34.583 E26.82818
G1 X-31.278 Y-35.514 E26.97788
G1 X-28.501 Y-36.366 E27.12960
G1 X-25.753 Y-37.113 E27.27839
G1 X-24.312 Y-37.468 E27.35593
G1 X-21.392 Y-38.117 E27.51221
G1 X-18.427 Y-38.681 E27.66991
G1 X-15.423 Y-39.160 E27.82884
G1 X-12.301 Y-39.563 E27.99327
G1 X-9.239 Y-39.867 E28.15406
G1 X-6.157 Y-40.085 E28.31548
G1 X-3.061 Y-40.215 E28.47734
G1 X-1.511 Y-40.247 E28.55838
G1 X1.433 Y-40.248 E28.71216
G1 X4.610 Y-40.161 E28.87822 F1200.000
G1 X7.700 Y-39.987 E29.03989
G1 X10.857 Y-39.718 E29.20541
G1 X13.908 Y-39.368 E29.36587
G1 X15.423 Y-39.160 E29.44575
G1 X18.341 Y-38.696 E29.60014
G1 X21.305 Y-38.135 E29.75773
G1 X24.223 Y-37.489 E29.91388
G1 X27.090 Y-36.761 E30.06841
G1 X28.501 Y-36.365 E30.14499
G1 X29.990 Y-35.922 E30.22614
G1 X32.736 Y-35.026 E30.37705
G1 X35.413 Y-34.050 E30.52591
G1 X36.723 Y-33.532 E30.59952
G1 X38.014 Y-32.995 E30.67256
G1 X39.284 Y-32.438 E30.74502
G1 X40.534 Y-31.863 E30.81691
G1 X41.762 Y-31.268 E30.88819
G1 X42.968 Y-30.654 E30.95889
G1 X44.045 Y-30.079 E31.02269
G1 X45.203 Y-29.431 E31.09203
G1 X46.337 Y-28.764 E31.16076
G1 X47.447 Y-28.079 E31.22887
G1 X48.530 Y-27.377 E31.29634
G1 X49.588 Y-26.656 E31.36319
G1 X50.619 Y-25.918 E31.42944
G1 X51.622 Y-25.163 E31.49508
G1 X52.598 Y-24.389 E31.56013
G1 X53.546 Y-23.598 E31.62460
G1 X54.464 Y-22.790 E31.68852
G1 X55.352 Y-21.964 E31.75188
G1 X56.209 Y-21.122 E31.81465
G1 X57.035 Y-20.263 E31.87690
G1 X57.829 Y-19.388 E31.93865
G1 X58.590 Y-18.496 E31.99991
G1 X59.318 Y-17.587 E32.06073
G1 X60.012 Y-16.663 E32.12112
G1 X60.780 Y-15.558 E32.19144
G1 X61.399 Y-14.594 E32.25129
G1 X61.981 Y-13.615 E32.31077
G1 X62.524 Y-12.622 E32.36993
G1 X63.028 Y-11.614 E32.42877
G1 X63.492 Y-10.594 E32.48733
G1 X63.914 Y-9.560 E32.54566
G1 X64.219 Y-8.733 E32.59170
G1 X64.564 Y-7.683 E32.64945
G1 X64.865 Y-6.624 E32.70700
G1 X65.123 Y-5.555 E32.76442
G1 X65.335 Y-4.479 E32.82172
G1 X65.503 Y-3.397 E32.87892
G1 X65.624 Y-2.310 E32.93609
G1 X65.700 Y-1.219 E32.99324
G1 X65.728 Y0.125 E33.06346
G1 X65.710 Y0.970 E33.10764
G1 X65.646 Y2.063 E33.16482
G1 X65.534 Y3.153 E33.22208
G1 X65.377 Y4.239 E33.27941
G1 X65.173 Y5.319 E33.33683
G1 X64.925 Y6.393 E33.39439
G1 X64.632 Y7.458 E33.45211
G1 X64.295 Y8.514 E33.51003
G1 X63.832 Y9.772 E33.58005
G1 X63.403 Y10.798 E33.63814
G1 X62.934 Y11.811 E33.69646
G1 X62.425 Y12.810 E33.75504
G1 X61.878 Y13.795 E33.81392
G1 X61.293 Y14.766 E33.87313
G1 X60.670 Y15.722 E33.93275
G1 X60.012 Y16.663 E33.99275
G1 X59.432 Y17.439 E34.04336
G1 X58.706 Y18.356 E34.10446
G1 X57.945 Y19.255 E34.16599
G1 X57.152 Y20.138 E34.22800
G1 X56.326 Y21.003 E34.29050
G1 X55.469 Y21.852 E34.35353
G1 X54.581 Y22.684 E34.41709
G1 X53.662 Y23.498 E34.48122
G1 X52.714 Y24.295 E34.54594
G1 X51.737 Y25.074 E34.61122
G1 X50.732 Y25.835 E34.67707
G1 X49.700 Y26.578 E34.74351
G1 X48.641 Y27.303 E34.81055
G1 X47.557 Y28.010 E34.87820
G1 X46.446 Y28.699 E34.94646
G1 X45.311 Y29.369 E35.01535
G1 X44.151 Y30.021 E35.08486
G1 X42.968 Y30.654 E35.15497
G1 X41.762 Y31.268 E35.22567
G1 X40.534 Y31.863 E35.29696
G1 X39.284 Y32.439 E35.36884
G1 X38.014 Y32.995 E35.44130
G1 X36.723 Y33.532 E35.51435
G1 X35.413 Y34.050 E35.58796
G1 X34.083 Y34.548 E35.66213
G1 X31.371 Y35.484 E35.81202
G1 X28.592 Y36.339 E35.96391
G1 X27.089 Y36.761 E36.04546
G1 X25.663 Y37.135 E36.12249
G1 X22.770 Y37.823 E36.27787
G1 X19.828 Y38.426 E36.43476
G1 X16.844 Y38.945 E36.59301
G1 X13.908 Y39.368 E36.74799
G1 X12.385 Y39.554 E36.82811
G1 X9.322 Y39.860 E36.98897
G1 X6.157 Y40.085 E37.15475
G1 X3.062 Y40.215 E37.31659
G1 X1.511 Y40.247 E37.39764
G1 X-0.225 Y40.256 E37.48831
G1 X-0.282 Y39.837 F3600.000
G1 X-3.053 Y39.796 E37.63309 F1200.000
G1 X-4.596 Y39.742 E37.71375
G1 X-7.673 Y39.569 E37.87479
G1 X-10.734 Y39.309 E38.03529
G1 X-13.773 Y38.963 E38.19506
G1 X-16.860 Y38.518 E38.35804
G1 X-19.833 Y37.999 E38.51572
G1 X-22.764 Y37.395 E38.67205
G1 X-25.646 Y36.707 E38.82686
G1 X-27.067 Y36.333 E38.90361
G1 X-29.778 Y35.549 E39.05104
G1 X-32.508 Y34.661 E39.20104
G1 X-35.169 Y33.695 E39.34893
G1 X-36.471 Y33.182 E39.42205
G1 X-37.754 Y32.651 E39.49459
G1 X-39.016 Y32.100 E39.56654
G1 X-40.257 Y31.530 E39.63788
G1 X-41.476 Y30.942 E39.70861
G1 X-42.673 Y30.335 E39.77874
G1 X-43.847 Y29.709 E39.84824
G1 X-44.998 Y29.065 E39.91713
G1 X-46.125 Y28.403 E39.98540
G1 X-47.226 Y27.723 E40.05303
G1 X-48.405 Y26.957 E40.12649
G1 X-49.456 Y26.238 E40.19301
G1 X-50.480 Y25.501 E40.25893
G1 X-51.476 Y24.746 E40.32424
G1 X-52.445 Y23.974 E40.38895
G1 X-53.385 Y23.184 E40.45309
G1 X-54.295 Y22.377 E40.51663
G1 X-55.175 Y21.554 E40.57959
G1 X-56.024 Y20.714 E40.64199
G1 X-56.841 Y19.857 E40.70385
G1 X-57.626 Y18.984 E40.76520
G1 X-58.378 Y18.094 E40.82605
G1 X-59.097 Y17.189 E40.88644
G1 X-59.780 Y16.267 E40.94640
G1 X-60.326 Y15.483 E40.99633
G1 X-60.941 Y14.538 E41.05519
G1 X-61.518 Y13.580 E41.11365
G1 X-62.058 Y12.608 E41.17176
G1 X-62.560 Y11.622 E41.22954
G1 X-63.022 Y10.623 E41.28705
G1 X-63.444 Y9.612 E41.34430
G1 X-63.826 Y8.589 E41.40135
G1 X-64.228 Y7.345 E41.46964
G1 X-64.517 Y6.296 E41.52646
G1 X-64.762 Y5.240 E41.58311
G1 X-64.962 Y4.177 E41.63963
G1 X-65.118 Y3.109 E41.69603
G1 X-65.227 Y2.036 E41.75235
G1 X-65.292 Y0.961 E41.80864
G1 X-65.310 Y0.116 E41.85278
G1 X-65.292 Y-0.961 E41.90905
G1 X-65.208 Y-2.265 E41.97735
G1 X-65.089 Y-3.335 E42.03360
G1 X-64.924 Y-4.400 E42.08990
G1 X-64.715 Y-5.459 E42.14629
G1 X-64.462 Y-6.511 E42.20281
G1 X-64.165 Y-7.554 E42.25948
G1 X-63.826 Y-8.589 E42.31635
G1 X-63.444 Y-9.612 E42.37339
G1 X-63.105 Y-10.434 E42.41986
G1 X-62.647 Y-11.440 E42.47760
G1 X-62.150 Y-12.433 E42.53563
G1 X-61.614 Y-13.413 E42.59398
G1 X-61.040 Y-14.379 E42.65269
G1 X-60.429 Y-15.330 E42.71178
G1 X-59.781 Y-16.267 E42.77129
G1 X-59.097 Y-17.189 E42.83125
G1 X-58.378 Y-18.094 E42.89164
G1 X-57.626 Y-18.984 E42.95250
G1 X-56.841 Y-19.857 E43.01384
G1 X-56.024 Y-20.714 E43.07570
G1 X-55.175 Y-21.554 E43.13810
G1 X-54.295 Y-22.377 E43.20106
G1 X-53.385 Y-23.184 E43.26460
G1 X-52.445 Y-23.974 E43.32874
G1 X-51.476 Y-24.746 E43.39346
G1 X-50.480 Y-25.501 E43.45877
G1 X-49.456 Y-26.238 E43.52468
G1 X-48.405 Y-26.957 E43.59120
