; generated by Slic3r 1.2.9 on 2016-05-11 at 13:33:01

; external perimeters extrusion width = 0.40mm
; perimeters extrusion width = 0.67mm
; infill extrusion width = 0.67mm
; solid infill extrusion width = 0.67mm
; top infill extrusion width = 0.67mm
; support material extrusion width = 0.40mm

M107
M104 S210 ; set temperature
G28 ; home all axes
G1 X70Y70Z10 F5000 
M109 S210 ; wait for temperature to be reached
G21 ; set units to millimeters
G90 ; use absolute coordinates
M82 ; use absolute distances for extrusion
G92 E0
G1 E-4.00000 F4800.00000
G92 E0
G1 Z1.000 F3600.000
G1 X-0.288 Y40.675 F3600.000
G1 Z0.300 F3600.000
G1 E4.00000 F4800.00000
G1 X-3.071 Y40.634 E4.14541 F1200.000
G1 X-4.625 Y40.579 E4.22668
G1 X-7.726 Y40.405 E4.38896
G1 X-10.811 Y40.143 E4.55072
G1 X-13.874 Y39.794 E4.71175
G1 X-16.998 Y39.345 E4.87665
G1 X-19.996 Y38.821 E5.03564
G1 X-22.952 Y38.211 E5.19332
G1 X-25.860 Y37.518 E5.34951
G1 X-28.614 Y36.769 E5.49864
G1 X-30.017 Y36.351 E5.57511
G1 X-32.774 Y35.456 E5.72656
G1 X-35.462 Y34.480 E5.87597
G1 X-36.778 Y33.962 E5.94987
G1 X-38.075 Y33.424 E6.02321
G1 X-39.352 Y32.867 E6.09596
G1 X-40.607 Y32.291 E6.16813
G1 X-41.841 Y31.696 E6.23971
G1 X-43.053 Y31.082 E6.31070
G1 X-44.242 Y30.448 E6.38109
G1 X-45.408 Y29.796 E6.45088
G1 X-46.550 Y29.125 E6.52008
G1 X-47.667 Y28.436 E6.58866
G1 X-48.759 Y27.728 E6.65663
G1 X-49.824 Y27.002 E6.72399
G1 X-50.863 Y26.259 E6.79074
G1 X-51.875 Y25.497 E6.85690
G1 X-52.859 Y24.717 E6.92250
G1 X-53.814 Y23.919 E6.98753
G1 X-54.741 Y23.104 E7.05203
G1 X-55.638 Y22.271 E7.11596
G1 X-56.503 Y21.420 E7.17936
G1 X-57.338 Y20.553 E7.24223
G1 X-58.140 Y19.669 E7.30462
G1 X-58.909 Y18.767 E7.36655
G1 X-59.646 Y17.849 E7.42804
G1 X-60.347 Y16.913 E7.48913
G1 X-61.132 Y15.785 E7.56092
G1 X-61.759 Y14.809 E7.62153
G1 X-62.348 Y13.817 E7.68180
G1 X-62.898 Y12.811 E7.74173
G1 X-63.409 Y11.789 E7.80140
G1 X-63.879 Y10.754 E7.86081
G1 X-64.307 Y9.705 E7.92001
G1 X-64.612 Y8.878 E7.96603
G1 X-64.962 Y7.813 E8.02463
G1 X-65.269 Y6.737 E8.08307
G1 X-65.530 Y5.652 E8.14138
G1 X-65.747 Y4.559 E8.19959
G1 X-65.917 Y3.460 E8.25772
G1 X-66.041 Y2.355 E8.31580
G1 X-66.118 Y1.246 E8.37388
G1 X-66.147 Y-0.134 E8.44597
G1 X-66.118 Y-1.246 E8.50407
G1 X-66.064 Y-2.090 E8.54827
G1 X-65.951 Y-3.198 E8.60645
G1 X-65.791 Y-4.301 E8.66470
G1 X-65.585 Y-5.399 E8.72305
G1 X-65.333 Y-6.489 E8.78151
G1 X-65.035 Y-7.571 E8.84013
G1 X-64.693 Y-8.643 E8.89893
G1 X-64.219 Y-9.932 E8.97067
G1 X-63.784 Y-10.972 E9.02960
G1 X-63.308 Y-11.999 E9.08873
G1 X-62.792 Y-13.012 E9.14811
G1 X-62.237 Y-14.010 E9.20777
G1 X-61.644 Y-14.993 E9.26776
G1 X-61.014 Y-15.961 E9.32809
G1 X-60.347 Y-16.913 E9.38882
G1 X-59.768 Y-17.690 E9.43943
G1 X-59.033 Y-18.617 E9.50122
G1 X-58.265 Y-19.526 E9.56344
G1 X-57.463 Y-20.418 E9.62611
G1 X-56.629 Y-21.293 E9.68926
G1 X-55.763 Y-22.150 E9.75291
G1 X-54.866 Y-22.990 E9.81708
G1 X-53.940 Y-23.812 E9.88181
G1 X-52.983 Y-24.616 E9.94710
G1 X-51.998 Y-25.402 E10.01293
G1 X-50.985 Y-26.169 E10.07933
G1 X-49.944 Y-26.918 E10.14630
G1 X-48.878 Y-27.649 E10.21385
G1 X-47.785 Y-28.361 E10.28200
G1 X-46.550 Y-29.125 E10.35787
G1 X-45.408 Y-29.796 E10.42707
G1 X-44.242 Y-30.448 E10.49686
G1 X-43.053 Y-31.081 E10.56725
G1 X-41.841 Y-31.696 E10.63824
G1 X-40.607 Y-32.291 E10.70982
G1 X-39.352 Y-32.867 E10.78199
G1 X-38.075 Y-33.424 E10.85474
G1 X-36.779 Y-33.962 E10.92808
G1 X-35.462 Y-34.480 E11.00198
G1 X-34.127 Y-34.978 E11.07642
G1 X-31.404 Y-35.914 E11.22686
G1 X-28.614 Y-36.769 E11.37930
G1 X-25.860 Y-37.518 E11.52844
G1 X-24.412 Y-37.875 E11.60633
G1 X-21.479 Y-38.527 E11.76329
G1 X-18.502 Y-39.093 E11.92165
G1 X-15.485 Y-39.574 E12.08124
G1 X-12.346 Y-39.980 E12.24662
G1 X-9.271 Y-40.285 E12.40804
G1 X-6.177 Y-40.503 E12.57008
G1 X-3.070 Y-40.634 E12.73257
G1 X-1.513 Y-40.666 E12.81391
G1 X1.436 Y-40.667 E12.96800
G1 X4.625 Y-40.579 E13.13468 F1200.000
G1 X7.726 Y-40.405 E13.29697
G1 X10.901 Y-40.134 E13.46343
G1 X13.964 Y-39.783 E13.62453
G1 X15.485 Y-39.574 E13.70473
G1 X18.335 Y-39.122 E13.85549
G1 X21.386 Y-38.546 E14.01769
G1 X24.317 Y-37.898 E14.17451
G1 X27.196 Y-37.166 E14.32973
G1 X28.614 Y-36.769 E14.40666
G1 X30.116 Y-36.321 E14.48853
G1 X32.876 Y-35.421 E14.64018
G1 X34.230 Y-34.940 E14.71525
G1 X35.566 Y-34.440 E14.78982
G1 X36.884 Y-33.919 E14.86383
G1 X38.182 Y-33.379 E14.93727
G1 X39.459 Y-32.819 E15.01015
G1 X40.716 Y-32.240 E15.08245
G1 X41.951 Y-31.641 E15.15417
G1 X43.165 Y-31.023 E15.22531
G1 X44.242 Y-30.448 E15.28911
G1 X45.408 Y-29.796 E15.35890
G1 X46.550 Y-29.125 E15.42810
G1 X47.667 Y-28.436 E15.49668
G1 X48.759 Y-27.728 E15.56465
G1 X49.824 Y-27.002 E15.63200
G1 X50.863 Y-26.259 E15.69876
G1 X51.875 Y-25.497 E15.76492
G1 X52.859 Y-24.717 E15.83052
G1 X53.815 Y-23.919 E15.89555
G1 X54.741 Y-23.104 E15.96005
G1 X55.638 Y-22.270 E16.02400
G1 X56.503 Y-21.420 E16.08737
G1 X57.338 Y-20.553 E16.15025
G1 X58.140 Y-19.669 E16.21264
G1 X58.909 Y-18.767 E16.27456
G1 X59.646 Y-17.849 E16.33607
G1 X60.347 Y-16.913 E16.39716
G1 X61.132 Y-15.785 E16.46894
G1 X61.759 Y-14.809 E16.52955
G1 X62.348 Y-13.817 E16.58981
G1 X62.898 Y-12.810 E16.64976
G1 X63.409 Y-11.789 E16.70942
G1 X63.879 Y-10.754 E16.76882
G1 X64.307 Y-9.705 E16.82800
G1 X64.612 Y-8.878 E16.87404
G1 X64.962 Y-7.812 E16.93266
G1 X65.269 Y-6.737 E16.99109
G1 X65.530 Y-5.652 E17.04941
G1 X65.747 Y-4.559 E17.10762
G1 X65.917 Y-3.460 E17.16573
G1 X66.041 Y-2.355 E17.22382
G1 X66.118 Y-1.246 E17.28190
G1 X66.147 Y0.134 E17.35399
G1 X66.129 Y0.979 E17.39817
G1 X66.064 Y2.090 E17.45628
G1 X65.951 Y3.198 E17.51448
G1 X65.791 Y4.301 E17.57273
G1 X65.585 Y5.399 E17.63107
G1 X65.333 Y6.489 E17.68953
G1 X65.035 Y7.571 E17.74815
G1 X64.693 Y8.643 E17.80695
G1 X64.219 Y9.932 E17.87869
G1 X63.784 Y10.972 E17.93761
G1 X63.308 Y11.999 E17.99675
G1 X62.792 Y13.012 E18.05613
G1 X62.237 Y14.010 E18.11578
G1 X61.644 Y14.993 E18.17576
G1 X61.014 Y15.961 E18.23612
G1 X60.347 Y16.913 E18.29684
G1 X59.768 Y17.690 E18.34745
G1 X59.033 Y18.617 E18.40925
G1 X58.265 Y19.526 E18.47146
G1 X57.463 Y20.418 E18.53413
G1 X56.629 Y21.293 E18.59728
G1 X55.763 Y22.150 E18.66093
G1 X54.866 Y22.990 E18.72510
G1 X53.939 Y23.812 E18.78982
G1 X52.983 Y24.616 E18.85512
G1 X51.998 Y25.402 E18.92095
G1 X50.985 Y26.169 E18.98735
G1 X49.944 Y26.918 E19.05432
G1 X48.878 Y27.649 E19.12187
G1 X47.785 Y28.361 E19.19002
G1 X46.667 Y29.055 E19.25877
G1 X45.523 Y29.730 E19.32814
G1 X44.356 Y30.386 E19.39811
G1 X43.165 Y31.023 E19.46867
G1 X41.951 Y31.641 E19.53982
G1 X40.716 Y32.240 E19.61154
G1 X39.459 Y32.819 E19.68384
G1 X38.182 Y33.379 E19.75672
G1 X36.884 Y33.919 E19.83017
G1 X35.566 Y34.440 E19.90417
G1 X34.230 Y34.940 E19.97873
G1 X31.504 Y35.881 E20.12939
G1 X28.712 Y36.741 E20.28200
G1 X27.293 Y37.139 E20.35901
G1 X25.764 Y37.542 E20.44164
G1 X22.857 Y38.232 E20.59770
G1 X19.903 Y38.838 E20.75526
G1 X16.907 Y39.359 E20.91416
G1 X13.964 Y39.783 E21.06946
G1 X12.436 Y39.969 E21.14990
G1 X9.361 Y40.277 E21.31138
G1 X6.177 Y40.503 E21.47811
G1 X3.071 Y40.634 E21.64056
G1 X1.514 Y40.666 E21.72192
G1 X-0.228 Y40.675 E21.81290
G1 X-0.285 Y40.256 F3600.000
G1 X-3.062 Y40.215 E21.95799 F1200.000
G1 X-4.610 Y40.161 E22.03896
G1 X-7.700 Y39.987 E22.20062
G1 X-10.773 Y39.726 E22.36175
G1 X-13.823 Y39.379 E22.52215
G1 X-16.844 Y38.945 E22.68158
G1 X-19.828 Y38.426 E22.83983
G1 X-22.770 Y37.823 E22.99672
G1 X-25.663 Y37.135 E23.15209
G1 X-27.089 Y36.761 E23.22913
G1 X-28.592 Y36.339 E23.31068
G1 X-31.371 Y35.484 E23.46257
G1 X-34.083 Y34.548 E23.61246
G1 X-35.413 Y34.050 E23.68663
G1 X-36.723 Y33.532 E23.76024
G1 X-38.014 Y32.995 E23.83329
G1 X-39.284 Y32.439 E23.90575
G1 X-40.534 Y31.863 E23.97763
G1 X-41.762 Y31.268 E24.04892
G1 X-42.968 Y30.654 E24.11962
G1 X-44.151 Y30.021 E24.18973
G1 X-45.311 Y29.369 E24.25924
G1 X-46.446 Y28.699 E24.32813
G1 X-47.557 Y28.010 E24.39639
G1 X-48.641 Y27.303 E24.46404
G1 X-49.700 Y26.578 E24.53108
G1 X-50.732 Y25.835 E24.59752
G1 X-51.737 Y25.074 E24.66338
G1 X-52.714 Y24.295 E24.72865
G1 X-53.662 Y23.498 E24.79337
G1 X-54.581 Y22.684 E24.85750
G1 X-55.469 Y21.852 E24.92106
G1 X-56.326 Y21.003 E24.98409
G1 X-57.152 Y20.138 E25.04659
G1 X-57.945 Y19.255 E25.10860
G1 X-58.706 Y18.356 E25.17013
G1 X-59.432 Y17.439 E25.23123
G1 X-60.124 Y16.506 E25.29192
G1 X-60.780 Y15.558 E25.35217
G1 X-61.399 Y14.594 E25.41202
G1 X-61.981 Y13.615 E25.47150
G1 X-62.524 Y12.622 E25.53064
G1 X-63.028 Y11.615 E25.58949
G1 X-63.492 Y10.594 E25.64807
G1 X-63.914 Y9.560 E25.70642
G1 X-64.219 Y8.733 E25.75243
G1 X-64.564 Y7.684 E25.81017
G1 X-64.865 Y6.624 E25.86773
G1 X-65.123 Y5.556 E25.92514
G1 X-65.335 Y4.480 E25.98244
G1 X-65.503 Y3.397 E26.03965
G1 X-65.624 Y2.310 E26.09682
G1 X-65.700 Y1.219 E26.15397
G1 X-65.728 Y-0.125 E26.22419
G1 X-65.700 Y-1.219 E26.28135
G1 X-65.645 Y-2.063 E26.32556
G1 X-65.534 Y-3.153 E26.38280
G1 X-65.377 Y-4.239 E26.44013
G1 X-65.173 Y-5.319 E26.49756
G1 X-64.925 Y-6.393 E26.55512
G1 X-64.632 Y-7.458 E26.61284
G1 X-64.295 Y-8.514 E26.67076
G1 X-63.832 Y-9.772 E26.74078
G1 X-63.403 Y-10.798 E26.79887
G1 X-62.934 Y-11.810 E26.85719
G1 X-62.425 Y-12.810 E26.91577
G1 X-61.878 Y-13.795 E26.97466
G1 X-61.292 Y-14.766 E27.03388
G1 X-60.670 Y-15.722 E27.09347
G1 X-60.012 Y-16.663 E27.15348
G1 X-59.432 Y-17.439 E27.20409
G1 X-58.706 Y-18.355 E27.26518
G1 X-57.945 Y-19.255 E27.32672
G1 X-57.152 Y-20.138 E27.38873
G1 X-56.326 Y-21.003 E27.45123
G1 X-55.469 Y-21.852 E27.51425
G1 X-54.581 Y-22.684 E27.57782
G1 X-53.662 Y-23.498 E27.64195
G1 X-52.714 Y-24.295 E27.70667
G1 X-51.737 Y-25.074 E27.77194
G1 X-50.732 Y-25.835 E27.83780
G1 X-49.700 Y-26.578 E27.90424
G1 X-48.641 Y-27.303 E27.97128
G1 X-47.557 Y-28.010 E28.03892
G1 X-46.337 Y-28.764 E28.11383
G1 X-45.203 Y-29.431 E28.18256
G1 X-44.045 Y-30.079 E28.25190
G1 X-42.863 Y-30.708 E28.32185
G1 X-41.659 Y-31.319 E28.39241
G1 X-40.432 Y-31.911 E28.46356
G1 X-39.184 Y-32.484 E28.53532
G1 X-37.915 Y-33.037 E28.60767
G1 X-36.625 Y-33.572 E28.68061
G1 X-35.315 Y-34.087 E28.75412
G1 X-33.987 Y-34.583 E28.82818
G1 X-31.278 Y-35.514 E28.97788
G1 X-28.501 Y-36.366 E29.12960
G1 X-25.753 Y-37.113 E29.27839
G1 X-24.312 Y-37.468 E29.35593
G1 X-21.392 Y-38.117 E29.51221
G1 X-18.427 Y-38.681 E29.66991
G1 X-15.423 Y-39.160 E29.82884
G1 X-12.301 Y-39.563 E29.99327
G1 X-9.239 Y-39.867 E30.15406
G1 X-6.157 Y-40.085 E30.31548
G1 X-3.061 Y-40.215 E30.47734
G1 X-1.511 Y-40.247 E30.55838
G1 X1.433 Y-40.248 E30.71216
G1 X4.610 Y-40.161 E30.87822 F1200.000
G1 X7.700 Y-39.987 E31.03989
G1 X10.857 Y-39.718 E31.20541
G1 X13.908 Y-39.368 E31.36587
G1 X15.423 Y-39.160 E31.44575
G1 X18.341 Y-38.696 E31.60014
G1 X21.305 Y-38.135 E31.75773
G1 X24.223 Y-37.489 E31.91388
G1 X27.090 Y-36.761 E32.06841
G1 X28.501 Y-36.365 E32.14499
G1 X29.990 Y-35.922 E32.22614
G1 X32.736 Y-35.026 E32.37705
G1 X35.413 Y-34.050 E32.52591
G1 X36.723 Y-33.532 E32.59952
G1 X38.014 Y-32.995 E32.67256
G1 X39.284 Y-32.438 E32.74502
G1 X40.534 Y-31.863 E32.81691
G1 X41.762 Y-31.268 E32.88819
G1 X42.968 Y-30.654 E32.95889
G1 X44.045 Y-30.079 E33.02269
G1 X45.203 Y-29.431 E33.09203
G1 X46.337 Y-28.764 E33.16076
G1 X47.447 Y-28.079 E33.22887
G1 X48.530 Y-27.377 E33.29634
G1 X49.588 Y-26.656 E33.36319
G1 X50.619 Y-25.918 E33.42944
G1 X51.622 Y-25.163 E33.49508
G1 X52.598 Y-24.389 E33.56013
G1 X53.546 Y-23.598 E33.62460
G1 X54.464 Y-22.790 E33.68852
G1 X55.352 Y-21.964 E33.75188
G1 X56.209 Y-21.122 E33.81465
G1 X57.035 Y-20.263 E33.87690
G1 X57.829 Y-19.388 E33.93865
G1 X58.590 Y-18.496 E33.99991
G1 X59.318 Y-17.587 E34.06073
G1 X60.012 Y-16.663 E34.12112
G1 X60.780 Y-15.558 E34.19144
G1 X61.399 Y-14.594 E34.25129
G1 X61.981 Y-13.615 E34.31077
G1 X62.524 Y-12.622 E34.36993
G1 X63.028 Y-11.614 E34.42877
G1 X63.492 Y-10.594 E34.48733
G1 X63.914 Y-9.560 E34.54566
G1 X64.219 Y-8.733 E34.59170
G1 X64.564 Y-7.683 E34.64945
G1 X64.865 Y-6.624 E34.70700
G1 X65.123 Y-5.555 E34.76442
G1 X65.335 Y-4.479 E34.82172
G1 X65.503 Y-3.397 E34.87892
G1 X65.624 Y-2.310 E34.93609
G1 X65.700 Y-1.219 E34.99324
G1 X65.728 Y0.125 E35.06346
G1 X65.710 Y0.970 E35.10764
G1 X65.646 Y2.063 E35.16482
G1 X65.534 Y3.153 E35.22208
G1 X65.377 Y4.239 E35.27941
G1 X65.173 Y5.319 E35.33683
G1 X64.925 Y6.393 E35.39439
G1 X64.632 Y7.458 E35.45211
G1 X64.295 Y8.514 E35.51003
G1 X63.832 Y9.772 E35.58005
G1 X63.403 Y10.798 E35.63814
G1 X62.934 Y11.811 E35.69646
G1 X62.425 Y12.810 E35.75504
G1 X61.878 Y13.795 E35.81392
G1 X61.293 Y14.766 E35.87313
G1 X60.670 Y15.722 E35.93275
G1 X60.012 Y16.663 E35.99275
G1 X59.432 Y17.439 E36.04336
G1 X58.706 Y18.356 E36.10446
G1 X57.945 Y19.255 E36.16599
G1 X57.152 Y20.138 E36.22800
G1 X56.326 Y21.003 E36.29050
G1 X55.469 Y21.852 E36.35353
G1 X54.581 Y22.684 E36.41709
G1 X53.662 Y23.498 E36.48122
G1 X52.714 Y24.295 E36.54594
G1 X51.737 Y25.074 E36.61122
G1 X50.732 Y25.835 E36.67707
G1 X49.700 Y26.578 E36.74351
G1 X48.641 Y27.303 E36.81055
G1 X47.557 Y28.010 E36.87820
G1 X46.446 Y28.699 E36.94646
G1 X45.311 Y29.369 E37.01535
G1 X44.151 Y30.021 E37.08486
G1 X42.968 Y30.654 E37.15497
G1 X41.762 Y31.268 E37.22567
G1 X40.534 Y31.863 E37.29696
G1 X39.284 Y32.439 E37.36884
G1 X38.014 Y32.995 E37.44130
G1 X36.723 Y33.532 E37.51435
G1 X35.413 Y34.050 E37.58796
G1 X34.083 Y34.548 E37.66213
G1 X31.371 Y35.484 E37.81202
G1 X28.592 Y36.339 E37.96391
G1 X27.089 Y36.761 E38.04546
G1 X25.663 Y37.135 E38.12249
G1 X22.770 Y37.823 E38.27787
G1 X19.828 Y38.426 E38.43476
G1 X16.844 Y38.945 E38.59301
G1 X13.908 Y39.368 E38.74799
G1 X12.385 Y39.554 E38.82811
G1 X9.322 Y39.860 E38.98897
G1 X6.157 Y40.085 E39.15475
G1 X3.062 Y40.215 E39.31659
G1 X1.511 Y40.247 E39.39764
G1 X-0.225 Y40.256 E39.48831
G1 X-0.282 Y39.837 F3600.000
G1 X-3.053 Y39.796 E39.63309 F1200.000
G1 X-4.596 Y39.742 E39.71375
G1 X-7.673 Y39.569 E39.87479
G1 X-10.734 Y39.309 E40.03529
G1 X-13.773 Y38.963 E40.19506
G1 X-16.860 Y38.518 E40.35804
G1 X-19.833 Y37.999 E40.51572
G1 X-22.764 Y37.395 E40.67205
G1 X-25.646 Y36.707 E40.82686
G1 X-27.067 Y36.333 E40.90361
G1 X-29.778 Y35.549 E41.05104
G1 X-32.508 Y34.661 E41.20104
G1 X-35.169 Y33.695 E41.34893
G1 X-36.471 Y33.182 E41.42205
G1 X-37.754 Y32.651 E41.49459
G1 X-39.016 Y32.100 E41.56654
G1 X-40.257 Y31.530 E41.63788
G1 X-41.476 Y30.942 E41.70861
G1 X-42.673 Y30.335 E41.77874
G1 X-43.847 Y29.709 E41.84824
G1 X-44.998 Y29.065 E41.91713
G1 X-46.125 Y28.403 E41.98540
G1 X-47.226 Y27.723 E42.05303
G1 X-48.405 Y26.957 E42.12649
G1 X-49.456 Y26.238 E42.19301
G1 X-50.480 Y25.501 E42.25893
G1 X-51.476 Y24.746 E42.32424
G1 X-52.445 Y23.974 E42.38895
G1 X-53.385 Y23.184 E42.45309
G1 X-54.295 Y22.377 E42.51663
G1 X-55.175 Y21.554 E42.57959
G1 X-56.024 Y20.714 E42.64199
G1 X-56.841 Y19.857 E42.70385
G1 X-57.626 Y18.984 E42.76520
G1 X-58.378 Y18.094 E42.82605
G1 X-59.097 Y17.189 E42.88644
G1 X-59.780 Y16.267 E42.94640
G1 X-60.326 Y15.483 E42.99633
G1 X-60.941 Y14.538 E43.05519
G1 X-61.518 Y13.580 E43.11365
G1 X-62.058 Y12.608 E43.17176
G1 X-62.560 Y11.622 E43.22954
G1 X-63.022 Y10.623 E43.28705
G1 X-63.444 Y9.612 E43.34430
G1 X-63.826 Y8.589 E43.40135
G1 X-64.228 Y7.345 E43.46964
G1 X-64.517 Y6.296 E43.52646
G1 X-64.762 Y5.240 E43.58311
G1 X-64.962 Y4.177 E43.63963
G1 X-65.118 Y3.109 E43.69603
G1 X-65.227 Y2.036 E43.75235
G1 X-65.292 Y0.961 E43.80864
G1 X-65.310 Y0.116 E43.85278
G1 X-65.292 Y-0.961 E43.90905
G1 X-65.208 Y-2.265 E43.97735
G1 X-65.089 Y-3.335 E44.03360
G1 X-64.924 Y-4.400 E44.08990
G1 X-64.715 Y-5.459 E44.14629
G1 X-64.462 Y-6.511 E44.20281
G1 X-64.165 Y-7.554 E44.25948
G1 X-63.826 Y-8.589 E44.31635
G1 X-63.444 Y-9.612 E44.37339
G1 X-63.105 Y-10.434 E44.41986
G1 X-62.647 Y-11.440 E44.47760
G1 X-62.150 Y-12.433 E44.53563
G1 X-61.614 Y-13.413 E44.59398
G1 X-61.040 Y-14.379 E44.65269
G1 X-60.429 Y-15.330 E44.71178
G1 X-59.781 Y-16.267 E44.77129
G1 X-59.097 Y-17.189 E44.83125
G1 X-58.378 Y-18.094 E44.89164
G1 X-57.626 Y-18.984 E44.95250
G1 X-56.841 Y-19.857 E45.01384
G1 X-56.024 Y-20.714 E45.07570
G1 X-55.175 Y-21.554 E45.13810
G1 X-54.295 Y-22.377 E45.20106
G1 X-53.385 Y-23.184 E45.26460
G1 X-52.445 Y-23.974 E45.32874
G1 X-51.476 Y-24.746 E45.39346
G1 X-50.480 Y-25.501 E45.45877
G1 X-49.456 Y-26.238 E45.52468
