; generated by Slic3r 1.2.9 on 2016-05-04 at 13:58:13

; external perimeters extrusion width = 0.40mm
; perimeters extrusion width = 0.67mm
; infill extrusion width = 0.67mm
; solid infill extrusion width = 0.67mm
; top infill extrusion width = 0.67mm
; support material extrusion width = 0.40mm

M107
M104 S210 ; set temperature
G28 ; home all axes
G1 X70Y70Z10 F5000 
M109 S210 ; wait for temperature to be reached
G21 ; set units to millimeters
G90 ; use absolute coordinates
M82 ; use absolute distances for extrusion
G92 E0
G1 E-3.50000 F1800.00000
G92 E0
G1 Z0.300 F3600.000
G1 X0.044 Y44.957 F3600.000
G1 E3.50000 F1800.00000
G1 X-1.784 Y44.944 E3.59555 F1200.000
G1 X-5.173 Y44.849 E3.77264
G1 X-6.996 Y44.758 E3.86800
G1 X-10.364 Y44.519 E4.04440
G1 X-12.174 Y44.352 E4.13938
G1 X-15.505 Y43.971 E4.31456
G1 X-17.295 Y43.727 E4.40890
G1 X-20.571 Y43.206 E4.58226
G1 X-22.332 Y42.885 E4.67573
G1 X-25.538 Y42.226 E4.84672
G1 X-27.262 Y41.830 E4.93918
G1 X-30.380 Y41.036 E5.10729
G1 X-32.061 Y40.564 E5.19846
G1 X-33.528 Y40.127 E5.27845
G1 X-35.075 Y39.638 E5.36321
G1 X-36.603 Y39.128 E5.44739
G1 X-38.214 Y38.557 E5.53669
G1 X-39.600 Y38.039 E5.61397
G1 X-41.067 Y37.462 E5.69635
G1 X-42.618 Y36.817 E5.78410
G1 X-43.934 Y36.242 E5.85911
G1 X-45.332 Y35.600 E5.93949
G1 X-46.816 Y34.882 E6.02564
G1 X-48.055 Y34.253 E6.09820
G1 X-49.378 Y33.549 E6.17653
G1 X-50.790 Y32.757 E6.26111
G1 X-51.944 Y32.077 E6.33110
G1 X-53.186 Y31.311 E6.40732
G1 X-54.399 Y30.524 E6.48284
G1 X-55.702 Y29.634 E6.56531
G1 X-56.735 Y28.892 E6.63174
G1 X-57.858 Y28.047 E6.70516
G1 X-59.073 Y27.081 E6.78625
G1 X-60.008 Y26.298 E6.84998
G1 X-61.034 Y25.394 E6.92143
G1 X-62.152 Y24.351 E7.00130
G1 X-62.984 Y23.531 E7.06236
G1 X-63.907 Y22.571 E7.13190
G1 X-64.918 Y21.451 E7.21074
G1 X-65.767 Y20.447 E7.27943
G1 X-66.455 Y19.583 E7.33713
G1 X-67.229 Y18.552 E7.40451
G1 X-68.082 Y17.326 E7.48251
G1 X-68.657 Y16.436 E7.53791
G1 X-69.310 Y15.353 E7.60394
G1 X-69.920 Y14.255 E7.66958
G1 X-70.588 Y12.931 E7.74705
G1 X-71.104 Y11.794 E7.81230
G1 X-71.486 Y10.870 E7.86454
G1 X-71.917 Y9.713 E7.92901
G1 X-72.301 Y8.545 E7.99329
G1 X-72.701 Y7.117 E8.07072
G1 X-72.923 Y6.176 E8.12125
G1 X-73.159 Y4.979 E8.18501
G1 X-73.379 Y3.513 E8.26246
G1 X-73.503 Y2.300 E8.32615
G1 X-73.564 Y1.351 E8.37584
G1 X-73.596 Y0.134 E8.43943
G1 X-73.576 Y-1.084 E8.50306
G1 X-73.503 Y-2.300 E8.56671
G1 X-73.346 Y-3.774 E8.64419
G1 X-73.159 Y-4.979 E8.70785
G1 X-72.923 Y-6.176 E8.77161
G1 X-72.701 Y-7.117 E8.82213
G1 X-72.374 Y-8.303 E8.88638
G1 X-71.917 Y-9.713 E8.96385
G1 X-71.486 Y-10.870 E9.02832
G1 X-71.009 Y-12.012 E9.09302
G1 X-70.588 Y-12.931 E9.14581
G1 X-69.920 Y-14.255 E9.22328
G1 X-69.310 Y-15.353 E9.28892
G1 X-68.772 Y-16.251 E9.34361
G1 X-68.082 Y-17.326 E9.41035
G1 X-67.229 Y-18.551 E9.48835
G1 X-66.455 Y-19.583 E9.55573
G1 X-65.767 Y-20.447 E9.61343
G1 X-64.793 Y-21.593 E9.69201
G1 X-63.907 Y-22.571 E9.76096
G1 X-62.984 Y-23.530 E9.83050
G1 X-62.152 Y-24.351 E9.89156
G1 X-61.034 Y-25.394 E9.97143
G1 X-60.008 Y-26.298 E10.04287
G1 X-59.073 Y-27.081 E10.10660
G1 X-57.980 Y-27.952 E10.17959
G1 X-56.735 Y-28.892 E10.26112
G1 X-55.582 Y-29.718 E10.33522
G1 X-54.399 Y-30.524 E10.41002
G1 X-53.304 Y-31.236 E10.47825
G1 X-52.061 Y-32.006 E10.55464
G1 X-50.675 Y-32.823 E10.63870
G1 X-49.378 Y-33.549 E10.71633
G1 X-48.167 Y-34.195 E10.78805
G1 X-46.706 Y-34.937 E10.87367
G1 X-45.332 Y-35.600 E10.95337
G1 X-43.934 Y-36.242 E11.03375
G1 X-42.618 Y-36.817 E11.10875
G1 X-41.067 Y-37.462 E11.19651
G1 X-39.600 Y-38.039 E11.27888
G1 X-38.215 Y-38.557 E11.35616
G1 X-36.603 Y-39.128 E11.44547
G1 X-35.075 Y-39.638 E11.52965
G1 X-33.528 Y-40.127 E11.61441
G1 X-32.061 Y-40.564 E11.69440
G1 X-30.380 Y-41.036 E11.78557
G1 X-27.262 Y-41.830 E11.95368
G1 X-25.632 Y-42.205 E12.04108
G1 X-23.895 Y-42.576 E12.13389
G1 X-22.239 Y-42.903 E12.22206
G1 X-18.984 Y-43.470 E12.39468
G1 X-17.204 Y-43.740 E12.48876
G1 X-13.889 Y-44.168 E12.66339
G1 X-12.174 Y-44.352 E12.75349
G1 X-10.453 Y-44.512 E12.84378
G1 X-8.638 Y-44.654 E12.93891
G1 X-5.261 Y-44.845 E13.11561
G1 X-3.435 Y-44.909 E13.21105
G1 X-0.044 Y-44.957 E13.38824
G1 X1.696 Y-44.946 E13.47917
G1 X3.524 Y-44.907 E13.57468
G1 X6.907 Y-44.763 E13.75160
G1 X8.727 Y-44.647 E13.84686
G1 X12.084 Y-44.361 E14.02292
G1 X13.799 Y-44.178 E14.11298
G1 X15.596 Y-43.960 E14.20758
G1 X17.295 Y-43.727 E14.29716
G1 X20.572 Y-43.206 E14.47051
G1 X22.332 Y-42.885 E14.56398
G1 X25.538 Y-42.226 E14.73498
G1 X27.262 Y-41.830 E14.82743
G1 X30.380 Y-41.036 E14.99554
G1 X31.963 Y-40.592 E15.08139
G1 X33.627 Y-40.096 E15.17211
G1 X35.075 Y-39.638 E15.25146
G1 X36.603 Y-39.128 E15.33564
G1 X38.112 Y-38.594 E15.41924
G1 X39.600 Y-38.039 E15.50223
G1 X41.172 Y-37.419 E15.59053
G1 X42.512 Y-36.863 E15.66631
G1 X43.934 Y-36.242 E15.74736
G1 X45.441 Y-35.549 E15.83404
G1 X46.706 Y-34.937 E15.90744
G1 X48.055 Y-34.253 E15.98646
G1 X49.378 Y-33.549 E16.06478
G1 X50.790 Y-32.757 E16.14937
G1 X52.061 Y-32.006 E16.22647
G1 X53.186 Y-31.311 E16.29558
G1 X54.399 Y-30.524 E16.37109
G1 X55.582 Y-29.718 E16.44589
G1 X56.857 Y-28.803 E16.52788
G1 X57.858 Y-28.047 E16.59341
G1 X58.949 Y-27.182 E16.66615
G1 X60.133 Y-26.190 E16.74685
G1 X61.159 Y-25.280 E16.81852
G1 X62.026 Y-24.471 E16.88046
G1 X62.984 Y-23.530 E16.95061
G1 X63.907 Y-22.571 E17.02015
G1 X64.918 Y-21.451 E17.09899
G1 X65.767 Y-20.447 E17.16768
G1 X66.455 Y-19.583 E17.22538
G1 X67.229 Y-18.551 E17.29277
G1 X67.964 Y-17.502 E17.35969
G1 X68.772 Y-16.251 E17.43749
G1 X69.421 Y-15.160 E17.50380
G1 X69.920 Y-14.255 E17.55783
G1 X70.487 Y-13.141 E17.62312
G1 X71.009 Y-12.012 E17.68809
G1 X71.486 Y-10.870 E17.75279
G1 X71.917 Y-9.713 E17.81727
G1 X72.374 Y-8.303 E17.89473
G1 X72.701 Y-7.117 E17.95897
G1 X72.923 Y-6.176 E18.00950
G1 X73.159 Y-4.979 E18.07326
G1 X73.346 Y-3.774 E18.13692
G1 X73.503 Y-2.300 E18.21440
G1 X73.576 Y-1.084 E18.27804
G1 X73.596 Y0.134 E18.34165
G1 X73.564 Y1.350 E18.40525
G1 X73.481 Y2.565 E18.46884
G1 X73.346 Y3.775 E18.53244
G1 X73.159 Y4.979 E18.59610
G1 X72.923 Y6.176 E18.65986
G1 X72.701 Y7.117 E18.71040
G1 X72.374 Y8.303 E18.77463
G1 X71.917 Y9.713 E18.85209
G1 X71.486 Y10.870 E18.91657
G1 X71.009 Y12.012 E18.98126
G1 X70.588 Y12.931 E19.03406
G1 X70.026 Y14.053 E19.09964
G1 X69.310 Y15.353 E19.17717
G1 X68.657 Y16.436 E19.24321
G1 X67.963 Y17.502 E19.30967
G1 X67.350 Y18.384 E19.36581
G1 X66.578 Y19.424 E19.43350
G1 X65.643 Y20.597 E19.51186
G1 X64.793 Y21.593 E19.58026
G1 X64.032 Y22.436 E19.63961
G1 X62.984 Y23.531 E19.71875
G1 X62.026 Y24.472 E19.78890
G1 X61.034 Y25.394 E19.85969
G1 X60.133 Y26.190 E19.92252
G1 X59.073 Y27.081 E19.99486
G1 X57.857 Y28.047 E20.07596
G1 X56.735 Y28.892 E20.14937
G1 X55.582 Y29.718 E20.22348
G1 X54.518 Y30.445 E20.29080
G1 X53.304 Y31.236 E20.36650
G1 X51.944 Y32.077 E20.45001
G1 X50.675 Y32.823 E20.52695
G1 X49.378 Y33.549 E20.60459
G1 X48.167 Y34.195 E20.67631
G1 X46.706 Y34.937 E20.76192
G1 X45.332 Y35.600 E20.84162
G1 X44.041 Y36.194 E20.91583
G1 X42.618 Y36.817 E20.99702
G1 X41.067 Y37.462 E21.08476
G1 X39.600 Y38.039 E21.16714
G1 X38.214 Y38.557 E21.24442
G1 X36.603 Y39.128 E21.33372
G1 X35.075 Y39.638 E21.41791
G1 X33.528 Y40.127 E21.50266
G1 X32.061 Y40.564 E21.58266
G1 X30.380 Y41.036 E21.67383
G1 X28.781 Y41.456 E21.76020
G1 X27.167 Y41.853 E21.84707
G1 X23.988 Y42.557 E22.01716
G1 X22.239 Y42.903 E22.11031
G1 X18.984 Y43.470 E22.28294
G1 X17.204 Y43.740 E22.37701
G1 X15.505 Y43.971 E22.46656
G1 X12.174 Y44.352 E22.64174
G1 X10.364 Y44.520 E22.73671
G1 X6.996 Y44.758 E22.91312
G1 X5.261 Y44.845 E23.00386
G1 X3.435 Y44.909 E23.09930
G1 X0.104 Y44.957 E23.27335
G1 X0.041 Y44.538 F3600.000
G1 X-1.776 Y44.526 E23.36828 F1200.000
G1 X-5.158 Y44.430 E23.54506
G1 X-6.969 Y44.340 E23.63980
G1 X-10.331 Y44.102 E23.81590
G1 X-12.129 Y43.936 E23.91024
G1 X-15.455 Y43.555 E24.08511
G1 X-17.232 Y43.313 E24.17881
G1 X-20.503 Y42.793 E24.35184
G1 X-22.250 Y42.474 E24.44466
G1 X-25.450 Y41.817 E24.61532
G1 X-27.162 Y41.423 E24.70709
G1 X-30.274 Y40.630 E24.87485
G1 X-31.941 Y40.163 E24.96532
G1 X-33.408 Y39.725 E25.04531
G1 X-34.949 Y39.239 E25.12970
G1 X-36.470 Y38.730 E25.21352
G1 X-38.068 Y38.165 E25.30206
G1 X-39.453 Y37.647 E25.37934
G1 X-40.913 Y37.072 E25.46133
G1 X-42.450 Y36.434 E25.54828
G1 X-43.766 Y35.858 E25.62329
G1 X-45.157 Y35.220 E25.70326
G1 X-46.627 Y34.509 E25.78855
G1 X-47.865 Y33.880 E25.86112
G1 X-49.181 Y33.179 E25.93900
G1 X-50.578 Y32.396 E26.02267
G1 X-51.732 Y31.716 E26.09265
G1 X-52.965 Y30.954 E26.16840
G1 X-54.170 Y30.173 E26.24342
G1 X-55.458 Y29.294 E26.32488
G1 X-56.491 Y28.552 E26.39131
G1 X-57.605 Y27.713 E26.46420
G1 X-58.804 Y26.760 E26.54420
G1 X-59.855 Y25.876 E26.61596
G1 X-60.757 Y25.080 E26.67879
G1 X-61.741 Y24.165 E26.74899
G1 X-62.807 Y23.113 E26.82724
G1 X-63.604 Y22.281 E26.88744
G1 X-64.482 Y21.313 E26.95575
G1 X-65.324 Y20.326 E27.02349
G1 X-66.242 Y19.174 E27.10046
G1 X-66.893 Y18.301 E27.15736
G1 X-67.620 Y17.263 E27.22357
G1 X-68.413 Y16.036 E27.29988
G1 X-69.054 Y14.958 E27.36541
G1 X-69.553 Y14.053 E27.41943
G1 X-70.113 Y12.952 E27.48392
G1 X-70.717 Y11.634 E27.55970
G1 X-71.099 Y10.710 E27.61195
G1 X-71.524 Y9.569 E27.67556
G1 X-71.903 Y8.415 E27.73897
G1 X-72.293 Y7.021 E27.81463
G1 X-72.515 Y6.080 E27.86515
G1 X-72.748 Y4.899 E27.92801
G1 X-72.963 Y3.468 E28.00362
G1 X-73.085 Y2.273 E28.06638
G1 X-73.146 Y1.324 E28.11607
G1 X-73.177 Y0.125 E28.17873
G1 X-73.157 Y-1.075 E28.24142
G1 X-73.085 Y-2.273 E28.30413
G1 X-72.931 Y-3.712 E28.37976
G1 X-72.748 Y-4.899 E28.44251
G1 X-72.515 Y-6.080 E28.50536
G1 X-72.293 Y-7.021 E28.55588
G1 X-71.971 Y-8.190 E28.61924
G1 X-71.524 Y-9.569 E28.69495
G1 X-71.099 Y-10.710 E28.75857
G1 X-70.628 Y-11.838 E28.82244
G1 X-70.207 Y-12.756 E28.87523
G1 X-69.553 Y-14.052 E28.95108
G1 X-68.950 Y-15.138 E29.01595
G1 X-68.413 Y-16.036 E29.07064
G1 X-67.730 Y-17.098 E29.13662
G1 X-66.893 Y-18.301 E29.21315
G1 X-66.128 Y-19.322 E29.27983
G1 X-65.439 Y-20.186 E29.33753
G1 X-64.482 Y-21.312 E29.41476
G1 X-63.604 Y-22.281 E29.48308
G1 X-62.690 Y-23.232 E29.55199
G1 X-61.858 Y-24.053 E29.61305
G1 X-60.757 Y-25.080 E29.69172
G1 X-59.739 Y-25.976 E29.76259
G1 X-58.804 Y-26.760 E29.82632
G1 X-57.720 Y-27.624 E29.89874
G1 X-56.491 Y-28.552 E29.97920
G1 X-55.346 Y-29.372 E30.05279
G1 X-54.170 Y-30.173 E30.12709
G1 X-53.075 Y-30.885 E30.19531
G1 X-51.841 Y-31.650 E30.27122
G1 X-50.470 Y-32.458 E30.35434
G1 X-49.181 Y-33.179 E30.43152
G1 X-47.970 Y-33.825 E30.50324
G1 X-46.524 Y-34.560 E30.58798
G1 X-45.157 Y-35.220 E30.66726
G1 X-43.867 Y-35.813 E30.74147
G1 X-42.351 Y-36.476 E30.82787
G1 X-40.914 Y-37.072 E30.90919
G1 X-39.551 Y-37.609 E30.98573
G1 X-38.068 Y-38.165 E31.06845
G1 X-36.470 Y-38.730 E31.15699
G1 X-34.949 Y-39.239 E31.24081
G1 X-33.408 Y-39.725 E31.32520
G1 X-31.941 Y-40.163 E31.40519
G1 X-30.274 Y-40.630 E31.49566
G1 X-27.162 Y-41.423 E31.66342
G1 X-25.538 Y-41.797 E31.75048
G1 X-23.814 Y-42.165 E31.84262
G1 X-22.164 Y-42.491 E31.93045
G1 X-18.915 Y-43.057 E32.10275
G1 X-17.147 Y-43.325 E32.19618
G1 X-13.838 Y-43.752 E32.37049
G1 X-12.129 Y-43.936 E32.46028
G1 X-10.415 Y-44.095 E32.55026
G1 X-8.611 Y-44.236 E32.64476
G1 X-5.241 Y-44.426 E32.82114
G1 X-3.427 Y-44.491 E32.91597
G1 X-0.041 Y-44.538 E33.09285
G1 X1.693 Y-44.527 E33.18347
G1 X3.509 Y-44.488 E33.27836
G1 X6.887 Y-44.345 E33.45498
G1 X8.694 Y-44.230 E33.54961
G1 X12.046 Y-43.944 E33.72536
G1 X13.754 Y-43.762 E33.81510
G1 X15.539 Y-43.545 E33.90906
G1 X17.232 Y-43.313 E33.99832
G1 X20.503 Y-42.793 E34.17135
G1 X22.251 Y-42.474 E34.26417
G1 X25.450 Y-41.817 E34.43483
G1 X27.162 Y-41.423 E34.52660
G1 X30.274 Y-40.630 E34.69436
G1 X31.850 Y-40.189 E34.77986
G1 X33.501 Y-39.697 E34.86986
G1 X34.949 Y-39.239 E34.94921
G1 X36.470 Y-38.730 E35.03303
G1 X37.972 Y-38.200 E35.11625
G1 X39.453 Y-37.647 E35.19885
G1 X41.012 Y-37.032 E35.28637
G1 X42.351 Y-36.476 E35.36215
G1 X43.766 Y-35.858 E35.44280
G1 X45.259 Y-35.172 E35.52864
G1 X46.524 Y-34.560 E35.60204
G1 X47.865 Y-33.880 E35.68062
G1 X49.181 Y-33.179 E35.75851
G1 X50.578 Y-32.396 E35.84217
G1 X51.841 Y-31.650 E35.91880
G1 X52.966 Y-30.954 E35.98791
G1 X54.170 Y-30.173 E36.06293
G1 X55.346 Y-29.372 E36.13723
G1 X56.604 Y-28.468 E36.21818
G1 X57.720 Y-27.624 E36.29128
G1 X58.688 Y-26.854 E36.35591
G1 X59.739 Y-25.976 E36.42743
G1 X60.757 Y-25.080 E36.49830
G1 X61.858 Y-24.053 E36.57697
G1 X62.807 Y-23.113 E36.64675
G1 X63.604 Y-22.281 E36.70694
G1 X64.482 Y-21.313 E36.77526
G1 X65.324 Y-20.326 E36.84299
G1 X66.242 Y-19.174 E36.91996
G1 X67.006 Y-18.145 E36.98694
G1 X67.620 Y-17.263 E37.04308
G1 X68.306 Y-16.208 E37.10880
G1 X68.950 Y-15.138 E37.17407
G1 X69.652 Y-13.865 E37.25004
G1 X70.207 Y-12.756 E37.31480
G1 X70.628 Y-11.838 E37.36759
G1 X71.099 Y-10.710 E37.43145
G1 X71.524 Y-9.568 E37.49508
G1 X71.971 Y-8.190 E37.57078
G1 X72.293 Y-7.021 E37.63413
G1 X72.515 Y-6.080 E37.68466
G1 X72.748 Y-4.899 E37.74752
G1 X72.931 Y-3.712 E37.81026
G1 X73.085 Y-2.273 E37.88589
G1 X73.157 Y-1.075 E37.94860
G1 X73.177 Y0.125 E38.01127
G1 X73.146 Y1.324 E38.07393
G1 X73.064 Y2.520 E38.13659
G1 X72.931 Y3.712 E38.19927
G1 X72.748 Y4.899 E38.26201
G1 X72.515 Y6.080 E38.32487
G1 X72.293 Y7.021 E38.37541
G1 X71.971 Y8.190 E38.43874
G1 X71.524 Y9.569 E38.51445
G1 X71.099 Y10.710 E38.57808
G1 X70.628 Y11.838 E38.64194
G1 X70.207 Y12.756 E38.69474
G1 X69.652 Y13.865 E38.75950
G1 X68.950 Y15.138 E38.83546
G1 X68.306 Y16.208 E38.90073
G1 X67.620 Y17.263 E38.96645
G1 X67.006 Y18.145 E39.02259
G1 X66.242 Y19.174 E39.08956
G1 X65.324 Y20.326 E39.16654
G1 X64.482 Y21.313 E39.23427
G1 X63.721 Y22.156 E39.29362
G1 X62.690 Y23.232 E39.37150
G1 X61.741 Y24.165 E39.44104
G1 X60.757 Y25.080 E39.51123
G1 X59.855 Y25.876 E39.57406
G1 X58.804 Y26.760 E39.64583
G1 X57.605 Y27.713 E39.72582
G1 X56.491 Y28.552 E39.79871
G1 X55.346 Y29.372 E39.87230
G1 X54.281 Y30.099 E39.93963
G1 X53.075 Y30.885 E40.01482
G1 X51.732 Y31.716 E40.09737
G1 X50.470 Y32.458 E40.17385
G1 X49.181 Y33.179 E40.25103
G1 X47.970 Y33.825 E40.32275
G1 X46.524 Y34.560 E40.40749
G1 X45.157 Y35.220 E40.48677
G1 X43.866 Y35.813 E40.56098
G1 X42.450 Y36.434 E40.64175
G1 X40.913 Y37.072 E40.72870
G1 X39.453 Y37.647 E40.81068
G1 X38.068 Y38.165 E40.88796
G1 X36.470 Y38.730 E40.97650
G1 X34.949 Y39.239 E41.06032
G1 X33.408 Y39.725 E41.14471
G1 X31.941 Y40.163 E41.22471
G1 X30.364 Y40.606 E41.31028
G1 X28.681 Y41.049 E41.40119
G1 X27.073 Y41.444 E41.48772
G1 X23.901 Y42.147 E41.65748
G1 X22.164 Y42.491 E41.74997
G1 X18.915 Y43.057 E41.92227
G1 X17.232 Y43.313 E42.01122
G1 X15.455 Y43.555 E42.10492
G1 X12.129 Y43.936 E42.27979
G1 X10.331 Y44.102 E42.37413
G1 X6.969 Y44.340 E42.55023
G1 X5.240 Y44.426 E42.64066
G1 X3.427 Y44.491 E42.73548
G1 X0.101 Y44.538 E42.90922
G1 X0.038 Y44.120 F3600.000
G1 X-1.767 Y44.107 E43.00353 F1200.000
G1 X-5.143 Y44.011 E43.18000
G1 X-6.942 Y43.922 E43.27412
G1 X-10.299 Y43.684 E43.44991
G1 X-12.085 Y43.519 E43.54362
G1 X-15.404 Y43.140 E43.71817
G1 X-17.169 Y42.899 E43.81123
G1 X-20.434 Y42.379 E43.98394
G1 X-22.169 Y42.063 E44.07610
G1 X-25.363 Y41.407 E44.24643
G1 X-26.979 Y41.036 E44.33308
G1 X-28.664 Y40.621 E44.42375
G1 X-31.736 Y39.786 E44.59008
G1 X-33.289 Y39.324 E44.67468
G1 X-34.909 Y38.811 E44.76348
G1 X-36.337 Y38.333 E44.84216
G1 X-37.832 Y37.805 E44.92500
G1 X-39.397 Y37.220 E45.01228
G1 X-40.760 Y36.682 E45.08882
G1 X-42.191 Y36.089 E45.16974
G1 X-43.691 Y35.433 E45.25533
G1 X-44.982 Y34.839 E45.32954
G1 X-46.341 Y34.183 E45.40839
G1 X-47.772 Y33.456 E45.49226
G1 X-48.983 Y32.810 E45.56398
G1 X-50.265 Y32.092 E45.64071
G1 X-51.519 Y31.355 E45.71672
G1 X-52.847 Y30.533 E45.79830
G1 X-53.942 Y29.822 E45.86652
G1 X-55.109 Y29.026 E45.94032
G1 X-56.352 Y28.134 E46.02023
G1 X-57.353 Y27.378 E46.08576
G1 X-58.427 Y26.526 E46.15742
G1 X-59.470 Y25.655 E46.22838
G1 X-60.588 Y24.668 E46.30633
G1 X-61.455 Y23.859 E46.36827
G1 X-62.396 Y22.934 E46.43720
G1 X-63.410 Y21.875 E46.51381
G1 X-64.279 Y20.909 E46.58172
G1 X-65.004 Y20.055 E46.64024
G1 X-65.800 Y19.061 E46.70675
G1 X-66.662 Y17.905 E46.78208
G1 X-67.276 Y17.023 E46.83821
G1 X-67.954 Y15.981 E46.90320
G1 X-68.591 Y14.923 E46.96771
