; generated by Slic3r 1.2.9 on 2016-05-04 at 13:32:18

; external perimeters extrusion width = 0.40mm
; perimeters extrusion width = 0.67mm
; infill extrusion width = 0.67mm
; solid infill extrusion width = 0.67mm
; top infill extrusion width = 0.67mm
; support material extrusion width = 0.40mm

M107
M104 S210 ; set temperature
G28 ; home all axes
G1 X70Y70Z10 F5000 
M109 S210 ; wait for temperature to be reached
G21 ; set units to millimeters
G90 ; use absolute coordinates
M82 ; use absolute distances for extrusion
G92 E0
G1 E-3.50000 F1800.00000
G92 E0
G1 Z0.300 F3600.000
G1 X0.044 Y49.232 F3600.000
G1 E3.50000 F1800.00000
G1 X-1.967 Y49.218 E3.60508 F1200.000
G1 X-3.800 Y49.179 E3.70088
G1 X-5.720 Y49.112 E3.80123
G1 X-7.725 Y49.013 E3.90609
G1 X-9.548 Y48.896 E4.00156
G1 X-11.455 Y48.748 E4.10149
G1 X-13.445 Y48.564 E4.20591
G1 X-15.249 Y48.371 E4.30069
G1 X-17.135 Y48.142 E4.39992
G1 X-19.101 Y47.874 E4.50363
G1 X-20.876 Y47.605 E4.59741
G1 X-22.730 Y47.297 E4.69561
G1 X-24.665 Y46.945 E4.79832
G1 X-26.400 Y46.601 E4.89076
G1 X-28.214 Y46.215 E4.98766
G1 X-30.013 Y45.802 E5.08407
G1 X-31.892 Y45.339 E5.18516
G1 X-33.560 Y44.900 E5.27531
G1 X-35.307 Y44.411 E5.37007
G1 X-37.034 Y43.897 E5.46422
G1 X-38.841 Y43.325 E5.56324
G1 X-40.427 Y42.794 E5.65061
G1 X-42.091 Y42.206 E5.74283
G1 X-43.837 Y41.554 E5.84018
G1 X-45.350 Y40.957 E5.92518
G1 X-46.943 Y40.296 E6.01527
G1 X-48.618 Y39.564 E6.11077
G1 X-50.051 Y38.905 E6.19318
G1 X-51.564 Y38.174 E6.28098
G1 X-53.162 Y37.363 E6.37461
G1 X-54.507 Y36.645 E6.45426
G1 X-55.934 Y35.846 E6.53972
G1 X-57.332 Y35.025 E6.62440
G1 X-58.815 Y34.107 E6.71554
G1 X-60.031 Y33.317 E6.79130
G1 X-61.332 Y32.430 E6.87354
G1 X-62.721 Y31.433 E6.96286
G1 X-63.832 Y30.594 E7.03564
G1 X-65.030 Y29.644 E7.11552
G1 X-66.193 Y28.673 E7.19464
G1 X-67.444 Y27.567 E7.28187
G1 X-68.407 Y26.669 E7.35065
G1 X-69.456 Y25.638 E7.42754
G1 X-70.592 Y24.452 E7.51334
G1 X-71.562 Y23.373 E7.58913
G1 X-72.367 Y22.425 E7.65411
G1 X-73.256 Y21.316 E7.72835
G1 X-74.222 Y20.020 E7.81282
G1 X-74.904 Y19.040 E7.87516
G1 X-75.661 Y17.876 E7.94774
G1 X-76.373 Y16.694 E8.01981
G1 X-77.144 Y15.294 E8.10332
G1 X-77.757 Y14.071 E8.17478
G1 X-78.225 Y13.051 E8.23341
G1 X-78.744 Y11.806 E8.30388
G1 X-79.213 Y10.547 E8.37407
G1 X-79.703 Y9.034 E8.45720
G1 X-79.995 Y7.992 E8.51370
G1 X-80.306 Y6.699 E8.58317
G1 X-80.607 Y5.140 E8.66615
G1 X-80.798 Y3.827 E8.73545
G1 X-80.910 Y2.774 E8.79077
G1 X-81.001 Y1.456 E8.85983
G1 X-81.035 Y0.134 E8.92890
G1 X-81.012 Y-1.189 E8.99801
G1 X-80.910 Y-2.774 E9.08103
G1 X-80.764 Y-4.089 E9.15013
G1 X-80.562 Y-5.398 E9.21931
G1 X-80.360 Y-6.446 E9.27510
G1 X-80.059 Y-7.744 E9.34473
G1 X-79.631 Y-9.275 E9.42778
G1 X-79.213 Y-10.547 E9.49773
G1 X-78.744 Y-11.806 E9.56791
G1 X-78.320 Y-12.832 E9.62593
G1 X-77.656 Y-14.281 E9.70919
G1 X-77.038 Y-15.496 E9.78038
G1 X-76.484 Y-16.501 E9.84037
G1 X-75.776 Y-17.691 E9.91272
G1 X-74.904 Y-19.040 E9.99664
G1 X-74.102 Y-20.187 E10.06977
G1 X-73.378 Y-21.157 E10.13296
G1 X-72.367 Y-22.425 E10.21769
G1 X-71.438 Y-23.515 E10.29255
G1 X-70.592 Y-24.452 E10.35846
G1 X-69.456 Y-25.638 E10.44425
G1 X-68.407 Y-26.669 E10.52115
G1 X-67.444 Y-27.567 E10.58993
G1 X-66.193 Y-28.673 E10.67716
G1 X-65.030 Y-29.644 E10.75628
G1 X-63.832 Y-30.593 E10.83616
G1 X-62.721 Y-31.433 E10.90893
G1 X-61.452 Y-32.346 E10.99059
G1 X-60.031 Y-33.317 E11.08050
G1 X-58.698 Y-34.181 E11.16354
G1 X-57.332 Y-35.025 E11.24740
G1 X-56.050 Y-35.780 E11.32512
G1 X-54.621 Y-36.583 E11.41076
G1 X-53.050 Y-37.421 E11.50378
G1 X-51.564 Y-38.174 E11.59081
G1 X-50.051 Y-38.905 E11.67862
G1 X-48.618 Y-39.564 E11.76103
G1 X-46.943 Y-40.296 E11.85653
G1 X-45.350 Y-40.957 E11.94662
G1 X-43.837 Y-41.554 E12.03161
G1 X-42.194 Y-42.169 E12.12326
G1 X-40.427 Y-42.794 E12.22118
G1 X-38.741 Y-43.358 E12.31405
G1 X-37.133 Y-43.867 E12.40217
G1 X-35.307 Y-44.411 E12.50172
G1 X-32.453 Y-45.192 E12.65633
G1 X-30.109 Y-45.780 E12.78258
G1 X-28.214 Y-46.215 E12.88413
G1 X-26.400 Y-46.601 E12.98103
G1 X-24.572 Y-46.962 E13.07839
G1 X-22.822 Y-47.281 E13.17131
G1 X-20.876 Y-47.605 E13.27438
G1 X-19.011 Y-47.887 E13.37295
G1 X-17.225 Y-48.131 E13.46710
G1 X-15.340 Y-48.361 E13.56635
G1 X-13.445 Y-48.564 E13.66588
G1 X-11.455 Y-48.748 E13.77031
G1 X-9.637 Y-48.890 E13.86558
G1 X-7.725 Y-49.013 E13.96570
G1 X-5.720 Y-49.112 E14.07057
G1 X-3.800 Y-49.179 E14.17091
G1 X-1.967 Y-49.218 E14.26671
G1 X-0.044 Y-49.232 E14.36717
G1 X1.967 Y-49.218 E14.47225
G1 X3.800 Y-49.179 E14.56805
G1 X5.720 Y-49.112 E14.66840
G1 X7.725 Y-49.013 E14.77327
G1 X9.548 Y-48.896 E14.86873
G1 X11.455 Y-48.748 E14.96865
G1 X13.356 Y-48.573 E15.06838
G1 X15.340 Y-48.361 E15.17261
G1 X17.225 Y-48.131 E15.27186
G1 X19.011 Y-47.887 E15.36601
G1 X20.876 Y-47.605 E15.46458
G1 X22.822 Y-47.281 E15.56766
G1 X24.572 Y-46.962 E15.66057
G1 X26.400 Y-46.601 E15.75793
G1 X28.309 Y-46.194 E15.85989
G1 X30.013 Y-45.802 E15.95125
G1 X31.796 Y-45.364 E16.04715
G1 X33.560 Y-44.900 E16.14249
G1 X35.405 Y-44.383 E16.24257
G1 X37.034 Y-43.897 E16.33139
G1 X38.741 Y-43.358 E16.42492
G1 X40.427 Y-42.794 E16.51779
G1 X42.091 Y-42.206 E16.61000
G1 X43.837 Y-41.554 E16.70736
G1 X45.350 Y-40.957 E16.79235
G1 X46.943 Y-40.296 E16.88244
G1 X48.618 Y-39.564 E16.97794
G1 X50.051 Y-38.905 E17.06035
G1 X51.564 Y-38.174 E17.14816
G1 X53.050 Y-37.421 E17.23519
G1 X54.507 Y-36.645 E17.32144
G1 X56.050 Y-35.780 E17.41385
G1 X57.332 Y-35.025 E17.49157
G1 X58.698 Y-34.181 E17.57543
G1 X60.031 Y-33.317 E17.65847
G1 X61.452 Y-32.346 E17.74838
G1 X62.599 Y-31.522 E17.82216
G1 X63.832 Y-30.593 E17.90281
G1 X65.154 Y-29.542 E17.99105
G1 X66.318 Y-28.565 E18.07042
G1 X67.319 Y-27.681 E18.14020
G1 X68.407 Y-26.669 E18.21782
G1 X69.456 Y-25.638 E18.29472
G1 X70.592 Y-24.452 E18.38051
G1 X71.562 Y-23.373 E18.45630
G1 X72.367 Y-22.425 E18.52128
G1 X73.256 Y-21.316 E18.59553
G1 X74.101 Y-20.187 E18.66920
G1 X75.022 Y-18.865 E18.75339
G1 X75.776 Y-17.691 E18.82626
G1 X76.373 Y-16.694 E18.88699
G1 X77.038 Y-15.496 E18.95859
G1 X77.656 Y-14.281 E19.02978
G1 X78.320 Y-12.832 E19.11304
G1 X78.833 Y-11.579 E19.18379
G1 X79.213 Y-10.547 E19.24124
G1 X79.631 Y-9.275 E19.31118
G1 X79.995 Y-7.992 E19.38088
G1 X80.360 Y-6.446 E19.46387
G1 X80.607 Y-5.140 E19.53332
G1 X80.764 Y-4.089 E19.58884
G1 X80.910 Y-2.774 E19.65794
G1 X81.001 Y-1.455 E19.72701
G1 X81.035 Y-0.134 E19.79608
G1 X81.012 Y1.189 E19.86518
G1 X80.933 Y2.510 E19.93432
G1 X80.764 Y4.089 E20.01730
G1 X80.562 Y5.398 E20.08649
G1 X80.306 Y6.699 E20.15579
G1 X80.059 Y7.745 E20.21191
G1 X79.703 Y9.034 E20.28177
G1 X79.213 Y10.547 E20.36490
G1 X78.744 Y11.806 E20.43509
G1 X78.225 Y13.051 E20.50556
G1 X77.757 Y14.071 E20.56419
G1 X77.144 Y15.294 E20.63565
G1 X76.373 Y16.694 E20.71916
G1 X75.661 Y17.876 E20.79124
G1 X74.904 Y19.040 E20.86382
G1 X74.222 Y20.020 E20.92615
G1 X73.378 Y21.157 E21.00014
G1 X72.367 Y22.425 E21.08486
G1 X71.437 Y23.515 E21.15973
G1 X70.467 Y24.586 E21.23524
G1 X69.582 Y25.510 E21.30208
G1 X68.532 Y26.549 E21.37924
G1 X67.319 Y27.681 E21.46595
G1 X66.193 Y28.673 E21.54433
G1 X65.030 Y29.644 E21.62346
G1 X63.955 Y30.498 E21.69522
G1 X62.721 Y31.433 E21.77611
G1 X61.332 Y32.430 E21.86544
G1 X60.031 Y33.317 E21.94767
G1 X58.815 Y34.107 E22.02343
G1 X57.332 Y35.025 E22.11458
G1 X55.934 Y35.846 E22.19925
G1 X54.507 Y36.645 E22.28471
G1 X53.162 Y37.363 E22.36436
G1 X51.564 Y38.174 E22.45799
G1 X50.051 Y38.905 E22.54579
G1 X48.618 Y39.564 E22.62820
G1 X46.943 Y40.296 E22.72371
G1 X45.350 Y40.957 E22.81379
G1 X43.732 Y41.594 E22.90462
G1 X42.194 Y42.169 E22.99044
G1 X40.427 Y42.794 E23.08836
G1 X38.741 Y43.358 E23.18123
G1 X37.034 Y43.897 E23.27475
G1 X35.405 Y44.383 E23.36358
G1 X33.560 Y44.900 E23.46366
G1 X31.795 Y45.364 E23.55900
G1 X30.013 Y45.802 E23.65489
G1 X28.214 Y46.215 E23.75131
G1 X26.494 Y46.582 E23.84323
G1 X24.572 Y46.962 E23.94557
G1 X22.730 Y47.297 E24.04337
G1 X20.967 Y47.590 E24.13673
G1 X19.101 Y47.874 E24.23534
G1 X17.135 Y48.142 E24.33905
G1 X15.249 Y48.371 E24.43827
G1 X13.445 Y48.564 E24.53306
G1 X11.455 Y48.748 E24.63749
G1 X9.548 Y48.896 E24.73742
G1 X7.636 Y49.018 E24.83751
G1 X5.808 Y49.108 E24.93312
G1 X3.800 Y49.179 E25.03809
G1 X1.967 Y49.218 E25.13389
G1 X0.104 Y49.232 E25.23121
G1 X0.041 Y48.813 F3600.000
G1 X-1.958 Y48.799 E25.33567 F1200.000
G1 X-3.791 Y48.760 E25.43147
G1 X-5.705 Y48.693 E25.53151
G1 X-7.698 Y48.595 E25.63576
G1 X-9.521 Y48.478 E25.73122
G1 X-11.422 Y48.331 E25.83083
G1 X-13.401 Y48.148 E25.93463
G1 X-15.205 Y47.955 E26.02942
G1 X-17.084 Y47.727 E26.12833
G1 X-19.039 Y47.460 E26.23140
G1 X-20.813 Y47.191 E26.32517
G1 X-22.661 Y46.884 E26.42305
G1 X-24.583 Y46.534 E26.52511
G1 X-26.319 Y46.191 E26.61754
G1 X-28.127 Y45.805 E26.71411
G1 X-29.919 Y45.394 E26.81019
G1 X-31.785 Y44.934 E26.91058
G1 X-33.454 Y44.495 E27.00074
G1 X-35.194 Y44.008 E27.09514
G1 X-36.914 Y43.496 E27.18893
G1 X-38.708 Y42.928 E27.28722
G1 X-40.294 Y42.397 E27.37460
G1 X-41.951 Y41.811 E27.46643
G1 X-43.683 Y41.164 E27.56302
G1 X-45.196 Y40.567 E27.64802
G1 X-46.782 Y39.910 E27.73770
G1 X-48.443 Y39.183 E27.83239
G1 X-49.876 Y38.524 E27.91480
G1 X-51.382 Y37.797 E28.00218
G1 X-52.965 Y36.993 E28.09494
G1 X-54.310 Y36.275 E28.17459
G1 X-55.730 Y35.481 E28.25959
G1 X-57.119 Y34.664 E28.34380
G1 X-58.587 Y33.756 E28.43398
G1 X-59.803 Y32.965 E28.50974
G1 X-61.096 Y32.084 E28.59148
G1 X-62.468 Y31.099 E28.67976
G1 X-63.580 Y30.259 E28.75254
G1 X-64.770 Y29.316 E28.83187
G1 X-65.924 Y28.352 E28.91044
G1 X-67.158 Y27.261 E28.99650
G1 X-68.121 Y26.363 E29.06528
G1 X-69.162 Y25.339 E29.14157
G1 X-70.281 Y24.171 E29.22609
G1 X-71.243 Y23.102 E29.30122
G1 X-72.048 Y22.154 E29.36620
G1 X-72.928 Y21.055 E29.43976
G1 X-73.878 Y19.781 E29.52280
G1 X-74.560 Y18.801 E29.58514
G1 X-75.309 Y17.648 E29.65698
G1 X-76.014 Y16.479 E29.72829
G1 X-76.770 Y15.106 E29.81023
G1 X-77.376 Y13.896 E29.88088
G1 X-77.844 Y12.877 E29.93950
G1 X-78.357 Y11.646 E30.00914
G1 X-78.820 Y10.403 E30.07847
G1 X-79.300 Y8.921 E30.15985
G1 X-79.592 Y7.879 E30.21635
G1 X-79.898 Y6.603 E30.28493
G1 X-80.192 Y5.078 E30.36609
G1 X-80.381 Y3.783 E30.43447
G1 X-80.494 Y2.730 E30.48978
G1 X-80.583 Y1.429 E30.55792
G1 X-80.616 Y0.125 E30.62605
G1 X-80.593 Y-1.180 E30.69423
G1 X-80.494 Y-2.730 E30.77538
G1 X-80.350 Y-4.027 E30.84356
G1 X-80.151 Y-5.318 E30.91183
G1 X-79.949 Y-6.367 E30.96761
G1 X-79.651 Y-7.648 E31.03634
G1 X-79.232 Y-9.146 E31.11761
G1 X-78.820 Y-10.403 E31.18669
G1 X-78.357 Y-11.646 E31.25602
G1 X-77.933 Y-12.672 E31.31404
G1 X-77.282 Y-14.092 E31.39565
G1 X-76.671 Y-15.293 E31.46604
G1 X-76.117 Y-16.299 E31.52603
G1 X-75.417 Y-17.476 E31.59760
G1 X-74.560 Y-18.801 E31.68002
G1 X-73.766 Y-19.937 E31.75243
G1 X-73.043 Y-20.906 E31.81562
G1 X-72.048 Y-22.154 E31.89897
G1 X-71.127 Y-23.235 E31.97317
G1 X-70.281 Y-24.171 E32.03907
G1 X-69.162 Y-25.339 E32.12360
G1 X-68.121 Y-26.363 E32.19988
G1 X-67.158 Y-27.261 E32.26867
G1 X-65.924 Y-28.352 E32.35473
G1 X-64.770 Y-29.316 E32.43329
G1 X-63.580 Y-30.259 E32.51263
G1 X-62.468 Y-31.099 E32.58540
G1 X-61.208 Y-32.006 E32.66652
G1 X-59.803 Y-32.965 E32.75542
G1 X-58.477 Y-33.825 E32.83798
G1 X-57.119 Y-34.664 E32.92136
G1 X-55.837 Y-35.419 E32.99908
G1 X-54.416 Y-36.217 E33.08426
G1 X-52.860 Y-37.047 E33.17638
G1 X-51.382 Y-37.797 E33.26298
G1 X-49.876 Y-38.524 E33.35036
G1 X-48.443 Y-39.183 E33.43277
G1 X-46.782 Y-39.910 E33.52746
G1 X-45.197 Y-40.567 E33.61715
G1 X-43.683 Y-41.164 E33.70214
G1 X-41.951 Y-41.811 E33.79873
G1 X-40.294 Y-42.397 E33.89056
G1 X-38.615 Y-42.959 E33.98307
G1 X-37.007 Y-43.467 E34.07118
G1 X-35.194 Y-44.008 E34.17002
G1 X-32.346 Y-44.787 E34.32428
G1 X-30.008 Y-45.373 E34.45018
G1 X-28.127 Y-45.805 E34.55104
G1 X-26.319 Y-46.191 E34.64761
G1 X-24.497 Y-46.550 E34.74464
G1 X-22.661 Y-46.884 E34.84211
G1 X-20.899 Y-47.177 E34.93547
G1 X-18.954 Y-47.472 E35.03823
G1 X-17.084 Y-47.727 E35.13683
G1 X-15.289 Y-47.945 E35.23131
G1 X-13.401 Y-48.148 E35.33052
G1 X-11.422 Y-48.331 E35.43433
G1 X-9.521 Y-48.478 E35.53394
G1 X-7.698 Y-48.595 E35.62940
G1 X-5.705 Y-48.693 E35.73365
G1 X-3.874 Y-48.758 E35.82938
G1 X-1.958 Y-48.799 E35.92949
G1 X-0.041 Y-48.813 E36.02964
G1 X1.958 Y-48.799 E36.13410
G1 X3.791 Y-48.760 E36.22990
G1 X5.705 Y-48.693 E36.32994
G1 X7.698 Y-48.595 E36.43419
G1 X9.521 Y-48.478 E36.52965
G1 X11.422 Y-48.331 E36.62926
G1 X13.317 Y-48.156 E36.72867
G1 X15.289 Y-47.945 E36.83228
G1 X17.169 Y-47.716 E36.93121
G1 X18.954 Y-47.472 E37.02536
G1 X20.814 Y-47.191 E37.12361
G1 X22.747 Y-46.869 E37.22603
G1 X24.497 Y-46.550 E37.31894
G1 X26.319 Y-46.191 E37.41598
G1 X28.215 Y-45.786 E37.51726
G1 X29.919 Y-45.394 E37.60862
G1 X31.695 Y-44.957 E37.70418
G1 X33.454 Y-44.495 E37.79917
G1 X35.285 Y-43.981 E37.89854
G1 X36.914 Y-43.496 E37.98736
G1 X38.615 Y-42.959 E38.08052
G1 X40.294 Y-42.397 E38.17303
G1 X41.951 Y-41.811 E38.26487
G1 X43.683 Y-41.164 E38.36145
G1 X45.295 Y-40.528 E38.45198
G1 X46.782 Y-39.910 E38.53614
G1 X48.342 Y-39.229 E38.62507
G1 X49.978 Y-38.476 E38.71911
G1 X51.382 Y-37.797 E38.80062
G1 X52.860 Y-37.047 E38.88721
G1 X54.310 Y-36.275 E38.97302
G1 X55.837 Y-35.419 E39.06451
G1 X57.119 Y-34.664 E39.14223
G1 X58.477 Y-33.825 E39.22561
G1 X59.803 Y-32.965 E39.30817
G1 X61.208 Y-32.006 E39.39707
G1 X62.355 Y-31.182 E39.47084
G1 X63.580 Y-30.259 E39.55097
G1 X64.885 Y-29.221 E39.63810
G1 X66.040 Y-28.251 E39.71690
G1 X67.041 Y-27.367 E39.78668
G1 X68.121 Y-26.363 E39.86371
G1 X69.162 Y-25.339 E39.94000
G1 X70.281 Y-24.171 E40.02452
G1 X71.243 Y-23.102 E40.09965
G1 X72.048 Y-22.154 E40.16463
G1 X72.928 Y-21.055 E40.23820
G1 X73.766 Y-19.937 E40.31116
G1 X74.670 Y-18.637 E40.39390
G1 X75.417 Y-17.476 E40.46600
G1 X76.014 Y-16.479 E40.52673
G1 X76.671 Y-15.293 E40.59756
G1 X77.282 Y-14.092 E40.66794
G1 X77.933 Y-12.672 E40.74956
G1 X78.440 Y-11.434 E40.81945
G1 X78.820 Y-10.403 E40.87691
G1 X79.232 Y-9.146 E40.94598
G1 X79.592 Y-7.879 E41.01479
G1 X79.949 Y-6.367 E41.09598
G1 X80.192 Y-5.078 E41.16452
G1 X80.350 Y-4.027 E41.22003
G1 X80.494 Y-2.730 E41.28821
G1 X80.583 Y-1.429 E41.35636
G1 X80.616 Y0.125 E41.43754
G1 X80.583 Y1.429 E41.50568
G1 X80.494 Y2.730 E41.57382
G1 X80.350 Y4.027 E41.64199
G1 X80.151 Y5.318 E41.71026
G1 X79.898 Y6.603 E41.77866
G1 X79.651 Y7.648 E41.83477
G1 X79.300 Y8.921 E41.90374
G1 X78.820 Y10.403 E41.98512
G1 X78.357 Y11.646 E42.05445
G1 X77.844 Y12.877 E42.12409
G1 X77.376 Y13.896 E42.18272
G1 X76.771 Y15.106 E42.25337
G1 X76.014 Y16.479 E42.33530
G1 X75.309 Y17.648 E42.40662
G1 X74.560 Y18.801 E42.47845
G1 X73.878 Y19.781 E42.54079
G1 X73.042 Y20.906 E42.61406
G1 X72.048 Y22.154 E42.69739
G1 X71.127 Y23.235 E42.77160
G1 X70.281 Y24.171 E42.83751
G1 X69.162 Y25.339 E42.92203
G1 X68.121 Y26.363 E42.99831
G1 X67.041 Y27.367 E43.07535
G1 X66.040 Y28.251 E43.14512
G1 X64.885 Y29.221 E43.22393
G1 X63.580 Y30.259 E43.31106
G1 X62.355 Y31.182 E43.39119
G1 X61.096 Y32.084 E43.47212
G1 X59.914 Y32.891 E43.54688
G1 X58.587 Y33.756 E43.62961
G1 X57.119 Y34.664 E43.71979
G1 X55.730 Y35.481 E43.80400
G1 X54.310 Y36.275 E43.88901
G1 X52.965 Y36.993 E43.96866
G1 X51.382 Y37.797 E44.06141
G1 X49.876 Y38.524 E44.14880
G1 X48.443 Y39.183 E44.23121
G1 X46.782 Y39.910 E44.32589
G1 X45.196 Y40.567 E44.41558
G1 X43.586 Y41.201 E44.50602
G1 X42.047 Y41.777 E44.59183
G1 X40.294 Y42.397 E44.68900
G1 X38.615 Y42.959 E44.78150
G1 X36.914 Y43.496 E44.87466
G1 X35.285 Y43.981 E44.96349
G1 X33.454 Y44.495 E45.06286
G1 X31.695 Y44.957 E45.15785
G1 X29.919 Y45.394 E45.25341
G1 X28.127 Y45.805 E45.34948
G1 X26.406 Y46.173 E45.44140
G1 X24.497 Y46.550 E45.54308
G1 X22.661 Y46.884 E45.64055
G1 X20.899 Y47.177 E45.73391
G1 X19.039 Y47.460 E45.83220
G1 X17.084 Y47.727 E45.93527
G1 X15.205 Y47.955 E46.03418
G1 X13.401 Y48.148 E46.12897
G1 X11.422 Y48.331 E46.23276
G1 X9.521 Y48.478 E46.33238
G1 X7.698 Y48.595 E46.42784
G1 X5.787 Y48.690 E46.52777
G1 X3.791 Y48.760 E46.63212
G1 X1.958 Y48.799 E46.72792
G1 X0.101 Y48.813 E46.82493
G1 X0.038 Y48.395 F3600.000
G1 X-1.949 Y48.381 E46.92878 F1200.000
G1 X-3.859 Y48.340 E47.02858
G1 X-5.690 Y48.275 E47.12430
G1 X-7.671 Y48.177 E47.22793
G1 X-9.495 Y48.060 E47.32339
