; generated by Slic3r 1.2.9 on 2016-05-04 at 13:25:31

; external perimeters extrusion width = 0.40mm
; perimeters extrusion width = 0.67mm
; infill extrusion width = 0.67mm
; solid infill extrusion width = 0.67mm
; top infill extrusion width = 0.67mm
; support material extrusion width = 0.40mm

M107
M104 S210 ; set temperature
G28 ; home all axes
G1 X70Y70Z10 F5000 
M109 S210 ; wait for temperature to be reached
G21 ; set units to millimeters
G90 ; use absolute coordinates
M82 ; use absolute distances for extrusion
G92 E0
G1 E-3.50000 F1800.00000
G92 E0
G1 Z0.300 F3600.000
G1 X-4.952 Y12.950 F3600.000
G1 E3.50000 F1800.00000
G1 X-6.663 Y12.241 E3.59676 F1200.000
G1 X-7.269 Y11.891 E3.63330
G1 X-8.738 Y10.764 E3.73006
G1 X-11.020 Y8.482 E3.89861
G1 X-12.394 Y6.547 E4.02263
G1 X-12.856 Y5.302 E4.09199
G1 X-13.691 Y2.186 E4.26054
G1 X-13.933 Y0.350 E4.35730
G1 X-13.933 Y-0.350 E4.39384
G1 X-13.691 Y-2.186 E4.49059
G1 X-12.856 Y-5.302 E4.65914
G1 X-11.866 Y-7.460 E4.78317
G1 X-11.020 Y-8.482 E4.85253
G1 X-8.738 Y-10.764 E5.02108
G1 X-7.269 Y-11.891 E5.11783
G1 X-6.663 Y-12.241 E5.15437
G1 X-4.952 Y-12.950 E5.25113
G1 X-1.836 Y-13.785 E5.41968
G1 X0.527 Y-14.007 E5.54371
G1 X1.836 Y-13.785 E5.61307
G1 X4.952 Y-12.950 E5.78161
G1 X6.663 Y-12.241 E5.87837
G1 X7.269 Y-11.891 E5.91491
G1 X8.738 Y-10.764 E6.01167
G1 X11.020 Y-8.482 E6.18022
G1 X12.394 Y-6.547 E6.30425
G1 X12.856 Y-5.302 E6.37360
G1 X13.691 Y-2.186 E6.54215
G1 X13.933 Y-0.350 E6.63891
G1 X13.933 Y0.350 E6.67545
G1 X13.691 Y2.186 E6.77221
G1 X12.856 Y5.302 E6.94076
G1 X11.866 Y7.460 E7.06479
G1 X11.020 Y8.482 E7.13414
G1 X8.738 Y10.764 E7.30269
G1 X7.269 Y11.891 E7.39945
G1 X6.663 Y12.241 E7.43599
G1 X4.952 Y12.950 E7.53275
G1 X1.836 Y13.785 E7.70130
G1 X-0.527 Y14.007 E7.82532
G1 X-1.836 Y13.785 E7.89468
G1 X-4.894 Y12.965 E8.06009
G1 X-4.844 Y12.545 F3600.000
G1 X-6.454 Y11.878 E8.15114 F1200.000
G1 X-7.060 Y11.528 E8.18768
G1 X-8.442 Y10.467 E8.27872
G1 X-10.723 Y8.186 E8.44727
G1 X-12.046 Y6.302 E8.56756
G1 X-12.451 Y5.194 E8.62920
G1 X-13.286 Y2.077 E8.79775
G1 X-13.514 Y0.350 E8.88880
G1 X-13.514 Y-0.350 E8.92534
G1 X-13.286 Y-2.077 E9.01638
G1 X-12.451 Y-5.194 E9.18493
G1 X-11.481 Y-7.281 E9.30521
G1 X-10.723 Y-8.186 E9.36686
G1 X-8.442 Y-10.467 E9.53541
G1 X-7.060 Y-11.528 E9.62645
G1 X-6.454 Y-11.878 E9.66299
G1 X-4.844 Y-12.545 E9.75404
G1 X-1.728 Y-13.380 E9.92259
G1 X0.566 Y-13.583 E10.04287
G1 X1.728 Y-13.380 E10.10451
G1 X4.844 Y-12.545 E10.27306
G1 X6.454 Y-11.878 E10.36411
G1 X7.060 Y-11.528 E10.40065
G1 X8.442 Y-10.467 E10.49169
G1 X10.723 Y-8.186 E10.66024
G1 X12.046 Y-6.302 E10.78053
G1 X12.451 Y-5.194 E10.84217
G1 X13.286 Y-2.077 E11.01072
G1 X13.514 Y-0.350 E11.10177
G1 X13.514 Y0.350 E11.13831
G1 X13.286 Y2.077 E11.22935
G1 X12.451 Y5.194 E11.39790
G1 X11.481 Y7.281 E11.51818
G1 X10.723 Y8.186 E11.57983
G1 X8.442 Y10.467 E11.74838
G1 X7.060 Y11.528 E11.83942
G1 X6.454 Y11.878 E11.87596
G1 X4.844 Y12.545 E11.96701
G1 X1.728 Y13.380 E12.13556
G1 X-0.566 Y13.583 E12.25584
G1 X-1.728 Y13.380 E12.31748
G1 X-4.786 Y12.560 E12.48290
G1 X-4.736 Y12.140 F3600.000
G1 X-6.245 Y11.515 E12.56823 F1200.000
G1 X-6.850 Y11.166 E12.60477
G1 X-8.146 Y10.171 E12.69010
G1 X-10.427 Y7.890 E12.85865
G1 X-12.047 Y5.085 E13.02786
G1 X-12.882 Y1.969 E13.19641
G1 X-13.095 Y0.350 E13.28174
G1 X-13.095 Y-0.350 E13.31828
G1 X-12.882 Y-1.969 E13.40361
G1 X-12.047 Y-5.085 E13.57216
G1 X-10.427 Y-7.890 E13.74137
G1 X-8.146 Y-10.171 E13.90992
G1 X-6.850 Y-11.166 E13.99525
G1 X-6.245 Y-11.515 E14.03179
G1 X-4.736 Y-12.140 E14.11712
G1 X-1.619 Y-12.975 E14.28567
G1 X1.619 Y-12.975 E14.45488
G1 X4.736 Y-12.140 E14.62343
G1 X6.245 Y-11.515 E14.70876
G1 X6.850 Y-11.166 E14.74530
G1 X8.146 Y-10.171 E14.83063
G1 X10.427 Y-7.890 E14.99918
G1 X12.047 Y-5.085 E15.16838
G1 X12.882 Y-1.969 E15.33693
G1 X13.095 Y-0.350 E15.42227
G1 X13.095 Y0.350 E15.45881
G1 X12.882 Y1.969 E15.54414
G1 X12.047 Y5.085 E15.71269
G1 X10.427 Y7.890 E15.88189
G1 X8.146 Y10.171 E16.05044
G1 X6.850 Y11.166 E16.13577
G1 X6.245 Y11.515 E16.17231
G1 X4.736 Y12.140 E16.25765
G1 X1.619 Y12.975 E16.42620
G1 X-1.619 Y12.975 E16.59540
G1 X-4.678 Y12.156 E16.76082
G1 X-4.627 Y11.736 F3600.000
G1 X-6.035 Y11.153 E16.84044 F1200.000
G1 X-6.641 Y10.803 E16.87698
G1 X-7.850 Y9.875 E16.95659
G1 X-10.131 Y7.594 E17.12514
G1 X-11.642 Y4.977 E17.28302
G1 X-12.477 Y1.861 E17.45157
G1 X-12.676 Y0.350 E17.53119
G1 X-12.676 Y-0.350 E17.56773
G1 X-12.477 Y-1.861 E17.64735
G1 X-11.642 Y-4.977 E17.81590
G1 X-10.131 Y-7.594 E17.97377
G1 X-7.850 Y-9.875 E18.14232
G1 X-6.641 Y-10.803 E18.22194
G1 X-6.035 Y-11.153 E18.25848
G1 X-4.627 Y-11.736 E18.33810
G1 X-1.511 Y-12.571 E18.50665
G1 X1.511 Y-12.571 E18.66453
G1 X4.627 Y-11.736 E18.83308
G1 X6.035 Y-11.153 E18.91270
G1 X6.641 Y-10.803 E18.94924
G1 X7.850 Y-9.875 E19.02886
G1 X10.131 Y-7.594 E19.19741
G1 X11.642 Y-4.977 E19.35528
G1 X12.477 Y-1.861 E19.52383
G1 X12.676 Y-0.350 E19.60345
G1 X12.676 Y0.350 E19.63999
G1 X12.477 Y1.861 E19.71961
G1 X11.642 Y4.977 E19.88816
G1 X10.131 Y7.594 E20.04604
G1 X7.850 Y9.875 E20.21459
G1 X6.641 Y10.803 E20.29421
G1 X6.035 Y11.153 E20.33075
G1 X4.627 Y11.736 E20.41037
G1 X1.511 Y12.571 E20.57892
G1 X-1.511 Y12.571 E20.73679
G1 X-4.569 Y11.751 E20.90221
G1 X-4.519 Y11.331 F3600.000
G1 X-5.826 Y10.790 E20.97611 F1200.000
G1 X-6.431 Y10.440 E21.01265
G1 X-7.554 Y9.579 E21.08656
G1 X-9.835 Y7.298 E21.25511
G1 X-11.237 Y4.868 E21.40166
G1 X-12.072 Y1.752 E21.57021
G1 X-12.257 Y0.350 E21.64411
G1 X-12.257 Y-0.350 E21.68065
G1 X-12.072 Y-1.752 E21.75456
G1 X-11.237 Y-4.868 E21.92311
G1 X-9.835 Y-7.298 E22.06966
G1 X-7.554 Y-9.579 E22.23821
G1 X-6.431 Y-10.440 E22.31211
G1 X-5.826 Y-10.790 E22.34866
G1 X-4.519 Y-11.331 E22.42256
G1 X-1.403 Y-12.166 E22.59111
G1 X1.403 Y-12.166 E22.73766
G1 X4.519 Y-11.331 E22.90621
G1 X5.826 Y-10.790 E22.98012
G1 X6.431 Y-10.440 E23.01666
G1 X7.554 Y-9.579 E23.09056
G1 X9.835 Y-7.298 E23.25911
G1 X11.237 Y-4.868 E23.40566
G1 X12.072 Y-1.752 E23.57421
G1 X12.257 Y-0.350 E23.64812
G1 X12.257 Y0.350 E23.68466
G1 X12.072 Y1.752 E23.75856
G1 X11.237 Y4.868 E23.92711
G1 X9.835 Y7.298 E24.07366
G1 X7.554 Y9.579 E24.24221
G1 X6.431 Y10.440 E24.31612
G1 X5.826 Y10.790 E24.35266
G1 X4.519 Y11.331 E24.42656
G1 X1.403 Y12.166 E24.59511
G1 X-1.403 Y12.166 E24.74166
G1 X-4.461 Y11.347 E24.90708
G1 E21.40708 F1800.00000
G92 E0
G1 X-5.842 Y0.219 F3600.000
G1 E3.50000 F1800.00000
G1 X-5.842 Y-0.219 E3.52284 F1200.000
G1 X-5.110 Y-2.950 E3.67059
G1 X-3.110 Y-4.950 E3.81834
G1 X-2.732 Y-5.169 E3.84118
G1 X-0.000 Y-5.901 E3.98893
G1 X2.732 Y-5.169 E4.13669
G1 X3.110 Y-4.950 E4.15953
G1 X5.110 Y-2.950 E4.30728
G1 X5.842 Y-0.219 E4.45503
G1 X5.842 Y0.219 E4.47787
G1 X5.110 Y2.950 E4.62562
G1 X3.110 Y4.950 E4.77338
G1 X2.732 Y5.169 E4.79621
G1 X-0.000 Y5.901 E4.94397
G1 X-2.732 Y5.169 E5.09172
G1 X-3.110 Y4.950 E5.11456
G1 X-5.110 Y2.950 E5.26231
G1 X-5.826 Y0.277 E5.40693
G1 X-6.261 Y0.274 F3600.000
G1 X-6.261 Y-0.274 E5.43553 F1200.000
G1 X-5.486 Y-3.167 E5.59203
G1 X-3.367 Y-5.285 E5.74853
G1 X-2.893 Y-5.559 E5.77713
G1 X0.000 Y-6.334 E5.93363
G1 X2.893 Y-5.559 E6.09012
G1 X3.367 Y-5.285 E6.11872
G1 X5.486 Y-3.167 E6.27522
G1 X6.261 Y-0.274 E6.43172
G1 X6.261 Y0.274 E6.46032
G1 X5.486 Y3.167 E6.61682
G1 X3.367 Y5.285 E6.77332
G1 X2.893 Y5.559 E6.80192
G1 X0.000 Y6.334 E6.95842
G1 X-2.893 Y5.559 E7.11491
G1 X-3.367 Y5.285 E7.14351
G1 X-5.486 Y3.167 E7.30001
G1 X-6.245 Y0.332 E7.45338
G1 X-6.638 Y0.323 F3600.000
G1 X-6.638 Y-0.323 E7.48045 F1200.000
G1 X-5.824 Y-3.362 E7.61215
G1 X-3.599 Y-5.587 E7.74385
G1 X-3.039 Y-5.910 E7.77093
G1 X0.000 Y-6.725 E7.90263
G1 X3.039 Y-5.910 E8.03433
G1 X3.599 Y-5.587 E8.06140
G1 X5.824 Y-3.362 E8.19311
G1 X6.638 Y-0.323 E8.32481
G1 X6.638 Y0.323 E8.35188
G1 X5.824 Y3.362 E8.48358
G1 X3.599 Y5.587 E8.61528
G1 X3.039 Y5.910 E8.64236
G1 X0.000 Y6.725 E8.77406
G1 X-3.039 Y5.910 E8.90576
G1 X-3.599 Y5.587 E8.93283
G1 X-5.824 Y3.362 E9.06454
G1 X-6.623 Y0.381 E9.19373
G1 X-6.310 Y0.094 F3600.000
G1 E5.69373 F1800.00000
G92 E0
G1 X-2.748 Y4.809 F3600.000
G1 E3.50000 F1800.00000
G1 X-4.908 Y2.649 E3.66285 F1200.000
G1 X-5.129 Y1.823 E3.70844
G1 X-1.823 Y5.129 E3.95774
G1 X-0.997 Y5.351 E4.00332
G1 X-5.351 Y0.997 E4.33157
G1 X-5.572 Y0.171 E4.37716
G1 X-0.171 Y5.572 E4.78436
G1 X0.415 Y5.554 E4.81566
G1 X-5.554 Y-0.415 E5.26578
G1 X-5.426 Y-0.892 E5.29209
G1 X0.892 Y5.426 E5.76852
G1 X1.369 Y5.299 E5.79484
G1 X-5.299 Y-1.369 E6.29759
G1 X-5.171 Y-1.846 E6.32391
G1 X1.846 Y5.171 E6.85298
G1 X2.323 Y5.043 E6.87929
G1 X-5.043 Y-2.323 E7.43468
G1 X-4.915 Y-2.799 E7.46100
G1 X2.778 Y4.894 E8.04110
G1 X3.112 Y4.623 E8.06401
G1 X-4.623 Y-3.112 E8.64722
G1 X-4.321 Y-3.414 E8.67001
G1 X3.414 Y4.321 E9.25321
G1 X3.716 Y4.018 E9.27600
G1 X-4.018 Y-3.716 E9.85921
G1 X-3.716 Y-4.018 E9.88200
G1 X4.018 Y3.716 E10.46521
G1 X4.321 Y3.414 E10.48800
G1 X-3.414 Y-4.321 E11.07121
G1 X-3.112 Y-4.623 E11.09400
G1 X4.623 Y3.112 E11.67720
G1 X4.915 Y2.799 E11.70001
G1 X-2.778 Y-4.894 E12.28011
G1 X-2.323 Y-5.043 E12.30566
G1 X5.043 Y2.323 E12.86105
G1 X5.171 Y1.846 E12.88736
G1 X-1.846 Y-5.171 E13.41643
G1 X-1.369 Y-5.299 E13.44275
G1 X5.299 Y1.369 E13.94550
G1 X5.426 Y0.892 E13.97182
G1 X-0.892 Y-5.426 E14.44825
G1 X-0.415 Y-5.554 E14.47456
G1 X5.554 Y0.415 E14.92468
G1 X5.572 Y-0.171 E14.95598
G1 X0.171 Y-5.572 E15.36319
G1 X0.997 Y-5.351 E15.40877
G1 X5.351 Y-0.997 E15.73702
G1 X5.129 Y-1.823 E15.78261
G1 X1.823 Y-5.129 E16.03191
G1 X2.748 Y-4.809 F3600.000
G1 X4.908 Y-2.649 E16.19476 F1200.000
G1 E12.69476 F1800.00000
G92 E0
G1 Z0.300 F3600.000
M106 S255
G1 Z0.500 F3600.000
G1 X-5.720 Y0.759 F3600.000
G1 E3.50000 F1800.00000
G1 X-5.720 Y-0.759 E3.57927 F600.000
G1 X-5.129 Y-2.962 E3.69842
G1 X-3.517 Y-4.574 E3.81757
G1 X-2.203 Y-5.333 E3.89684
G1 X-0.000 Y-5.923 E4.01598
G1 X2.203 Y-5.333 E4.13513
G1 X3.517 Y-4.574 E4.21440
G1 X5.129 Y-2.962 E4.33355
G1 X5.720 Y-0.759 E4.45270
G1 X5.720 Y0.759 E4.53197
G1 X5.129 Y2.962 E4.65112
G1 X3.517 Y4.574 E4.77027
G1 X2.203 Y5.333 E4.84954
G1 X-0.000 Y5.923 E4.96869
G1 X-2.203 Y5.333 E5.08783
G1 X-3.517 Y4.574 E5.16710
G1 X-5.129 Y2.962 E5.28625
G1 X-5.704 Y0.817 E5.40227
G1 X-6.348 Y0.841 F3600.000
G1 X-6.348 Y-0.841 E5.49018 F600.000
G1 X-5.693 Y-3.287 E5.62245
G1 X-3.903 Y-5.077 E5.75471
G1 X-2.445 Y-5.918 E5.84262
G1 X0.000 Y-6.573 E5.97489
G1 X2.445 Y-5.918 E6.10716
G1 X3.903 Y-5.077 E6.19507
G1 X5.693 Y-3.287 E6.32734
G1 X6.348 Y-0.841 E6.45960
G1 X6.348 Y0.841 E6.54751
G1 X5.693 Y3.287 E6.67978
G1 X3.903 Y5.077 E6.81205
G1 X2.445 Y5.918 E6.89996
G1 X0.000 Y6.573 E7.03223
G1 X-2.445 Y5.918 E7.16449
G1 X-3.903 Y5.077 E7.25240
G1 X-5.693 Y3.287 E7.38467
G1 X-6.333 Y0.899 E7.51380
G1 X-6.841 Y0.906 F3600.000
G1 X-6.841 Y-0.906 E7.56762 F769.487
G1 X-6.135 Y-3.542 E7.64863
G1 X-4.205 Y-5.471 E7.72964
G1 X-2.636 Y-6.377 E7.78346
G1 X0.000 Y-7.084 E7.86447
G1 X2.636 Y-6.377 E7.94549
G1 X4.205 Y-5.471 E7.99930
G1 X6.135 Y-3.542 E8.08031
G1 X6.841 Y-0.906 E8.16133
G1 X6.841 Y0.906 E8.21514
G1 X6.135 Y3.542 E8.29616
G1 X4.205 Y5.471 E8.37717
G1 X2.636 Y6.377 E8.43098
G1 X0.000 Y7.084 E8.51200
G1 X-2.636 Y6.377 E8.59301
G1 X-4.205 Y5.471 E8.64682
G1 X-6.135 Y3.542 E8.72784
G1 X-6.825 Y0.964 E8.80707
G1 X-6.513 Y0.677 F3600.000
G1 E5.30707 F1800.00000
G92 E0
G1 X-3.001 Y-4.335 F3600.000
G1 E3.50000 F1800.00000
G1 X-4.812 Y-2.524 E3.63809 F635.652
G1 X-5.148 Y-1.271 E3.70801
G1 X-1.271 Y-5.148 E4.00361
G1 X-0.018 Y-5.483 E4.07353
G1 X-5.339 Y-0.163 E4.47921
G1 X-5.339 Y0.754 E4.52864
G1 X0.769 Y-5.354 E4.99435
G1 X1.492 Y-5.160 E5.03471
G1 X-5.160 Y1.492 E5.54191
G1 X-4.966 Y2.215 E5.58228
G1 X2.200 Y-4.951 E6.12868
G1 X2.781 Y-4.615 E6.16487
G1 X-4.718 Y2.884 E6.73669
G1 X-4.260 Y3.343 E6.77164
G1 X3.343 Y-4.260 E7.35129
G1 X3.801 Y-3.801 E7.38625
G1 X-3.801 Y3.801 E7.96589
G1 X-3.343 Y4.260 E8.00085
G1 X4.260 Y-3.343 E8.58049
G1 X4.718 Y-2.884 E8.61545
G1 X-2.781 Y4.615 E9.18726
G1 X-2.200 Y4.951 E9.22345
G1 X4.966 Y-2.215 E9.76986
G1 X5.160 Y-1.492 E9.81023
G1 X-1.492 Y5.160 E10.31743
G1 X-0.769 Y5.354 E10.35779
G1 X5.339 Y-0.754 E10.82350
G1 X5.339 Y0.163 E10.87294
G1 X0.018 Y5.483 E11.27862
G1 X1.271 Y5.148 E11.34853
G1 X5.148 Y1.271 E11.64413
G1 X4.812 Y2.523 E11.71405
G1 X3.001 Y4.335 E11.85215
G1 E8.35215 F1800.00000
G92 E0
G1 Z0.700 F3600.000
G1 X-5.882 Y1.225 F3600.000
G1 E3.50000 F1800.00000
G1 X-5.882 Y-1.225 E3.62799 F600.000
G1 X-5.378 Y-3.105 E3.72968
G1 X-4.002 Y-4.481 E3.83137
G1 X-1.880 Y-5.706 E3.95936
G1 X-0.000 Y-6.210 E4.06105
G1 X1.880 Y-5.706 E4.16275
G1 X4.002 Y-4.481 E4.29073
G1 X5.378 Y-3.105 E4.39243
G1 X5.882 Y-1.225 E4.49412
G1 X5.882 Y1.225 E4.62211
G1 X5.378 Y3.105 E4.72380
G1 X4.006 Y4.477 E4.82517
G1 X1.874 Y5.708 E4.95378
G1 X-0.000 Y6.210 E5.05515
G1 X-1.874 Y5.708 E5.15652
G1 X-4.006 Y4.477 E5.28513
G1 X-5.378 Y3.105 E5.38650
G1 X-5.866 Y1.283 E5.48506
G1 X-6.510 Y1.308 F3600.000
G1 X-6.510 Y-1.308 E5.62169 F603.939
G1 X-5.941 Y-3.430 E5.73650
G1 X-4.388 Y-4.984 E5.85131
G1 X-2.123 Y-6.292 E5.98794
G1 X0.000 Y-6.861 E6.10275
G1 X2.123 Y-6.292 E6.21756
G1 X4.388 Y-4.984 E6.35419
G1 X5.941 Y-3.430 E6.46900
G1 X6.510 Y-1.308 E6.58381
G1 X6.510 Y1.308 E6.72044
G1 X5.941 Y3.430 E6.83525
G1 X4.390 Y4.982 E6.94989
G1 X2.120 Y6.293 E7.08685
G1 X-0.000 Y6.861 E7.20149
G1 X-2.120 Y6.293 E7.31613
G1 X-4.390 Y4.982 E7.45309
G1 X-5.941 Y3.430 E7.56773
G1 X-6.495 Y1.366 E7.67941
G1 X-7.003 Y1.372 F3600.000
G1 X-7.003 Y-1.372 E7.76091 F708.462
G1 X-6.383 Y-3.685 E7.83200
G1 X-4.690 Y-5.378 E7.90309
G1 X-2.313 Y-6.751 E7.98460
G1 X0.000 Y-7.371 E8.05569
G1 X2.313 Y-6.751 E8.12678
G1 X4.690 Y-5.378 E8.20828
G1 X6.383 Y-3.685 E8.27938
G1 X7.003 Y-1.372 E8.35047
G1 X7.003 Y1.372 E8.43197
G1 X6.383 Y3.685 E8.50306
G1 X4.691 Y5.378 E8.57413
G1 X3.495 Y6.053 E8.61491
G1 X2.312 Y6.751 E8.65569
G1 X-0.000 Y7.371 E8.72675
G1 X-2.312 Y6.751 E8.79782
G1 X-3.495 Y6.053 E8.83860
G1 X-4.691 Y5.378 E8.87938
G1 X-6.383 Y3.685 E8.95044
G1 X-6.987 Y1.430 E9.01975
G1 X-6.675 Y1.143 F3600.000
G1 X-4.812 Y2.523 F3600.000
G1 X-3.001 Y4.335 E9.15785 F600.000
G1 X-1.271 Y5.148 F3600.000
G1 X-5.148 Y1.271 E9.45345 F600.000
G1 X-5.339 Y0.163 E9.51407
G1 X-0.018 Y5.483 E9.91974
G1 X0.769 Y5.354 E9.96276
G1 X-5.339 Y-0.754 E10.42846
G1 X-5.160 Y-1.492 E10.46940
G1 X1.492 Y5.160 E10.97660
G1 X2.200 Y4.951 E11.01640
G1 X-4.966 Y-2.215 E11.56280
G1 X-4.718 Y-2.884 E11.60126
G1 X2.781 Y4.615 E12.17307
G1 X3.343 Y4.260 E12.20889
G1 X-4.260 Y-3.343 E12.78853
G1 X-3.801 Y-3.801 E12.82349
G1 X3.801 Y3.801 E13.40313
G1 X4.260 Y3.343 E13.43809
G1 X-3.343 Y-4.260 E14.01773
G1 X-2.781 Y-4.615 E14.05355
G1 X4.718 Y2.884 E14.62536
G1 X4.966 Y2.215 E14.66382
G1 X-2.200 Y-4.951 E15.21022
G1 X-1.492 Y-5.160 E15.25002
G1 X5.160 Y1.492 E15.75722
G1 X5.339 Y0.754 E15.79816
G1 X-0.769 Y-5.354 E16.26386
G1 X0.018 Y-5.483 E16.30688
G1 X5.339 Y-0.163 E16.71255
G1 X5.148 Y-1.271 E16.77318
G1 X1.271 Y-5.148 E17.06878
G1 X3.001 Y-4.335 F3600.000
G1 X4.812 Y-2.523 E17.20688 F600.000
G1 E13.70688 F1800.00000
G92 E0
G1 Z0.900 F3600.000
G1 X-6.044 Y1.691 F3600.000
G1 E3.50000 F1800.00000
G1 X-6.044 Y-1.691 E3.67671 F600.000
G1 X-5.627 Y-3.249 E3.76094
G1 X-4.487 Y-4.389 E3.84518
G1 X-1.557 Y-6.080 E4.02189
G1 X-0.000 Y-6.497 E4.10612
G1 X1.557 Y-6.080 E4.19036
G1 X4.487 Y-4.389 E4.36707
G1 X5.627 Y-3.249 E4.45130
G1 X6.044 Y-1.691 E4.53554
G1 X6.044 Y1.691 E4.71225
G1 X5.627 Y3.249 E4.79648
G1 X4.491 Y4.384 E4.88039
G1 X3.013 Y5.219 E4.96906
G1 X1.551 Y6.081 E5.05773
G1 X-0.000 Y6.497 E5.14164
G1 X-1.551 Y6.081 E5.22555
G1 X-3.013 Y5.219 E5.31423
G1 X-4.491 Y4.384 E5.40290
G1 X-5.627 Y3.249 E5.48681
G1 X-6.028 Y1.749 E5.56791
G1 X-6.672 Y1.774 F3600.000
G1 X-6.672 Y-1.774 E5.75326 F600.000
G1 X-6.190 Y-3.574 E5.85061
G1 X-4.872 Y-4.891 E5.94797
G1 X-1.800 Y-6.665 E6.13332
G1 X0.000 Y-7.148 E6.23067
G1 X1.800 Y-6.665 E6.32802
G1 X4.872 Y-4.891 E6.51338
G1 X6.190 Y-3.574 E6.61073
G1 X6.672 Y-1.774 E6.70808
G1 X6.672 Y1.774 E6.89343
G1 X6.190 Y3.574 E6.99078
G1 X4.875 Y4.889 E7.08797
G1 X3.327 Y5.763 E7.18081
G1 X1.797 Y6.666 E7.27366
G1 X0.000 Y7.148 E7.37084
G1 X-1.797 Y6.666 E7.46802
G1 X-3.327 Y5.763 E7.56086
