; generated by Slic3r 1.2.9 on 2016-02-19 at 13:31:40

; external perimeters extrusion width = 0.40mm
; perimeters extrusion width = 0.67mm
; infill extrusion width = 0.67mm
; solid infill extrusion width = 0.67mm
; top infill extrusion width = 0.67mm

M107
M104 S210 ; set temperature
G28 ; home all axes
G1 X70Y70Z10 F5000 
M109 S210 ; wait for temperature to be reached
G21 ; set units to millimeters
G90 ; use absolute coordinates
M82 ; use absolute distances for extrusion
G92 E0
G1 E-3.50000 F1800.00000
G92 E0
G1 Z0.300 F6000.000
G1 X3.694 Y5.060 F6000.000
G1 E3.50000 F1800.00000
G1 X2.960 Y5.569 E3.54665 F1200.000
G1 X2.521 Y5.846 E3.57374
G1 X1.903 Y6.208 E3.61119
G1 X1.137 Y6.607 E3.65632
G1 X0.684 Y6.819 E3.68243
G1 X-0.089 Y7.143 E3.72621
G1 X-0.855 Y7.420 E3.76878
G1 X-1.625 Y7.657 E3.81089
G1 X-2.389 Y7.852 E3.85208
G1 X-3.143 Y8.008 E3.89228
G1 X-3.885 Y8.127 E3.93158
G1 X-4.636 Y8.214 E3.97104
G1 X-5.399 Y8.267 E4.01101
G1 X-6.174 Y8.284 E4.05149
G1 X-7.321 Y8.238 E4.11147
G1 X-8.548 Y8.091 E4.17606
G1 X-9.737 Y7.848 E4.23944
G1 X-10.920 Y7.501 E4.30383
G1 X-11.673 Y7.223 E4.34580
G1 X-12.405 Y6.906 E4.38747
G1 X-13.116 Y6.551 E4.42900
G1 X-13.807 Y6.158 E4.47055
G1 X-14.814 Y5.487 E4.53376
G1 X-15.460 Y4.985 E4.57649
G1 X-15.782 Y4.711 E4.59860
G1 X-16.360 Y4.165 E4.64011
G1 X-16.807 Y3.689 E4.67422
G1 X-17.402 Y2.962 E4.72330
G1 X-17.637 Y2.638 E4.74425
G1 X-18.158 Y1.827 E4.79457
G1 X-18.445 Y1.305 E4.82571
G1 X-18.861 Y0.412 E4.87720
G1 X-19.008 Y0.041 E4.89803
G1 X-19.322 Y-0.909 E4.95028
G1 X-19.465 Y-1.459 E4.97998
G1 X-19.648 Y-2.389 E5.02952
G1 X-19.762 Y-3.308 E5.07788
G1 X-19.796 Y-3.764 E5.10179
G1 X-19.814 Y-4.217 E5.12548
G1 X-19.810 Y-5.111 E5.17216
G1 X-19.784 Y-5.617 E5.19862
G1 X-19.714 Y-6.347 E5.23694
G1 X-19.638 Y-6.913 E5.26677
G1 X-19.469 Y-7.814 E5.31469
G1 X-19.349 Y-8.328 E5.34225
G1 X-19.099 Y-9.197 E5.38951
G1 X-18.641 Y-10.449 E5.45917
G1 X-18.268 Y-11.278 E5.50663
G1 X-18.020 Y-11.765 E5.53520
G1 X-17.369 Y-12.872 E5.60226
G1 X-16.848 Y-13.628 E5.65027
G1 X-16.531 Y-14.044 E5.67759
G1 X-15.936 Y-14.750 E5.72585
G1 X-15.622 Y-15.088 E5.74995
G1 X-15.292 Y-15.421 E5.77441
G1 X-14.604 Y-16.050 E5.82310
G1 X-14.241 Y-16.349 E5.84768
G1 X-13.499 Y-16.902 E5.89603
G1 X-12.746 Y-17.391 E5.94293
G1 X-12.325 Y-17.635 E5.96834
G1 X-11.518 Y-18.052 E6.01582
G1 X-10.939 Y-18.310 E6.04895
G1 X-10.299 Y-18.564 E6.08488
G1 X-9.452 Y-18.845 E6.13152
G1 X-8.612 Y-19.070 E6.17694
G1 X-8.160 Y-19.169 E6.20112
G1 X-7.310 Y-19.319 E6.24623
G1 X-6.464 Y-19.421 E6.29073
G1 X-5.285 Y-19.489 E6.35244
G1 X-4.466 Y-19.488 E6.39523
G1 X-3.653 Y-19.448 E6.43777
G1 X-2.848 Y-19.372 E6.47999
G1 X-2.010 Y-19.253 E6.52422
G1 X-1.505 Y-19.161 E6.55106
G1 X-0.644 Y-18.965 E6.59716
G1 X0.236 Y-18.712 E6.64503
G1 X0.648 Y-18.573 E6.66774
G1 X1.563 Y-18.216 E6.71904
G1 X2.033 Y-18.005 E6.74595
G1 X2.940 Y-17.538 E6.79925
G1 X3.372 Y-17.286 E6.82540
G1 X3.835 Y-16.991 E6.85409
G1 X4.708 Y-16.366 E6.91017
G1 X5.535 Y-15.674 E6.96649
G1 X5.927 Y-15.307 E6.99458
G1 X6.696 Y-14.499 E7.05285
G1 X7.398 Y-13.632 E7.11112
G1 X7.746 Y-13.141 E7.14257
G1 X8.071 Y-12.638 E7.17383
G1 X8.372 Y-12.119 E7.20522
G1 X8.673 Y-11.535 E7.23954
G1 X8.920 Y-10.990 E7.27079
G1 X9.183 Y-10.314 E7.30868
G1 X9.368 Y-9.749 E7.33976
G1 X9.574 Y-8.953 E7.38269
G1 X9.678 Y-8.429 E7.41060
G1 X9.788 Y-7.640 E7.45226
G1 X9.833 Y-7.106 E7.48022
G1 X9.856 Y-6.364 E7.51902
G1 X9.844 Y-5.826 E7.54714
G1 X9.795 Y-5.135 E7.58333
G1 X9.730 Y-4.596 E7.61165
G1 X9.625 Y-3.960 E7.64534
G1 X9.501 Y-3.384 E7.67611
G1 X9.208 Y-2.348 E7.73241
G1 X8.996 Y-1.743 E7.76585
G1 X8.555 Y-0.706 E7.82478
G1 X8.300 Y-0.194 E7.85463
G1 X7.749 Y0.759 E7.91216
G1 X7.459 Y1.202 E7.93981
G1 X6.846 Y2.036 E7.99391
G1 X6.201 Y2.800 E8.04615
G1 X5.821 Y3.207 E8.07524
G1 X4.827 Y4.153 E8.14691
G1 X4.417 Y4.500 E8.17498
G1 X3.742 Y5.024 E8.21964
G1 X3.441 Y4.726 F6000.000
G1 X2.725 Y5.222 E8.26513 F1200.000
G1 X2.304 Y5.487 E8.29112
G1 X1.705 Y5.839 E8.32742
G1 X0.958 Y6.228 E8.37140
G1 X0.507 Y6.439 E8.39745
G1 X-0.246 Y6.755 E8.44010
G1 X-0.993 Y7.025 E8.48159
G1 X-1.744 Y7.255 E8.52263
G1 X-2.489 Y7.445 E8.56278
G1 X-3.224 Y7.597 E8.60198
G1 X-3.948 Y7.713 E8.64033
G1 X-4.680 Y7.798 E8.67882
G1 X-5.424 Y7.849 E8.71776
G1 X-6.178 Y7.865 E8.75718
G1 X-7.283 Y7.820 E8.81493
G1 X-8.487 Y7.677 E8.87832
G1 X-9.630 Y7.443 E8.93926
G1 X-10.791 Y7.103 E9.00244
G1 X-11.522 Y6.832 E9.04322
G1 X-12.234 Y6.523 E9.08371
G1 X-12.924 Y6.179 E9.12405
G1 X-13.595 Y5.796 E9.16439
G1 X-14.563 Y5.152 E9.22511
G1 X-15.509 Y4.393 E9.28850
G1 X-16.063 Y3.870 E9.32831
G1 X-16.490 Y3.416 E9.36083
G1 X-17.064 Y2.715 E9.40818
G1 X-17.298 Y2.392 E9.42906
G1 X-17.799 Y1.609 E9.47759
G1 X-18.070 Y1.118 E9.50689
G1 X-18.472 Y0.257 E9.55654
G1 X-18.619 Y-0.113 E9.57737
G1 X-18.921 Y-1.030 E9.62780
G1 X-19.147 Y-1.967 E9.67816
G1 X-19.233 Y-2.448 E9.70368
G1 X-19.344 Y-3.339 E9.75056
G1 X-19.395 Y-4.221 E9.79675
G1 X-19.400 Y-4.690 E9.82126
G1 X-19.335 Y-5.966 E9.88798
G1 X-19.277 Y-6.477 E9.91486
G1 X-19.136 Y-7.356 E9.96135
G1 X-18.841 Y-8.601 E10.02821
G1 X-18.573 Y-9.453 E10.07490
G1 X-18.401 Y-9.921 E10.10092
G1 X-17.894 Y-11.089 E10.16745
G1 X-17.648 Y-11.574 E10.19586
G1 X-17.210 Y-12.338 E10.24186
G1 X-16.514 Y-13.376 E10.30716
G1 X-15.957 Y-14.087 E10.35437
G1 X-15.619 Y-14.476 E10.38124
G1 X-14.995 Y-15.126 E10.42836
G1 X-14.673 Y-15.430 E10.45149
G1 X-14.327 Y-15.736 E10.47562
G1 X-13.623 Y-16.297 E10.52261
G1 X-12.889 Y-16.807 E10.56934
G1 X-12.374 Y-17.123 E10.60089
G1 X-11.762 Y-17.463 E10.63750
G1 X-10.969 Y-17.842 E10.68342
G1 X-10.531 Y-18.026 E10.70823
G1 X-9.717 Y-18.323 E10.75350
G1 X-8.522 Y-18.661 E10.81836
G1 X-7.709 Y-18.830 E10.86176
G1 X-6.898 Y-18.952 E10.90460
G1 X-5.609 Y-19.059 E10.97216
G1 X-4.800 Y-19.074 E11.01445
G1 X-3.997 Y-19.050 E11.05642
G1 X-3.201 Y-18.989 E11.09816
G1 X-2.397 Y-18.890 E11.14047
G1 X-1.581 Y-18.749 E11.18372
G1 X-0.743 Y-18.558 E11.22865
G1 X0.502 Y-18.180 E11.29660
G1 X1.391 Y-17.834 E11.34644
G1 X1.861 Y-17.623 E11.37336
G1 X2.741 Y-17.169 E11.42512
G1 X3.148 Y-16.932 E11.44972
G1 X3.611 Y-16.638 E11.47836
G1 X4.458 Y-16.030 E11.53281
G1 X5.260 Y-15.358 E11.58750
G1 X5.630 Y-15.012 E11.61393
G1 X6.376 Y-14.229 E11.67047
G1 X7.058 Y-13.388 E11.72700
G1 X7.404 Y-12.900 E11.75830
G1 X7.709 Y-12.427 E11.78771
G1 X8.009 Y-11.910 E11.81893
G1 X8.293 Y-11.360 E11.85123
G1 X8.538 Y-10.819 E11.88230
G1 X8.785 Y-10.182 E11.91796
G1 X8.969 Y-9.620 E11.94886
G1 X9.163 Y-8.872 E11.98925
G1 X9.267 Y-8.348 E12.01716
G1 X9.371 Y-7.605 E12.05636
G1 X9.415 Y-7.071 E12.08432
G1 X9.437 Y-6.373 E12.12083
G1 X9.425 Y-5.835 E12.14895
G1 X9.379 Y-5.185 E12.18300
G1 X9.315 Y-4.646 E12.21133
G1 X9.215 Y-4.048 E12.24303
G1 X9.092 Y-3.474 E12.27367
G1 X8.807 Y-2.471 E12.32818
G1 X8.608 Y-1.899 E12.35980
G1 X8.180 Y-0.892 E12.41695
G1 X7.926 Y-0.382 E12.44673
G1 X7.391 Y0.543 E12.50256
G1 X7.118 Y0.959 E12.52858
G1 X6.522 Y1.771 E12.58118
G1 X5.894 Y2.515 E12.63203
G1 X5.515 Y2.921 E12.66108
G1 X4.556 Y3.833 E12.73020
G1 X4.146 Y4.180 E12.75827
G1 X3.489 Y4.690 E12.80174
G1 X3.188 Y4.392 F6000.000
G1 X2.225 Y5.046 E12.86255 F1200.000
G1 X1.507 Y5.470 E12.90610
G1 X1.058 Y5.709 E12.93270
G1 X0.329 Y6.060 E12.97493
G1 X-0.155 Y6.266 E13.00241
G1 X-0.693 Y6.476 E13.03260
G1 X-1.424 Y6.724 E13.07292
G1 X-2.149 Y6.931 E13.11234
G1 X-2.866 Y7.099 E13.15081
G1 X-3.570 Y7.232 E13.18822
G1 X-4.288 Y7.335 E13.22610
G1 X-5.015 Y7.405 E13.26430
G1 X-5.752 Y7.441 E13.30284
G1 X-6.926 Y7.424 E13.36416
G1 X-7.674 Y7.364 E13.40338
G1 X-8.426 Y7.262 E13.44304
G1 X-9.523 Y7.038 E13.50154
G1 X-10.662 Y6.704 E13.56351
G1 X-11.372 Y6.441 E13.60310
G1 X-12.062 Y6.141 E13.64241
G1 X-12.733 Y5.806 E13.68156
G1 X-13.383 Y5.435 E13.72070
G1 X-14.311 Y4.817 E13.77891
G1 X-15.236 Y4.075 E13.84088
G1 X-15.766 Y3.575 E13.87898
G1 X-16.172 Y3.143 E13.90992
G1 X-16.725 Y2.468 E13.95554
G1 X-16.959 Y2.146 E13.97635
G1 X-17.441 Y1.392 E14.02308
G1 X-17.695 Y0.932 E14.05054
G1 X-18.083 Y0.103 E14.09835
G1 X-18.230 Y-0.268 E14.11918
G1 X-18.520 Y-1.152 E14.16780
G1 X-18.738 Y-2.056 E14.21640
G1 X-18.819 Y-2.507 E14.24033
G1 X-18.926 Y-3.369 E14.28572
G1 X-18.976 Y-4.225 E14.33051
G1 X-18.981 Y-4.694 E14.35502
G1 X-18.918 Y-5.920 E14.41912
G1 X-18.861 Y-6.429 E14.44591
G1 X-18.724 Y-7.283 E14.49109
G1 X-18.440 Y-8.480 E14.55538
G1 X-18.179 Y-9.309 E14.60077
G1 X-18.008 Y-9.777 E14.62678
G1 X-17.520 Y-10.900 E14.69077
G1 X-17.275 Y-11.382 E14.71902
G1 X-16.849 Y-12.125 E14.76375
G1 X-16.180 Y-13.123 E14.82656
G1 X-15.639 Y-13.814 E14.87239
G1 X-15.303 Y-14.201 E14.89913
G1 X-14.697 Y-14.831 E14.94484
G1 X-14.395 Y-15.116 E14.96651
G1 X-14.049 Y-15.422 E14.99064
G1 X-13.368 Y-15.965 E15.03618
G1 X-12.656 Y-16.459 E15.08147
G1 X-12.163 Y-16.761 E15.11164
G1 X-11.574 Y-17.088 E15.14683
G1 X-10.806 Y-17.457 E15.19135
G1 X-10.369 Y-17.640 E15.21608
G1 X-9.579 Y-17.927 E15.26001
G1 X-8.432 Y-18.252 E15.32230
G1 X-7.641 Y-18.416 E15.36449
G1 X-6.852 Y-18.536 E15.40618
G1 X-5.585 Y-18.641 E15.47261
G1 X-4.797 Y-18.655 E15.51382
G1 X-4.013 Y-18.632 E15.55476
G1 X-3.236 Y-18.572 E15.59548
G1 X-2.452 Y-18.475 E15.63675
G1 X-1.657 Y-18.337 E15.67892
G1 X-0.841 Y-18.151 E15.72267
G1 X0.356 Y-17.787 E15.78801
G1 X1.219 Y-17.452 E15.83639
G1 X1.689 Y-17.241 E15.86331
G1 X2.543 Y-16.800 E15.91354
G1 X2.925 Y-16.577 E15.93659
G1 X3.386 Y-16.284 E15.96518
G1 X4.207 Y-15.694 E16.01799
G1 X4.986 Y-15.042 E16.07106
G1 X5.332 Y-14.718 E16.09583
G1 X6.056 Y-13.958 E16.15064
G1 X6.717 Y-13.144 E16.20544
G1 X7.062 Y-12.658 E16.23658
G1 X7.348 Y-12.215 E16.26414
G1 X7.646 Y-11.700 E16.29520
G1 X7.912 Y-11.186 E16.32547
G1 X8.156 Y-10.647 E16.35636
G1 X8.388 Y-10.051 E16.38978
G1 X8.570 Y-9.492 E16.42050
G1 X8.752 Y-8.790 E16.45836
G1 X8.856 Y-8.266 E16.48627
G1 X8.953 Y-7.570 E16.52300
G1 X8.998 Y-7.037 E16.55097
G1 X9.018 Y-6.382 E16.58519
G1 X9.006 Y-5.844 E16.61331
G1 X8.963 Y-5.234 E16.64522
G1 X8.899 Y-4.696 E16.67355
G1 X8.805 Y-4.135 E16.70326
G1 X8.683 Y-3.564 E16.73376
G1 X8.407 Y-2.593 E16.78650
G1 X8.219 Y-2.055 E16.81629
G1 X7.805 Y-1.079 E16.87166
G1 X7.551 Y-0.570 E16.90138
G1 X7.032 Y0.326 E16.95551
G1 X6.776 Y0.717 E16.97990
G1 X6.198 Y1.505 E17.03100
G1 X5.588 Y2.229 E17.08045
G1 X5.209 Y2.635 E17.10947
G1 X4.285 Y3.513 E17.17603
G1 X3.875 Y3.860 E17.20410
G1 X3.236 Y4.356 E17.24638
G1 X2.935 Y4.059 F6000.000
G1 X2.008 Y4.688 E17.30494 F1200.000
G1 X1.309 Y5.100 E17.34734
G1 X0.861 Y5.340 E17.37388
G1 X0.152 Y5.680 E17.41496
G1 X-0.313 Y5.878 E17.44137
G1 X-0.831 Y6.081 E17.47043
G1 X-1.542 Y6.322 E17.50967
G1 X-2.249 Y6.524 E17.54805
G1 X-2.947 Y6.688 E17.58552
G1 X-3.633 Y6.818 E17.62200
G1 X-4.332 Y6.918 E17.65889
G1 X-5.040 Y6.987 E17.69605
G1 X-5.757 Y7.022 E17.73353
G1 X-6.909 Y7.006 E17.79375
G1 X-7.635 Y6.947 E17.83183
G1 X-8.365 Y6.848 E17.87031
G1 X-9.417 Y6.633 E17.92637
G1 X-10.533 Y6.306 E17.98713
G1 X-11.222 Y6.050 E18.02553
G1 X-11.891 Y5.759 E18.06365
G1 X-12.541 Y5.434 E18.10162
G1 X-13.171 Y5.074 E18.13955
G1 X-14.059 Y4.483 E18.19527
G1 X-14.963 Y3.758 E18.25581
G1 X-15.469 Y3.279 E18.29220
G1 X-15.854 Y2.870 E18.32156
G1 X-16.387 Y2.221 E18.36544
G1 X-16.620 Y1.900 E18.38618
G1 X-17.083 Y1.175 E18.43112
G1 X-17.320 Y0.745 E18.45674
G1 X-17.693 Y-0.052 E18.50271
G1 X-17.840 Y-0.422 E18.52354
G1 X-18.119 Y-1.273 E18.57034
G1 X-18.328 Y-2.145 E18.61719
G1 X-18.404 Y-2.566 E18.63952
G1 X-18.509 Y-3.400 E18.68342
G1 X-18.558 Y-4.229 E18.72682
G1 X-18.562 Y-4.698 E18.75132
G1 X-18.502 Y-5.873 E18.81281
G1 X-18.445 Y-6.381 E18.83950
G1 X-18.311 Y-7.210 E18.88337
G1 X-18.039 Y-8.360 E18.94509
G1 X-17.786 Y-9.165 E18.98918
G1 X-17.615 Y-9.632 E19.01519
G1 X-17.146 Y-10.711 E19.07664
G1 X-16.903 Y-11.191 E19.10473
G1 X-16.488 Y-11.912 E19.14820
G1 X-15.845 Y-12.871 E19.20850
G1 X-15.321 Y-13.541 E19.25296
G1 X-14.987 Y-13.926 E19.27958
G1 X-14.400 Y-14.536 E19.32385
G1 X-14.118 Y-14.802 E19.34408
G1 X-13.772 Y-15.108 E19.36820
G1 X-13.112 Y-15.633 E19.41230
G1 X-12.422 Y-16.112 E19.45614
G1 X-11.952 Y-16.399 E19.48495
G1 X-11.387 Y-16.713 E19.51871
G1 X-10.643 Y-17.071 E19.56182
G1 X-10.208 Y-17.253 E19.58649
G1 X-9.442 Y-17.532 E19.62906
G1 X-8.342 Y-17.842 E19.68878
G1 X-7.574 Y-18.003 E19.72977
G1 X-6.807 Y-18.120 E19.77030
G1 X-5.561 Y-18.223 E19.83560
G1 X-4.793 Y-18.237 E19.87575
G1 X-4.030 Y-18.213 E19.91564
G1 X-3.272 Y-18.155 E19.95535
G1 X-2.508 Y-18.060 E19.99558
G1 X-1.733 Y-17.925 E20.03667
G1 X-0.939 Y-17.744 E20.07924
G1 X0.210 Y-17.395 E20.14197
G1 X1.047 Y-17.070 E20.18889
G1 X1.517 Y-16.859 E20.21580
G1 X2.345 Y-16.431 E20.26450
G1 X2.701 Y-16.223 E20.28601
G1 X3.162 Y-15.931 E20.31454
G1 X3.957 Y-15.358 E20.36572
G1 X4.711 Y-14.725 E20.41716
G1 X5.034 Y-14.423 E20.44028
G1 X5.736 Y-13.688 E20.49335
G1 X6.377 Y-12.900 E20.54642
G1 X6.720 Y-12.417 E20.57740
G1 X6.987 Y-12.003 E20.60312
G1 X7.283 Y-11.491 E20.63401
G1 X7.531 Y-11.011 E20.66225
G1 X7.774 Y-10.475 E20.69297
G1 X7.990 Y-9.919 E20.72415
G1 X8.172 Y-9.364 E20.75469
G1 X8.341 Y-8.709 E20.79001
G1 X8.445 Y-8.185 E20.81792
G1 X8.536 Y-7.535 E20.85220
G1 X8.580 Y-7.002 E20.88016
G1 X8.599 Y-6.391 E20.91209
G1 X8.587 Y-5.853 E20.94021
G1 X8.547 Y-5.284 E20.96999
G1 X8.483 Y-4.746 E20.99831
G1 X8.396 Y-4.223 E21.02603
G1 X8.274 Y-3.654 E21.05641
G1 X8.006 Y-2.716 E21.10737
G1 X7.830 Y-2.211 E21.13533
G1 X7.430 Y-1.266 E21.18892
G1 X7.177 Y-0.758 E21.21858
G1 X6.673 Y0.110 E21.27101
G1 X6.435 Y0.474 E21.29376
G1 X5.874 Y1.240 E21.34336
G1 X5.281 Y1.944 E21.39142
G1 X4.903 Y2.349 E21.42041
G1 X4.015 Y3.194 E21.48441
G1 X3.605 Y3.541 E21.51249
G1 X2.983 Y4.022 E21.55358
G1 X2.682 Y3.725 F6000.000
G1 X1.790 Y4.329 E21.60987 F1200.000
G1 X1.111 Y4.731 E21.65112
G1 X0.664 Y4.970 E21.67760
G1 X-0.025 Y5.301 E21.71754
G1 X-0.472 Y5.491 E21.74287
G1 X-0.969 Y5.686 E21.77080
G1 X-1.661 Y5.920 E21.80897
G1 X-2.348 Y6.117 E21.84630
G1 X-3.028 Y6.277 E21.88278
G1 X-3.696 Y6.404 E21.91831
G1 X-4.376 Y6.502 E21.95422
G1 X-5.065 Y6.569 E21.99036
G1 X-5.761 Y6.604 E22.02678
G1 X-6.892 Y6.587 E22.08589
G1 X-7.597 Y6.529 E22.12283
G1 X-8.304 Y6.433 E22.16013
G1 X-9.310 Y6.228 E22.21374
G1 X-10.404 Y5.907 E22.27329
G1 X-11.071 Y5.659 E22.31050
G1 X-11.719 Y5.377 E22.34744
G1 X-12.349 Y5.061 E22.38422
G1 X-12.959 Y4.713 E22.42095
G1 X-13.807 Y4.148 E22.47416
G1 X-14.690 Y3.440 E22.53328
G1 X-15.172 Y2.984 E22.56796
G1 X-15.537 Y2.597 E22.59574
G1 X-16.049 Y1.974 E22.63789
G1 X-16.281 Y1.654 E22.65856
G1 X-16.725 Y0.957 E22.70170
G1 X-16.945 Y0.559 E22.72549
G1 X-17.304 Y-0.206 E22.76961
G1 X-17.451 Y-0.577 E22.79044
G1 X-17.718 Y-1.395 E22.83543
G1 X-17.919 Y-2.235 E22.88053
G1 X-17.989 Y-2.625 E22.90125
G1 X-18.091 Y-3.430 E22.94367
G1 X-18.139 Y-4.233 E22.98567
G1 X-18.143 Y-4.702 E23.01017
G1 X-18.086 Y-5.827 E23.06904
G1 X-18.029 Y-6.333 E23.09564
G1 X-17.898 Y-7.137 E23.13820
G1 X-17.638 Y-8.239 E23.19735
G1 X-17.393 Y-9.021 E23.24014
G1 X-17.221 Y-9.488 E23.26615
G1 X-16.772 Y-10.522 E23.32505
G1 X-16.530 Y-10.999 E23.35299
G1 X-16.128 Y-11.699 E23.39518
G1 X-15.511 Y-12.618 E23.45300
G1 X-15.004 Y-13.268 E23.49607
G1 X-14.671 Y-13.651 E23.52256
G1 X-13.841 Y-14.488 E23.58418
G1 X-13.495 Y-14.794 E23.60830
G1 X-12.856 Y-15.302 E23.65095
G1 X-12.189 Y-15.764 E23.69334
G1 X-11.741 Y-16.038 E23.72078
G1 X-11.200 Y-16.339 E23.75311
G1 X-10.480 Y-16.685 E23.79483
G1 X-10.046 Y-16.867 E23.81942
G1 X-9.305 Y-17.136 E23.86065
G1 X-8.252 Y-17.433 E23.91780
G1 X-7.506 Y-17.589 E23.95758
G1 X-6.761 Y-17.703 E23.99696
G1 X-5.537 Y-17.805 E24.06113
G1 X-4.790 Y-17.818 E24.10020
G1 X-4.046 Y-17.795 E24.13905
G1 X-3.308 Y-17.737 E24.17775
G1 X-2.563 Y-17.645 E24.21695
G1 X-1.809 Y-17.513 E24.25695
G1 X-1.037 Y-17.336 E24.29833
G1 X0.064 Y-17.002 E24.35846
G1 X0.876 Y-16.688 E24.40392
G1 X1.346 Y-16.477 E24.43083
G1 X2.147 Y-16.062 E24.47799
G1 X2.477 Y-15.869 E24.49796
G1 X2.937 Y-15.577 E24.52644
G1 X3.707 Y-15.022 E24.57598
G1 X4.437 Y-14.409 E24.62579
G1 X4.736 Y-14.128 E24.64725
G1 X5.416 Y-13.418 E24.69859
G1 X6.036 Y-12.656 E24.74993
G1 X6.378 Y-12.175 E24.78076
G1 X6.920 Y-11.282 E24.83533
G1 X7.150 Y-10.836 E24.86155
