; generated by Slic3r 1.2.9 on 2016-01-13 at 13:25:06

; external perimeters extrusion width = 0.40mm
; perimeters extrusion width = 0.67mm
; infill extrusion width = 0.67mm
; solid infill extrusion width = 0.67mm
; top infill extrusion width = 0.67mm
; support material extrusion width = 0.40mm

M107
M104 S210 ; set temperature
G28 ; home all axes
G1 X70Y70Z5 F5000 
M109 S210 ; wait for temperature to be reached
G21 ; set units to millimeters
G90 ; use absolute coordinates
M82 ; use absolute distances for extrusion
G92 E0
G1 E-3.50000 F1800.00000
G92 E0
G1 Z0.200 F6000.000
G1 X39.385 Y0.000 F6000.000
G1 E3.50000 F1800.00000
G1 X39.385 Y22.500 E4.67551 F1363.944
G1 X38.986 Y26.148 E4.86724
G1 X37.809 Y29.624 E5.05897
G1 X35.908 Y32.763 E5.25071
G1 X33.374 Y35.418 E5.44244
G1 X30.326 Y37.462 E5.63417
G1 X26.908 Y38.799 E5.82590
G1 X22.500 Y39.385 E6.05824
G1 X-22.500 Y39.385 E8.40926
G1 X-26.148 Y38.986 E8.60099
G1 X-29.624 Y37.809 E8.79272
G1 X-32.763 Y35.908 E8.98446
G1 X-35.418 Y33.374 E9.17619
G1 X-37.462 Y30.326 E9.36792
G1 X-38.799 Y26.908 E9.55965
G1 X-39.385 Y22.500 E9.79199
G1 X-39.385 Y-22.500 E12.14301
G1 X-38.986 Y-26.148 E12.33474
G1 X-37.809 Y-29.624 E12.52647
G1 X-35.908 Y-32.763 E12.71821
G1 X-33.374 Y-35.418 E12.90994
G1 X-30.326 Y-37.462 E13.10167
G1 X-26.908 Y-38.799 E13.29340
G1 X-22.500 Y-39.385 E13.52574
G1 X22.500 Y-39.385 E15.87676
G1 X26.148 Y-38.986 E16.06849
G1 X29.624 Y-37.809 E16.26022 F1363.944
G1 X32.763 Y-35.908 E16.45196
G1 X35.418 Y-33.374 E16.64369
G1 X37.462 Y-30.326 E16.83542
G1 X38.799 Y-26.908 E17.02715
G1 X39.385 Y-22.500 E17.25949
G1 X39.385 Y-0.060 E18.43187
G1 X38.757 Y-0.060 F6000.000
G1 X38.757 Y22.500 E19.61051 F1363.944
G1 X38.358 Y26.079 E19.79863
G1 X37.181 Y29.482 E19.98675
G1 X35.284 Y32.542 E20.17487
G1 X32.760 Y35.110 E20.36299
G1 X29.732 Y37.059 E20.55111
G1 X26.350 Y38.294 E20.73923
G1 X22.500 Y38.757 E20.94183
G1 X-22.500 Y38.757 E23.29285
G1 X-26.079 Y38.358 E23.48097
G1 X-29.482 Y37.181 E23.66909
G1 X-32.542 Y35.284 E23.85721
G1 X-35.110 Y32.760 E24.04533
G1 X-37.059 Y29.732 E24.23345
G1 X-38.294 Y26.350 E24.42157
G1 X-38.757 Y22.500 E24.62416
G1 X-38.757 Y-22.500 E26.97518
G1 X-38.358 Y-26.079 E27.16330
G1 X-37.181 Y-29.482 E27.35142
G1 X-35.284 Y-32.542 E27.53954
G1 X-32.760 Y-35.110 E27.72766
G1 X-29.732 Y-37.059 E27.91578
G1 X-26.350 Y-38.294 E28.10390
G1 X-22.500 Y-38.757 E28.30650
G1 X22.500 Y-38.757 E30.65752
G1 X26.079 Y-38.358 E30.84564
G1 X29.482 Y-37.181 E31.03376 F1363.944
G1 X32.542 Y-35.284 E31.22188
G1 X35.110 Y-32.760 E31.41000
G1 X37.059 Y-29.732 E31.59812
G1 X38.294 Y-26.350 E31.78624
G1 X38.757 Y-22.500 E31.98883
G1 X38.757 Y-0.120 E33.15807
G1 X38.128 Y-0.120 F6000.000
G1 X38.128 Y22.500 E34.33985 F1363.944
G1 X37.730 Y26.008 E34.52429
G1 X36.554 Y29.336 E34.70873
G1 X34.661 Y32.316 E34.89317
G1 X32.147 Y34.795 E35.07760
G1 X29.142 Y36.647 E35.26204
G1 X25.797 Y37.777 E35.44648
G1 X22.500 Y38.128 E35.61972
G1 X-22.500 Y38.128 E37.97074
G1 X-26.008 Y37.730 E38.15517
G1 X-29.336 Y36.554 E38.33961
G1 X-32.316 Y34.661 E38.52405
G1 X-34.795 Y32.147 E38.70849
G1 X-36.647 Y29.142 E38.89292
G1 X-37.777 Y25.797 E39.07736
G1 X-38.128 Y22.500 E39.25060
G1 X-38.128 Y-22.500 E41.60162
G1 X-37.730 Y-26.008 E41.78606
G1 X-36.554 Y-29.336 E41.97050
G1 X-34.661 Y-32.316 E42.15493
G1 X-32.147 Y-34.795 E42.33937
G1 X-29.142 Y-36.647 E42.52381
G1 X-25.797 Y-37.777 E42.70825
G1 X-22.500 Y-38.128 E42.88148
G1 X22.500 Y-38.128 E45.23250
G1 X26.008 Y-37.730 E45.41694
G1 X29.336 Y-36.554 E45.60138 F1363.944
G1 X32.316 Y-34.661 E45.78582
G1 X34.795 Y-32.147 E45.97025
G1 X36.647 Y-29.142 E46.15469
G1 X37.777 Y-25.797 E46.33913
G1 X38.128 Y-22.500 E46.51237
G1 X38.128 Y-0.180 E47.67847
G1 E44.17847 F1800.00000
G92 E0
G1 X18.657 Y10.794 F6000.000
G1 E3.50000 F1800.00000
G1 X18.948 Y11.445 E3.53728 F1363.944
G1 X19.154 Y12.106 E3.57348
G1 X19.281 Y12.798 E3.61022
G1 X19.323 Y13.500 E3.64696
G1 X19.281 Y14.202 E3.68369
G1 X19.154 Y14.895 E3.72050
G1 X18.941 Y15.574 E3.75771
G1 X18.656 Y16.206 E3.79391
G1 X18.293 Y16.808 E3.83065
G1 X17.859 Y17.362 E3.86739
G1 X17.362 Y17.859 E3.90413
G1 X16.808 Y18.293 E3.94087
G1 X16.206 Y18.656 E3.97761
G1 X15.565 Y18.945 E4.01435
G1 X14.894 Y19.154 E4.05109
G1 X14.202 Y19.281 E4.08783
G1 X13.500 Y19.323 E4.12457
G1 X12.798 Y19.281 E4.16131
G1 X12.106 Y19.154 E4.19805
G1 X11.435 Y18.945 E4.23479
G1 X10.793 Y18.656 E4.27159
G1 X10.184 Y18.286 E4.30880
G1 X9.638 Y17.859 E4.34500
G1 X9.141 Y17.362 E4.38174
G1 X8.707 Y16.808 E4.41848
G1 X8.344 Y16.206 E4.45522
G1 X8.055 Y15.565 E4.49196
G1 X7.849 Y14.904 E4.52816
G1 X7.719 Y14.203 E4.56537
G1 X7.677 Y13.500 E4.60218
G1 X7.719 Y12.798 E4.63892
G1 X7.846 Y12.106 E4.67566
G1 X8.055 Y11.435 E4.71240
G1 X8.344 Y10.794 E4.74913
G1 X8.702 Y10.201 E4.78533
G1 X9.140 Y9.639 E4.82254
G1 X9.638 Y9.141 E4.85935
G1 X10.192 Y8.707 E4.89609
G1 X10.794 Y8.344 E4.93283
G1 X11.435 Y8.055 E4.96957
G1 X12.108 Y7.845 E5.00638
G1 X12.808 Y7.718 E5.04359
G1 X13.500 Y7.677 E5.07979 F1363.944
G1 X14.202 Y7.719 E5.11652
G1 X14.894 Y7.846 E5.15326
G1 X15.565 Y8.055 E5.19000
G1 X16.206 Y8.344 E5.22674
G1 X16.808 Y8.707 E5.26348
G1 X17.362 Y9.141 E5.30022
G1 X17.859 Y9.638 E5.33696
G1 X18.286 Y10.184 E5.37316
G1 X18.625 Y10.742 E5.40730
G1 X18.088 Y11.068 F6000.000
G1 X18.359 Y11.667 E5.44165 F1363.944
G1 X18.543 Y12.257 E5.47391
G1 X18.656 Y12.874 E5.50668
G1 X18.694 Y13.500 E5.53945
G1 X18.656 Y14.126 E5.57222
G1 X18.543 Y14.744 E5.60502
G1 X18.352 Y15.351 E5.63826
G1 X18.099 Y15.914 E5.67052
G1 X17.775 Y16.451 E5.70329
G1 X17.388 Y16.944 E5.73606
G1 X16.944 Y17.388 E5.76883
G1 X16.451 Y17.775 E5.80159
G1 X15.914 Y18.099 E5.83436
G1 X15.342 Y18.356 E5.86713
G1 X14.743 Y18.543 E5.89990
G1 X14.126 Y18.656 E5.93267
G1 X13.500 Y18.694 E5.96544
G1 X12.874 Y18.656 E5.99821
G1 X12.257 Y18.543 E6.03097
G1 X11.658 Y18.356 E6.06374
G1 X11.086 Y18.099 E6.09655
G1 X10.542 Y17.769 E6.12978
G1 X10.056 Y17.388 E6.16204
G1 X9.612 Y16.944 E6.19481
G1 X9.225 Y16.451 E6.22758
G1 X8.901 Y15.914 E6.26035
G1 X8.644 Y15.342 E6.29312
G1 X8.460 Y14.752 E6.32538
G1 X8.344 Y14.127 E6.35861
G1 X8.306 Y13.500 E6.39142
G1 X8.344 Y12.874 E6.42419
G1 X8.457 Y12.257 E6.45696
G1 X8.644 Y11.658 E6.48972
G1 X8.901 Y11.086 E6.52249
G1 X9.220 Y10.558 E6.55475
G1 X9.612 Y10.056 E6.58799
G1 X10.056 Y9.612 E6.62079
G1 X10.549 Y9.225 E6.65356
G1 X11.086 Y8.901 E6.68633
G1 X11.658 Y8.644 E6.71910
G1 X12.258 Y8.457 E6.75190
G1 X12.884 Y8.343 E6.78514
G1 X13.500 Y8.306 E6.81740 F1363.944
G1 X14.126 Y8.344 E6.85017
G1 X14.743 Y8.457 E6.88294
G1 X15.342 Y8.644 E6.91571
G1 X15.914 Y8.901 E6.94848
G1 X16.451 Y9.225 E6.98124
G1 X16.944 Y9.612 E7.01401
G1 X17.388 Y10.056 E7.04678
G1 X17.769 Y10.542 E7.07904
G1 X18.057 Y11.017 E7.10810
G1 X17.636 Y11.273 F6000.000
G1 X17.898 Y11.842 E7.12669 F2400.000
G1 X18.064 Y12.375 E7.14327
G1 X18.166 Y12.933 E7.16013
G1 X18.200 Y13.500 E7.17698
G1 X18.166 Y14.067 E7.19383
G1 X18.064 Y14.625 E7.21069
G1 X17.891 Y15.175 E7.22781
G1 X17.662 Y15.684 E7.24439
G1 X17.368 Y16.170 E7.26124
G1 X17.018 Y16.617 E7.27809
G1 X16.617 Y17.018 E7.29495
G1 X16.170 Y17.368 E7.31180
G1 X15.684 Y17.662 E7.32865
G1 X15.167 Y17.895 E7.34550
G1 X14.625 Y18.064 E7.36236
G1 X14.067 Y18.166 E7.37921
G1 X13.500 Y18.200 E7.39606
G1 X12.933 Y18.166 E7.41292
G1 X12.375 Y18.064 E7.42977
G1 X11.833 Y17.895 E7.44662
G1 X11.315 Y17.662 E7.46348
G1 X10.823 Y17.363 E7.48060
G1 X10.383 Y17.018 E7.49718
G1 X9.982 Y16.617 E7.51403
G1 X9.632 Y16.170 E7.53088
G1 X9.338 Y15.684 E7.54774
G1 X9.105 Y15.167 E7.56459
G1 X8.939 Y14.634 E7.58117
G1 X8.834 Y14.067 E7.59829
G1 X8.800 Y13.500 E7.61515
G1 X8.834 Y12.933 E7.63200
G1 X8.936 Y12.375 E7.64885
G1 X9.105 Y11.833 E7.66570
G1 X9.338 Y11.316 E7.68256
G1 X9.627 Y10.838 E7.69914
G1 X9.982 Y10.383 E7.71626
G1 X10.383 Y9.982 E7.73311
G1 X10.830 Y9.632 E7.74997
G1 X11.316 Y9.338 E7.76682
G1 X11.833 Y9.105 E7.78367
G1 X12.375 Y8.936 E7.80053
G1 X12.943 Y8.833 E7.81765
G1 X13.500 Y8.800 E7.83423 F2400.000
G1 X14.067 Y8.834 E7.85108
G1 X14.625 Y8.936 E7.86793
G1 X15.167 Y9.105 E7.88479
G1 X15.684 Y9.338 E7.90164
G1 X16.170 Y9.632 E7.91849
G1 X16.617 Y9.982 E7.93535
G1 X17.018 Y10.383 E7.95220
G1 X17.363 Y10.823 E7.96878
G1 X17.605 Y11.222 E7.98264
G1 X18.035 Y11.295 F6000.000
G1 E4.48264 F1800.00000
G92 E0
G1 X17.605 Y-9.545 F6000.000
G1 E3.50000 F1800.00000
G1 X14.157 Y-9.545 E3.68016 F1363.944
G1 X13.415 Y-9.577 E3.71891
G1 X12.818 Y-9.665 E3.75049
G1 X12.260 Y-9.826 E3.78079
G1 X11.573 Y-10.190 E3.82145
G1 X11.573 Y-9.545 E3.85515
G1 X8.115 Y-9.545 E4.03578
G1 X8.115 Y-11.733 E4.15008
G1 X7.491 Y-11.428 E4.18638
G1 X6.871 Y-11.242 E4.22020
G1 X6.123 Y-11.168 E4.25947
G1 X5.236 Y-11.271 E4.30612
G1 X4.636 Y-11.484 E4.33937
G1 X4.636 Y-9.545 E4.44065
G1 X1.179 Y-9.545 E4.62128
G1 X1.179 Y-11.200 E4.70773
G1 X0.915 Y-11.170 E4.72163
G1 X0.244 Y-11.223 E4.75678
G1 X-0.312 Y-11.363 E4.78675
G1 X-0.782 Y-11.568 E4.81351
G1 X-1.254 Y-11.883 E4.84318
G1 X-1.639 Y-12.279 E4.87201
G1 X-1.906 Y-11.997 E4.89231
G1 X-2.370 Y-11.674 E4.92186
G1 X-2.855 Y-11.451 E4.94974
G1 X-3.217 Y-11.335 E4.96957
G1 X-3.700 Y-11.232 E4.99539
G1 X-4.478 Y-11.173 E5.03617
G1 X-5.108 Y-11.206 E5.06912
G1 X-5.597 Y-11.289 E5.09503
G1 X-6.037 Y-11.425 E5.11908
G1 X-6.376 Y-11.586 E5.13870
G1 X-6.376 Y-11.380 E5.14946
G1 X-8.537 Y-11.380 E5.26232
G1 X-9.043 Y-11.218 E5.29011
G1 X-9.562 Y-11.169 E5.31730
G1 X-10.158 Y-11.235 E5.34864
G1 X-10.688 Y-11.404 E5.37771
G1 X-11.190 Y-11.672 E5.40746
G1 X-11.590 Y-11.454 E5.43123
G1 X-12.224 Y-11.248 E5.46607
G1 X-13.106 Y-11.155 E5.51237
G1 X-13.106 Y-9.545 E5.59647
G1 X-16.563 Y-9.545 E5.77710
G1 X-16.563 Y-19.321 E6.28783
G1 X-13.038 Y-19.321 E6.47198
G1 X-12.965 Y-19.327 E6.47583 F1363.944
G1 X-12.233 Y-19.246 E6.51430
G1 X-11.608 Y-19.034 E6.54879
G1 X-11.097 Y-18.749 E6.57939
G1 X-10.590 Y-18.333 E6.61362
G1 X-9.834 Y-17.420 E6.67555
G1 X-9.834 Y-19.321 E6.77486
G1 X-5.055 Y-19.321 E7.02451
G1 X-4.976 Y-19.167 E7.03358
G1 X-4.540 Y-19.266 E7.05695
G1 X-3.784 Y-19.324 E7.09651
G1 X-3.234 Y-19.291 E7.12534
G1 X-2.731 Y-19.194 E7.15208
G1 X-2.286 Y-19.019 E7.17707
G1 X-2.286 Y-19.321 E7.19288
G1 X4.636 Y-19.321 E7.55453
G1 X4.636 Y-19.026 E7.56995
G1 X5.121 Y-19.211 E7.59702
G1 X5.998 Y-19.323 E7.64324
G1 X6.751 Y-19.272 E7.68268
G1 X7.414 Y-19.097 E7.71849
G1 X8.115 Y-18.743 E7.75954
G1 X8.115 Y-19.321 E7.78973
G1 X13.010 Y-19.321 E8.04545
G1 X14.314 Y-17.231 E8.17415
G1 X14.782 Y-16.543 E8.21765
G1 X15.048 Y-16.625 E8.23220
G1 X15.048 Y-19.321 E8.37307
G1 X18.506 Y-19.321 E8.55369
G1 X18.506 Y-9.545 E9.06443
G1 X17.665 Y-9.545 E9.10836
G1 X17.665 Y-10.174 F6000.000
G1 X14.170 Y-10.174 E9.29095 F1363.944
G1 X13.475 Y-10.203 E9.32729
G1 X12.951 Y-10.281 E9.35496
G1 X12.497 Y-10.412 E9.37965
G1 X12.049 Y-10.649 E9.40615
G1 X11.670 Y-10.982 E9.43250
G1 X11.383 Y-11.371 E9.45777
G1 X11.234 Y-11.665 E9.47500
G1 X10.944 Y-11.596 E9.49055
G1 X10.944 Y-10.174 E9.56489
G1 X8.744 Y-10.174 E9.67987
G1 X8.744 Y-13.266 E9.84144
G1 X8.137 Y-12.555 E9.89028
G1 X7.689 Y-12.224 E9.91935
G1 X7.262 Y-12.015 E9.94424
G1 X6.749 Y-11.862 E9.97219
G1 X6.128 Y-11.800 E10.00479
G1 X5.379 Y-11.887 E10.04418
G1 X4.816 Y-12.087 E10.07538
G1 X4.355 Y-12.386 E10.10411
G1 X4.008 Y-12.748 E10.13029
G1 X4.008 Y-10.174 E10.26477
G1 X1.807 Y-10.174 E10.37974
G1 X1.807 Y-11.967 E10.47345
G1 X1.561 Y-11.876 E10.48718
G1 X0.904 Y-11.801 E10.52174
G1 X0.346 Y-11.845 E10.55095
G1 X-0.108 Y-11.960 E10.57544
G1 X-0.480 Y-12.122 E10.59661
G1 X-0.850 Y-12.369 E10.61989
G1 X-1.171 Y-12.699 E10.64391
G1 X-1.402 Y-13.087 E10.66753
G1 X-1.596 Y-13.620 E10.69719
G1 X-1.801 Y-13.138 E10.72457
G1 X-2.020 Y-12.790 E10.74609
G1 X-2.318 Y-12.476 E10.76868
G1 X-2.683 Y-12.221 E10.79195
G1 X-3.083 Y-12.038 E10.81493
G1 X-3.379 Y-11.943 E10.83116
G1 X-3.790 Y-11.855 E10.85310
G1 X-4.486 Y-11.803 E10.88956
G1 X-5.039 Y-11.831 E10.91851
G1 X-5.451 Y-11.902 E10.94036
G1 X-5.809 Y-12.012 E10.95991
G1 X-6.146 Y-12.172 E10.97938
G1 X-6.433 Y-12.365 E10.99747
G1 X-7.005 Y-12.935 E11.03967
G1 X-7.005 Y-12.008 E11.08810
G1 X-8.677 Y-12.008 E11.17548
G1 X-8.842 Y-11.930 E11.18500
G1 X-9.161 Y-11.838 E11.20236
G1 X-9.557 Y-11.800 E11.22310
G1 X-10.027 Y-11.853 E11.24781
G1 X-10.443 Y-11.985 E11.27064
G1 X-11.239 Y-12.409 E11.31775
G1 X-11.418 Y-12.263 E11.32985
G1 X-11.840 Y-12.034 E11.35490
G1 X-12.356 Y-11.866 E11.38328
G1 X-12.974 Y-11.801 E11.41574
G1 X-13.463 Y-11.847 E11.44142
G1 X-13.734 Y-11.930 E11.45621
G1 X-13.734 Y-10.174 E11.54798
G1 X-15.935 Y-10.174 E11.66295
G1 X-15.935 Y-18.693 E12.10803
G1 X-13.734 Y-18.693 E12.22301
G1 X-13.734 Y-18.571 E12.22937
G1 X-13.442 Y-18.655 E12.24523
G1 X-12.973 Y-18.696 E12.26987 F1363.944
G1 X-12.370 Y-18.629 E12.30153
G1 X-11.864 Y-18.458 E12.32946
G1 X-11.452 Y-18.227 E12.35411
G1 X-11.036 Y-17.885 E12.38227
G1 X-10.684 Y-17.462 E12.41101
G1 X-10.412 Y-16.978 E12.44002
G1 X-10.248 Y-16.542 E12.46436
G1 X-10.112 Y-15.943 E12.49644
G1 X-10.064 Y-15.259 E12.53226
G1 X-10.098 Y-14.668 E12.56323
G1 X-10.133 Y-14.461 E12.57416
G1 X-9.490 Y-13.938 E12.61747
G1 X-9.361 Y-14.130 E12.62952
G1 X-9.326 Y-14.217 E12.63445
G1 X-9.247 Y-14.570 E12.65333
G1 X-9.205 Y-15.131 E12.68272
G1 X-9.205 Y-18.693 E12.86882
G1 X-5.438 Y-18.693 E13.06565
G1 X-5.282 Y-18.391 E13.08340
G1 X-4.965 Y-18.525 E13.10139
G1 X-4.445 Y-18.643 E13.12923
G1 X-3.779 Y-18.694 E13.16412
G1 X-3.313 Y-18.666 E13.18855
G1 X-2.907 Y-18.588 E13.21013
G1 X-2.393 Y-18.386 E13.23898
G1 X-1.989 Y-18.100 E13.26485
G1 X-1.658 Y-17.740 E13.29041
G1 X-1.658 Y-18.693 E13.34020
G1 X0.543 Y-18.693 E13.45517
G1 X0.543 Y-14.633 E13.66726
G1 X0.559 Y-14.381 E13.68047
G1 X0.588 Y-14.246 E13.68766
G1 X0.656 Y-14.089 E13.69660
G1 X0.800 Y-14.035 E13.70466
G1 X1.030 Y-14.009 E13.71677
G1 X1.212 Y-14.027 E13.72628
G1 X1.355 Y-14.070 E13.73411
G1 X1.578 Y-14.201 E13.74763
G1 X1.653 Y-14.280 E13.75331
G1 X1.712 Y-14.381 E13.75946
G1 X1.775 Y-14.626 E13.77264
G1 X1.807 Y-15.097 E13.79730
G1 X1.807 Y-18.693 E13.98518
G1 X4.008 Y-18.693 E14.10015
G1 X4.008 Y-17.915 E14.14076
G1 X4.684 Y-18.372 E14.18339
G1 X5.275 Y-18.597 E14.21640
G1 X6.017 Y-18.692 E14.25549
G1 X6.649 Y-18.649 E14.28859
G1 X7.190 Y-18.507 E14.31781
G1 X7.765 Y-18.216 E14.35149
G1 X8.279 Y-17.772 E14.38699
G1 X8.489 Y-17.501 E14.40485
G1 X8.744 Y-17.589 E14.41894
G1 X8.744 Y-18.693 E14.47662
G1 X12.661 Y-18.693 E14.68130
G1 X13.787 Y-16.888 E14.79244
G1 X14.432 Y-15.940 E14.85233
G1 X14.633 Y-15.701 E14.86865
G1 X14.853 Y-15.504 E14.88407
G1 X14.929 Y-15.462 E14.88859
G1 X15.317 Y-15.432 E14.90894
G1 X15.677 Y-15.432 E14.92774
G1 X15.677 Y-18.693 E15.09812
G1 X17.877 Y-18.693 E15.21309
G1 X17.877 Y-10.174 E15.65818
G1 X17.725 Y-10.174 E15.66614
G1 X17.385 Y-10.666 F6000.000
G1 X14.180 Y-10.666 E15.76128 F2400.000
G1 X13.522 Y-10.694 E15.78086
G1 X13.056 Y-10.763 E15.79484
G1 X12.683 Y-10.871 E15.80638
G1 X12.331 Y-11.057 E15.81820
G1 X12.035 Y-11.317 E15.82989
G1 X11.804 Y-11.630 E15.84145
G1 X11.657 Y-11.921 E15.85112
G1 X11.528 Y-12.332 E15.86390
G1 X11.481 Y-12.803 E15.87797
G1 X11.507 Y-13.154 E15.88842
G1 X11.572 Y-13.447 E15.89732
G1 X11.751 Y-13.859 E15.91068
G1 X12.016 Y-14.214 E15.92383
G1 X12.212 Y-14.394 E15.93172
G1 X12.422 Y-14.543 E15.93937
G1 X13.157 Y-14.873 E15.96329
G1 X12.350 Y-15.936 E16.00292
G1 X10.994 Y-18.200 E16.08128
G1 X12.388 Y-18.200 E16.12267
G1 X13.375 Y-16.619 E16.17800
G1 X14.039 Y-15.643 E16.21305
G1 X14.272 Y-15.363 E16.22387
G1 X14.478 Y-15.167 E16.23232
G1 X14.704 Y-15.023 E16.24025
G1 X14.831 Y-14.975 E16.24430
G1 X15.298 Y-14.939 E16.25819
G1 X16.169 Y-14.939 E16.28407
G1 X16.169 Y-18.200 E16.38090
G1 X17.385 Y-18.200 E16.41699 F2400.000
G1 X17.385 Y-10.726 E16.63889
G1 X17.385 Y-10.266 F6000.000
G1 E13.13889 F1800.00000
G92 E0
G1 X13.546 Y-9.892 F6000.000
G1 X12.230 Y-7.611 F6000.000
G1 X11.677 Y-10.017 F6000.000
G1 X11.564 Y-10.250 F6000.000
G1 X11.366 Y-10.687 F6000.000
G1 X11.442 Y-10.773 F6000.000
G1 X10.452 Y-12.501 F6000.000
G1 E3.50000 F1800.00000
G1 X9.236 Y-12.501 E3.53608 F2400.000
G1 X9.236 Y-18.200 E3.70530
G1 X10.452 Y-18.200 E3.74139 F2400.000
