; generated by Slic3r 1.2.9 on 2015-09-29 at 08:08:25

; external perimeters extrusion width = 0.50mm
; perimeters extrusion width = 0.85mm
; infill extrusion width = 1.02mm
; solid infill extrusion width = 0.85mm
; top infill extrusion width = 0.85mm

M104 S190 ; set temperature
G28 ; home all axes
G1 Z5 F5000 ; lift nozzle

M109 S190 ; wait for temperature to be reached
G21 ; set units to millimeters
G90 ; use absolute coordinates
M82 ; use absolute distances for extrusion
G92 E0
G1 E-3.50000 F1800.00000
G92 E0
G1 Z0.260 F9000.000
G1 X15.321 Y0.000 F9000.000
G1 E3.50000 F1800.00000
G1 X15.321 Y10.000 E4.00178 F1800.000
G1 X14.925 Y12.015 E4.10482
G1 X13.795 Y13.730 E4.20786
G1 X12.100 Y14.889 E4.31090
G1 X10.000 Y15.321 E4.41849
G1 X-10.000 Y15.321 E5.42206
G1 X-12.015 Y14.925 E5.52510
G1 X-13.730 Y13.795 E5.62814
G1 X-14.889 Y12.100 E5.73118
G1 X-15.321 Y10.000 E5.83877
G1 X-15.321 Y-10.000 E6.84233
G1 X-14.925 Y-12.015 E6.94537
G1 X-13.795 Y-13.730 E7.04841
G1 X-12.100 Y-14.889 E7.15145
G1 X-10.000 Y-15.321 E7.25904
G1 X10.000 Y-15.321 E8.26261
G1 X12.015 Y-14.925 E8.36565
G1 X13.730 Y-13.795 E8.46869 F1800.000
G1 X14.889 Y-12.100 E8.57173
G1 X15.321 Y-10.000 E8.67932
G1 X15.321 Y-0.075 E9.17734
G1 X14.857 Y-0.075 F9000.000
G1 X14.857 Y10.000 E9.68288 F1800.000
G1 X14.461 Y11.921 E9.78128
G1 X13.338 Y13.528 E9.87968
G1 X11.671 Y14.560 E9.97808
G1 X10.000 Y14.857 E10.06321
G1 X-10.000 Y14.857 E11.06678
G1 X-11.921 Y14.461 E11.16518
G1 X-13.528 Y13.338 E11.26358
G1 X-14.560 Y11.671 E11.36198
G1 X-14.857 Y10.000 E11.44711
G1 X-14.857 Y-10.000 E12.45068
G1 X-14.461 Y-11.921 E12.54908
G1 X-13.338 Y-13.528 E12.64747
G1 X-11.671 Y-14.560 E12.74587
G1 X-10.000 Y-14.857 E12.83101
G1 X10.000 Y-14.857 E13.83457
G1 X11.921 Y-14.461 E13.93297
G1 X13.528 Y-13.338 E14.03137 F1800.000
G1 X14.560 Y-11.671 E14.12977
G1 X14.857 Y-10.000 E14.21491
G1 X14.857 Y-0.150 E14.70916
G1 X14.393 Y-0.150 F9000.000
G1 X14.393 Y10.000 E15.21847 F1800.000
G1 X13.997 Y11.821 E15.31200
G1 X12.882 Y13.315 E15.40552
G1 X11.248 Y14.212 E15.49905
G1 X10.000 Y14.393 E15.56233
G1 X-10.000 Y14.393 E16.56589
G1 X-11.821 Y13.997 E16.65942
G1 X-13.315 Y12.882 E16.75295
G1 X-14.212 Y11.248 E16.84647
G1 X-14.393 Y10.000 E16.90975
G1 X-14.393 Y-10.000 E17.91332
G1 X-13.997 Y-11.821 E18.00684
G1 X-12.882 Y-13.315 E18.10037
G1 X-11.248 Y-14.212 E18.19390
G1 X-10.000 Y-14.393 E18.25717
G1 X10.000 Y-14.393 E19.26074
G1 X11.821 Y-13.997 E19.35427
G1 X13.315 Y-12.882 E19.44779 F1800.000
G1 X14.212 Y-11.248 E19.54132
G1 X14.393 Y-10.000 E19.60460
G1 X14.393 Y-0.225 E20.09509
G1 X13.928 Y-0.225 F9000.000
G1 X13.928 Y10.000 E20.60816 F1800.000
G1 X13.533 Y11.717 E20.69655
G1 X12.428 Y13.088 E20.78493
G1 X10.000 Y13.928 E20.91387
G1 X-10.000 Y13.928 E21.91743
G1 X-11.717 Y13.533 E22.00582
G1 X-13.088 Y12.428 E22.09420
G1 X-13.928 Y10.000 E22.22314
G1 X-13.928 Y-10.000 E23.22670
G1 X-13.533 Y-11.717 E23.31509
G1 X-12.428 Y-13.088 E23.40348
G1 X-10.000 Y-13.928 E23.53241
G1 X10.000 Y-13.928 E24.53597
G1 X11.717 Y-13.533 E24.62436
G1 X13.088 Y-12.428 E24.71275 F1800.000
G1 X13.928 Y-10.000 E24.84168
G1 X13.928 Y-0.300 E25.32841
G1 X13.464 Y-0.300 F9000.000
G1 X13.464 Y10.000 E25.84524 F1800.000
G1 X13.070 Y11.605 E25.92817
G1 X11.977 Y12.845 E26.01110
G1 X10.000 Y13.464 E26.11506
G1 X-10.000 Y13.464 E27.11863
G1 X-11.605 Y13.070 E27.20155
G1 X-12.845 Y11.977 E27.28448
G1 X-13.464 Y10.000 E27.38844
G1 X-13.464 Y-10.000 E28.39201
G1 X-13.070 Y-11.605 E28.47494
G1 X-11.977 Y-12.845 E28.55787
G1 X-10.000 Y-13.464 E28.66183
G1 X10.000 Y-13.464 E29.66539
G1 X11.605 Y-13.070 E29.74832
G1 X12.845 Y-11.977 E29.83125 F1800.000
G1 X13.464 Y-10.000 E29.93521
G1 X13.464 Y-0.375 E30.41818
G1 E26.91818 F1800.00000
G92 E0
G1 X8.545 Y-5.123 F9000.000
G1 E3.50000 F1800.00000
G1 X8.243 Y-4.910 E3.51856 F600.000
G1 X7.900 Y-4.784 E3.53690
G1 X7.534 Y-4.744 E3.55534
G1 X7.245 Y-4.768 E3.56993
G1 X6.981 Y-4.839 E3.58365
G1 X6.699 Y-4.983 E3.59953
G1 X6.437 Y-5.210 E3.61691
G1 X6.192 Y-5.563 E3.63845
G1 X5.997 Y-5.502 E3.64871
G1 X5.997 Y-4.854 E3.68123
G1 X5.192 Y-4.854 E3.72160
G1 X4.945 Y-4.763 E3.73483
G1 X4.746 Y-4.744 E3.74484
G1 X4.516 Y-4.769 E3.75648
G1 X4.312 Y-4.835 E3.76721
G1 X3.857 Y-5.078 E3.79309
G1 X3.674 Y-4.950 E3.80430
G1 X3.354 Y-4.821 E3.82163
G1 X3.122 Y-4.771 E3.83355
G1 X2.771 Y-4.744 E3.85119
G1 X2.479 Y-4.760 E3.86586
G1 X2.106 Y-4.847 E3.88507
G1 X1.816 Y-5.008 E3.90171
G1 X1.672 Y-5.151 E3.91192
G1 X1.529 Y-5.413 E3.92686
G1 X1.319 Y-5.359 E3.93773
G1 X1.319 Y-4.854 E3.96310
G1 X0.259 Y-4.854 E4.01630
G1 X0.060 Y-4.780 E4.02696
G1 X-0.234 Y-4.746 E4.04182
G1 X-0.481 Y-4.758 E4.05421
G1 X-0.837 Y-4.858 E4.07278
G1 X-1.119 Y-5.035 E4.08948
G1 X-1.263 Y-5.192 E4.10014
G1 X-1.389 Y-5.431 E4.11371
G1 X-1.520 Y-5.925 E4.13936
G1 X-1.794 Y-5.380 E4.16995
G1 X-1.960 Y-5.160 E4.18379
G1 X-2.161 Y-4.983 E4.19721
G1 X-2.366 Y-4.864 E4.20913
G1 X-2.624 Y-4.777 E4.22278
G1 X-2.906 Y-4.746 E4.23701
G1 X-3.225 Y-4.777 E4.25307
G1 X-3.429 Y-4.854 E4.26404
G1 X-4.420 Y-4.854 E4.31377
G1 X-4.420 Y-5.510 E4.34670
G1 X-4.614 Y-5.572 E4.35691
G1 X-4.861 Y-5.225 E4.37829
G1 X-5.072 Y-5.030 E4.39270
G1 X-5.297 Y-4.892 E4.40594
G1 X-5.595 Y-4.785 E4.42185
G1 X-5.969 Y-4.744 E4.44072
G1 X-6.257 Y-4.769 E4.45522
G1 X-6.520 Y-4.843 E4.46892
G1 X-6.801 Y-4.994 E4.48496
G1 X-7.066 Y-5.234 E4.50290
G1 X-7.066 Y-4.618 E4.53385
G1 X-6.767 Y-4.618 E4.54885
G1 X-6.767 Y-3.989 E4.58040
G1 X-8.973 Y-3.989 E4.69106
G1 X-8.973 Y-5.460 E4.76488
G1 X-7.243 Y-5.460 E4.85164
G1 X-7.409 Y-5.945 E4.87735
G1 X-7.466 Y-6.493 E4.90499
G1 X-7.461 Y-6.871 E4.92394
G1 X-7.545 Y-6.892 E4.92831
G1 X-7.306 Y-7.480 E4.96015
G1 X-7.152 Y-7.714 E4.97418
G1 X-6.933 Y-7.921 E4.98933
G1 X-6.692 Y-8.064 E5.00342
G1 X-6.381 Y-8.164 E5.01977
G1 X-6.022 Y-8.200 E5.03788
G1 X-5.679 Y-8.175 E5.05514
G1 X-5.388 Y-8.096 E5.07027
G1 X-5.103 Y-7.948 E5.08638
G1 X-4.858 Y-7.736 E5.10266
G1 X-4.617 Y-7.384 E5.12408
G1 X-4.424 Y-7.439 E5.13415
G1 X-4.401 Y-7.977 E5.16113
G1 X-4.349 Y-8.311 E5.17813
G1 X-4.268 Y-8.551 E5.19084
G1 X-4.134 Y-8.773 E5.20387
G1 X-3.936 Y-8.971 E5.21790
G1 X-3.754 Y-9.096 E5.22898
G1 X-3.541 Y-9.193 E5.24072
G1 X-3.271 Y-9.262 E5.25469
G1 X-2.976 Y-9.286 E5.26955 F600.000
G1 X-2.563 Y-9.254 E5.29035
G1 X-2.249 Y-9.159 E5.30680
G1 X-2.006 Y-9.020 E5.32086
G1 X-1.826 Y-8.847 E5.33337
G1 X-1.718 Y-8.675 E5.34356
G1 X-1.640 Y-8.441 E5.35594
G1 X-1.619 Y-8.200 E5.36807
G1 X-0.529 Y-8.200 E5.42280
G1 X-0.529 Y-6.216 E5.52233
G1 X-0.499 Y-5.909 E5.53781
G1 X-0.463 Y-5.824 E5.54249
G1 X-0.385 Y-5.755 E5.54768
G1 X-0.259 Y-5.709 E5.55440
G1 X0.000 Y-5.722 E5.56743
G1 X0.126 Y-5.771 E5.57420
G1 X0.255 Y-5.872 E5.58245
G1 X0.340 Y-6.097 E5.59451
G1 X0.365 Y-6.392 E5.60933
G1 X0.365 Y-8.200 E5.70007
G1 X2.212 Y-8.200 E5.79275
G1 X2.294 Y-8.007 E5.80329
G1 X2.550 Y-8.115 E5.81728
G1 X2.810 Y-8.175 E5.83066
G1 X3.157 Y-8.201 E5.84812
G1 X3.569 Y-8.153 E5.86894
G1 X3.831 Y-8.051 E5.88303
G1 X4.031 Y-7.911 E5.89530
G1 X4.157 Y-7.773 E5.90466
G1 X4.259 Y-7.611 E5.91426
G1 X4.338 Y-7.391 E5.92597
G1 X4.366 Y-7.139 E5.93870
G1 X4.351 Y-6.947 E5.94837
G1 X4.244 Y-6.634 E5.96496
G1 X4.044 Y-6.371 E5.98154
G1 X3.793 Y-6.193 E5.99698
G1 X4.316 Y-6.063 E6.02405
G1 X4.298 Y-5.994 E6.02759
G1 X4.708 Y-5.713 E6.05257
G1 X4.759 Y-5.703 E6.05518
G1 X4.845 Y-5.725 E6.05960
G1 X4.911 Y-5.778 E6.06387
G1 X4.976 Y-5.903 E6.07092
G1 X5.019 Y-6.091 E6.08060
G1 X5.042 Y-6.384 E6.09535
G1 X5.042 Y-8.200 E6.18649
G1 X5.997 Y-8.200 E6.23439
G1 X5.997 Y-7.454 E6.27183
G1 X6.199 Y-7.396 E6.28238
G1 X6.348 Y-7.637 E6.29656
G1 X6.535 Y-7.836 E6.31026
G1 X6.754 Y-7.993 E6.32376
G1 X6.937 Y-8.082 E6.33403
G1 X7.220 Y-8.171 E6.34891
G1 X7.497 Y-8.198 E6.36284
G1 X7.817 Y-8.178 E6.37896
G1 X8.086 Y-8.107 E6.39289
G1 X8.369 Y-7.964 E6.40884
G1 X8.634 Y-7.737 E6.42632
G1 X8.854 Y-7.410 E6.44611
G1 X8.986 Y-7.029 E6.46634
G1 X9.044 Y-6.477 E6.49421
G1 X9.014 Y-6.066 E6.51488
G1 X8.925 Y-5.704 E6.53357
G1 X8.750 Y-5.359 E6.55300
G1 X8.595 Y-5.180 E6.56491
G1 X8.608 Y-4.758 F9000.000
G1 E3.06491 F1800.00000
G92 E0
G1 X0.400 Y-4.114 F9000.000
G1 X-8.598 Y-7.320 F9000.000
G1 X-8.812 Y-7.422 F9000.000
G1 E3.50000 F1800.00000
G1 X-8.812 Y-8.812 E3.56972 F600.000
G1 X-7.344 Y-8.812 E3.64338
G1 X-7.869 Y-8.314 E3.67969
G1 X-8.132 Y-7.914 E3.70369 F600.000
G1 X-8.586 Y-6.795 E3.76431
G1 X-8.812 Y-6.839 E3.77582
G1 X-8.812 Y-7.347 E3.80132
G1 X-9.276 Y-7.347 F9000.000
G1 X-9.276 Y-9.276 E3.89810 F600.000
G1 X-4.372 Y-9.276 E4.14417
G1 X-4.692 Y-8.748 E4.17514
G1 X-4.832 Y-8.330 E4.19725 F600.000
G1 X-5.219 Y-8.531 E4.21909
G1 X-5.601 Y-8.635 E4.23898
G1 X-6.029 Y-8.666 E4.26049
G1 X-6.477 Y-8.621 E4.28309
G1 X-6.883 Y-8.490 E4.30452
G1 X-7.215 Y-8.294 E4.32384
G1 X-7.511 Y-8.014 E4.34430
G1 X-7.719 Y-7.697 E4.36331
G1 X-8.175 Y-6.574 E4.42416
G1 X-7.934 Y-6.512 E4.43663
G1 X-7.873 Y-5.924 E4.46630
G1 X-9.276 Y-5.924 E4.53668
G1 X-9.276 Y-7.272 E4.60432
G1 E1.10432 F1800.00000
G92 E0
G1 X-9.000 Y-9.000 F9000.000
G1 X6.833 Y-4.111 F9000.000
G1 X9.276 Y-8.920 F9000.000
G1 E3.50000 F1800.00000
G1 X9.276 Y-7.968 E3.54777 F600.000
G1 X9.079 Y-7.908 E3.55811 F600.000
G1 X8.984 Y-8.049 E3.56664
G1 X8.629 Y-8.353 E3.59009
G1 X8.251 Y-8.544 E3.61133
G1 X7.892 Y-8.639 E3.62999
G1 X7.488 Y-8.664 E3.65026
G1 X7.127 Y-8.628 E3.66848
G1 X6.765 Y-8.515 E3.68751
G1 X6.461 Y-8.367 E3.70447
G1 X6.461 Y-8.664 E3.71941
G1 X4.579 Y-8.664 E3.81389
G1 X4.578 Y-8.000 E3.84720
G1 X4.340 Y-8.261 E3.86494
G1 X4.052 Y-8.463 E3.88260
G1 X3.682 Y-8.607 E3.90247
G1 X3.167 Y-8.667 E3.92851
G1 X2.741 Y-8.635 E3.94996
G1 X2.550 Y-8.591 E3.95977
G1 X2.519 Y-8.664 E3.96374
G1 X-1.225 Y-8.664 E4.15164
G1 X-1.295 Y-8.874 E4.16273
G1 X-1.547 Y-9.276 E4.18652
G1 X9.276 Y-9.276 E4.72957
G1 X9.276 Y-8.995 E4.74366
G1 E1.24366 F1800.00000
G92 E0
G1 X7.115 Y-4.037 F9000.000
G1 X3.022 Y1.968 F9000.000
G1 X2.075 Y1.404 F9000.000
G1 X1.273 Y0.945 F9000.000
G1 X1.202 Y0.911 F9000.000
G1 X-2.753 Y4.009 F9000.000
G1 X-3.191 Y3.961 F9000.000
G1 E3.50000 F1800.00000
G1 X-2.952 Y4.202 E3.51704 F600.000
G1 X-2.757 Y4.452 E3.53294
G1 X-2.587 Y4.733 E3.54945
G1 X-2.452 Y5.034 E3.56597
G1 X-2.354 Y5.348 E3.58248
G1 X-2.294 Y5.671 E3.59899
G1 X-2.274 Y6.000 E3.61551
G1 X-2.294 Y6.329 E3.63202
G1 X-2.354 Y6.652 E3.64854
G1 X-2.452 Y6.966 E3.66505
G1 X-2.587 Y7.267 E3.68157
G1 X-2.757 Y7.548 E3.69808
G1 X-2.960 Y7.807 E3.71460
G1 X-3.193 Y8.040 E3.73111
G1 X-3.442 Y8.235 E3.74701
G1 X-3.733 Y8.414 E3.76414
G1 X-4.045 Y8.552 E3.78127
G1 X-4.348 Y8.646 E3.79717
G1 X-4.671 Y8.706 E3.81368
G1 X-5.000 Y8.726 E3.83020
G1 X-5.329 Y8.706 E3.84671
G1 X-5.652 Y8.646 E3.86323
G1 X-5.966 Y8.548 E3.87974
G1 X-6.267 Y8.413 E3.89626
G1 X-6.548 Y8.243 E3.91277
G1 X-6.807 Y8.040 E3.92929
G1 X-7.040 Y7.807 E3.94580
G1 X-7.243 Y7.548 E3.96232
G1 X-7.413 Y7.267 E3.97883
G1 X-7.548 Y6.966 E3.99535
G1 X-7.646 Y6.652 E4.01186
G1 X-7.706 Y6.329 E4.02838
G1 X-7.726 Y6.000 E4.04489
G1 X-7.706 Y5.671 E4.06141
G1 X-7.646 Y5.348 E4.07792
G1 X-7.548 Y5.034 E4.09444
G1 X-7.413 Y4.733 E4.11095
G1 X-7.243 Y4.452 E4.12747
G1 X-7.040 Y4.193 E4.14398
G1 X-6.807 Y3.960 E4.16050
G1 X-6.548 Y3.757 E4.17701
G1 X-6.267 Y3.587 E4.19353
G1 X-5.966 Y3.452 E4.21004
G1 X-5.651 Y3.353 E4.22665
G1 X-5.316 Y3.294 E4.24368
G1 X-5.000 Y3.274 E4.25958 F600.000
G1 X-4.671 Y3.294 E4.27610
G1 X-4.348 Y3.354 E4.29261
G1 X-4.032 Y3.452 E4.30922
G1 X-3.723 Y3.593 E4.32625
G1 X-3.452 Y3.757 E4.34215
G1 X-3.250 Y3.915 E4.35500
G1 X-3.537 Y4.280 F9000.000
G1 X-3.301 Y4.510 E4.37149 F600.000
G1 X-3.140 Y4.716 E4.38463
G1 X-2.998 Y4.950 E4.39833
G1 X-2.886 Y5.198 E4.41203
G1 X-2.805 Y5.459 E4.42572
G1 X-2.756 Y5.728 E4.43942
G1 X-2.740 Y6.000 E4.45312
G1 X-2.756 Y6.272 E4.46682
G1 X-2.805 Y6.541 E4.48051
G1 X-2.886 Y6.802 E4.49421
G1 X-2.998 Y7.050 E4.50791
G1 X-3.140 Y7.284 E4.52160
G1 X-3.308 Y7.499 E4.53530
G1 X-3.501 Y7.692 E4.54900
G1 X-3.707 Y7.853 E4.56214
G1 X-3.949 Y8.002 E4.57639
G1 X-4.209 Y8.117 E4.59064
G1 X-4.459 Y8.195 E4.60378
G1 X-4.728 Y8.244 E4.61748
G1 X-5.000 Y8.260 E4.63117
G1 X-5.272 Y8.244 E4.64487
G1 X-5.541 Y8.195 E4.65857
G1 X-5.802 Y8.114 E4.67226
G1 X-6.050 Y8.002 E4.68596
G1 X-6.284 Y7.860 E4.69966
G1 X-6.499 Y7.692 E4.71335
G1 X-6.692 Y7.499 E4.72705
G1 X-6.860 Y7.284 E4.74075
G1 X-7.002 Y7.050 E4.75445
G1 X-7.114 Y6.802 E4.76814
G1 X-7.195 Y6.541 E4.78184
G1 X-7.244 Y6.272 E4.79554
G1 X-7.260 Y6.000 E4.80923
G1 X-7.244 Y5.728 E4.82293
G1 X-7.195 Y5.459 E4.83663
G1 X-7.114 Y5.198 E4.85032
G1 X-7.002 Y4.950 E4.86402
G1 X-6.860 Y4.716 E4.87772
G1 X-6.692 Y4.501 E4.89142
G1 X-6.499 Y4.308 E4.90511
G1 X-6.284 Y4.140 E4.91881
G1 X-6.050 Y3.998 E4.93251
G1 X-5.802 Y3.886 E4.94620
G1 X-5.540 Y3.805 E4.95993
G1 X-5.261 Y3.755 E4.97415
G1 X-5.000 Y3.740 E4.98729 F600.000
G1 X-4.728 Y3.756 E5.00099
G1 X-4.459 Y3.805 E5.01468
G1 X-4.198 Y3.887 E5.02841
G1 X-3.940 Y4.004 E5.04263
G1 X-3.596 Y4.234 E5.06341
G1 X-3.226 Y4.173 F9000.000
G1 E1.56341 F1800.00000
G92 E0
G1 X-7.980 Y6.362 F9000.000
G1 X-8.445 Y6.884 F9000.000
G1 X-8.376 Y7.321 F9000.000
G1 X-8.298 Y7.683 F9000.000
G1 X-8.277 Y7.769 F9000.000
G1 X-8.108 Y7.912 F9000.000
G1 E3.50000 F1800.00000
G1 X-8.009 Y8.077 E3.50965 F600.000
G1 X-7.796 Y8.347 E3.52691 F600.000
G1 X-8.347 Y8.347 E3.55456
G1 X-8.347 Y7.910 E3.57651
G1 X-8.149 Y7.855 E3.58682
G1 E0.08682 F1800.00000
G92 E0
G1 X-8.486 Y5.545 F9000.000
G1 X-5.844 Y-0.098 F9000.000
G1 X0.071 Y0.480 F9000.000
G1 X2.476 Y1.644 F9000.000
G1 X5.048 Y-0.061 F9000.000
G1 X5.787 Y-0.901 F9000.000
G1 X5.615 Y-2.296 F9000.000
G1 X5.559 Y-2.717 F9000.000
G1 X5.372 Y-4.014 F9000.000
G1 X5.600 Y-3.461 F9000.000
G1 E3.50000 F1800.00000
G1 X6.741 Y-3.461 E3.55727 F600.000
G1 X7.004 Y-3.390 E3.57092
G1 X7.554 Y-3.345 E3.59859
G1 X8.347 Y-3.432 E3.63866
G1 X8.347 Y8.347 E4.22976
G1 X-2.204 Y8.347 E4.75919
G1 X-1.991 Y8.077 E4.77645
G1 X-1.763 Y7.699 E4.79860
G1 X-1.582 Y7.296 E4.82075
G1 X-1.451 Y6.875 E4.84290
G1 X-1.371 Y6.441 E4.86506
G1 X-1.344 Y6.000 E4.88721
G1 X-1.371 Y5.559 E4.90936
G1 X-1.451 Y5.125 E4.93151
G1 X-1.582 Y4.704 E4.95366
G1 X-1.763 Y4.301 E4.97581
G1 X-1.991 Y3.923 E4.99796
G1 X-2.255 Y3.587 E5.01938
G1 X-2.573 Y3.266 E5.04205
G1 X-2.923 Y2.991 E5.06441
G1 X-3.289 Y2.771 E5.08583
G1 X-3.700 Y2.583 E5.10850
G1 X-4.125 Y2.451 E5.13086
G1 X-4.559 Y2.371 E5.15301
G1 X-5.000 Y2.344 E5.17516
G1 X-5.426 Y2.370 E5.19658
G1 X-5.871 Y2.449 E5.21925
G1 X-6.296 Y2.582 E5.24161
G1 X-6.699 Y2.763 E5.26376
G1 X-7.077 Y2.991 E5.28591
G1 X-7.424 Y3.264 E5.30806
G1 X-7.736 Y3.576 E5.33021
G1 X-8.009 Y3.923 E5.35236
G1 X-8.144 Y4.147 E5.36547
G1 X-8.347 Y4.090 E5.37608
G1 X-8.347 Y-2.596 E5.71159
G1 X-5.375 Y-2.596 E5.86077
G1 X-5.375 Y-3.386 E5.90037
G1 X-5.163 Y-3.461 E5.91166
G1 X-3.683 Y-3.461 E5.98592
G1 X-3.541 Y-3.408 E5.99350
G1 X-2.897 Y-3.347 E6.02597
G1 X-2.324 Y-3.408 E6.05490
G1 X-1.787 Y-3.589 E6.08336
G1 X-1.604 Y-3.696 E6.09394
G1 X-1.407 Y-3.572 E6.10564
G1 X-0.706 Y-3.375 E6.14216 F600.000
G1 X-0.190 Y-3.350 E6.16811
G1 X0.386 Y-3.415 E6.19720
G1 X0.510 Y-3.461 E6.20381
G1 X1.916 Y-3.461 E6.27437
G1 X2.283 Y-3.375 E6.29328
G1 X2.786 Y-3.349 E6.31857
G1 X3.321 Y-3.389 E6.34547
G1 X3.764 Y-3.485 E6.36823
G1 X3.852 Y-3.520 E6.37297
G1 X4.223 Y-3.401 E6.39252
G1 X4.735 Y-3.344 E6.41836
G1 X5.257 Y-3.393 E6.44471
G1 X5.441 Y-3.461 E6.45452
G1 X5.525 Y-3.461 E6.45874
G1 X5.525 Y-3.925 F9000.000
G1 X6.803 Y-3.925 E6.52286 F600.000
G1 X7.084 Y-3.849 E6.53748
G1 X7.547 Y-3.811 E6.56079
G1 X8.114 Y-3.874 E6.58940
G1 X8.812 Y-4.130 E6.62670
G1 X8.812 Y8.812 E7.27610
G1 X-3.120 Y8.812 E7.87483
G1 X-3.185 Y8.624 E7.88479
G1 X-2.884 Y8.388 E7.90398
G1 X-2.612 Y8.116 E7.92331
G1 X-2.374 Y7.812 E7.94264
G1 X-2.175 Y7.483 E7.96197
G1 X-2.017 Y7.131 E7.98131
G1 X-1.902 Y6.764 E8.00064
G1 X-1.833 Y6.385 E8.01997
G1 X-1.809 Y6.000 E8.03931
G1 X-1.833 Y5.615 E8.05864
G1 X-1.902 Y5.236 E8.07797
G1 X-2.017 Y4.869 E8.09730
G1 X-2.175 Y4.517 E8.11664
G1 X-2.374 Y4.188 E8.13597
G1 X-2.604 Y3.895 E8.15463
G1 X-2.882 Y3.614 E8.17448
G1 X-3.188 Y3.374 E8.19396
G1 X-3.506 Y3.182 E8.21262
G1 X-3.866 Y3.018 E8.23248
G1 X-4.236 Y2.902 E8.25196
